/* XPM */
static char *_b37be78487f471ca2001193d254e81524AxURs6WIXGsuQx[] = {
/* columns rows colors chars-per-pixel */
"270 270 256 2 ",
"   c #0C0103",
".  c #02020D",
"X  c #0B020C",
"o  c #050709",
"O  c #140102",
"+  c #1B0101",
"@  c #17050B",
"#  c #020514",
"$  c #0B0314",
"%  c #010915",
"&  c #0B0A14",
"*  c #02051A",
"=  c #0B041B",
"-  c #020A1B",
";  c #0B0B1C",
":  c #130314",
">  c #13041B",
",  c #130C1C",
"<  c #1B0C1C",
"1  c #190715",
"2  c #06121B",
"3  c #17121B",
"4  c #12130A",
"5  c #230101",
"6  c #280606",
"7  c #370605",
"8  c #381507",
"9  c #260918",
"0  c #360A17",
"q  c #28141A",
"w  c #371519",
"e  c #281407",
"r  c #020423",
"t  c #0B0423",
"y  c #020C23",
"u  c #0B0C23",
"i  c #020D2A",
"p  c #0B0D2B",
"a  c #06052A",
"s  c #130C23",
"d  c #1B0C23",
"f  c #130C2B",
"g  c #180627",
"h  c #021124",
"j  c #0B1224",
"k  c #03122C",
"l  c #0B132C",
"z  c #081A2B",
"x  c #131324",
"c  c #1C1324",
"v  c #13132B",
"b  c #1C132B",
"n  c #181A2A",
"m  c #020D32",
"M  c #0B0D32",
"N  c #070B38",
"B  c #170C35",
"V  c #041333",
"C  c #0B1433",
"Z  c #0C1A34",
"A  c #0C153B",
"S  c #0D1A3C",
"D  c #031739",
"F  c #131434",
"G  c #131A34",
"H  c #13153C",
"J  c #1B153C",
"K  c #141A3C",
"L  c #1B1B3C",
"P  c #1B1734",
"I  c #260B26",
"U  c #350C26",
"Y  c #231324",
"T  c #23132B",
"R  c #2A1728",
"E  c #371727",
"W  c #260C35",
"Q  c #231B3C",
"!  c #271738",
"~  c #361837",
"^  c #350C35",
"/  c #19223A",
"(  c #0D2235",
")  c #39242A",
"_  c #272339",
"`  c #382537",
"'  c #2F282F",
"]  c #382412",
"[  c #470702",
"{  c #481605",
"}  c #571704",
"|  c #47181A",
" . c #571B1A",
".. c #50090A",
"X. c #69170A",
"o. c #58241B",
"O. c #50290C",
"+. c #6D2B10",
"@. c #461A27",
"#. c #561C25",
"$. c #471A36",
"%. c #4F1430",
"&. c #641C2A",
"*. c #492429",
"=. c #562527",
"-. c #482636",
";. c #572837",
":. c #513533",
">. c #6C2D30",
",. c #734A31",
"<. c #6A4A1B",
"1. c #0B1943",
"2. c #131642",
"3. c #1B1543",
"4. c #141B43",
"5. c #1B1C43",
"6. c #1C1C4A",
"7. c #151B4A",
"8. c #13154C",
"9. c #231C44",
"0. c #2B1C44",
"q. c #231C4B",
"w. c #291847",
"e. c #371B47",
"r. c #281B53",
"t. c #361B52",
"y. c #1A2246",
"u. c #10234B",
"i. c #232244",
"p. c #2B234C",
"a. c #282448",
"s. c #34234C",
"d. c #382648",
"f. c #2A2753",
"g. c #392754",
"h. c #3A3357",
"j. c #34334D",
"k. c #3B3563",
"l. c #451C47",
"z. c #511D51",
"x. c #47274A",
"c. c #57284A",
"v. c #48344A",
"b. c #583449",
"n. c #4C2B54",
"m. c #472957",
"M. c #542C54",
"N. c #582A57",
"B. c #493459",
"V. c #583559",
"C. c #662A48",
"Z. c #67364A",
"A. c #77374A",
"S. c #652B58",
"D. c #673559",
"F. c #773758",
"G. c #752B4E",
"H. c #582B63",
"J. c #4A3663",
"K. c #583764",
"L. c #492B64",
"P. c #673765",
"I. c #763966",
"U. c #6A2E68",
"Y. c #5C1D4D",
"T. c #544457",
"R. c #784558",
"E. c #6E4852",
"W. c #584567",
"Q. c #50486D",
"!. c #674568",
"~. c #774666",
"^. c #714D71",
"/. c #76655C",
"(. c #3D415B",
"). c #8D350B",
"_. c #8C3731",
"`. c #A7371A",
"'. c #904B11",
"]. c #AF520E",
"[. c #8F4E31",
"{. c #AD542F",
"}. c #B26C32",
"|. c #986B26",
" X c #D05809",
".X c #D26B10",
"XX c #E86D0F",
"oX c #CF6E2F",
"OX c #E7752D",
"+X c #D65A1D",
"@X c #853A57",
"#X c #90394B",
"$X c #883966",
"%X c #A93B4B",
"&X c #874558",
"*X c #974758",
"=X c #924C4D",
"-X c #AD4D50",
";X c #946B4F",
":X c #B16F4F",
">X c #874666",
",X c #92516B",
"<X c #AB546A",
"1X c #AD6C6D",
"2X c #936B70",
"3X c #CB764B",
"4X c #CA5B56",
"5X c #B68933",
"6X c #DA8D18",
"7X c #E78A1B",
"8X c #EE9218",
"9X c #F5A516",
"0X c #DA8A27",
"qX c #DA9529",
"wX c #D79136",
"eX c #E78B27",
"rX c #F48A29",
"tX c #E79529",
"yX c #F59829",
"uX c #E88A35",
"iX c #E89835",
"pX c #F59836",
"aX c #F48934",
"sX c #DAA834",
"dX c #F7A729",
"fX c #E9A839",
"gX c #F5A839",
"hX c #EBB43A",
"jX c #F6B53A",
"kX c #E9A92A",
"lX c #D8A218",
"zX c #B48B6F",
"xX c #B18D55",
"cX c #D2904D",
"vX c #EB974A",
"bX c #D8A950",
"nX c #EAAA46",
"mX c #F6AB46",
"MX c #EBB547",
"NX c #F6B547",
"BX c #F8B655",
"VX c #EDAD57",
"CX c #CD8F6C",
"ZX c #D6AF6D",
"AX c #EFB36B",
"SX c #E8986A",
"DX c #F6C552",
"FX c #F3C76E",
"GX c #DBC161",
"HX c #F2C13B",
"JX c #6C6289",
"KX c #A86A87",
"LX c #C36A88",
"PX c #DBAE8B",
"IX c #F1CD93",
"UX c #BEA49E",
/* pixels */
"k k y y y y h k h y h h y y y i - = * P T._ # u - - - - - - - - y y h h y y r * r p A S S S 1.y.S 4.K y.A A y.A K K H H K K K S A 1.1.1.4.1.S S S K K K K K K K K 5.f.h.5.2.5.2.2.2.2.2.1.1.1.1.1.1.1.1.4.1.1.1.4.2.2.2.2.2.2.4.1.1.1.1.7.2.3.J B F J H 1.4.1.1.u.1.D 1.1.1.2.2.4.2.6.4.3.7.A 1.2.K K S S S S S S S K K H K J H S S S S S S A A A A A A A A A A A S S A A S S A H H H H J J J 3.C H K A A A H A A A A K K K y.h.f.2.A M l l - % % - Z Z A 1.1.1.1.N M k h h l C A A 1.N N N A k % . # u l C p i M H C r * - h % # # u C i 5.k.f.A A C C l l ",
"y y y y y y y y y y h y y y y i - ; * u _ x # - - - - - - - - - y h y y y p l p p C H K K S S 4.4.A A 4.4.K 2.S A K K K H H A A 1.1.S S S S K 4.S K K K H F G H 2.2.y.i.2.H 2.H 2.2.2.2.2.1.1.1.4.1.S S 1.1.2.7.1.H 2.6.6.4.2.4.1.1.1.1.2.2.3.J J 9.q.5.H 2.A A 1.1.A 1.7.2.2.2.2.2.6.5.2.2.A 2.H H K S S S S S S S K K K K H C S S S S S A A A A A A A A A A A S S S A A A A A A H H H H H H H H A A A H 2.K A A A A A A A K f.6.2.A C Z v - # # # z C V A D 1.1.A m i y y h z A A A 1.N A V i - % # - i i p M H H C i * - - - # # u C m 2.f.7.m V V V l l ",
"k k k y y y y y y y y y y y y i - u ; # ; # # * - - - - - - - - y k k y i Z G K G H K 4.4.S S S 4.K y.K A H i H K K K H A A H S 2.2.1.A A S K K 2.K H H H H F H 3.H 2.2.H H 2.A 2.2.2.2.2.2.2.2.u.4.1.4.1.1.1.2.4.2.2.2.2.2.2.2.4.4.6.3.3.9.w.! g.h.h.q.J 2.2.2.1.1.A A H H H H 3.3.3.3.H 5.H 2.2.2.2.2.1.1.S S 4.y.K K K H H H K 1.1.1.A A A A A A A A A A A A S S S S A A D D S S S S S S S A 2.A A A A A A A A A A A A A A 4.7.A A M p l u - # * z C V A A 1.1.A V i - - h Z A A A 1.1.A M i h - # * - y p C H C C l i * # * # # u Z M N 1.N A A C V i y ",
"k l k y y i y y i y i y y y y y - ; j * # # * # - - - - y y y y y k C C C G K 5.K K K 4.4.4.K S A H y.M y.k.K A 2.K H H H K K 5.H 2.2.2.2.H H H H F M H 9.p.p.a.9.3.2.2.2.2.4.H 2.2.2.2.2.2.2.2.2.2.5.y.2.A A 2.4.2.2.2.2.2.5.6.3.J 9.w.0.w.0.0.g.B.B.0.H H H H H K H H H 3.9.9.w.9.9.9.q.p.3.H 2.2.2.2.2.1.S S S 4.A K 5.H K 5.2.2.2.2.2.A 1.A 1.S 1.S 1.A 2.A A S S S S S S S A A A D D D D D A A A H H A H 2.K A A A 2.A A 2.2.A H K G l l j * * k i i A A 1.N N M i - - h Z A A A 1.1.m m k j j - * * * y p l l Z F l * * - . # y C A N N A A A V k y r ",
"y l p p l l p i i i i i i i i y u * u - * # - * - y - y y y y y i C K K K K L K 5.K K 4.5.y.4.K i.H 5.H Q.JXh.H 4.H A K K K K K 2.2.2.2.2.2.H J 3.J J 9.f.h.B.h.3.3.3.5.3.2.4.2.7.2.7.2.3.2.3.2.2.2.4.5.2.H 2.A 2.2.2.2.2.2.2.H w.! e.m.m.m.m.n.m.B.B.s.9.L J H H K H H 3.p.g.h.g.g.h.h.J.J.p.J 2.4.2.2.2.2.2.2.A K S 4.K C H H 2.2.2.2.2.2.2.2.2.2.2.2.2.2.2.2.2.2.2.H H H H H K A A D D D D D S A A A A A A A A A A A 2.2.A A A A y.f.a.G Z G i r y * r C C S A A V p y * y Z C A A A A m i Z l j j u * * * r y p l l l p y * # # y l H N N 1.V A V i y r ",
"L L F p p p p p p i i i i i i y u # - - - # u - - - - y y y y i S K 2.K K 2.5.K 5.K K K 5.5.4.K 5.F H H f.h.H G K H K 4.K A M m 5.3.H H H 2.3.9.p.p.a.q.9.9.9.9.J 3.3.6.4.2.2.7.7.7.7.7.3.3.3.3.6.2.2.2.5.f.f.5.4.4.4.2.4.6.6.q.0.! e.n.n.m.m.n.x.m.e.w.J F J K H K H H J a.g.m.g.g.g.s.q.a.J H 2.4.4.4.2.2.4.2.H K H 2.H 5.h.f.4.4.3.3.3.2.2.2.2.2.2.2.2.2.2.2.3.9.9.J 9.w.w.9.J J H S S 1.S D 1.H A A 4.y.6.2.A A A A 2.A A A A A 5.f.y.C C G C i i r r k Z Z S A C C y * * i V S A A A M i l l l l j y * * # * u l l l l p * # # u l C A N 1.A A V k p y ",
"a.a.L p a p p p i p i i i i i y - # - * - - y - y y y y y h k k K 2.2.H 2.5.3.5.5.5.2.2.K 4.K K H q.9.3.F M H i.K K K K A a a M 5.3.H H H 5.q.a.k.J.J.h.a.3.J 3.3.3.3.3.4.7.7.1.1.1.7.7.4.3.3.3.2.2.5.5.6.h.k.f.5.6.5.5.6.f.k.k.B.B.B.B.B.B.B.m.B.g.w.J J H 5.y.K K H H J J w.0.B.B.h.0.J 9.9.9.5.4.2.4.4.5.2.2.K H H 5.H f.Q.Q.4.4.4.4.2.2.2.1.2.2.2.2.2.2.2.2.p.h.B.B.J.!.^.!.0.! J J H G C V A 2.H 2.y.h.h.f.H 2.2.A H H A H H A A K A m A A K C C i r k l G G A S G C r * r i A A A K A y y p l l l h y - # # - u h l F p * # # u C M A A A V C C l l j ",
"Q a.a.Q L L F M i i i i i i i y # * u * - - y - y y y i k k k V 4.2.2.H 2.5.3.J 3.5.5.K K K K H 9.f.3.J J L i.p L K K K M a M K H H H 2.5.5.q.i.J 3.q.9.3.J 3.3.5.6.3.2.7.7.1.7.1.1.1.7.7.3.3.3.2.q.f.i.2.q.f.3.5.6.3.5.5.i.f.p.g.m.m.t.e.s.g.0.g.p.3.3.6.2.7.1.2.K 2.5.3.J 3.q.f.f.f.9.3.9.3.3.3.3.3.5.3.3.3.5.3.H 3.9.a 3.J.a.5.4.4.4.4.7.1.1.1.1.1.1.2.2.2.2.J s.g.e.m.K.P.K.m.e.e.w.0.9.K H A 4.4.A 2.f.f.4.4.5.4.2.2.H H H H 2.A A A 2.7.m A A K i * y h l Z C S K C i * r i A C C 4.G r * y p l l k h u - * - y h l Z p * # # u Z M A A N 4.K G Z l i ",
"P L i.p.a.5.K H M i C i r i y - # - y y y y y y y y i i y C y.K 4.5.y.2.2.5.H 5.H H H H K K K H f.h.f.9.L L i.G K L L C a A 4.4.2.4.2.H y.h.f.6.2.2.2.2.4.2.4.4.2.2.4.7.7.1.4.1.u.1.1.4.7.4.4.3.H f.k.k.q.2.3.6.i.6.5.3.2.2.2.3.p.0.w.w.w.9.9.3.q.3.7.7.7.7.7.1.1.4.5.2.2.3.3.3.3.3.3.5.5.5.5.5.3.3.9.9.9.3.3.3.9.3.J J 3.J J J 5.6.4.2.1.1.1.7.7.4.4.1.1.1.7.2.3.9.Q ! w.n.H.H.H.K.J.J.B.g.9.K 2.2.2.2.H H H H 5.f.f.5.H 5.3.M H A A A 2.2.1.1.2.A 4.Z r * y G K Z C Z C C i * i C C Z C C r * * p G G l l Z h - * * y v G p * # # u G A A 1.1.(.y.C l l * ",
"t u P a.a.5.5.H y.5.y.K i k y y # - - - y u y y y k i i y i Z C A a M H 2.H H f.Q.h.K K 5.K K 5.5.a.3.J J L L L i.L C r r a K 2.2.4.4.S 4.y.y.2.2.2.4.4.4.4.4.4.7.7.7.7.4.4.4.4.7.1.4.4.1.2.6.5.2.6.a.6.3.2.3.5.3.5.5.3.3.5.3.2.q.q.q.3.6.3.7.7.7.7.7.u.7.7.u.7.4.1.4.7.6.6.6.6.q.q.q.6.6.6.6.6.3.w.g.g.h.g.g.h.h.g.0.w.! Q J Q 3.3.3.4.7.7.1.D 1.1.4.1.1.1.7.5.2.5.9.9.w.w.e.e.w.w.e.w.0.9.3.J K 2.4.4.K K K K H 5.5.y.5.M M a.H A A A 1.2.1.2.A M K C p p * - y i p G C S a r p Z Z l Z C y r * y F G l l Z k k y * * y i y * # # j G A A 1.1.y.G l i * * ",
"= r v L H H H C 5.5.a.5.Z l y - # - - - y h h i p p i C V i C C M a M G 2.H H f.Q.f.H C K 4.K K H 3.J J K G P L G l y r a A K K 2.4.5.2.S 2.2.1.4.4.7.7.7.7.7.7.A S 2.2.7.2.5.4.5.2.4.2.2.H 4.2.3.5.3.2.5.6.6.6.5.6.3.3.3.6.6.6.5.6.6.6.6.7.7.7.7.7.7.7.8.7.7.7.7.1.2.5.6.3.3.3.3.3.3.3.3.3.3.3.9.e.m.J.J.B.J.J.B.m.s.! ! ! W ! 3.9.6.3.4.5.5.2.2.2.5.5.5.2.4.2.S K 4.5.5.H J J 3.3.3.J J J K K H K 4.2.K H K K 5.H H 5.H M F H H S S S A A 1.H K A 4.C Z Z * * # * y G H K i r p l l l G l y * * * u l l Z Z k Z k * # # # # # # # j G A A 1.1.A C C y # # ",
"u u u p a p p M i C y./ G l - * * - h - y h p l y i p C C i A M i C K G K K H 2.2.K M r i 4.y.H 2.3.5.K L L G G y * y C K K 2.A 4.4.4.4.1.1.4.y.4.4.4.1.1.1.7.4.A S 5.5.5.5.3.3.3.3.3.5.5.5.5.2.2.2.2.4.5.3.3.6.5.5.5.3.5.5.5.5.4.4.7.7.7.7.7.7.7.7.6.7.7.7.7.2.4.H 3.p.h.h.g.h.m.m.m.m.h.h.h.m.g.n.B.K.V.n.V.V.V.M.m.m.n.m.m.B.g.h.g.q.H H 5.5.2.K 2.K 2.5.3.H 2.4.1.S 5.5.5.2.H K 2.4.2.K A A i k G K K K K K K M K F F Q.Q.M A S S S S S A A A 4.A C H M C Z # # y K H H a r * y j z G G Z l * # * l Z Z Z C Z Z k - # # # . # % j Z A A 1.1.C Z G j * * ",
"u - y y r r M C M C y./ G l * # - - j u u l i p p Z C H H C H A i C / G G G C K i H H a a S y.4.A K K H K L F l - * p G K K 2.2.4.K 2.4.5.5.5.u.4.4.4.4.7.7.7.4.S S H K 3.9.w.w.Q Q 9.J H H 5.K H 4.5.6.6.5.5.5.5.5.5.q.q.3.2.2.2.1.7.7.7.7.7.7.8.8.7.7.3.q.q.J 9.J ! g.B.B.B.K.B.B.B.B.B.B.B.B.K.K.N.N.N.N.N.N.n.M.M.M.M.n.m.n.B.B.m.s.9.3.3.3.3.5.9.9.9.9.w.q.2.a.y.2.5.u.u.S N A 1.y.y.1.1.D r y C K K K K G K G i.L 9.JXJXi.A S S S S S S S A y.M 4.y.M 2.C * * y G A H M a * * - j l v G l * # # i Z Z A S A S C y * # . . # * h C A A 1.A S C l j - - ",
"- - u i r r i C H G K G G l - - - - l u i l r y p G H K 5.2.5.K K C Z K G p p y.K K K 4.K S S y.A 2.4.G G K p - * * l G G H 2.2.4.K 2.4.5.5.4.7.7.7.7.4.7.7.7.7.y.4.K 9.g.J.J.B.m.B.m.s.9.3.5.y.y.5.4.6.6.6.5.5.6.5.5.5.5.3.3.5.4.4.4.7.7.7.7.7.q.6.q.9.w.g.J.B.B.m.n.V.K.N.N.N.N.N.N.N.N.M.M.M.N.N.M.N.N.N.N.n.N.V.N.M.V.N.n.n.m.e.w.! w.w.w.9.J p.h.h.s.w.! w.J f.f.5.3.4.1.1.1.1.1.u.u.1.1.S k p y y r y p p G F F G L i.9.F A 1.S S S S S Z K K a H 2.H 6.m * * y G H 2.A A p * # % * - y y % # # y C S A 1.A S C y # . . . # * h C A A A A A y * - u - ",
"- - u u r r i C G C C p l u # - - j / v u l r p F L K 5.y.K K K K k Z Z z y y L K G K y.y.4.S S 4.4.5.K K G y * y y Z K K K 2.2.2.4.2.2.2.4.4.2.4.4.7.7.7.7.7.7.A A K a.m.J.H.N.N.N.n.d.w.9.3.H 5.2.1.2.4.4.7.4.4.6.q.5.5.q.q.3.5.5.5.5.4.6.6.6.3.3.w.w.! e.n.M.V.M.M.M.N.M.c.c.S.S.S.N.N.N.N.N.N.N.N.N.S.S.N.N.N.N.N.M.N.V.M.V.N.l.e.e.e.e.0.e.w.g.J.J.m.e.! w.t.L.g.q.3.7.2.7.4.1.1.1.1.1.1.A K Z i r r r r r G L L L i.F p K A 1.S S S Z Z Z l l f.5.m 4.3.H * # r K H 2.H 2.p * % - * * r * % # # * C S 1.1.1.1.C y # . . . . * h C A A 1.A C r * - - - ",
"- - - - * * l G K C C p j - . # - Z j./ p u t P h.h.f.h.g.3.H 5.r y z y y y y C G K K A S y.y.S S A K K / Z * y G G K K K K 4.S 2.5.5.2.2.5.5.4.4.4.7.7.7.7.7.3.L 0.d.B.B.M.n.n.N.n.M.n.B.B.g.9.4.7.7.y.y.4.5.i.3.g.J.k.k.k.h.y.y.y.5.5.6.6.6.q.J s.J.K.n.M.M.n.M.M.N.N.N.N.S.S.S.S.S.N.N.N.N.N.N.N.S.S.S.S.S.S.S.S.S.N.N.N.M.M.V.M.n.K.K.L.B.J.B.B.B.B.K.K.K.K.H.K.m.w.9.3.2.6.7.4.4.4.1.4.1.2.A A H K L K l r * p P G G L Q J 2.1.1.S S S Z Z K i.JXQ.M y.N 2.* * y G H K H 4.K Z v G j - - # % % # * C S 1.1.1.1.A y # % . . # * j C A A A A Z y * - u j ",
"r u y - * * l K G A M p u ; % # Z S S M a B 0.0.d.d.x.d.0.Q 0.p u # # y C k V Z G l K K K 4.1.S K G G G p y k k y./ S S S 1.1.1.1.1.4.y.4.1.1.2.2.2.5.6.3.3.q.w.~ l.M.M.M.c.c.N.M.M.M.M.M.M.x.e.r.r.6.y.4.H L 0.w.m.L.L.g.g.a./ y.5.y.f.q.f.r.w.w.w.K.x.N.N.N.H.H.m.V.K.N.n.M.V.V.V.N.V.V.M.V.V.N.S.S.S.S.S.S.S.D.c.P.U.N.U.H.H.V.c.M.V.m.N.H.H.H.H.N.N.H.H.H.H.H.H.m.0.! 9.9.H 4.6.6.7.7.4.1.1.7.2.2.2.2.K G G r y G H H 3.3.H 4.1.A 2.K S S K C a.(.f.K K H G l u - u l C F 2.2.A 2.K l - % . # # * y C A A A A S V y - # % . . # i Z C M C l l - - h l l ",
"a p r - - - l G K A M i y - . # S 1.A C B 0.x.x.x.l.x.n.m.0.0.f # # y l Z S S S Z G L Z M S 1.S G G G G i r k V S S S 1.y.y.4.4.4.4.4.y.1.1.1.4.7.2.5.6.3.3.3.W n.c.M.M.M.M.M.V.V.M.M.M.V.V.M.m.g.r.6.5.y.5.i.g.J.K.K.L.g.p./ / L i.f.J.L.J.J.K.m.H.N.n.N.N.N.N.N.x.$.U @.$.*.@.@.@.@.@.@.@.@.@.$.$.%.%.#.#.#.#.#.#.%.%.$.c.c.I.V.V.D.V.P.U.H.H.S.S.S.S.S.H.H.H.N.N.M.m.B.B.s.L 3.5.6.7.7.4.u.u.7.8.2.2.7.2.K Z p * r H K H H 4.2.1.1.2.2.A A A M H y.K C G G G G i # # u v G 2.3.7.3.H G j # . # - p Z S A A A A S S k i # - # # # i F C C C l l % # - z Z ",
"y y * * - - l C K A m i y # . % ( S A M B 9.s.d.d.d.d.m.m.B t * * v L G S 1.S S Z K K p r A 2.A C K / K p r V S y.4.S 4.4.2.2.5.2.H 2.2.2.2.4.y.5.2.2.4.i.f.h.h.B.M.M.n.m.x.e.e.e.e.e.x.n.M.n.n.J.g.q.5.5.y.y.a.g.s.g.g.g.w.9.Q Q s.g.B.v.x.v.V.V.P.z.H.U.S.S.Z. .[.:X:X:X:X:X:X:X:X:X:X:X:X:X:X;X;X;X;X:X:X:X:X:X:X:X:XzX1X>.=.c.U.U.N.H.N.c.N.N.N.N.N.N.N.N.N.N.N.M.M.n.B.m.d.q.w.q.6.6.7.1.7.7.7.1.1.1.1.S S Z r r C K A A 4.5.7.4.7.7.7.2.2.6.2.2.H A 2.2.A K l * # - l F K H 4.2.C G u . . - p F G S S S 1.1.S S C l * - # # # i Z G C l p j # # - z Z ",
"y y * * - - k k A m m M p * # - ( / K K K a.g.g.s.g.g.g.g.B = t r F L K A 1.1.S A G F p a A 2.A C K K Z i r Z / K S K 5.5.H H J J J J 3.3.K 2.5.5.5.5.2.a.h.k.k.J.J.J.J.J.m.e.w.0.w.e.g.B.J.J.J.J.g.q.6.6.7.7.2.5.L Q 0.w.w.w.w.e.n.M.n.x.-.c.Z.S.c.Y.Y.%.%.#.o.} {.SXSXvXvXvXvXVXVXVXVXVXSXSXVXVXVXVXVXVXVXVXVXbXbXcXcXZXxX+.} &.;.%.c.c.D.S.D.V.V.b.b.b.V.V.V.S.S.N.M.M.M.B.K.e.w.9.3.6.7.7.1.1.7.1.1.1.1.1.1.S S Z i i C Z C 2.2.2.4.4.2.2.2.4.2.4.4.2.2.2.2.K G p - * * i G 5.H H H r # # ; v F G H A A 1.1.1.S S S G * - # % # u G G Z p y - # # - C C ",
"y y # # - - k k V m m A C y # - y l Z C M B F J J Q a.P P = * p J 5.5.5.7.1.1.1.A p p p C K 4.A Z Z k y y y C K 5.5.5.3.3.9.p.h.m.m.m.h.g.0.3.J H K 5.2.5.y.y.y.q.q.q.q.q.q.9.3.q.3.3.q.p.q.r.r.p.0.9.6.6.7.7.4.y./ L P w.t.L.L.m.V.V.N.D.c.U.S.G.;.1X1X:X:X:X:XwXvXnXvXmXmXmXNXmXmXmXmXmXmXmXnXVXMXMXMXMXMXMXVXnXMXVXBXVXVXbXbXcXCXCXUXA.C.C.D.S.V.b.b.b.V.M.N.S.S.S.N.M.M.M.V.m.x.g.g.f.q.7.u.7.7.7.7.7.4.4.4.S y.y.y * y h k 4.K 2.2.2.H 2.2.2.A 2.7.2.2.2.1.A K Z y # # * i l a a.h.v # % # G G G A A 1.1.1.1.A S G G * # # # # u G G l y * # * - l C C ",
"- - # - - - k k A A A S G p * * - l G F C p i M H K i.p r # * v i.5.4.7.1.1.A A A r r F K 5.5.K G Z y * y k G K H J J J J w.g.B.B.m.m.m.d.! ! J J K K K K 4.5.5.3.6.6.6.6.6.6.6.6.6.6.6.6.6.3.3.P P 3.6.6.7.7.4.S ( / Q t.L.H.U.H.H.S.S.I.S.I.&.&.} cXcXcXbXnXVXBXBXVXnXmXNXjXjXNXNXNXNXNXNXNXNXNXNXNXNXNXNXNXNXNXmXNXBXnXVXVXnXwXbXbXCX+. .;.F.S.D.V.b.M.M.M.N.S.S.N.N.N.N.M.M.N.V.K.J.g.r.6.y.4.5.5.7.5.7.6.7.5.5.y.C y * - z K K K K K H K 2.4.2.2.7.7.8.7.2.2.H M r * # # # # # i.T.n # # # F H A A 2.7.1.D 1.A A Z G * * # # # - l l i - # * u z Z S A ",
"# - # - - y k V S 1.S K K C y y # - j l G Z A 4.A M C r * * ; u M M m N N N m V M r * F L L K G G Z y y l G L K H p.h.B.m.m.m.m.x.x.n.M.n.n.n.B.h.s.9.L L L 5.9.6.7.6.7.7.7.7.7.7.7.7.7.6.6.6.6.2.5.3.q.q.6.6.2.K / y.g.J.H.U.U.U.H.U.U.U.C.1X{.wX}.MXnXnXnXnXMXnXVXBXMXnXnXMXNXNXMXMXMXNXMXNXBXNXNXNXmXfXiXqXiXNXmXnXBXBXBXBXfXjXkXkXBXbXCX1X&XC.S.S.S.H.H.V.N.S.S.S.N.N.V.S.S.z.N.N.n.g.s.q.3.K 5.5.5.5.3.3.q.q.5.K L G - # j p p C G K H H H A H A 2.2.7.6.7.2.2.M i l l - # # # u v * # u j G H H 2.2.1.1.1.1.A S S G * * # # # - u - * * * j l G G K A ",
"# % # - y y V V S 1.S S 4.K C p # % - j G K S 4.S r i r y u u - p M M m m m m V p * * v P F L G Z Z y y Z G K J J s.B.m.m.n.M.n.M.c.c.c.c.n.n.M.m.d.! Q 0.9.w.9.5.7.2.2.7.7.7.7.7.7.7.7.7.6.6.6.7.5.6.q.w.r.q.3.5.L a.h.J.H.H.U.U.S.S.C.&.X.cXVXsXkXkXkXjXNXfXNXMXnXMXNXMXNXMXfXMXgXhXMXMXMXMXBXMXNXNXnXfXqXtXtXmXNXNXNXnXmXmXNXjXdXjXjXBXbXCX[. .#.&.;.C.C.S.S.c.N.P.H.N.N.N.N.S.N.N.M.n.m.0.B J P Q Q 9.9.w.9.9.Q Q ! Q x . . # * p G / / L L G 5.5.5.2.A 4.2.2.2.2.K / / j # # % . # # u x L H 2.2.1.A 1.1.7.1.S S C Z r y * - # % # # # # - G G G S A 2.",
"% % # h y y S 4.S S S K K K C p * # # u l C K S i i r y y h u y p C M M D S / G * # * n n v u y * y * * C P L Q g.g.m.m.n.n.N.N.c.c.M.M.M.M.N.M.n.n.n.m.B.B.0.Q 3.6.5.4.5.7.2.2.5.1.2.4.6.6.2.4.7.7.2.J w.m.J.J.J.J.B.K.n.D.S.C.G.%.=XCXcXwXVXBXNXMXjXjXjXNXBXBXNXiXtXiXtXtXtXtXtXtXtXtXqXNXNXMXNXNXNXNXNXjXjXjXNXNXfXfXNXNXNXNXjXjXNXBXBXvXwXcXwXcXcX:XUXA.C.F.D.V.K.N.N.H.H.N.S.S.c.N.M.x.B.B.B.g.B.m.B.m.m.m.m.m.B.m.B.> . $ # * * - - y y y y p H K A K K 5.2.2.4.A K L u # # . % . * * j F H 4.N 1.f.f.A A A A A S C G Z r # # # % # # * * G G G K 2.1.",
". . - v C m S S S A A A A H H K * # # j G Z Z k i i i k k k k j p i p C V Z / z - # % ; ; ; * * - y * f P F J ! m.m.m.n.n.n.c.c.c.c.c.c.M.M.c.c.n.M.N.N.N.N.e.! 9.5.5.2.5.5.2.4.2.K y.K M 5.i.2.1.6.f.e.e.n.N.H.K.H.n.M.D.Z.=.>.>.+.|.bXsXqXMXnXmXmXmXjXgXgXgXfXmXtXtXtXtXtX7XtXyXtX7XtXtXgXgXjXgXNXNXNXjXNXNXjXjXjXfXfXMXMXmXNXNXMXVXBXBXnXwXfXnXqXwXcXCX_.>.>.Z.M.V.K.m.H.H.H.N.S.c.S.N.M.V.n.B.B.K.m.H.H.H.H.H.H.K.n.n.I > > ; - # # # * - y r p / y.K K Z K 4.7.6.5.5.K i u % . # . # * v L H 4.2.7.f.f.A A A A A A A K C r * # # % # # # * G G K K K 1.",
"# % u G C m 2.1.2.K A H H H 2.K l - # j G G k y i Z y./ G K K K G v G / G Z / h # . . . . # * # # # t Q Q ! s.B.B.m.m.n.n.c.c.c.N.c.c.c.c.c.N.N.M.N.N.N.N.N.e.! w.J J J 3.5.5.i.H f.JXQ.H J a.J 6.k.J.K.M.M.N.S.N.N.N.c.;.| ,.ZXbXqXnXBXMXnXNXnXNXBXBXVXiXtXtX7XyXtXtXeXeXeXeXgXmXyXeXyXtXtX0XtXfXNXNXMXhXNXNXNXNXNXfXqXqXqXqXiXBXAXBXBXNXjXjXjXgXgXmXcXcXcX3X).>.;.b.V.H.H.H.H.H.S.N.N.N.V.V.M.x.n.V.n.N.N.N.N.N.N.N.N.M.n.x.B.j._ v y * # * r * * p y r l G / 5.2.2.4.5.L / j.j # % # # # v K 5.2.A A 4.2.A K S A A A A K A r y # # % % . % # G G K 2.2.1.",
". # u G A M 4.7.H H H K 5.5.H H P u * - l l i * r C y.y.K K 4.K v P v Z Z K / Z * # . . . # - * ! T ! a.W B s.B.m.m.m.n.n.c.c.c.c.c.N.N.c.c.c.c.M.M.N.n.n.n.e.e.0.w.9.9.9.9.L 5.M f.Q.(.F F 9.9.w.g.B.M.M.N.S.D.S.S.;.A.[.+.[.cXlX6XtXgXnXmXNXmXnXmXmXvXtXeX7X7XeXpXpXeXeXeXeXpXmXtXeXpXiXiXtXtXfXhXMXMXMXMXNXNXNXNXnXsXqXwXsXnXVXVXVXMXMXhXjXjXgXNXmX0XwXvXuX).+.,.>.;.D.P.H.N.N.N.N.D.N.c.V.V.W.W.V.M.D.N.N.S.N.N.N.N.n.V.V.B.h._ v u r * * y y y i * # i G G K H 6.6.y.5.y.j.v # # % # # F H A A A 2.S A A C C A K K A K A i y * # % . # % * G G 2.2.2.1.",
". # u G M N 2.A H H G 5.a.f.q.2.K l * * * * * * * l G K A 1.1.A Q.^.h.G K S Z l * # % % # # * * v.v.B.n.~ ! m.B.m.m.n.n.c.c.c.c.S.D.~.~.P.D.M.c.V.M.V.V.K.K.J.J.B.B.B.B.B.h.9.9.9.3.J F Q 9.L 0.N.N.M.c.c.N.S.S.C.C. .CXIXAXVX0XqXtXgXNXmXmXmXmXtXtX8X8X7XeXuXuXeXmXmXiXiXtX0XiXiXtXtXmXmXNXmXmXnXfXfXMXMXMXVXMXMXMXMXMXBXBXVXMXMXMXNXBXBXBXBXMXNXNXjXNXBXmXmXcXSXSX=X=.C.D.N.U.N.N.V.V.$.I g I > g g ~ V.N.D.D.S.S.N.N.n.V.n.g.g.i.L L 5.L L / G G p * * l / K G 4.5.4.7.4.H 5.y # # % * # L K A A K 4.A G K C i C 4.K A A A A p * # % . . % * G G 2.2.2.A ",
"# % u L H N 6.y.5.K G L a.a.q.5.2.Z l y * # * u u F K K 4.7.7.2.j.Q.a.l 5.K Z Z # # - u ; u i u d.x.x.x.e.e.m.m.m.n.M.M.c.c.c.c.c.S.D.D.D.M.M.M.M.x.d.s.s.g.g.g.s.e.m.B.J.h.J J a.9.J J p.9.H d.C.C.C.c.N.D.D.Z.;.=X_.CXvXvXmX0XtXtXgXmXmXfXmXmXtX7X7X7X7XeXuXuXeXgXmXiXtXiXtXtXtXiXiXmXNXBXNXmXNXfXfXMXBXMXVXMXBXMXMXBXBXBXVXMXhXhXMXMXMXVXVXVXnXNXhXgXNXmXiXiX0XvX{.+.>.c.M.P.N.V.V.V.~ > > g t = s ~ M.x.D.c.N.M.N.N.V.V.m.t.q.q.3.9.9.3.K K 5.K p r * i G G Z K 4.2.3.6.6.y.p - * # * * G H K A A A C Z G Z * C K K A A 1.2.l - # % . . % - G G 2.2.2.A ",
". # p J 2.3.f.k.5.K G G L 3.3.3.4.G K l * * = v b P G H 4.7.8.2.a Q F H 5.K y.l * * u n G G K L d.M.M.M.M.n.n.n.n.n.n.n.c.c.c.c.c.C.S.S.N.N.V.V.n.e.0.0.9.9.5.3.0.w.g.B.J.B.w.9.J 3.9.3.J B 9.B.,X<X,XI.P.N.M.c.| :XCXVXuX6X7XyXeXeXmXmXiXeX6X6XtXtXeXeXeXeXeXeX6XeXtXeXeXtXtXeXeXeX0XmXmXNXNXNXNXgXgXNXNXMXMXMXNXMXMXMXMXNXNXNXDXMXMXNXMXMXBXNXhXNXNXhXfXNXnXiXeXaXvXCX1XA.S.c.N.M.V.V.M.n.B.J.r * # $ > I b.b.V.N.V.n.V.e.w.3.q.6.3.6.6.6.5.5.5.y.L K k * y * y Z y.6.r.f.6.4.F G y # * * F G C S K K K K p * * Z K A A A A 2.C y * % . . % * G G 2.2.2.A ",
"# = F 5.3.2.r.f.5.5._ Q Q 0.0.p.3.H G u # # = b T P J J 2.1.1.1.H J F y.K C y.i r * u G G F Z K ! l.e.x.n.n.m.n.m.m.m.n.M.M.M.M.x.x.x.x.x.x.e.e.d.! Q L 5.y.5.5.q.J w.0.g.g.J 9.q.J 9.9.w.s.h.n.G.@XF.F.S.N.Z.A.[.3XvXoXtXyX7XyXpXuXmXNXpXiXtXtXeXtXiXpXiXiXpXtXyXtXiXtXtXtXtXtXiXiXtXNXNXNXNXNXMXNXNXMXMXhXhXfXhXhXmXNXMXNXNXMXBXMXMXMXMXMXMXMXDXMXhXDXhXhXfXiXyX7XuXSX:X>.A.C.S.N.M.M.V.B.V.g.= s u ; . $ v.x.M.c.V.n.K.w.w.r.r.r.r.q.6.6.6.q.5.5.K G r * * * * i G A 2.7.7.y.G / u # * * P L L L L G / G i * * F K C A A A A A y * - % % % * G H 2.2.K A ",
"r L H 2.6.7.2.2.f.h.h.d.v.x.x.e.~ ! a.u % ; . ! g W w.9.5.u.u.u.4.K K 5.K G K p p r l K G y.S K J w.e.m.B.B.B.B.J.m.e.d.m.B.K.K.s.9.3.9.3.J 3.5.3.5.K 2.5.5.5.6.6.8.3.F Q L 5.y.7.f.3.Q W m.H.K.b.c.c.S.Y.&...-XSXuXtXtX7XrXrXeXmXNXNXNXBXNXfXqXqXqXNXBXNXNXNXNXjXfXiXwXtXdXjXjXBXNXmXNXMXBXFXBXMXNXMXhXNXhXqXqXqXqXmXBXmXMXHXhXBXBXhXhXMXMXhXMXMXBXhXjXjXgXNXNXfXfXqX0XvXSX=X&.S.S.N.N.K.m.K.V.T.B.. 2 . % # $ x.P.Y.S.H.e.! 9.w.w.q.q.3.3.5.3.9.J B Q 9.B * * * # * * l / S Z G / u u = # d.v.v.! ! T Q t * G v l u y * H 5.H 2.S y y # - * - * i K K H 4.",
"p 5.2.1.8.8.8.3.3.9.! ~ x.x.x.$.x.x.v.c . . . ` v.m.g.w.H S D S 4.2.2.y.G G K p * r i G C K A 2.3.3.q.p.p.p.0.s.g.s.w.0.e.s.g.g.r.6.7.6.7.6.y.y.5.7.2.2.2.2.2.4.6.6.y.K L G 5.6.3.6.a.d.d.M.H.H.K.V.V.%.<X<X-X3XuXeXyX8X7XeXuXiXmXNXMXnXMXMXfXfXnXfXNXMXMXMXNXNXNXmXnXnXkXdXjXgXmXBXNXnXFXbX|.cXBXNXMXMXMXhXsXfXqXiXmXmXNXNXhXhXMXMXjXjXMXMXjXNXnXnXDXjXgXjXfXNXfXnXfXtXuXcX{._.G.G.U.N.H.N.M.V.b.V.X % 2 2 . = W P.S.S.M.l.0.a.w.g.e.3.a.a.9.p.9.g.g.w.Q Q B p = % # # - G z Z G / u * = $ v.v.n.x.d.~ a.t * G / j # * * F H A 2.2.C k y - - y * p K K C C ",
"p L H 1.7.8.7.7.H P B T x.x.c.x.c.n.v.Y X . $ v.v.n.x.0.J H S S y.5.5.5.K K K p r r l / G 4.K 5.6.3.3.3.3.J J L J Q Q J Q w.w.J 6.6.6.4.4.7.6.2.5.4.2.2.5.5.6.6.4.7.5.K 5.H 3.3.f.a.B.B.n.M.U.H.N.N.c.>.CXSXvXvXuXeXtXtXeXeXtXgXNXNXMXnXNXNXNXNXNXMXBXNXMXMXNXNXNXMXBXBXNXjXjXgXmXmXBXnXFX5X5 |.DXNXMXMXMXMXhXfXqXtXqXqXmXNXhXMXNXNXjXjXjXNXjXNXBXBXjXjXjXBXnXnXNXNXfXtX0XiXvXAX-X .C.U.S.H.N.c.S.V.: # . 2 % ; > n.N.P.P.N.n.K.V.K.g.w.q.9.J 9.d.B.J.s.9.a.a.F # $ # # * - # # l L ; * $ $ v.x.x.x.V.V.K.! * v n j # - r C K A 2.2.H F - - # * * y K K p p ",
"p K H 2.7.2.7.4.J Q W ! B.M.M.c.c.x.v.R X X X v.v.n.n.x.0.Q G F L 3.3.K L L K l r * y K K K H 5.6.6.4.4.2.K 5.L H L 9.9.9.9.9.3.6.5.6.6.7.y.6.7.y.7.4.4.4.4.5.2.4.4.5.6.q.q.g.f.w.0.B.B.V.N.U.U.U.G.#.=XcXwX0XeXeXuXqXiXnXfXfXNXmXmXmXmXNXNXBXNXmXnXNXnXNXMXNXNXNXMXMXNXMXMXjXNXBXnXBXMXFX5X+ |.FXjXMXNXhXMXMXmXfXgXfXfXNXNXfXMXMXMXfXfXqXqXiXnXcXBXkXhXMXfXMXNXkXgXgXgXiXfXqXvXoX[.#XI.Y.N.S.D.S.c.^ T # # - . > v.M.l.l.V.N.V.K.m.x.B.B.g.d.d.B.d.s.a.9.i.i.P b ! ! ! v y # # - v = = $ $ d.x.M.n.x.x.B.W * v n h # - r V A 2.2.5.K G * # # # # i / G p y ",
"l K K 2.7.1.4.2.H Q ! ! M.n.n.M.c.c.b.Y X   X v.v.b.M.M.x.e.! W ! ! ! J F K G k * * y / K G H 5.7.7.7.5.5.4.4.K K K L y.5.K L 5.4.H 2.5.7.y.y.7.6.5.4.4.5.6.6.5.K K 6.6.r.r.L.L.! ~ V.n.V.N.S.S.&.&.+.SXvXtX7X7XtXiXwXnXBXNXhXjXNXNXNXNXNXNXNXNXNXNXNXmXNXNXNXNXNXMXMXMXMXVXNXBXMXMXMXMXDX5X+ ;XAXfXNXNXMXMXNXMXBXmXNXmXnXMXBXAXFXFXAXAXVXVXAXAXAXAXNXNXMXBXNXMXNXNXNXNXjXjXkXtXwXAX[.#.S.I.N.S.S.S.N.n.s # 2 # / Q.T.g I P.P.M.D.V.K.W.W.W.W.J.B.d.0.a.9.5.i.i.s.g.j.d.Q u r u * * * = $ $ ` v.n.M.M.n.K.0.t f / j # - * k S K 5.5.G G * # # # - u L G y * ",
"G L K 2.2.A 4.H H L P ! B.x.n.M.c.c.b.Y     @ v.v.x.c.c.M.x.x.x.x.d.d.! P G p y r k G y.G F J J 7.7.7.4.1.S S Z C i C G H G C K y.4.5.y.y.5.7.7.5.4.4.3.6.6.q.5./ G 4.8.r.r.L.L.x.v.V.c.V.S.N.C.1X:XoXvXeX.XtX7X0XqXwXnXNXMXhXjXfXiXiXiXiXiXiXiXiXfXgXfXNXmXNXMXNXMXMXMXVXVXMXNXsXBXMXMXDX5XO ;XAXhXNXNXMXNXNXMXmXfXNXNXnXVXVXZX|.,.,.,.<.<.,.,.[.+.MXhXsXBXfXMXhXMXhXhXhXHXhXkXnXVX[.=XA.C.S.Y.U.I.U.n.~ = # - 2 _ T $ : ^ ~ M.c.D.x.I d b t t B i.j.a.L K y.K a.g.g.d.Q f t r * * * $ $ $ ` v.M.n.n.e.e.B t f v - # l Z y.y.2.H J F v # # . . # - l u # # ",
"l F G K 2.A 2.H H L v P B.x.x.n.x.c.b.Y X X & v.v.x.x.c.M.M.M.V.V.V.n.Q P P y * * K / K F a.p.J 7.7.7.1.1.S S C i y i k l Z C G y.4.4.4.4.y.y.y.y.5.5.6.6.6.q.5./ / 6.r.r.t.K.H.V.V.M.N.D.Z.C.=XSXwXvXuXiXeXaXtX0XqXqXhXhXhXjXjXfXeXeXtXeXeXtXtX0XeXtXiXNXNXBXBXNXMXhXMXMXVXBXnXsXMXhXMXDXxXO ;XAXhXMXMXMXMXMXVXNXmXfXfXNXFXFXIX+ o o 4 4 4 + + O 6 ZXGXMXnXfXDXBXBXMXhXsXhXhXMXnXiXvXIX[.@.S.U.N.U.U.H.M.T $ # % . . ; > $ : V.V.!.` $ $ = $ = = i.h.p.Q i.i.i.0.g.g.g.f.9.F a r * * % & $ Y _ v.m.B.s.w.B r * * # # G _ j.f.5.J J Q Q # . . . # . - * # - ",
"* r p K H A H A K L t f d.d.e.e.n.M.B.Y $ & . ' _ ~ ~ x.M.M.M.M.M.n.x.! P P i - * ( / K 9.Q.Q.a.6.u.u.4.1.y.y.K r r y * r i r r r i a a i K y.2.5.6.6.f.g.k.J.J.G K 6.r.r.t.H.N.c.D.S.P.S.C. .[.wX7XtXeXuXaX0XvXmXmXfXjXhXhXjXkXiXeXeXtXeXeXeXeXeXtX0X0XgXiXgXfXMXhXhXhXMXBXBXnXfXhXhXDXGXxX  /.AXMXhXfXfXnXnXNXnXNXfXfXMXwX'.+.4 4 4 % 2 2 l v d e <.|.FXnXDXfXMXMXMXDXMXMXMXMXnXNXnXcX}.;XC.S.U.N.H.P.V.~ T ; % % % . # g g V.x.R : $ $ % ; = * v f t p F H 5.w.p.w.9.9.3.F * a * ; # % . & $ ! ! s.! 9.J B t * # # v v i.i.J w.p.d.d.> X o . & # - # # - ",
"- * l L K A A H C y.v u p.s.! e.B.m.m.b ; # % n ! T I e.m.M.n.x.n.V.B.T f P p y r C K K i.h.g.9.6.7.7.4.4.K C G r y y y y y r i a r r r a K y.4.5.5.5.6.f.h.k.h.y.4.6.q.t.e.N.D.c.I.S.U.C.>.>.}.tX6X8XeXuXuXuXBXNXNXjXjXNXNXmXiXtXtXeXeXeXeXeXeXrXtXtXiXtXiXiXtXjXjXjXhXMXNXBXBXhXDXlXDXIXzX  2XIXBXMXhXMXnXNXnXMXBXfXkXDX}.7 6 O   4 4 2 u.m D i , O O.FXfXNXjXNXMXMXsXMXBXnXMXNXjXgX0XcXPX>.Z.V.V.P.H.P.P.x.> ; . % % 2 # s W.d.. . , # # x - * * t t t G i.5.9.9.9.9.q.9.F r y y - - # % . % P Q Q P i.Q a.u * # # ! ! 0.J Q 9.g.B.j.; . X & % % - # u - ",
"* * l L K H A C C G r * B Q 9.g.g.0.p.p * # - n _ Q J ! e.m.n.n.M.B.d.g = r r k S y.y.5.5.i.9.J 6.4.5.2.2.H r r r p F L y.y.i.i.y.M M K 4.4.4.y.5.4.5.6.6.9.3.3.5.5.3.w.m.n.D.D.P.z.S.I. .[.SXvX6X6X6X6XeXuXuXmXNXjXtXtXtXtXiXuXeXeXeXeXeXeXeXeXeXeXtXtXtXiXiXiXtXkXfXgXjXgXmXBXNXhXhXDX<.:.O ] <.bXMXfXjXhXmXVXMXqXqXlXfXnXcXCXCXzXUX/.. y 1.1.1.l   :.bXMXBXBXfXhXNXMXBXnXnXBXNXgXjXNXBXbX).>.b.V.V.N.S.N.N.x.d.& & . . - u # , & % . 2 % - - l v P t * M 9.i.3.9.5.5.q.i.5.H * r - u % % . % / _ L K y.G Q u * # = ! ! d.d.g.g.J.J.j., . o o . . - * j y ",
"# * u F G G A C y p y r M J 9.q.q.3.9.a y * * l F L 9.0.0.g.d.d.v.d.T = # * * Z / K K 4.5.5.3.9.5.2.5.5.y.5.p * a p G L 9.5.K K 5.m m 4.y.4.2.5.a.y.3.3.3.3.q.q.6.r.q.e.V.V.D.N.U.S.S.C.>.{.cX0XqXtXtXtXtXtXtXgXNXjXtXqXeXeXuXuXeXeXeXeXeXeXeXeXeXeXrXrXtXtXiXtXtXkXgXNXNXjXmXNXNXNXMXFXe + 4 O 6 bXVXMXhXhXmXVXBXsXfXkXqXfXbXcXVXbXAX<.O & M a i G . ) ZXbXbXVXNXjXnXBXBXVXmXfXgXjXNXNXBXVXvXcX:.b.V.D.D.N.P.P.V.: $ & % # * * . & & . % % - # L _ i.B r M i.i.6.6.6.5.5.5.5.5.p p * - % % % % v v v L i.L L s * = > T ! B.B.m.m.h.h.d., & & . # % - y l p ",
"# * * y l K K C * r F L K 3.3.3.6.3.q.H G y # y * G 5.9.Q 0.! W ` c = # = r y K y.K K 4.5.5.5.5.5.5.3.K 9.i.p a p l G L L K K K i.5.5.5.5.y.y.2.H 2.5.5.3.9.q.q.3.q.w.W n.b.V.S.Y.I.G.>.CXcXwXiX0XiXmXgXtXtX7XgXgXNXgXtXiXuXuXaXaXtXeXeXeXeXeXeXrXpXpXpXiXrXtXpXtX6XtXmXNXNXNXNXkXMXbXIXe 1 3 4 O ZXbXMXhXhXNXNXVXVXNXhXhXMXnXwXuXgXFX5X,.b.; K z y * ` PX8 7 ZXcXfXnXVXuX0XNXBXgXNXnXbXcXcXiXcXo.:.b.D.D.N.N.H.n.v.` . . ; v j.d.. & 2 . j j.a.L i.9.J B 5.y.5.6.6.6.5.3.4.5.5.y.K r - # % % % % - y G a.a.i.s # = $ T ! B.B.e.w.9.! P # # & . % # * r G G ",
"# # # * l K K C * y / y.5.5.6.3.6.6.i.5./ u * * y K y.5.H 9.Q P v = # # r l C 4.y.y.y.5.2.2.2.H i.5.H p p p r * C G K y.y.5.5.9.5.3.5.5.H 5.y.2.2.5.K M F 9.9.3.r.g.g.e.V.V.N.D.I.C.>.>.CXcXeXXXuXvXmXpXtX7X6XgXgXNXgX0XeXuXOXeXeXeXeX7XeXeXeXrXeXeXeXeXeXeXeXiXkXtXtXmXNXNXjXfXDXnXZXIXq s x o O PXZXMXhXjXgXNXVXBXMXhXhXhXqXiXyXdXgXBXIXIXq = j - u j.UX8 5 zXxXbXcXcXvXwXiXmX5X'.'.;X[.cXvXcX+.>.=.Z.D.P.P.H.x.x.E @ < $ t W.v.: $ $ # G h.a.i.L L 9.5.5.5.5.6.6.6.6.6.q.5.5.9.y.p u # # % % % % # v j.h.h.x $ $ $ T Q h.g.w.9.J P P # . . . % # * r 2.5.",
"# # # * Z / G l y y / / K 5.7.7.6.7.5.L L u * * i G K y.K i.L v * # - * r C G y.K 5.y.5.5.6.6.2.y.K M r r r * * G K 5.y.5.5.2.2.q.3.3.i.i.y.a.a.a.y.H a M 3.a.9.k.L.J.n.V.V.N.S.I.;.>.).cXuXaXaXuXuXiXeXeXtX7XgXNXBXNXiXaXpXrXrXaXrXeXeXeXeXeXrXrXrXeXeXyXtXtXgXNXgXmXNXmXmXgXkXsXDXPXIX! p h 2 @ PXAXsXhXjXfXBXVXVXNXMXjXhXMXNXjXjXNXBXAXPX+ < ; n u # 3 q 1   5 e 5 7 ].iXwXFX<.6 + 5 + CXFXVXSXCX>.C.c.H.P.P.n.P.M.1 U V.V.V.V.M.T $ T d.p.i.i.9.3.9.6.2.7.y.6.6.6.6.6.q.q.9.B 9.P P - # # # ; = # u d.h.B.! $ & $ ! P Q 9.3.9.9.9._ ; # % # - * r a 2.4.",
"% % # * G K C i * y / K K y.4.7.7.7.5.K P ; * * * - p K L L u * # - l l l K K 5.2.6.y.7.7.7.7.4.K p a r p F l Z K K y.y.y.5.5.6.6.3.3.3.5.5.H M M M C H K 5.3.3.r.t.B.n.V.N.H.H.N.A.=X{.vXeX7XrXpXeXrXeXeXtXeXpXiXiXiXeXeXeX7X7XeXeXeXeXeXeXeXeXaXrXeXeXeXeXeXpXNXfXfXfXnXVXNXhXhXbX7 9 B H h - < E.xXsXkXkXjXBXBXVXNXjXkXkXjXNXNXfXVXVXFXZXO : X o ; _ . - F F = @ <.<.|.sX5XxX*.< ! $ 4 UXIXZXSX3X&.A.D.U.H.H.P.N.N.$.S.P.D.N.N.D.$.: e.B.d.s.0.9.9.5.5.7.4.y.6.6.6.6.3.3.q.p.w.f.Q Q u # # # $ $ $ = T ! d.b & $ . _ / F H H 3.J J P # . # # # * p M 6.7.",
"j - # * l G l y * r K K 4.y.7.y.7.2.5.5.Q t * * - * - G / / - # # - v L / i.y.5.5.6.6.7.7.4.u.y.C r r p L i.L / y.y.y.5.5.5.y.a.J w.w.J 3.f.y.r r r C 5.i.5.5.5.q.w.n.N.V.N.K.P.c.A.CXvXuXeXpXrXpXrXrXeXtXeX.X0XqX0X0XeXeX7X8XrXeXtXiXvXVXVXVXVXBXmXpXtXpXtXeXgXNXiXqXqXcXVXNXhXDXZX5 b M a Z z b O |.MXhXhXDXnXBXBXNXNXjXjXjXgXNXnXAXbXFXbX5 :.zX) & u G i V m A # zXIXZXFX|.O 3 * A i j ' e { PX3XX.>.S.H.K.P.H.N.F.S.D.D.S.D.D.S.D.V.V.B.B.Q 9.9.9.5.y.y.y.y.6.6.i.q.w.w.g.B.J.B.Q ! u # * # $ $ $ $ = . ; . $ . . j.j.i.K 5.q.3.L P * # % % - l 5.5.q.7.",
"S Z y y # - * - P L K 5.h.f.5.6.y.K 5.5.J L G * # % # # # . # # * r K L J 3.J q.a.5.5.5.2.u.4.a r r p L i.y.5.5.i.L L a.i.L a.d.V.M.B.s.L y.Z * r r M 5.6.5.6.6.6.f.N.S.D.M.K.K.$.>.SX0X0XeX7XrXeXeXeXtX6XiXNX0XiXtX0X6XeX7X7X7XqXBX5X<.[.,.>.>.+.+.cXuXeXeXpXyXgXyX0XnXnXMXkXhXDXZX1 J A Z z h H   ;XbXbXnXMXnXjXMXMXMXhXhXhXjXfXNXMXnXDXsX|.cXIXo.+ d p D k z k - j.:.' E.' 3 - l V A F t g 9 CX[.[.=Xc.P.V.M.S.S.S.S.S.S.G.G.G.S.M.M.V.B.d.Q L Q L L a.H a 4.4.6.q.Q 0.I ^ M.M.n.~ ` d t f u = $ # # % % . o   R v.x.x.~ W w.3.i.p u - . # . # u L H 5.4.",
"S S i y * - # * F L 5.i.f.a.5.y.5.J 5.3.5.5.L r * # . . . . . # * r L L J 9.J Q J J 3.i.5.y.S r r r C K 5.5.3.5.5.a.i.i.L P i.s.M.N.K.d.v l y y y a F i.p.q.6.6.a.0.N.D.D.c.V.M.#._.uXeXiXuXeX7XpXuXeXeXtXgXBXiX0X0XiXtX0X6XiXnXVXCX<.6 5 O w 8 O.+.oX0XtXeXaXeX7XtXiXMXMXMXjXhXFXZXT N y y z G N = /.ZXAXVXnXBXjXjXMXMXMXMXNXNXjXgXNXBXNXNXMXMXbXO.7 9 f D V k - n - - x ; j - j l j # $ < @ + 6 } cXSXC.N.V.!.D.F.S.S.P.P.S.C.C.S.D.V.K.B.s.9.Q 9.a.Q 5.F r C f.q.3.0.g : I ~.c.V.n.M.a.Q 9.L = * # % % % o o & ' v.V.V.e.W Q J i.p * - . # # # u L 5.y.6.",
"1.K C l * * # = P 9.3.5.6.5.5.a.9.5.5.5.5.3.H r * # . . # % % # * y L L i.g.g.h.g.w.Q J P Q G * r C L y.5.5.5.5.9.a.M r r p 9.s.~ x.^.d.* * y h.a.Q ! ! 0.e.g.B.g.! C.Z.Z.D.V.Z.CXvXaXrXeXOXpXeXrXrXrXeX7X7XtXeXtXtXeX0XuXmXcX} 6 @.0 + O + ;XZXbXqXgXtXeXeXiXiXtXiXmXmXnXhXjXsX8 8 * A S z k p 2.= e e |.BXVXnXMXMXMXMXMXNXMXNXDXhXBXBXnXBXDXfXwXbXPX:.. r S k < O @ $ > t L l * .   4 ,.ZXcXcXcXoXvXcX>.F.D.M.S.S.S.c.N.P.D.S.S.S.N.M.e.0.s.s.! Q a.9.L K F M y.f.f.g.d.n.~ U ~ V.M.B.s.9.3.J * # # # % . o . o < 9 M.n.d.e.! J i.p # - # % # # u i.K 5.3.",
"2.2.K G * * * t Q Q J J 5.5.3.i.i.5.5.3.2.J F y u # . # # % % # - y K G L g.B.B.B.g.0.0.d.d.! # y G i.y.L 5.5.i.p.a.a r M J 9.0.e.e.K.! = s = j.v.d.e.l.l.x.n.V.m.^ c.c.N.V.c.>.SXaXOXrXrXuXpXeX7XrXeXeXXXXXrXpXuX0X0XeXuXvX3X6 9 B g @ *.<.xXcX6X6X8X7XtXeXuXwXtXtXmXmXBXNXDXsX6 9 B m V i k G r f q O <.FXMXnXMXMXMXMXVXMXNXNXNXNXBXVXVXBXMXkXfXwXcXO.q d a ; 5 =.E.E.E.9 < X ' :.:.<.5XBXfXqXiXwXvXoX+.A.C.D.D.S.D.D.K.K.D.S.S.D.D.M.e.! Q ! 0.0.0.0.9.p.i.p a h.T.B.d.!.x.: R V.B.B.h.f.q.q.t = * # % . . % . X X B.B.B.B.Q J a.p # - % # % # p i.5.5.5.",
"3.4.5.L r * * t Q 9.9.9.5.5.3.3.5.5.5.5.3.3.5.G v ; # # # # # # G / i.i.i.h.B.B.B.K.B.n.V.V.d.> * G / L L i.a.f.f.a.M a 5.i.9.9.W d.^.v.= # > V.M.M.N.D.D.S.S.H.U.H.I.N.P.N.%.+.vXrXyXpXmXVXiXiXaXrXeXuXrXrXrXeXwXmXgXyXeXvXCX6 G M * @ ;XZXcX0X7X8X8X7XeXpXnXnXhXfXmXmXmXNXDXbX6 g 2.m V i k C L p T 6 |.AXnXMXMXMXMXMXVXVXNXjXhXNXnXVXBXBXhXkXqXfXAXO.+ +   + 7 IXCXZXPX6 5 + xXPXZXbXMXgXjXjXtXrXpXuXcXzXF.P.S.S.N.V.K.V.K.P.V.V.V.V.n.d.x.m.m.m.m.d.w.p.a.a * = b T.v.T.~ : > d.s.s.f.r.r.6.J p * * % % . % & : X T.T.W.B.Q L i.p # - % # # # l i.3.5.3.",
"7.4.5.5.r * * u L L 5.H a M 5.5.5.5.5.3.5.5.5.5.v - # # # # u u l G L L Q a.d.d.e.B.n.n.x.~ I $ = v G v F G G K H H M H i.q.q.9.Q Q j.! = s ! M.V.M.S.S.S.S.S.S.U.U.P.N.H.S.>.'.vXeXoX}.:X:X|.0XwXuXwXuXrXOXrXaXvX}.].qXmXcX2X. k V 3   ,.bX0XeX7XrXrXrXeXiXnXnXsXfXBXNXgXfXMXZX: N A m N M V l y a s.R ,.ZXbXMXMXmXMXMXVXmXgXfXMXMXMXVXVXMXjXkXqXqXVX} 7 >.:.+.+.SXcXcXcX+.+.O.5XVXcXwXiXtXgXgX7XrXeXrXnXcX>.S.U.S.V.V.K.K.K.!.!.D.M.V.V.n.V.V.V.V.K.B.w.q.a.F P = = j.T.T.T $ > s.Q q.r.r.r.r.9.G p * # # # # . $ $ ` d.d.d.Q L K i # % % # # * v 9.H 3.9.",
"7.3.5.y.r * * u L H J M r a K K K 5.5.5.6.3.5.L v * # # # * v L L L y.i.Q 9.0.Q ! x.B.V.x.d : $ ; v u * r r * r r M 2.f.f.i.i.3.i.p.p._ t g n.!.V.N.D.D.S.D.D.S.U.U.M.V.D.F.3XvXvXoX8 + 4 4 e O.AXMXnXvXeX7XyXvXAX+.7 cXvX7 @ Z h 2 4 O |.SX0XOXrXrXOXaXeXfXNXMXMXMXnXmXgXDXFXIXt 1.V V A A Z l G M f.I ;XIXBXfXnXmXmXmXmXnXfXfXMXMXMXNXhXMXNXgXiXmXSX[ 7 CXZXbXVX0XiXiX0XfXmXtXqXqX0XqXnXmXBXvXeX8X7X7XtXcX>.I.S.S.V.V.B.x.^ g : 1 : ~ b.M.M.V.N.V.K.K.t.w.f.9.i._ ! = # # = = u a.Q 9.q.q.r.q.6.y.K i * - - % & . , = > T T Q G p * # # # # # * l 9.J p.g.",
"7.2.2.L r * r p 5.K 5.2.M A K C i F H 5.5.5.5.L P - * * # * F L 5.5.5.3.3.9.0.w.0.s.d.B.` $ $ > # ; * * v F B H M H 6.f.q.6.i.5.y.G a F g W K.x.V.M.N.N.N.N.D.S.U.U.M.D.;.>.SXuXvX3X5 ; ( 2 < | |.<.<.|.0XtXeX}.xX{ 5 CXSX7 & V z 2 4 6 |.cXuXrXrXaXOXpX0XfXjXsXsXMXfXNXjXMXxXE.i 1.m V A M z y u p f.Q /.zX5XDXnXnXmXmXgXfXtXtXMXBXMXhXjXgXmXiXvXwXVX].'.vX0XwXfXiXtXtXtXyX7XyXyXgXgXiXnXBXVXmXyXyXyXtX8XwX>.S.U.P.V.M.M.n.^ g I I : R V.M.n.V.V.V.V.K.g.w.p.a.9.Q P = = * = * * L L 9.9.9.r.q.H y.L p * # * # # . ; . $ b b ! l * # # # # # # r M 9.J p.h.",
"4.y.A y.r y * y y.K 5.y.2.4.K i * a 5.5.q.3.i.K P * # * # * F a.a.3.q.3.q.9.w.q.w.9.9.i.Q * * # u # # * v a.p.9.q.a.q.q.a.q.f.q.a.C r r Q s.m.e.e.x.e.e.~ e.n.K.U.P.c.Z.>._.cXuXvX}.5 . % . P = O +   ;XAXcXvX} + 4 + UXPX5 2 2 %   O 6 |.vXpXXXrXrXrXrXeXkXjXhXMXsXhXjXgXFX8 X V D V V N M h 2 l l J d.9 + |.DXnXNXmXNXjXtXtXqXMXMXhXfXjXjXmXiXwXvXvXvXvXiXtXtXqXNXNXpXpXpXpXmXmXNXmXNXmXNXmXmXmXdXtXtX6XiXX.Y.Y.P.M.x.x.x.H.P.V.W.R : ~ V.V.V.V.V.K.K.g.9.f.q.q.q.9.J Q i.F * p i.L J i.w.9.3.3.y.L p r # * ; % # . . & $ # * # * - # % % # v L 5.9.9.9.9.",
"2.5.H y.y * * y y.4.5.y.2.4.K p * a 5.K 5.H 5.L L * # * * r G 9.9.3.q.3.q.q.q.3.q.3.L L L * * - # * v v P 9.9.q.p.p.a.q.p.9.p.9.f.a r M p.w.e.e.e.e.0.e.0.e.g.m.m.M.V.Z. .+.uX0XcX3X[.,./.:.p M ; 3 3 :.,.:XIX{ @ n & T.E.+ 2 . ) 1X=X<.}.iX7X7XrXyXpXiXtXfXNXhXsXMXjXkXfXFXe t z z k V N M j 2 u y i.j.Y O |.VXbXnXnXmXjXdXkXmXnXMXMXjXjXmXNXiXiXiXuXtXiXtXtXiXtXfXyXtXaXpXpXiXmXmXmXmXfXtXkXgXgXgXqXqX6XwX[.>XY.N.M.c.c.c.N.P.K.V.T : I ` ~ x.V.M.m.m.t.q.f.r.r.r.q.9.5.y.G r l G i.a.Q P a.p.5.5.5.F t t = * # # # # % % # - - - - # # # # p L 5.3.q.9.9.",
"L y.K i.l * * y y.4.y.y.4.4.K l r u H K 5.5.i.L P * # * * r F 9.q.q.q.3.3.q.f.f.i.5.y.y.y.y - - * P _ P P 9.9.q.q.w.q.q.p.9.0.J f.M a 9.h.w.e.g.q.p.q.p.a.9.q.w.L.z.N.C.X.).vXwXwXcXvXcXVX;X  v n 2 j % O ;XIX) r 1.1.a s : * . ,.IXSXcXvXiX6X7XyXgXmXiXqXmXBXNXNXMXkXhXFXIXR H z z k D N M j j G r i.i.T O xXFXbXsXBXNXjXjXkXmXNXMXNXMXmXmXBXgXiXtXtXtXtXiXuXpXiXiXrXtXiXiXvXwXvXVXBXNXtXtXtXyXBXBXiXiXtXiXSXUX%.l.l.M.D.S.P.P.V.W.v.d.x.~ $ > B.n.e.e.e.r.r.q.r.r.q.3.3.5.y./ F * p _ P a.Q.JXi.y.a.9.L Q Q v # - % # * * % - * # # # # # # i L 5.6.6.9.9.",
"P P p l y * * r K K 5.5.2.5.L F F u u F i.i.5.a u * * * * r F 9.J r.J.g.f.r.q.6.a.a.K V k * h G v Q L P f.h.a.w.w.w.0.0.e.0.s.! M f B Q s.w.e.w.q.q.i.a.f.f.g.g.L.H.N.>.:X}.wX0XuXuXrXXXgX}.+ c , x l - 4 b.2XE H 1.8.1.a d R /.:XSXwXuXeXeX7XtXiXmXNXiX0XqXiXiXfXfXkXMX|.<.$ M j 2 k V V M h u C r F _ ! 9 ;XxXcXwXBXNXkXdXNXMXNXMXhXfXmXgXmXiXtXtXdX8X6XiXuXuXpXtXyXpXiXiXwXwXnXBXBXBXfXtXtXpXiXnXiXtX7X0XAX1X$.x.m.M.D.D.P.H.K.K.x.d.` T $ g B.m.d.0.r.r.q.q.r.r.r.f.f.i.y.i.G * p _ Q _ d.p.4.2.5.9.! 0._ v # * - % # # # # # # # % % # * r 5.5.6.6.6.3.",
"P ! s # # # * * K 5.3.3.5.i.9.L i.l * a 5.5.L * * # # # * u P 9.w.h.Q.Q.J.f.q.3.5.y.G * * * z y.i.i.9.p.Q.Q.h.0.0.e.s.! ! ! e.g * P s.0.d.e.g.0.f.f.f.a.p.p.e.d.n.P.c.>.cXvXuXeXuXeX8X8XrX].6 O @ 9 u v c 1 + 9 f 1.1.1.l   ] IXAXqXtXeXyXtXtXiXiXmXmXnXiXiXiXiX0XgXDXFX<.  P A j j h k m i p i M C y.(.i.d 9 + xXbXMXNXjXjXNXfXNXNXMXgXNXiXiXiXqXkXjXkX6XiXuXuXaXeXyXpXiXtXtXqXfXMXBXBXfXiXiXpXuXiXfXtXtXtXBX:X@.m.m.m.V.D.P.P.M.K.n.g.d.s.s t s.d.s.0.p.r.q.q.f.r.r.r.q.q.a.p.G a * * F _ Q L y.y.a.9.! Q Q f * # - - # # * # - # # % % # * r 5.5.6.6.6.5.",
"d.v.` $ $ $ n P P 3.3.3.3.9.Q P _ j * p a.i._ r * # # # u L _ Q Q 0.g.9.9.J J 5.H y.L r r * j / K 3.9.9.f.h.0.w.w.s.m.g.m.n.n.I $ T d.x.m.e.e.s.q.a.p.p.g.g.d.x.N.D.c.o.cXuXeXeXyXrX8X8XrXuX:X:XzXE.1 : < 1 O 9 , v i D (   6 AXMX6XyX7XyXeXeXeXmXiXwXqXuXeXeXrXrXtXsXIX,.o L C v l h y i i M N N A i L r B I + ;XbXqXqXNXNXMXMXnXMXgXtXiX0XuXvXwXfXfXkXtXtXuXuXaXeXtXrXeXeXtXtXtXfXMXBXmXmXiXiXiXuXfXtXgXgXmX}.w x.L.L.x.l.m.m.m.m.d.0.0.a.t # v Q p.p.q.r.q.r.f.r.r.q.q.a.a.p.J L a * P a.Q i.4.4.3.9.0.Q ! B u * # - # # # # % # . # # # p C 5.6.6.6.6.5.",
"v.V.` X $ $ T Q J 9.9.9.w.w.! Q _ v * p L G L u * * # # j / _ L Q Q a.Q 9.9.9.i.a._ P * * * u i.p.a.p.q.q.q.q.s.w.s.B.W.!.W.W.` : d.V.V.K.n.x.s.g.g.s.s.B.M.l.z.H.U.D.>.CXuXrXrX8X8X8XtXuXwXcXcXVX|.5 O O @ 5 O O 4 ( z o O O.VXfXtXtXeXeXrXpXpXNXgXtX6X7X7X7XrXrXmXDXIX/.y y v B C l k k V N N N A a l y F B 1 zXZXsXqXnXnXnXMXNXMXjXkXtXiXBXvXAXAXbXBXDXkXtXtXiXiXtXeXrXrX7X7X7XtXgXNXNXNXfXiXuXiXkXgXmXmXyX}.8 ~ r.t.x.x.m.m.t.e.g.g.f.j.p * r p a.p.9.q.q.q.6.a.p.f.p.a.9.9.a.p.P r B i.i.a.y.i.9.p.B.m.a.Q v - # - - # * # # . . % # - P L 5.6.6.6.6.5.",
"V.v.` X > $ ! ~ d.g.m.m.m.n.n.B.v.! $ # = * u # # - * * p L L L i.Q a.9.i.3.3.L G u u # u * t a.q.q.f.r.q.q.q.p.s.0.d.x.d.~ ~ : : x.D.V.V.n.x.! g g g W n.P.V.P.U.U.Z.=.cXuXrX8X7X8XkXqXuXuXqXqXwXcX}.CXzXzXCXxXPX] o o 4 zXSXVXmXiX0XpXeXeXpXeXiXtXtX7X7X7X8XrXeXmX}.8 . G l l p C G G G Z N N N A C C L Q w.I w O.}.kXfXNXmXnXMXfXjXdX6XiXvX|.{ O.{ |.BXsXjXjXgXjXpXtXrXrX7XrX8XtXyXgXfXjXfXmXmXgXtXyXmXpXyX0X;X~.B.g.x.x.g.g.g.t.t.s.a.a.r * r y a.p.3.q.q.q.q.q.9.J J 9.g.n.B.m.0.t r L L 5.i.i.w.s.K.B.Q Q Q y * - - * * * # # # ; - - P L 5.5.6.6.6.5.",
"v.v._ > = = d.d.x.V.M.c.V.Z.c.b.Z.U @ X 1 . . % . - - # l y.5.a.q.q.6.f.r.6.y.5.G u # = * * f a.r.r.r.r.f.f.r.q.9.s.h.d.v.T X : : x.D.b.V.!.!.< X : : ~ D.D.D.D.P.D.>.+.wXpXXXyX8X8XeXeXeXtXtXtX0XiXwXwXwXiXuXvXcX[.,.O e ZXvXvXvXvXuXtXtXeXtXeX0XpXOXuXrX7X8X8X6XVX|.O < a S i l j n _ / V i V m V M a Q s.3.B > + 5XqXlXjXiXBXnXhXNXfX0XiXcX+.+ e + |.IXFXDXMXdXdXyXeXiXeXpXeX7XyX7X8XgXjXhXBXmXmXiXyXmXmXpXvXSX;XD.N.c.V.W.s.d.e.e.0.d.a.j.* * l i.j.p.w.w.w.e.x.g = t ! B.V.D.D.E X $ ; _ _ Q ! K.M.K.x.0.Q i.t t # # # # % % # # # # - / / 5.i.H q.a.6.",
"` _ b = = = d.x.n.n.M.V.D.Z.C.C.C.$.;.E @ . & o % - - * C 5.3.6.3.r.6.6.6.6.y.M u - # $ * t H q.r.r.r.r.r.r.a.f.a.i.t # s $ $ v.V.D.D.V.V.-.E X < b.b.V.D.D.D.D.P.Z.:XwXvXpXtX7X7XtXrXrXrXeXeXtXpXmXfXkX9X8X7XpXvXSXPXe 6 AXvXvXvXmXmXgXtXtXtX0XtXuXuXuXOXrXyXyXqXVX;XO ! a a S a.n x v l i V D V k a a Q d.a.a.L O xXbXjX8XBXmXmXNXNXmXmXmXBXcXZXO.  :.;X,.5XDXgXjXfXwXvXvXwXiXtX7XtXyXgXNXNXBXNXNXiXtXmXvXiXiXvX{.G.S.D.M.B.B.n.n.l.V.x.n.v.d.t r p Q g.g.d.x.z.M.! = t d.b.b.C.C.-.-.Y . n j.d.x.V.M.x.e.Q 9.9.f f = ; - - % % # # - * y / y.Q p.9.9.J 9.",
"b n s = t = a.m.n.x.M.D.c.b.Z.c.C.C.Z.E X . & . % % * * M 9.q.q.q.p.q.6.q.y.y.l # % % . # u G 5.9.p.p.a.a.i.5.i.a.a.p u * * # j.V.V.n.V.!.I X : 1 V.!.D.C.C.D.S.D.#.3XvXuXOXeX7X7XtXrXrXrXeXtXiXiXiXkXdX8X7X7XpXvXcXbX{ O.bXuXpXiXjXjXdXlX8X8XtXtX0XpXuXuXeXeXiXwXZXzX@ t M N y.j.n u a i m V V z k C B Q s.a.f.F : UXcXnXfXnXnXfXnXmXmXNXfXhXbXZX:.< > O + 5XGXFXbXZXZXZXSXcXvXvXeXpXeXpXmXBXmXjXhXsXwXnXiXtXtXgX{.>.U.P.P.P.P.P.P.V.V.D.V.V.M.g > = ! K.W.K.K.P.!.B.* u B.B.c.S.C.c.!.T $ d.!.!.V.N.c.~ d.9.y.a.i._ t = # - % # # # - * - v P Q Q 0.a.J p.",
"# = = # * * ! d.g.d.V.V.~ x.D.b.C.Z.Z.x.-.< . % % # * * p 9.0.w.p.0.9.f.a.M r - . % o . # v / i.a._ v r r r * r * * r r * P p.j.d.n.e.d.V.g $ v.-.V.D.D.D.S.F.F.F.&.oXuXuXeXrXeX7XeXaXuXrXeXtXiXgXfXkXyX7XtXpXgXmXBXbXwXcXiXnXeXkXjXjXjXkXkXdXdXgXgXqXtXmXmXnXVXAX{ e 1 p m m S f.G a M A V k h h h p t t f _ h.H s *.{ '.FXVXsXjXfXmXBXBXmXjXsXGXO.$ w.! O xXZXxXe 8 8 6 7 [ 7 oXuXaXeXpXeXpXqXqXlXqXqXiXqX6X6XmX{.#XI.S.U.P.^ ^ N.P.M.D.N.D.M.c.~ > W n.m.l.m.l.d._ # * T.M.c.C.C.V.!.I = T ` ~ $.N.N.e.0._ K S y._ = # $ % # # # # # # # u d g.Q d.d.f f ",
"# % * # t t Q Q s.d.B.x.> I M.M.D.S.V.b.b.R . & # # * t t J w.! 0.Q Q p.a.p * # . o o o % j G / _ n 2 % - - - - u * a * a J f.9.! s.g.a.d.b g v.M.V.c.S.F.S.G.G.G.&.oXuXaXaXeXeXeXeXuXuXrXeXtXfXgXgXgXtXtX6XtXfXfXmXnXiXiX6XgXqXhXfXhXjXjXjXjXjXkXDXkXfXfXMXBXAXPXe O x M A S y.y.F M N N V z k z z l p u u P j.H B x.w ,.ZXcXMXhXkXmXVXVXmXNXhXFX<.) g g > zXPXUXe + O 6 7 [ 7 oXvXrXrXyX6XyXtXqXtXtXeX7X7X7XtXnX{.#X$XG.I.P.I ^ P.P.I.N.S.c.D.D.x.> W M.x.e.d.e.~ a.* j B.v.V.c.c.M.!.I > > $ : I D.N.x.W i.y./ i._ s s $ % . # # # $ $ $ $ d W.B.V.B.= * ",
"; % * * P Q a.Q Q 0.g.W = g d.x.D.N.V.x.~ > $ # . # = b Q 0.0.0.Q Q f = t * * . % % % % % % - - # % % % % % # * * * r p h.a.p.p.f.9.g.B = P n.B.n.V.D.S.F.F.I.F.G.&.cXvXuXaXpXeXeXeXuXuXrXeXtXtXjXNXmXNXBXqX0XNXNXtXgXgXgXgXfXMXfXsXwXiXnXNXjXjXjXjXjXsXBXbXFXO.+ @ _ y a S i i K M N 2.N V k z 2 h h v s & - y 2.h.w.^ e + xXFXsXHXNXVXAXBXjXhXMXGXIX) X q e O +   O 5 zXPXCXSXvXpXeXyX7XtXgXmXuXuXrXyX8X7XeXwXVX{.>.G.@XF.I.H.M.~ I ^ N.D.D.V.V.x.: I n.d.d.d.d.d._ * * v ~ V.M.M.n.K.0.W W ! > $ U ~ M.d.B.j.h.j.! d T > # . # # # # $ $ : Y n.b.!.x.# = ",
"% # * u L L i.L 9.w.J B f J 0.d.n.M.V.n.d.d $ # # # * a.B.p.! Q a.a.v # * ; ; # . . % % % - * # # % # # - - - u r a r F f.9.9.f.p.9.g.B r 0.B.m.n.V.D.S.S.F.I.S.D.=.cXwXoXuXuXuXuXuXuXaXeXeXtXtXgXgXnXVXVXbXwXfXNXyXtXtXyXgXiXMXnXbXvXvXnXBXBXNXDXqXMXbXFXIXIXe 4 x y i K m * C p M 2.2.A V h 2 ( z h u ; & ; * a.f.r.w.R O ,.xXsXkXfXnXBXmXgXhXDXMXGX<.<.5 O o.O.O.O.<.xXcXcXvXeXeXeXpX0XnX].].aXrXyXpXtXtXuXwXVX}.>.>.Z.b.S.P.M.g : > V.D.!.W.!.B.> d d.Q d.m.d.d.P y * * Q B.x.M.B.B.g.0.e.s.u # $ R !.!.W.B.T.v.~ ~ ~ > # % # # # . $ $ : R V.v.b.` s P ",
"- # u v / K K 5.a.J a M i.a.Q s.e.m.n.B.W.! # ; ; # # j.Q.Q t t * u * * u # # # # % % # # * * * # % * u P _ _ _ i.p.9.f.9.p.p.0.q.p.g.a a 0.s.m.K.V.V.D.I.U.U.I.I.>.CXVXVXVXvXvXuXuXuXaXrXeX7XtXeX0XBXFXVXAXVX].).tXyXgXfXjXNXnXMXMXBXnXVXBXmXmXfXDXFXZXO + e 4 x G G 4.i i / j v M N 2.N k 2 2 - y - - % # ; * p f.k.a.Q `   O.FXsXsXMXBXmXNXjXHXDXGXFXIX+ 6 PXIXFXAXFXnXwXiXeXrXeXtXiXwXnX} +.BXmXmXmXfXnXVXSXcX[.=.Z.:.:.P.N.V.V.V.x.I d > d s x # P j.d.B.M.M.V.s._ F * t W W m.B.0.a.9.e.0.- 2 $ < I I I d.!.V.c.V.V.I . % % # # . . . X Y !.R : < $ x ",
"% # j n G / 5.5.9.5.r a 5.L i.9.w.e.d.g.d.b # # # # ; _ j.P = = - * # ; = # ; x v - l p a f f t t p F P Q Q 9.a.Q p.p.s.0.w.s.s.e.w.g.B r ! s.B.m.K.K.V.K.D.N.N.V.b.;X|.}.oX}.oXiXuXuXaXrXrX8X7XpXvXVXZXFX5X'.'.].6XtXfXhXnXnXfXhXkXjXfXfXmXmXmXnXAXZXxX+ O = f C Z i V i h % - u p N N m h 2 2 h y - % % % * * y l K / l P d R /.|.FXsXhXjXjXjXhXMXMXbXbX|.|.bXMXhXfXfXkX6X6XrXrX7XeXaX0XvXVXcX<.<.FXDXFXbX;X,.O E b.D.:.:.V.K.V.N.M.V.R : $ ; # u # v g.v.n.V.V.x.d.p.Q P g = g g.h.p.a.i.0.Q h . & X : : $ R !.x.D.Z.R.U X , % % . . . . , < T.I : X # # ",
"# # j / L L K 5.i.6.r M a.y.y.a.9.0.0.f = # # # % % # # - * * r - h # # = $ = d a.a.a.i.i.q.0.s.r.p.p.p.p.q.q.0.g.g.w.0.s.e.e.e.g.0.g.B a w.s.t.g.g.e.e.x.m.m.n.m.I 7 7 7 7 7 } vXiXvXaXrXrX7X7XpX].6 |.IXO.[ ].vXpXiXfXfXMXVXfXkXkXkXkXkXtXjXmXFXwX7 + O @ s a r y r i y h % % - y a m i - % % y r # % % % * * - - % h p p a d O ,.IXbXNXkXjXjXhXMXMXBXDXMXMXDXhXjXjXjXgX8X7X8X8X8X7XaXeXuXwX|.+ O.ZX5X5XxXO O O : g l.E./.!.n.M.N.D.D.V.V.W.T.# # # _ V.V.V.N.M.l.d.s.a.Q W g t 0.p.a.i.i.0.Q n 2 $ : : : $ : X ~ ~.c.Z.Z.V.9 % % . . . . & , : X $ $ ; - ",
"# # u _ i.L L 9.q.3.r M a.K C L 9.a.p.v # # # % . % % # - * * * * u # $ ! R T ` i.p.a.3.q.w.w.t.r.r.r.r.r.r.r.p.r.0.w.s.B.m.m.m.m.g.g.g a w.g.0.e.s.e.e.d.d.! W 3.d ,.|.|.].].}.wXiXuXaXrXrX8XeXpXoX<.|.xX|.'.oXvXeX0XfXfXMXnXiXlXlXkXkXkX6XgXgXMXMX}.xXPXe @ $ # - k y * - % . % - y a y - % % r a - % % - y u j 2 % - l u = g @ e 8 '.BXhXjXkXfXnXVXnXnXMXMXsXMXMXnXfXtXeX7XrXrXrX7X7XrXrXpX0XcXcX+ + + + 5 + e w g w.W I W V.D.S.S.c.D.b.v.` s # $ ! e.l.S.S.N.l.0.s.p.p.w.W g B G / i.a.d.` ` R @ : 1 $ $ . . R b.Z.C.C.R.1 # % % % . % % & . . $ # * - ",
"# # u L i.9.9.9.9.9.a M a.F r F 9.9.a.F * - % . . % % % # * - * * * = d.!.b.~ d.a.p.f.6.q.r.e.w.w.r.r.r.r.r.r.r.w.e.e.g.K.K.K.K.K.J.g.B g w.s.g.w.s.g.g.g.s.B r B d.zXZXbXvXcXwXiXiXaXaXrXrX8XeXaX0XFX+.5 5XVXvXuXeXqXMXMXMXnXiXfX6XjXjXkXlXgXNXjXnXcXbXZX6 8 O 4 . - - * # % . % - y i y - % % r a - 2 - - l F j z j z - . 1 O O + + <.FXqXfXNXnXnXBXBXVXhXhXkXMXVXfXqX0XtXeXeXrXrXrXrXrXrXyXiXmXwX+.[.[.[.[.;XPX2X> a g g @ x.Z.S.S.c.D.D.V.v.d.d $ > : U S.S.P.m.e.s.a.p.s.w.g.J * * v _ B.V.b.V.b.D.!.j.; . % . @ ;.F.C.F.0 $ # % % % % % % # & = # G G ",
"# # u P Q 9.9.J q.q.J J p.F * F a.G F y * - % . % % . # # # - = T d I x.b.c.x.e.0.9.i.y.5.p.s.g w.r.g.f.r.r.r.q.w.0.w.e.d.m.B.K.d.a.! B Q 0.r.p.q.s.p.9.9.f.p.B 0.$.:XcXwXwXwXqXqXeXaXaXrXrXeXeXeXiXiX|.+.0XwXuXuXiXqXqXsXfXiXmXnX+.nXMXtXkXtXtXkXfX0XwXcXcXbX|.:.o & - - * % % % % y y r y % % r r - 2 - y C G / z k y # ' zXxXxX:X|.5XVXVXnXtXtXfXmXNXNXfXfXjXhXMXfXqXkXfXiXeX7XrXaXaXaXrXrXrXeXiXmXmXvXvXVXVXbX:X@.l.E w e ) c.D.D.D.c.b.c.b.V.~ > > : U P.N.N.g.s.p.a.a.s.e.g.B * r P d.c.Z.b.Z.C.c.E.-.o % % &   $.F.C.F.6 $ # % % % % % % # % * = a.i.",
"# # s Q Q Q 0.9.q.9.9.9.a.P = F a.l r * * - # % % % # ; - # - = ` v.D.R.Z.F.D.~ s.q.f.f.y.a.i.a J q.f.r.q.q.q.q.s.q.0.g.s.g.K.B.a.P a B d.g.g.f.p.s.q.a a a.h.g.m.@.:XcXwXwX0XqX6X7XeXrXrXrXtXiXpXpX0XiXmXqXeXpXeXiX0X0XtXgXgXBXAX7 cXVXfXjXqX6X6XtXtX0X0XqXqXbX;X4 & = u y - % % - y y a y = = = * % % - i C G G k D V # :.IXbXFXAXFXbXVXVXBXNXkXjXfXfXNXNXnXMXhXMXfXfXhXjXfXtXuXaXuXuXaXaXaXpXtXtXrX7XtXgXjXqXMX}.A.>XZ.E.:.@ : x.V.~.D.~.Z.b.V.-.> > > ~ T.d.t.e.p.p.a.a.s.w.B.Q t # d ~ c.Z.C.G.F.C.F.-.  & o & X -.E.E.E.9 $ * # % % % % % - ; * t 9.J ",
"# # u Q Q Q g.J.0.9.w.Q 9.P = u F a * * * # . # % # # # . # x b -.b.Z.A.C.A.F.c.~ p.y.f.y.A p p 3.a.p.a.a.p.p.q.a.a B p.0.e.g.s.f.P * p p.p.q.q.q.f.q.M r B p.g.x.7 }.vXuXeXeXtXdXyXrXrXrXeXtXtXrXeXtXeX7XeXeXeXeXeX0XtXtXgXdXmXZX5 5XVXnXMXkXtXgXeXeXeXeX7X6XBX;X  X $ u r - - 2 - y y i a u = $ & % % y i C H Z C 1.N # ] FXsXsXsXhXMXnXnXfXjXkXjXjXhXjXNXVXVXmXmXgXhXhXhXfXfXiXuXeXaXtXeX7X7XiXiXiXgXmXtXjXfXfX}.>.G.Z.F.D.I d ; d I 9 E -.Z.c.-.$ $ = v j.i.w.w.a.a.f.f.f.9.! W t $ ! x.;.C.G.G.G.G.C.;.q X X   @ ) -.b.b.1 $ = % # % % % % # * = f a.9.",
"* # u i.Q Q Q.JXs.Q w.Q Q Q = * * * - * - # . % . # % = # = _ ` b.Z.C.G.A.G.C.D.~ g.a.a.f.r * 9.a.p.q.9.a.f.f.i.h.f a s.g.e.g.0.p.L * f j.j.j.j.p.p.f.3.a B a.g.n.| :XiX0XeXtX8XdXyXtXrXrXaXiXiXtXyXpXeXrX7XrXtXiX6XeXyXtXgXgXBXZX6 xXbXnXfXhXNXfXpXeXaX7XgX8XiX[.  4 $ u # r - . o # * $ $ : @ & & % - y k l G Z y.u.A   8 DXkXkXhXkXhXMXMXfXjXhXhXDXDXBXnXVXBXmXmXmXNXNXnXnXNXnXtXtXiXtXtXtX7XqXqXmXBXNXNXjXkXfX3X>.F.~.S.I.^.W.= $ $ 1 : $.!.M.v.> = ; u a.a.a.q.a.a.a.h.g.Q = > $ $ x.!.Z.F.$XG.G.F.Z.~.^.` $ . X     E./.1 : $ & # # % % % * * = t 9.w.",
"; # j y./ 5.i.3.q.r.w.s.! ! ! # # * # # % % # # - # u Q _ ! Q x.b.C.C.G.G.G.Z.D.~ s.j.K p 9.h.e.t.t.0.f.9.a.a.p.t B s.s.e.s.a.a.j.L * r r r u r u i.p.f.f.p.f.f.g.0 }.iXeXeX8X6XgXtXtXeXrXeXtXtXtXyXiXiXuXuXiXiX0XfXeXeXeXeXtXnXZX5 xXbXsXsXhXfXfXnXfXgXgXtX7XuXVX,.  & & = a = + ,.q 6 8 :.>.5 o % $ > ; - j - l C a ` xX5XnXmXfXfXhXfXkXgXjXgXMXbXFXO.e VXVXnXiXiXgXNXNXNXMXmXfXtXiXiXtXeXeXtXfXfXfXMXmXNXjXdXVX:X>.F.Z.Z.D.P.e.! ~ d.d : d ! v.d.* # r p f.9.9.a.5.p.i.f.W.` $ > : I x.!.x.$.z.z.P.P.N.n.v.b # = = $ , R Y X X $ $ . % % % % - # P ! d.0.",
"% # j / / y.i.9.q.w.w.w.! d.d.x # # # # % % # # # - v Q a.0.s.x.V.Z.G.G.G.G.Z.V.v.Q _ u = d.e.e.e.t.e.s.p.f.f.h.B ! d.s.s.s.p.p.f.G * r a r u u f _ a.p.g.f.f.f.g.E }.nXeXrX7X6XgXfXtXeXrXeXeXtXeXyXiXwXwXeXeXeXqXqX6XrXeXeXnXAXPX+ ZXZXMXMXsXMXMXMXnXgXgXyXtXtXVX,.O 3 & ; a : ,.:X,.7 +.CX:X{ o - = d > . o o x F p E.GXfXmXmXnXfXfXnXfXgXgXfXnXVXFXe + ZXVXwXiXtXfXfXmXNXNXNXfXiXfXgXtXeXeXtXfXfXhXNXNXNXdXkXVX:XA.I.R.F.D.V.V.V.W.V.I > $ # T.h.u * * u h.f.a.a.5.p.a.d.T.v.$ < x.!.!.!.x.^ e.l.K.K.g.d.a.f r * # # # & & . X X # % % % % % * * _ Q x.e.",
"% % - u F L 9.q.w.s.J.B.B.W.T $ $ # # # % # # - * F i.a.0.p.e.0.~ b.D.F.G.G.D.D.v.d > # > T.M.V.M.K.n.g.Q P p B 0.s.B.m.e.s.0.q.j.H a F a.p.p.a.i.d.g.g.g.t.t.t.q.9 }.wXuXOXtXtXiXtXeXeXrXrXeX7X8XyXgXfXyXtXrXeXeXuX0XeXOXuXcX+.O.O 6 { |.bXfXfXfXmXmXmXmXiX6X6XVX,.  % . & = O {.}.:X7 ).].oX[ & k t s t : :./.` T = :.GXkXMXnXgXkXqXqXqXiXgXnXVXZXIX8 + bXMXBXiXqXqXiXfXNXNXNXNXmXNXmXiXeXeXtXnXfXjXNXNXNXjXgXvX:XG.F.F.D.V.M.e.x.n.x.g > = # ; x * ; u v j.p.9.p.9.p.Q t s = > $ T v.~ ` d.e.e.e.m.d.! 0.s.i.F y * * % . . . % % % % % % % # . , v.x.b.c.",
"$ = # # l L 9.q.w.e.K.n.n.W.> $ % # # # % % * - y P a.9.9.p.r.! I -.Z.Z.C.C.D.V.V.d . > < V.M.D.D.D.V.v.> * t t d.B.K.B.t.t.s.p.f.G * p p.f.f.q.p.g.g.g.t.t.t.g.g.R ;XCXAXAXAXvXwXqXeXeXrXaXrXrXrXdXjXjXdXyX8X7XeXuXeX7XOXvXcX5   3 @ O [.ZXnXnXfXjXmXfXiXtX6XqXVX[.  % % - t O :X3XCX[ ].oXcX} $ a a u g @ ,.zX:.R # :.GXkXhXfXfXtXqXwXqXiXgXfXVXZXPXe e bXnXfXgXtXtXiXfXNXNXNXnXhXmXNXfXtXiXiXnXfXjXjXgXgXmXgXvX:XA.I.P.M.x.l.e.~ e.d.b s = u * ; # * - v j.h.P a.9.a.! # = = # # d d.T ! 0.Q e.e.e.0.0.a.a.Q i.l * - - # # % % % % % % % % # $ Y T.V.D.C.",
". & # * P i.9.0.0.^ V.M.V.!.> $ # % # # % # # u G _ i.9.q.r.r.9.> ~ c.Z.Z.c.c.~ : X $ V.V.!.Z.Z.Z.b.!.T.> s j.d.g.B.K.H.t.t.g.s.h.5.r M a.f.g.s.t.t.t.t.t.t.t.g.f.p.b.C...X...X.cXtXtX8XrXaXaXuXaXpXmXgXyX8X7XOXuXOXeX8X6X0XcX6 3 y v : 0 { cXvXfXgXjXNXNXNXgXfXBX'.O 2 2 k m = o.} o.7 { { w   * a y * g + '.cX=.I $ :.GXkXhXMXiXnXvXwX0XkXdXkXqXFXIX8 + ZXAXmXfXqXqXtXfXNXMXMXMXMXNXBXmXgXmXmXiXiXjXjXtXtXiXwXvX}.G.I.I.M.l.l.m.e.e.m.s.Q s * # * # - * * u * t 0.a.p.P * = ; x Q Q i.9.a.a.p.w.w.w.0.0.a.9.L a.l * * # # % % % % % % % % # # . 9 V.b.Z.C.",
". & $ # v Q Q Q 0.^ n.M.V.V.: $ # % # % % # # j a.a.p.p.r.r.r.3.g T R v.b.c.v.9 X : > V.V.c.Z.C.Z.c.D.V.X $ j.a.d.m.H.H.t.t.g.r.B H B J p.f.g.g.g.g.g.t.g.m.t.g.a.j.v.U | ....X.cXtX8X8XeXuXuXuXuXiXiXiX8X8XrXrXOXOX7X6X6XqXcX+ % k r J ~ 5 CXSXVXfXkXkXjXjXfXwXBX'.  2 - k m ; 8 [ } 7 7 7 ) R t r - # f 5 '.oX>.U t :.VXkXhXMXnXmXnXwXqXkXdXkXhXbXzX] O zXVXhXfXqXqXtXfXmXmXnXfXfXfXmXfXiXmXmXiXiXgXdX6X7XvXcXVX}.>.U.U.m.l.m.e.g.s.s.p.j.L * u - * * # * = * u i.s.s.Q ; * # y i.a.i.a.p.3.q.q.p.0.9.a.a.9.i.i.F r * * - # # % % % % % % # $ $ Y V.b.D.b.",
". $ . . * u P 0.! e.V.P.V.V.I $ # % # # % # % x _ 9.9.p.f.r.r.r.p.d = ! ~ ` v.I > d ` V.V.b.F.Z.Z.Z.D.V.$ = d.s.e.e.m.m.e.t.g.9.t Q a.p.g.f.t.t.t.t.g.g.g.m.g.B.n o O + cXVXAXSX0XtXtXtXeXeXeXeXtXiXtXeX7X8XrXaXOXvXeX.XqXbXCX+ - D V a w.x.| [.IXBXhXkXkXhXVXVXFX|.O 2 h k C q :X3XcX7 +.:XzXw X % 2 % n 5 ].oX>.^ B T.AXkXfXfXgXgXmXmXmXgXdXkXMXO.+   + ZXMXfXgXtXtXiXfXmXmXNXfXfXfXNXfXiXNXBXiXtXdXdX6XtXBXVXAX:X>.U.P.m.t.m.g.g.g.p.q.f.J * u * * # # # % * * t u u * # - * u a.a.i.q.f.r.f.i.a.5.9.p.i.L L i.L G G l - # # # # # # % % & $ $ : ` ~ ` ` ",
". . % % * - P _ Q ! ~ ~ T ~ < . # % # % # . & c ! Q 0.r.r.r.r.r.i.u = s.d.! d.= = d d.v.x.c.S.c.c.N.n.x.t t a.a.s.t.e.e.0.w.0.a = Q p.a.s.r.t.r.g.t.g.s.s.s.0.d.c & q 6 cXsXVXnX6X8XtXtX0X6X7X6XqXwXqXqX8X8XrXOXOXOXuXqXqX|.;X  - y V M w.t.^ Z.zXcXsXhXhXfXnXVXFX|.  2 h k j q }.].3X[ +.}.:X{ O & 2 % z + ].oX>.^ N V.AXkXfXhXjXkXnXnXmXhXkXfXFXO.+ 1 O zXbXhXgXtXeX0XeXfXfXfXfXgXfXfXqX0XgXmXiXuXgXdX8XkXBXVXcX;X;.D.P.L.t.g.g.s.0.g.p.p.F a * # * * * % % # - # # u - * - * l i.9.a.q.r.r.q.i.K r r H 9.i.p.i.Q i.a./ - # # % # # & & & $ $ # = _ ! _ _ ",
". % # # % - L a.Q ! ! T $ $ : $ # - . . ; . $ d d.a.d.s.r.r.r.f.a.G r i.h.P r t = b B.v.~ l.l.$.l.l.e.Q t B h.f.s.s.g.s.s.! r * $ T d.d.s.g.g.q.s.g.J.J.p.f * * B J.x.@.bXMXnXmXNXgXqXiXNXfX6XfXVXZXVXqXqX6XeXaXOXOXuX0XbX{ 5 : - h y p p.e.e.~ O O.IXDXsXsXVXVXFX|.  2 h y x e }.{.3X[ ).{.:X{ + & - z - 3 [.CX>.W 2.V.AXdXgXfXkXDXFXBXsXMXkXMXFX8 1 ,   zXFXfXgXtXeXiXtXeXiXgXmXmXtX0XtX0X6XeXiXiXNXtXgXgXBXcX} >.Z.D.K.m.t.g.g.g.s.g.a.a.J J L G P v * # = u * - - - # - - - y i.9.a.p.r.r.r.p.a.H r r F 3.9.9.P a._ _ - u # $ $ $ $ & % * * = * * l i./ ",
". # . % - % j v a._ ` T = $ = # - % - & $ : ` ` ` d.d.d.e.t.r.q.i.G r G a.L r * r P h.g.e.e.l.z.l.e.d.e.r r f.q.g.g.s.s.h.f * P b ~ d.d.s.s.s.p.a.M B L F * * G w.L.L.@.xXbXsXfXtXqXmXvX).].nXwX[.<.<.}.fXtX7X7XaXOX0XwXbX{ O d - - - y G H i._ 3 ] ;X|.FXVXbXbXFX[.o % k h 3 5 :X}.oX[ ).oX3X[ + & y k y & o.>.*.T 8.T.AXtXdXgXDXqX} 5XVXsXhXsXZXO.3 * X 2XxXnXgXtXeXtXtXeXiXgXmXmXiXtXiXiXtXtXqXiXmXfXgXhXDXcXo.Z.b.V.K.g.t.t.t.g.e.s.0.p.q.a.j.a.a._ f * # # - - # - % - # # p a.i.9.r.r.r.t.q.5.H a a J q.i.i.L P Q d.= $ & $ # # # % # * * r r r M a.5.",
"# % # % - # - - L P ! b = # ; - - # % & X R T.T.V.D.V.x.e.e.t.w.9.F a L j.L r r a L g.s.e.e.m.K.x.t.g.g.a a h.6.f.s.s.g.g.v * j.^.^.W.B.d.d.g.h.h.f * * * * v f.m.z.n.;.CXBXfXtXiXqXVX}.7 +.AXxX5 5 7 '.wX6XtXyX8XXXtXsXZXO.X s - - - - u u / _ / 3   5 ;XcXbXVXIX/.o - y * X e :XoXoX[ ).oX3X} + t a D D k q 6 q b a T.AXqXdXfXBX}.5 |.bXbXFXFXIX:.. F s   + VXnXtXeXeXeXeXtXiXmXmXgXiXgXgXiXqX0XqXmXNXMXfXFXxX>.C.$.-.V.g.t.L.g.g.t.g.w.s.r.g.p.a.p.p.9.P F v _ v - - % - - - u a.i.q.w.r.t.r.p.p.i.5.q.p.a.L f L Q j.W.T X X # % % % % % - - y r r p a.9.",
"2 % . % % % - * / _ _ n ; # - - # - % . X R E.Z.b.Z.Z.M.l.e.x.e.d.f = f L y * p B Q p.w.e.e.g.K.m.n.0.J r m f.5.f.p.g.a.f * * u T T T T b b P ! B t = t v _ j.d.H.N.N.;.;X}.wXtXtXiXvXwX'.|.:X[.5 >.[.oXfX6XtX7X8X8XiX'.,.e > t * % u - - - / _ Z l L d O xXIXbXPXE.o - l u & e [.'.[.[ +.[.[.[ @ t m D D D b c n L r T.ZXsXhXsXFX|.+ ;XZXxX<.<.] q h r - < + cXVXpXiXiXiXiXgXgXfXfXgXgXmXNXfXfXqXfXmXNXfXsXFXxXZ.c.E -.n.e.t.m.t.e.e.g.s.g.e.r.s.0.p.p.a.a.a.a.j._ j # - - - # u L Q p.0.s.g.g.g.g.q.9.q.9.J r * f T d.T.R 1 @ # % % % % - - - * * * f g.d.",
"n % # # % - - - / _ _ n - * - - # - ; $ @ U Z.Z.~.F.Z.F.V.l.l.~ ~ I > $ = * * Q i.p.s.w.t.t.t.V.V.^.~ = r F j.j.j.s.h.Q * # * y t g t g g t = = * = t t J s.g.0.c.P.P.P.Z.o.wXiXtXgXjXjXMX}...7 7 [.vXiXiXtXtX7X8XyXvX{ + # M M y - j u - 2 / / / K N r Y e O.xXIX2Xo # k C h - : O o . $ > $ # * a a m V m C P G / y T.PXZXFXGXIX,.  zXUX] 6 e 4 % i i h   O ZXVXgXgXgXgXgXmXmXiXqXfXmXNXmXfXgXmXNXMXnXfXMXIXPXC.S.c.c.V.m.l.e.x.e.x.K.J.K.B.g.g.e.r.q.p.p.p.s.d.` b # # # - # * y p a.a.p.h.J.J.J.g.p.a.p.a.f t P ! d.T.b.b.9 # % % % % % - - - * = ! V.V.",
"n $ # # - - - * y u u - * - - - - * ; $   9 R.Z.R.@.0 ;.Z.c.b.c.-.x.-.> $ > = P d.p.s.0.s.g.g.m.x.^.` . * - F P J Q 0.P t * j j.h.g.s.s.d.g.g.g.g.d.0.0.s.g.J.K.M.I.P.P.I.&.vXiXgXdXkXlXsXnX}.:X|.wXgX7XeXiXuXeX8XrXVX8 @ a i a y y u u u - v j y.A 4.G ; 3   e E.) o j S A y h u u k D m D i V y h p C D D V S C ( - n ,.<.<.<.:.) q 4 ' < ' < x i V V h o O CXVXfXfXfXfXmXmXmXfXqXfXNXMXgXfXMXNXNXMXhXNXBXCX1XG.F.D.D.P.K.M.x.x.e.l.K.K.K.m.t.t.e.r.r.s.p.p.s.d.d.d.T ! $ ; ; # # u j.p.i.g.h.m.g.w.w.9.a.j.F * s ! -.V.Z.R.6 & - - - % % % % # # X R D.Z.",
"T $ # - - - * * * = * * * - - - u * # $ @ 0 E.Z.&X| 6 ;.F.Z.D.Z.E.R.E.U : : X T d.a.d.e.e.g.g.e.;./.) X , # * # = = t t = = v j.p.p.s.g.g.g.d.d.n.x.m.V.m.m.L.H.I.P.M.c.F.>.vXeXmXmXmXfXqXsXwXvXvXqX8X7XrXuXvXuXrXeXAX{ & h % 2 y k y y p r p p j./ - z j / l n o 4 2 Z A M y j u u k k i r = % 2 j x v ( S D S 1.( z 2 x 1 o o 3 . G v P b = x y k k y - 3 + CXVXfXfXhXnXnXMXMXfXqXfXNXMXNXMXNXnXmXNXhXhXcX+.;.A.F.D.D.P.P.D.D.V.n.n.P.K.K.m.t.t.g.t.f.f.r.q.e.e.x.V.V.W.s = # * - v j.a.5.a.f.t.t.w.r.p.a.p.f * b ! -.Z.Z.R.6 : * * - - % % % % o X E E.Z.",
"_ = * - * - - * * - * * - u - - * - # Y -.c.R.A.&X| 6 ;.R.C.Z.Z.A.C.Z.-.E 9 @ ` T.v.b.n.x.m.d.~ ~ :.1   & # ; * u # r u r P a.a.f.g.f.r.e.s.g.d.d.m.V.N.m.z.L.L.z.c.D.b.Z.>.wXtXuXuXuXvXiXqXiXiXiXtX8XyXpXuXvXuXuXwXAX8 $ h o 2 - k i r f t a M y.a.n 2 / k y.V / x - y A L y # * * k - C * , & % j 3 2 k D V D S V ( z l K - j l y.C y.C p a.y i h k k j & O PXbXsXsXhXnXnXnXmXNXfXjXMXhXBXNXMXnXfXMXfXMXcX .F.G.G.D.D.P.P.D.V.M.x.l.M.m.n.m.t.t.g.t.t.g.e.q.s.M.c.c.V.T.X . ; # # - G l C i.p.e.t.w.t.0.s.d.d $ ! ` b.Z.C.A.0 : = * * % % % % . .   1 -.E ",
"i.u y * - * # - % % % - - - - - 2 - . I F.F.A.A.&X0 0 @.Z.A.G.@X#XG.G.F.~.U O -.R.E.Z.F.Z.x.l.x.d.$ > & - . ; = # j k y a ! g.g.g.f.t.g.s.f.g.a.p.e.H.U.U.z.L.m.L.m.N.V.c.A.CXvXuXaXuXaXeXtXtXiXiXiXtXgXgXeXpXuXiXbXzXq * y & & - i a i # ; * y j./ T T L C S Z / j u l G v u - y u 2 - y y % 2 h j z l Z Z Z Z S S ( G Z C h y G C G G G G G k k k y - n   @ PXAXbXMXnXVXVXBXVXmXjXkXhXhXMXMXMXMXMXMXBXFXPX%.U.I.F.E.D.P.P.P.P.K.B.x.m.t.m.g.d.s.e.l.l.l.e.g.B.F.C.F.~.D.@ : , # # # - - i G p.s.0.0.^ x.W v.9 @ -.E.F.Z.Z.R.U $ # - ; - % % % % # # # $ $ ",
"a.L L y y * # % % % % - - - y - - - $ E F.F.F.G.F.Z.b.+ + Z.@XG.#X#XG.F.~.9 + -.E.A.A.Z.F.c.e.! J r u # 2 % $ , u i.j.f.f.s.m.l.e.e.t.m.g.g.f.p.p.m.z.z.z.z.m.m.m.N.H.P.P.C._.).uXuXuXaXrXgXgXmXiXiXiXtXyXyXaXeXBXO.+ o Z l # & y V m V & & y y z j W W K C Z Z G l p k l p y y k * % - h k h # - y h k k Z Z Z k V V k k k k k Z C C G Z Z Z i k y k y & X O :.O.cXMXhXmXBXvXvXfXjXhXsXMXbXVXbXsXBXMXVX[.,.F.Y.l.Z.;.b.!.N.z.M.x.d.d.n.w.Q Q a.d.~ c.c.N.$.d ` ~.@XA.C.c.U 9 X . % % # # - * P L i.! ~ x.$.b.$.+ @.Z.Z.Z.F.R.9 $ * - - % - - % # # # # * * ",
"9.a.Q * * * - % % % % - - - y - % % $ R D.D.D.D.c.!.E.9 O b.R.A.A.A.Z.Z.~.E + $.R.A.A.Z.~.x.! f * y h # & $ : : > _ j.h.f.0.t.e.m.g.g.g.g.s.s.g.m.K.N.N.z.m.g.m.m.N.m.N.I.D.>.+.cX0XeXrXpXmXmXnX0XqXqXtXeXyX7XiXAX8 O 3 z - - j y V a M . . i V y y ! J H C Z Z Z D V V i a i i y y y h y y h h y - y h k k C Z i k k k i k k C Z C Z Z Z Z Z k V * V y # j &   + ZXMXhXfXNXiXiXgXkXfXBXFXFXIXIXIXFXbXZXO.;.KX^ 1 ~.~.!.!.l.l.l.x.e.d.m.B r F h.d.~ D.I.~.M.$ v.F.@XG.A.&XR.b.@ X # % % - * # * T Q ~ V.!.!.D.-.9 -.Z.Z.D.!.!.I = * - - % - - % # % # # * * ",
"9.a.P * * * - % % % % - - - - - % % # d x.x.x.x.x.v.v.9 1 b.Z.Z.F.Z.b.b.!.~ @ %.R.Z.R.E.2X` s * y % - # X E b.b.~ ~ d.s.s.s.x.x.e.e.m.e.d.m.d.m.n.N.P.P.m.B.B.d.x.N.H.H.I.F.A._.SXwXeX6X0XiXmXmXfXfXqXiXeXeX0XVXCX8 @ % # - k y h y a M & % y D k k 9.J H S Z Z S D m m m m i i * k - - h y y k y y y y k k Z S V k k k k k k k z k z Z G G Z k i y k y y j u o 5 ZXbXhXhXgXfXgXtX6XqXBX+.} { O.{ O.ZXPXo.-.^.x.x.x.~ U U x.M.l.l.e.m.J.J r p j.~ x.G.@X>Xc.X -.R.@XG.A.A.A.c.E R . . 2 % # ; = s d d.V.V.D.~.$.O E -.` ~ ` x.> = * - - # # % # # # # # % * ",
"p.p.Q f f * # % % % % - - - - - - - * s d.e.e.e.d.V.V.> X v.V.v.b.v.x.~ x.I @ @.R.A.A.-.b.< * - z % . 3 9 %.F.Z.c.c.c.l.d.d.l.l.e.x.B.! W x.l.z.N.N.P.K.m.m.n.x.b.c.U.U.P.P.F.A.CXoXiXeXtXiXnXNXjXgX0XiXeXiXVX}.E.@ . 2 2 2 k k - # p u X 3 y V k V p.3.H S G Z S D i i m m i i j u # - j h y * h y y y k k Z K V i y k C Z z k i i p z v G l l y y k i i y y 2 O ZXbXsXjXdXjXgXfXqXqXnX} 7 6 7 6 6 PXPXb.$.!.^.^.I > > : ~ x.m.m.m.t.g.B p G a.d.~.F.@X>XC.  -.&X@XG.@XA.A.R.~.-.1 . $ . # ; $ $ d V.!.!.b.E.~ X R ` ! ! 0.d.g # # - - # # # # % % # # # # ",
"w.0.a._ P # % ; # % % % - - - - % % * b d.s.d.s.d.B.W.T $ ~ ` d.` ` d.d g : : $.>X~.Z.@ @ . - - % % . ` R.&X&X@X~.I.F.S.x.x.c.M.V.K.W.W = ~ x.N.S.P.V.~ d.~ d.n.b.c.P.U.P.I.I.F.>.'.wXtXiXeX0XqXNXjXiXeX0XvXAX8 + $ s x % % * h X O $ $ O 4 y i y V f.3.A V l z Z V k i i i y j & X & 3 X o n h y - y y i k C Z k i y k Z K Z k y y y k l l j j - u y y i i V * O IXFXMXhXkXjXgXfXqXwXwXbXbXZXZX8 O 8 e O > !.V.V.x.V.~ > ` d.m.m.m.g.m.a.i.G = -.>X@X@X&XZ.O *.R.@X@X@X@XG.F.R.E.T.~ $ ; , ; & $ > R I E.E.^.v.: T _ Q a.p.p.f # # * - # # % % % % # # # # ",
"e.! 0.s.Q # = % # % % % - - - - & # # f p.0.s.0.g.g.m.W = = s j._ _ d.s $ $ > R b.b.-.1 X # % . & &   T.&X#X#X#X@X@X$XC.c.c.C.D.D.V.W.Q = d.M.V.D.P.B.= b g l.V.Z.c.I.I.I.I.I.F.>._.vXwXtXeXiXtXgXyXeXeXpXwXxX] . p u # . n k - ] 8 + *.O.O ; i k k i.H A V h j v l - - y - ; & O 6     5 O   2 - - y y y k k C k i i k C Z Z Z k k k k Z j - ; ; ; # - y k V - q zXxXbXsXfXfXmXwXiXnXwXnXbXBXFX8 9 O + 9 U M.n.K.V.T.T = d.g.d.L.m.t.g.d.j.! $ v.>X@X>X*XA.+ ;.R.A.A.G.@XG.F.F.!.!.` $ = # # ; & $ X : T.!.T.` $ ! a.L p.a.q.M a * * * # % % # % % # # # % ",
"B.w.0.s.T # = . # # % % - - - - > : $ d d.d.g.g.g.g.m.W t t * n h.j.B.P * ; & $ $ X   X X # . .   O 6 R.&X#X#X#X#X*X,X>XR.R.@X&XF.n.V.P * d.B.B.M.V.W.t > : D.I.I.F.>XF.F.I.U.$XF.=XSXcXuXeXeX7XeX7XrXeXVX+.5   y y - x & , * X [.<.{ zX:X5 1 u h - B a C K v v n j # # ; 2 & O ,.;Xw w ;X,.O & - y y y k k k k i i y y y y k k S S V Z G j - & & 1 . & x * y l X + 8 ZXMXNXfXmXBXmXnXMXMXDXhXVX1XKXD.D.~.V.> W K.n.T.B.g r P g.h.g.t.x.x.v.R   ` c.C.A.&XR.5 ;.>XA.A.G.@X;.%.%.$.x.d.d._ y * - % $ $ 1 X   $ : # P a.i.f.a.f.3.L j * # # - % . % % # # # # ",
"g.g.s.Q P * = # # # % % # # * * 1 : ~ ~ B.d.e.m.e.m.m.s.f t u P T.f.a.n * - - % ; & $ $ , $ . 1 0 .. .R.&X#X#X%X%X>.7 ;.R.&X#X#X~.~ Q v * v s.d.m.g.! J ^ l.S.I.$XF.A.@XA.G.I.I.F.*X:X}.vX7X7X8XeXyX7XOXVXO.O % h y z ; $ 1 . :.}.).[ :X[.+.O , % - u p C G v j n j ; - - ; $ O [.zX8 *.1X,.+ $ - y y h i y k V k i k k k k k k D S S Z z j ; & O q E.4 1 , * u , O e ZXVXMXfXmXfXnXMXhXhXsXDXVX;X2XF.I.F.;.9 I K.K.B.d.r a f h.g.g.m.l.$.$.@ @ E -.;.R.>XA.6 ;.Z.R.F.F.F.Y.l.l.l.e.d.a.F r r - % % & & X X $ & = v P a.a.q.f.f.a.- * # # # - # # # # # # % ",
"J.J.m.0.P # * # # # % % # # * = X E ^.^.^.n.l.l.m.e.x.0.J.P r u 9.f a r * - - - # % u ; $ . R ~.&X#X=X=X=X>.#X#X*X>.5 *.&X#X%X*X,XW = * p l t = * a M g.!.^.$X$X$X@X=X=X@X@X@X$X>XG._.).uXeXeX7XaXOXrXiXAX,.o 2 z 2 - # s < 1 ;X:X)...3X}.:X8 & % 2 u p C G n l v j u - - - & O [.CX8 | CX=XO & - y h h i y k V k k V Z Z Z Z Z S S S D k u ; 1 O :.UX] @ & ; v # 1 e ZXbXNXjXkXgXmXfXhXhXMXMXFX[.A.G.I.F.F.c.x.V.~ g g r r p j.h.h.l.l.C.>X&X,XZ.+ $.Z.R.A.5 5 0 c.Z.Y.Y.l.z.z.m.s.s.f.a.K i * % % . % % $ $ # # # y i.f.q.f.f.a.y - * - # % # # # # # # % ",
"J.B.g.0.P # * # # # % % # # * & X U E.Z.R.D.C.$.^ ^ ~ 0.a.t * F M t * * - 2 - - 2 - y b T I ~ R.@X#X%X#X=X>.#X#X*X>.+ | *X=X_.*X;.> $ s P P B J B M B s.K.U.I.$XU.F.&X=X#X@X@X@X$X@X#X_.cXeXeXaXaXvXmX'.O.] . k h h 2 - T @ O ;XcX+.} {.}.:X7   % 2 - a k Z v l Z V k k i i y   ;XCX*.) :X,.  j y h k k k i i k k V Z S C k k k Z Z S D k y ; 1   :.UX6 O 3 & # v . O PXbXsXhXjXgXjXNXNXfXBXcXSX=XG.F.F.F.D.E.D.V.! a a f = p a.f.Q.c.G.#X*X*X,X@.O -.c.E.;.0 0 @ Z.~.c.c.N.N.x.m.g.p.p.f.y.H i - % % % % % # # 2 - * G a.p.s.g.a.* - - - # % % . # # # # % ",
"e.s.s.0.P * * # # # % % # # # & 1 U E.Z.>X>X@X;.%.9 : > # f a a r r u - - - - h - r r P B.V.V.~.@X#X#X#X=X=X*X*X<XR.6 8 #X#X-X*X0 X : < d.B.m.g.h.h.B.B.N.N.S.$XU.I.&X*X*X<X<X,X$X$XG.=XSXvX0XOXOXSXAX<.O 4 - z h z h - s X + ;XcX+...3X}.:X7 @ % 2 - r i k l l D D D D i i y   6 6 O 6 6 5 3 i y h k z k i i k i k Z Z k y y y k C S D V k u ;   :.UX] @ 1 , j - % e PXbXhXjXkXjXkXfXMXnXFX[.>.#X@X&XF.I.S.Z.Z.M.m.r.N b $ # * F T.Z.*X-X-X-X=X&XE.@ @ ^.~.2XZ.@ V.~.D.D.P.K.m.e.g.g.f.f.f.f.j.h - % % # # % % # * * * a 9.s.p.i.* * * * # % % . # # # # % ",
"r.0.p.a.Q * * # # % % % # # # &   9 >XR.#X#X#XA.F.b.T.c = u F * r u u - # # # y r i.a.0.g.B.V.b.Z.F.#X#X#X*X=.| | =.;.>.*X%X-X .5 ) b.$.-.c.n.x.0.g.n.n.N.N.S.S.S.F.>X@X@X@X*X@X@XF.F.@X:X3XuXuXSX}.<.O.O & - k h h h y = 1 q E.xX<.} 1X{.:X0 & 2 2 - r i V G G S D S D V m y   } [.5 6 ;X,.  h - h z Z Z k i i y i Z Z C k z l u l C V V i i ; . ) :.q   . - h j . ] IXZXMXkXhXfXfXfXnXnXIX[.#XA.A.F.S.I.D.Z.Z.x.m.L.t.d., $ $ v v.C.*X-X%X-X=XA.R.@ 1 !.^.^.) @ c.!.D.D.V.N.m.g.g.p.i.i.a.p.j.- - - % # # % % % 2 j * * F 9.a.a.* * # * # - % . % % % # % ",
"p.p.a.9.P * * # # % % % # # # % X 6 R.@X#X#X%X*X&X,X/.' - * r p p y u # # ; = t * q.g.s.g.n.n.x.x.Z.C.*X#X,X7 O O -.,X*X#X=X-X..O T.2XZ.%.%.c.c.x.n.n.x.N.P.M.z.D.I.>X$XG.F.@XA.$XF.>X@X&._.cXcXIX[.+ @ & - h k y y k k - ; X e 5 + 5 7 [ 7 1 ; % - y y V D Z G S S Z V m i y O [.3X*.*.3X[.  h - y k z V k i i i i Z Z Z Z Z l u u p i i m k k ; 1   X ; j k y h 2 4 :.O.bXNXfXfXBXhXfXnXIX_.@XF.Z.I.I.~.~.R.Z.x.L.L.L.B.Y : : . : @.*X-X-X-X=X&XA.~.D.: : : : : b.!.!.P.x.e.d.m.9.a r r a t = * - - - % % % % % # - - * # = P a.y * * * % - % # % # % # % ",
"q.9.9.9.P * * % # % % % # # # #   O E.#X%X%X%X_.=X| @ o # v r p y - - # & R ` ~ 0.g.t.t.g.e.~ ~ j.j.$.F.#X*X9 @   -.,X%X#X#X*X{ O :.&XA.@X@XF.c.S.M.S.N.P.P.x.d.b.C.I.I.G.F.$X@X>XG.A.F.@X1XSX:X[.:.@ = p y j # p M i i - 2 o X     9 O 5 5 . y % 2 y i V V k k l l j u y y ; + '.3X8 O.3X'.O ; - y h k k i k V C V Z Z Z Z Z l , ; r i m V V k - 2 3 ; - * k D h . o O 6 ZXVXVXnXiXqXVXAXIX=X>.A.F.U.^.P.D.b.b.n.L.t.J.n.~ 1 @ 1 O #.<X-X-X%X=X=X>.~.D.9 > . &   -.V.D.V.x.e.x.s.f r a a f b t P l t * = & & % % . % 2 - - * G G * y * * % - % # % % % % % ",
"9.9.p.a._ * * # # % % % # # % #   + R.=X#X_.*X=X2X6 X % 2 - y y y - - # $ ` v.d.s.g.t.g.e.t t _ / _ l.F.,X,X9 # . -.,X$X<X,X2X*.O :.,X*X*X$X,X@XF.F.I.I.P.V.v.v.v.x.z.H.S.F.I.F.F.>X&X&X@X&X+.7 5 +   . & o X & t M m i h & @ w *.8 + :.>.1X< y - 2 y i i i y # - - ; ; y u $ + '.3X{ o.3X).5 & u y y y - y k S S S S ( G G S Z , $ * i m V V i k - j # h h k k h h n   5 IXFXVXiXwXVXAX}.[._.A.A.~.z.e.g 1 1 n.m.L.m.K.K.!.b.-.` @ ;.<X%X-X_.-X#XG.%.l.x.B * * $ ~ -.$.x.x.x.n.! a L h.f.s.g.s.g.9.g * $ = & % % . % % % - # - * # - * # * ; % # % # % # % ",
"P p.L i.L * * - * * * * % - - %   + E.>.#XA.*X0 9 : - - h h - - - h # ! d.d.e.s.0.g.g.g * i._ _ a.s.n.n.z.l.= u a.d.N.c.S.-.Y <   -.R.A.<X@X*X@X@X@X>XI.^.^.d.x L P m.z.z.M.n.V.~.F.@X@X&XA.| #.| | :.<.,.;X,.+ $ K m m j 1 8 :XcX+.[ 1X{.:Xe - - - * * m D h - % % ; * y u : + {.3XO.O.3X[.O = - y u - % - D 1.S D D D Z C D D ; , - k - u y k i y r k - 2 z y y k m r ' zX5XbXfXiXvXSX=X>.&XF.~.F.S.l.g g B g.h.m.e.M.!.P.D.P.n.$ -.,X=X*X*X*X@X;.x.e.g.w.B a t T ~ d.d.x.d.0.B p 5.f.f.p.e.s.p.r.B I I R . & & . . % - - % % * * - - - - # % # % % % % % ",
"F _ L i._ y * - * * * * - - - %   q /.&X,X>X,XE : # y y - h - % # % $ ~ l.x.m.s.h.g.g.g = a._ a.g.d.m.m.g.s.a C j.d.n.x.x.W = = $ ) b.~.>X,X<X<X<X,XF.%.U ! s t r p m.N.N.m.d.m.>X>X>X@X>X>XR.,X>X2XIXIXZXFXZX+   * D 1.*   7 }.oXX.7 {.+X3X+ - - - ; u D D z 2 % - - y y u : + [.:X{ O.CX[.O * y y - ; . - D 1.Z k k k x x V V - ; r i y j % - * k Z j # # h k y V N A ; + O bXsXBX:X_.G.F.F.~.I.I.I.P.m.0.a a = d.K.V.V.P.P.N.g.* 9 c.#X<X*X<X,X$.x.d.s.f.L.3.r f f ` d.d.! t a r H f.f.s.s.d.t.m.x.n.!.b.1 X # % % % - - ; = * * - - - - # # # # % % % % ",
"* u r u l * * - * * # * - % - % o @ ) E @.@.-.9 > s u * - % & R :.-.%.C.Y.c.V.~ W B 0.! W s.s.p.q.e.g.m.g.s.r r j.s.d.~ ^ > * c ` -.x.Z.c.C.C.C.;.%.@.9 I W ! s.i.a.m.z.z.m.m.B.M.S.$X@XF.~.~.>XF.&X:XcXbXbXbX<.,.o a A y @ 7 }.oX).7 :X+X3X+ - 2 - ; u D 1.Z z - - y y i y = O ;XxXo.o.;X,.: r y y - & o % k D j ; - & @ 1 - h - y i D m y X X j #     & j V V h k i i u 4 O IXZXIX:X>.@X>XF.&XF.I.S.M.m.s.f a W ! d.V.P.P.P.K.h.t I c.A.<X*X,X,XE x.h.q.p.h.a r t * d.v.! ! f f M 5.f.g.0.e.e.l.$.x.c.E.b.E X . % - - - - - - * * - - - - - * % % % % % % ",
"* * # # * # # # # * * # % % - % % & X X O @ 1 $ . ; # - n X @ -.,X*X*X*X@XF.~.~ = = ! m.t.m.t.s.g.g.g.g.g.g.p C h.h.v.~ I $ s _ V.V.M.x.c.x.b.x.c.c.b.M.V.K.n.B.h.h.H.N.z.m.g.B.x.c.I.$XF.~.>X>X>X&Xo.:XAXnXsXAXPX) k a y q 7 }.oXX.7 :X{.:Xe % 2 - ; y D 1.Z z h y y y y y - X 8 8   O 7 5 $ y y y - & o % k V - & 2 & @ @ - h y y i i a - :.E.b.O 7 7 e & k k - - G k # & 4 zXzXCX;X&X&X&XF.>X>X~.c.l.e.g.s.h.B.g g n.P.N.N.n.0.* I c.;.C.;.;.$.: ! s.g.g.h.B t u u W.T.> g a.p.p.f.h.g.s.x.l.$.U Z.R.R.~.~.` $ ; - - - - - - - - - - - - - - % % % % # # ",
"* * # - - # # # # # # % % % % - - - % , $ 1 $ & ; j - ; : @ w ;.#X_.#X#X#X@X>XR > $ W B.m.g.t.L.t.g.t.t.g.g.a p l b ! g > > ! d.d.x.x.x.B.~ ! v.d.e.d.m.H.K.N.m.g.g.m.z.m.m.g.h.x.l.S.C.C.D.>X>X@X@X=X3XAXVXBXMXxXe ; i p @ 5 :X3X+.7 ;X}.:Xe % - - ; a D 1.S Z z k y y y y y % + + X & O   - y - - ; & % % k V y - y - $ ; m V y * * y i X [.3X[.7 ].3X>.@ h h / . - u z n o 4 + + | &XF.A.@XF.F.I.Y.z.m.m.g.g.m.g g x.N.n.z.l.s.= T b.-.;.;.c.~ g a.g.g.p.s.B * r t B.d.$ s s.p.p.p.g.e.e.n.c.C.#.&X&XA.F.R.U d = * * y - - - - - - - - - - - % % % % % % ",
"# # # # # # # # # # # % % % % - * - # # # # . % - # # $   E ,X&X#X_.%X%X#X=X,Xw X $ > e.t.t.g.L.t.L.m.m.B.g.a a * # t > g b d.h.m.m.K.B.K.g t j.h.g.g.B.K.P.U.H.J.J.N.N.H.B.h.B.B.x.M.S.c.D.F.@X*X,X*X=X}.cXvXVXxXe X * p s w 1XzX+.5 ,.:X:Xq . % % - y N 1.S Z C k y y y y y - & 1 - * & & % 2 - - ; & % - i m y - y y ; p D D k % - u i   ).oX{.7 ].OX+.O j z . & 2 % # # ; : < @ @.&XF.&X>X>XI.>XS.P.K.J.B.g.B.g > ~ n.x.l.m.a.t d v.M.c.l.M.e.g s.g.g.g.B.Q f r # s $ . s d.d.g.g.g.d.m.P.P.F.#X@XA.F.R.~.c.~ f * * y - % % - - - - - - - - # % % % % % ",
"; - - # # . # # # # # % % % % - y y - - - % # - - - ; T 9 -.,XA.#X#X%X_.=X=X;Xw   Y T d.t.t.g.g.g.m.w.W ! P * p j.s.d.0.0.0.h.h.m.g.J.e.g.B Q h.g.g.g.B.H.K.H.m.m.m.z.N.m.w.H J K.V.M.c.c.F.>X&X@X<X@X*X#X{.).3XAX8 4 - G t > E 8 e @ 6 7 6 o ( % % * r m 1.G Z G l y - - - h h u u i r u 2 - h - - = & & - m m y - - - ; p D D k % # # ; O ].oX}.7 ].oX>.+ , * % 3 o ` ' T ! W ~ ^ c.F.A.F.F.F.>X~.c.n.e.w.B.g.B.b g ! e.d.e.m.Q = T V.V.n.x.m.m.J w.9.s.d.m.s.f.v u u $ s = ! d.g.g.m.x.n.!.I.F.&XA.&XA.C.c.l.d.Q p r - - 2 % % - * * - * - - # % % % % # ",
". . # % # # # # # # # % % % % % - * * # % % - 2 - y # T x.b.,X,X=X=X=X#X=X=X;X8   ` v.x.e.t.g.g.g.m.W t t s # s B.v.n.B.B.g.m.g.g.g.0.g r g.B.J.h.g.m.L.m.m.N.z.L.L.m.N.m.Q a a g.V.N.M.V.~.,X*X*X#X,X*X%X-X_.3XIXO.O % y a B g @   = X 6 6 % % 2 - u p C 2.K K H p y - - - - h y r A V r - 2 - - - * ; % - i i $ X o X @ 1 i i h y - # ; O [.oX[.7 {.3X>.@ u i x , 4 IXUX^.^.KX^.~.>X>XA.&XI.>X~.^.M.l.g g g.h.g.J.B.g = d.B.m.Q # a.^.m.m.K.B.B.0.B r s.m.x.B.B.u = * . $ $ ` d.m.m.m.m.M.^.~.~.F.F.,XC.c.c.n.g.e.J r # - 2 % % * * * * * - - % % % % # # ",
"# # # # % % # % % % % % % % % % - - # # % - - - * p a.a.d.l.c.C.#.A.&X#X#X=X;X8 O :.b.Z.D.n.d.d.n.V.I g $ < d.R v.v.n.m.m.t.L.m.B.s.a B 0.g.B.m.m.m.e.n.V.m.n.m.H.m.H.m.m.h.a M J.m.n.x.b.Z.@X#X*X*X*X#X<X*X%X-X1X| @ % y k a t r i r t @ O - h - 2 y p F H G F L r u 2 % % h - i a a a y y - % h k l ; % - y * + ,./.5 [.[.+ & - D y - - O ;XCX;X5 ;XzXT.# S i v . 9 zX2XR.>X>X$X$X@XA.A.R.D.S.c.D.K.e.W w.h.h.g.B.g.s t d.h.h._ $ ! K.B.m.J.L.L.g.g t m.m.x.m.d.v ; = % _ d d.s.m.g.x.l.n.l.l.c.$.c.c.x.n.n.m.g.g.9.P # 2 o % % - - - - - - # # # % % % % ",
"# # # # % % # # % % % % % % % % % # # # % % % - y K h.g.m.x.l.l.$.Z.&X*X*X&X,X7 5 Z.R.>XF.-.x.-.c.^.I : @ R v.-.c.x.x.m.m.m.L.L.B.s.B e.m.m.m.m.m.m.N.l.m.V.m.B.m.m.m.m.B.f.r J K.m.n.n.b.F.*X*X<X*X*X*X*X*X<X#X1XE X % - h y p i i m p X X z h - 2 y p F P F F Q f * . 2 % % - i m y y i y - - z V l u - - y $ 5 :XxX7 {.{.7   y V V k j   8 8 q   w w c * D V = ~ -.&X=X&X>X,X$X$X@X@XA.>XS.z.z.M.K.J.m.g.3.r t g f * f h.B.B.Q g a.W.K.J.L.m.B.t.g g m.m.n.n.J.t # # ! T.j.j.d.m.e.W W x.x.l.x.l.l.m.m.m.m.m.L.L.g.s.* - o o % - - - - - - # # % % % % % ",
"# # # # # # # # % % % % % - % # & # . % % . # - L a.h.g.g.g.d.d.x.x.C.@X@X@X,X..7 A.#X#X@XA.R.Z.Z.2XR O O :.E.R.F.C.c.l.m.m.L.t.J Q a.B.V.x.z.z.z.z.N.e.e.B.g.m.L.H.m.m.h.a.* ! K.m.m.n.b.Z.*X*X<X=X-X-X-X=X-X*X1XE $ 2 % 2 - - y a m p $ $ k h - 2 i i F n G v n b * # _ x . # k V u y i y - - z D C l 2 2 y $ 6 [.:X7 {.[.5 4 y y k y 2 O 7 5 @ < O   < l k i t ^.>X&X=X=X#X$X$X$X@X@XF.~.S.z.N.n.m.L.J.h.s.9.! ! Q b t P P F d $ s ! g.J.B.B.n.m.^ ~ m.m.x.e.m.! _ ; # ; b g.g.B.e.e.^ m.n.x.m.m.g.g.g.g.m.m.g.m.B.d.= & . . % - - - - - - # # % % % % % ",
"# # # # # # # # % % % % % - - % % & & & # # u u h.h.k.g.B.g.d.g.m.l.c.I.$X>X,X| 6 @X*X*X#X#X&X,X~.2X) O O E.&X,X,X@XC.l.x.m.H.w.= d.B.K.n.N.M.z.N.N.N.l.e.B.B.B.m.L.B.B.h.a.t g H.z.m.M.M.c.#X#X-X=X=X-X-X{.-X<X1XE = u - % % % - y r t < $ # - 2 2 i i v n G l v b u ; _ n & # i i ; ; i i - - k V l l 2 2 i = + CXxX7 3X:XO 3 - y - # % @ +.[.b.: 6 6 @ # u p = ^.>X&X=X=X#X#X$X$X@X>XF.I.H.N.M.n.n.B.m.g.m.J.B.m.B.! t t f t = $ # t g.Q.J.J.n.M.n.V.n.n.N.m.B.d.j.= ; * f v.g.m.m.H.m.e.d.d.g.L.g.g.h.h.m.m.m.m.B.e.= . o . # - - - - - - # % % % % % % ",
"% % # # # # % # % - # - - - - # - ; % # # > ! ! m.g.g.g.g.B p P m.d.c.S.S.F.,X@.6 A.*X#X*X*X_.*X@.) q @ O ,X&X*X*X#XG.C.c.N.H.W $ d.B.n.x.N.N.N.z.m.l.m.w.B s.g.L.m.m.d.s P h.x.N.z.N.M.M.c.*X*X-X-X-X{.{.[.[.=X1X$.= p - % 4 o & & $ : 9 @ % h % 2 i i v G Z Z v u y y v c R 3 y y @ & i k y - h h p y - h k y ) E.E.7 o.:.& # - j & 1 & O {.3X=X+ [.:X:.1 3 , > ~.R.&X=X=X#X$X@X$XI.~.S.N.N.N.N.V.K.K.L.L.m.B.B.n.n.~ g B B = % & = = P p.! ! x.M.n.M.I ^ m.m.m.g._ # s ; u h.h.m.m.H.t.0.s.g.g.L.g.g.m.h.B.m.B.m.V.x.I : X o # - - - - - - # % % % % % % ",
"% % # # # # % % - - # - - - - * - - # * = b v.x.m.m.m.B.g.a a L g.g.l.l.l.l.D.U + Z.,X*X#X#X#X1X@.9   O O R.#X*X-X%XG.%.$.c.I.$.: ~ x.n.n.V.m.H.L.H.m.J.0.a s.m.m.m.B.B.* v W.n.H.z.N.N.M.Z.<X-X-X-X-X-X-X{.-X[.1X$.t M i - & o   @ @ O + 5 $ . % - i m v G Z z Z y i p t s ` T y - O o i V y * - - u y - h k y q + 5 5 7 6 u k - 2 o 3 ;   {.oX;X5 oX3X,.@ & > I >X>X*X#X*X*X@X>X>X~.!.M.N.D.P.D.P.N.m.H.K.H.H.m.x.n.n.n.B.g.f # % j u r t = I x.b.V.D.> W H.J.m.B.B.t * # = B.g.m.m.m.w.w.h.g.m.m.g.g.d.s.m.x.n.x.N.n.v.Y $ # # - - - - - - # % % % % % % ",
"% % % # # # % % - - * - - - - - y y * v P Q B.n.l.m.m.m.g.r - _ p.g.m.x.n.d.v.> . 9 0 A.&X=X*X>.9 : X -.Z.=X*X%X%X%X#X@XR.~.~.U 1 x.V.K.V.K.m.L.L.L.L.L.w.W g.B.m.L.n.g.# = B.M.H.N.N.n.c.Z.<X-X-X%X-X<X<X=X{.-X1X;.g a N m ; X + ,.:.6 =.,.q X X ; i m l v D D V y M M t g ` R z h O   i V p r - ; u y - 2 y = + 1X;X6 :X=X  h y - . 2 i   ].oX[.6  XoX+.X ; s 1 >X>X&X@X&X@XF.D.P.M.V.x.x.c.c.D.D.N.N.H.H.m.m.N.N.M.M.M.x.! s ; . # u * = = < ~ x.V.!.: I J.B.B.0.B t = P _ g.g.g.m.B.W W g.g.m.m.g.d.T T v.x.x.x.V.V.W.! . . # - - - - - - # # # % % % % ",
"% % # # # # % % - - * - - - - - y r y a.s.s.B.m.N.N.m.m.B.f u P g.g.t.d.B.d.j.j ; & O R.&X&X<X7 @ < X b.,X&X-X%X%X-X*X*X,X>X>XU 5 C.~.D.n.M.m.B.m.l.n.l.e.m.m.m.m.J.x.d.; = v.c.N.Y.z.M.c.Z.<X*X-X-X*X<X<X&.X.-X1X;.g a N M t @ 6 zX;X[ :XzXq X & ; i m Z Z D z k p i a r t ` T / x O   y V a r u j p y h h y $ 6 :X:X6 :X,.+ ; h y 2 - r & {.oX;X7 ].OXo.X j = 9 ,X>X>X*X>XR.~.V.V.d.m.x.m.n.c.M.V.H.H.H.H.N.U.c.c.c.c.c.M.D.~.E.<   $ $ > > > ` b.!.^.: g V.x.N.I = u * j.h.g.m.g.g.J.J t i.B.x.x.x.$.: : x.c.$.%.Z.D.^.~ $ ; # - - - - - - # # % % % % % ",
"% % # # # # % % - - - * * - - - h p g e.g.s.m.m.m.H.g.h.h.= = Q g.m.t.t.m.s.s.v - ; X b.~.F.,X0 1 1 O b.*X#X-X%X%X%X*X*X6 6 U C.#X%X*X&X,X^ ~ Z.C.&X@X,X;.9 d.h.g.h.x.~ , . ~.F.C.c.c.D.c.D.c.F.*X*X*X,XKX.. .1X1XZ.< = * * u X 7 :X[.[ }.}.8 $ ; h y i A A y - ; - y r y y u j n v 3 - y i i y = - i m V k y X 6 ;X:X7 :X,.5 , y y j - -   [.3X;X6 }.3X*.. y t : ,XF.,X@X@X>X~.D.n.x.m.B.n.z.N.m.n.M.N.H.n.V.N.C.F.A.A.A.;.@X*X#X..| ;.w O 1 . d > D.,X: < R.D.F.U $ * - j.f.s.m.t.g.h.L * $ @ b.E.G.&X0 6 &X>.#X>.&XR.&X;.X % % # # - - - - - - - # # # # ",
"% % % # # # % % - - - * * - - - # * g ^ g.g.B.m.H.m.J.T.h.t * Q g.t.m.m.m.B.B.f # ; , T.!.D.~.0 . & 1 E.,X,X*X#X*X*X,XR.0 9 : Z.-X%X-X*X,X9 9 C.@X*X<XLXF.9 W B.B.g.~ ~ , 3 ,X,XF.F.F.F.Y.S.c.!.,XF.Z.R.2X| | ,X2Xb.: & j - -   7 CX1X..oXcX*.# y k h k 1.A t & & & - y y y y j / / G z i y i y & ; y V D V y X 8 :X:X7 :XE.6 $ y y - # 2 & =X:X+.7 3XCX:.; u = 9 >XF.>X>X>XG.D.N.x.x.m.m.n.m.H.J.B.z.z.N.V.M.Z.C.,X<X<X*X=X*X%X-X=X*X1X>.5   & X < !.2X: 1 >X&X2X$.$ - - a.h.m.l.m.J.B.P , O + ;.&X*X<X6 + &X=X=X#X=X#X*X>.  % % # # - - - - - - - # # # # ",
"% % # # # # % % - - - * * - - - - # 9 l.B.n.B.m.z.I J F n * * a.m.t.g.g.t.m.J.f u - # ; 1 < E @ ; % % 3 1 9 6 @ @ X 3 1 . $ X E.*X-X*X,X2XI 9 ~.&X,X*X*X~.P.e.B w.n.I.>X1 O ,X<X@X@XF.F.G.F.c.F.F.@.6 @.Z.9 0 c.KXD.> * h - i $ 5 8 | 7 X.} O p i k h k 1.H ; # % - - y y y y y l G / G k i i i * * y i V V y & + ;X;X7 2X/.X , - - j j z . 6 5 e 5 [.,.w . u = 9 >X>XF.>X>Xc.c.x.x.x.x.B.m.m.m.J.B.U.H.V.m.= Y C.#X-X%X-X-X*X=X#X=X*X*X&X=.R & . . ! ` X 9 *X*XF.U . - 2 _ d.n.z.N.! b > V.R.&X*X*X#X*X6 q R.#X#X%X#X#X<XC.X 2 % # # - - - - - - - # # # # ",
"% % # # # # % % - - - * * - - % % o 9 c.V.v.n.x.M.g f * u j * _ g.g.m.m.g.x.B.B t - u ; ; ; . . ; - j ; . & & & 2 % . % ; > : c.&X*X@X>X^.I 9 F.>X,X2XF.N.^.m.B d.c.,XKX9 @ <X*X<X,XC.@X<X$XC.%.F.U 1 E v.I 9 ~ !.` = - k y p $ 5 | @.5 } } q y i k h k S G ; % - - - y i y y y u G G / l p i r * * y i k k u ; @ + e O + 1 & * u - - - V y 3 @   O 6 6 @ . j > @ R.,X>X>X~.~.P.M.n.n.x.m.m.^ W B B N.N.n.B.u ` KX<X-X%X-X-X=X<X,X1X*X*X*X,X:.  3 # # . : w *X*XU X & 2 % ` ~ l.l.c.I > : E.R.#X#X#X#X,X+ + R.*X*X*X*X*X<XC.X . # # # - - - - - - - # # # # ",
"% % # # # # % % - - - * * * - - . 3 -.Z.b.v.M.x.l.> f * * i * F f 0.s.g.d.W g = u * h - - 2 % j = = t ; # j - 2 - - % _ B.V.D.D.C.C.c.c.c.I I F.>X;.C.c.x.K.t.w.e.$.,XKX1 1 1X*XLX*X0 C.<X$X>XF.D.^ > b ! = > > g t * y k k i $ *.zX=X6 }.CX) * p k y h V p - - - y y y y y y y y z l L L F Z i - ; u y i h y ; , X & & , - * l j - - y D V y # * ,     3 ; u $ 9 R.~.R.%.U I.D.M.n.n.x.V.P.c.x.g g N.N.V.B.# R -.>.-X%X%X-X=X>.Z.Z.#X*X*X=XA.*.1 # % . X 9 >X,X9 X n .   b.c.G.F.~.~ : 1 ~.&X#X*X*X*X*X5 6 >X>X*XG.G.G.G.c.~ T % # # - - - - - - - # # # # ",
"% % # # # # % % - - - * * * - - X v.>XF.c.V.V.x.P.M.J.i.p r r a a d.g.m.B.g = t u y h 2 h h % 2 f g * = * * # # - - * ` B.N.I.N.M.M.x.z.N.c.c.~.2Xc.-.M.M.K.t.B e.l.,X,X3 q 1X,X%.%.5 ;.<X#X>XF.P.! = p l p p t r p k y y i M : o.1X[.7 oX3X6 ; - y - - y y - - y y y y y y y y y y r F / G G F u i i u u u u - z # - l * i D * j 2 2 k V 1.V z r p # & x ; - $ O E.~.>X@.9 I.^.P.D.V.c.b.Z.C.b.f t N.N.V.x.$ 1 + >.<X-X-X-X=X7 + + 7 -X%X#X*X1X@.3 % 2 $ 9 R.F.9 $ 3   @ R.&X*X>X,X;.@ 5 A.#X%X#X-X=XA.7 0 >X>X,XF.G.C.c.c.V.d.= # # - - - - - - - # # # # ",
"% % # # # # % % - - - * * - - ; X b.,XF.c.D.P.N.z.P.J.f.p.q.9.t t d.j.g.B.g = u u y - - y - - y a f.0.h.B.B.B.B.j.d.d.x.V.M.P.n.n.m.m.n.z.S.$.U 9 -.b.v.x.L.L.L.B.x.%.U . 3 R.;.@.%.c.Z.,X,X,X~.^.p.r S V k i p r y k k k k p X } }.}...].oX{   $ ; 2 h y y y y k k y - - - y y k i * n _ v F l l k i u - - - - - Z i y V V y y - ; h k V D i k a y - 2 * u i u @ ~.^.2X~ : $.I.N.N.C.c.C.A.@X&Xc * V.c.I.c.-.~ @.=.&.#X#X=X*X5 O w ..-X-X%X#X*XA.;.o % % > I @ < & . ) ;.&X*X#X#X,Xb.+ 6 A.#X%X%X=X .7 C.F.>XS.Y.l.c.c.n.n.N.^ = # # % - - - - - - # # # # ",
"% % # # # # % % - - - * * - - = X c.>X@XD.F.D.S.Y.U.t.J s.B.J.W t d.j.h.B.P u * y i - k i * y r r J.h.B.B.x.B.M.c.c.V.c.D.N.N.K.Q.B.m.n.l.P.Y.9 6 b.v.v.K.J.L.L.m.V.x.: , 3 b.-.c.V.,XD.>X,X~.!.W.p.i u.S k y y k y k k k k a O X.oX{...+XoX8 O X ; x l y y h k k k h ; & % y y i i y _ j.P G Z V V k u ; % - - y k V V i y y h ; u h V V D y k y * h h * l y * < ^.^.^.x.> I ~.I.F.F.A.*X<X-X1XX % !.I.KX>X,XR.,X| 7 #X<X&X2X5 e 2X-X4X%X4X%X-X*X2X< . ; * # , - &   E.,X#X-X#X*X,XZ.O 6 A.&X#X_.<X=.+ E.F.D.S.z.N.M.l.m.m.N.e.= # # % - - - - - - # # # # ",
"% % % % % % % % # - - - - * - & O C.,X>X,X;.%.$XG.S.l.g e.V.V.I $ ~ W.a.u y - k y k r p t h.g.g.g.B.B.B.n.c.S.S.F.G.G.S.S.S.S.M.g.B m.m.N.N.Y.$.c.@ I v.n.L.m.H.m.B.n.d $ c v.v.x.M.x.n.D.c.V.~ t a i k k k i y i k k h h y t @ } 3X}.[ +XoX| O 1 & ; - - y h k k - % o 4 X u y i y y ; x _ / C y.S k y % % ; - y k k k i y j j u y k k p i h h u u h h p i m i j n n ! ! > > ~.~.A.*X<X-X-X-X-XO 3 ` -.,X>XF.A.>X>.>.#.#.R.E.@ e ;X-X-X%X%X%X%X%X<XY % - j - - % & X R.&X#X%X#X#X&X*.9 6 5 &.*X_.*X| @ ~ x.n.n.N.z.z.z.h.h.m.e.= - - - - - - - # # # - # # ",
"% % % % % % % % # - - - - * - & O ;.*X*XKX#.6 @X@X@XZ.$.c.;.;.9 9 ` W._ - h h y h y r f = m.M.M.B.d.e.n.D.N.S.C.G.G.F.G.S.S.S.V.w.a g.V.N.S.I.2X^.9 I n.n.B.L.m.H.J.d.t > T B.g.x.n.N.N.N.n.V.I t y y k k k k i i h h h h y t : o.CX:X[ }.:X] & , 2 ; - - - h k h - X e O   # z i i y ; , n / S 1.D k i ; ; - - y k i i y - ; ; h k k k u u 2 - & $ - y p i V V l v l v f = I ~.F.&X*X-X-X-X-X:Xe   @ 9 2X,X@X>X<X>X&XU 9 !.^.@ 7 =X-X{.{.-X-X-X<X,XU s # y k h j . O R.,X%X%X*X*X,X-.O O 6 Z.&X#X<XE X ` m.m.B.H.N.N.z.g.h.J.x.= - - - - - - - # # # - * # ",
"% % % % % % % # # - - - - * - & O =.1X>.7 7 #.*X#X*X&XA.&XA.&XA.U I ` s # - h - y * f m.e.N.N.N.x.N.M.x.z.c.U.F.G.$X,X,X,X$XI.S.K.B W m.c.N.S.,X2X1 > ^ x.m.K.m.N.H.0.g e.m.B.m.N.N.H.H.N.V.P.W t y y h k h h y i y h h h - = : q T.:.O >.,.; i l j i - % - h h h . O O 5 8 & - i i y ; & ; G 4.1.S C l v x u - y y y y - - & ; k k k y ; & % % @ & - k C A 1.S Z G Z G l t > -.;.&X*X<X-X-X-X-X6 9 R @ ,XS.@X$X$XG.>XF.b.B.j.X ..-X-X-X-X-X=X_.@XF.~ d.u y i # # : @ F.*X*X#XG.A.Z.v.` R   -.>XA.,XE $ v.K.B.J.W e.N.n.h.h.J.e.= - - - - - - - # # - - * * ",
"% % % % % # # # # - - - - * - %   *.1X&.6 =.*X_.#X#X=X=X=X=X-X<X@.$ > * - h h h i r B n.N.N.c.N.x.M.n.m.m.M.P.S.U.I.,X,X>XI.D.N.K.W t e.x.P.!.2X,XI I I d.m.V.n.z.L.J t x.N.B.m.H.H.H.H.H.N.M.T t y h h h k y i a i h h h - ; = u * % o O 1 r D S z p y % 2 h y - R :.7 O.2XR # k i - ; $ & z S K K G F G G j - y y y - - ; ; ; k V i y & & % % @ & h k G K u.u.S S S ( C l = : 9 A.*X<X<X-X-X-X*XUXb.X 1 9 >X,X,X>XF.>X^.~ r $ ..-X-X-X-X-X&X>.C.C.x.B.p * y * # , 1 ~.,X*X@X&.C.b.v.T.` : -.2X,X2X` > e.m.m.J.g ! n.m.g.g.V.e.* - - - - - - - # # - - - * ",
"% % % % % % % % # - - - - * - % o :.2X#.6 =.R.=X*X*X=X=X[._.{.<X-.$ = * u h - y t Q ~ m.N.M.N.N.!.! t a.J.h.g.B.M.M.N.c.M.c.M.M.V.m.e.n.x.x.x.!.K.x.x.I m.B.B.B.H.J.J g z.N.B.L.H.H.H.m.K.e.I > t - h h k k p a a p k h h y y y C r k ( . = D 1.S V i y % 2 y y . -.zX7 [.zXq % k y - ; & % i V C G G C G F i y y y - y j l v v k V i y % & - - o % y k z l C V C S D Z k l u : @ R.&X@X*X#X#X*X@X,Xx.: > I D.c.l.~.F.G.I.M.f.T #.<X-X-X*XA.;.$.c.S.n.B.y - - u 2 $   ,X,X;.C.Z.V.V.d.s ; ; c : < R ~ x.N.N.J.m.t W B.n.m.m.H.e.* - - - - # # # # # # - # # ",
"% % % % % % % % # - - - - - - % % ` 2XC.5 w &X*X*X*X=X=X=X-X%X<XU = v * - u * u t B.V.M.N.N.N.e.B.Q a 9.h.h.h.B.B.n.M.n.N.n.n.n.x.M.M.V.x.e.! e.d.n.n.g d.B.d.d.m.m.0.W m.n.B.H.H.U.L.m.K.e.= = ; u h h k k p p p p i k h y y y y k h h $ v 1.1.D V i y % 2 h u . :.CX7 ).CX6 ; y y - ; & % y i F Q P F G S V k y y - u l G G S C k i y % % y y % - k V h u y i V S D Z y y j s : ~.F.G.G.G.G.G.G.C.D.M.$.P.g > $ B.~.F.F.I.W.$ ;.<X,X<X&XC.x.x.c.P.H.V.p h # % - , : ^.>Xc.c.c.x.B.0.a u u j . = d e.K.H.N.B.s.t B n.M.M.M.N.e.* # - - - # # # # # - - # # ",
"% % % % # # % % # - - - - * * - h * R I @ ~ 2XC.G._._.=X#X%X%X<XU = x * u y u d.e.M.V.n.m.n.K.! g t.m.m.h.L.J.m.H.N.S.N.N.n.n.n.N.N.n.B.K.s.! B t.H.L.W w.J.a.! Q 9.0.s.n.m.J.m.H.H.J.B.K.e.u j - u h h k k p p p i i k k h y y y z - . : c D 1.k k i y % % y i < :.CX[ {.CXw $ y y - & & % y i P _ Q G K S S S p y y h C S 1.S Z z k y 2 - k k h z D S l u u u C y.S S k h - - > ^.D.D.I.F.I.F.I.S.^.N.N.N.B a.h / ` C.G.F.^.U 9 b.b.R.F.c.M.V.U.U.H.K.y 2 % % . - $ Y I b.b.n.B.B.p.f p # # j p.d.n.H.H.m.J.g.d.x.c.c.c.x.M.d.* # - - - # # # # # - - # # ",
"% % % # # % % % # - - - - * * - y C = > I I D.c.C.>.G.*X#X<X-XLX$.= * - j # > W.!.c.c.D.V.m.Q.J B e.m.L.L.L.L.L.l.z.N.N.N.n.n.m.N.N.n.n.B.T W 0.e.g.g.B ! Q.s.B J J a.m.B.n.K.n.H.N.B.g.s.! y - y h k k k k M M p i i k k k y y - # - 2 : = D D k i p y % % h u   :.:X[ X.[.7   - y - - # % y y b _ Q F S S S K k i u h Z S 1.S Z l k y 2 2 V V h k D S z j j v K y.V D k h - - s ^.!.P.I.P.I.P.S.I.S.N.U.z.m.Q.k l = $.F.F.~.^ > x.d.K.P.N.N.m.U.H.U.P.t - % % % . , > : V.x.M.B.J.w.r p u - # s.m.m.m.m.m.g.! B.n.S.C.c.c.n.s.# # - - - # # # # * - - # # ",
"# # # # # # % - % # % - - - - - - * u t t I M.D.S.S.Y.D.Z.F.%.%.I W u h 2 %   ,X,XA.;.D.V.m.J.J u Q V.N.H.m.B N N w.m.N.N.^ g g.L.H.M.n.M.M.m.m.t.W ! u s.Q.k.g.m.K.J.J.K.K.K.N.H.N.K.0.t p V V k k k V V i a i l l k y y i i i i y y y j l Z Z y y y y - - - % @ 5 [ 7 [ +.8 O % - y y y - - - s = v _ / G G / l l h y k k k k i i i i y y i i y k S S k y k G C S k y h y - - u s ` !.V.N.U.S.D.P.S.N.U.U.H.J.f B t x.D.b.C.b.K.W B J w.W m.P.K.N.H.N.x.B.c * h - u t g d.x.n.m.B.Q t = ; & d.v.x.V.H.K.L.g ! B.n.c.c.N.c.V.d.* - - - - * - - - % % % % % ",
"# # # # # # % - # # # - - - - - * - u t t B n.M.N.n.n.N.V.!.I > W t * j o 3 6 &X<X#XG.C.N.V.J.B u n B.x.B.w.N m 2.w.l.N.P.e.f f.H.H.n.V.x.M.N.z.e.w.i.u a.B.g.r.g.V.M.N.N.N.H.N.M.n.K.d.r y V D V k k V V k i k z z j y y i k i i i i k C Z z k y y - - - - - %   *.1X} +.CX| O % - y i y y % % - - v _ _ / v l l l y y y y y y y y y y y y i k y k C Z k i k Z Z Z k y y y - - - * ! T.M.c.S.S.V.V.z.l.N.U.H.m.g g r j.W.V.c.c.P.W a H J W m.P.K.K.P.S.I.~.b - h - y = g n.B.m.e.K.! = = # , v.n.V.V.l.P.e.g ! V.n.M.c.M.c.N.e.= - - - * * - - - - % % % % ",
"# % % # # % % - # # # - - - - - - - * * t ! M.M.N.x.N.M.V.^.T g r y - , + E.*X-X*X#X<XG.C.S.P.! r y p r C r p a B.K.P.N.n.J a k.K.H.V.V.c.V.H.m.L.B.B.v v Q 3.B n.D.S.S.U.S.S.S.N.V.!.d.u a i C Z l k C V k k k Z z l h h k k y i i k Z G Z k y y y - - - - - % o :.zXo.>.zX8 @ % - y i y - % % * * ; j v / / G v l h y y y y y k i y y y y i i k k k k k k C Z Z Z k y y y - - j - b V.V.M.S.P.e.~ ! ! m.!.!.B.f a y j.W.V.D.D.B.g a g.s.m.K.K.K.K.D.Y.I.!.s h h - u t t m.B.d.d.W.Q u t # x v.n.n.V.K.W B m.n.V.n.n.n.n.M.H.e.= - - - * * - - - % % % % % ",
"% % % % # % - - # # # - - - - - - - u P d.n.V.n.N.x.V.M.V.M.g u h h # @ 5 #X<X_.-X%X*X>.G.Y.S.W a C i k l u d : c.N.D.x.e.H N f.t.N.M.V.c.D.K.H.H.J.W.Q f Q q.w.x.S.S.S.S.S.S.S.n.d.d.Q u i p p G l Z Z Z V V Z Z z k h h k h y i k C Z Z z y y y y y - - - - - . ' 2X8 | zXe o % y i i p - % % - * - - u v L G G Z k y y y y y k k i y i k k k k i y i k Z Z Z Z Z k y y y - - - # ! V.P.P.N.N.N.m.s.w.0.B.W.J.* p Z h.T.K.S.N.m.t B W.n.K.B.B.W.K.P.S.I.P.= - - h j r = Q d.B.s.h.b t f Q d.B.n.n.m.K.a g K.N.N.n.B.n.n.n.H.e.= - - - * * - - - % % % % % ",
"% % % % # % - - # # * - - - - - - * u _ K.V.V.N.c.N.V.K.B.T = * 2 % 1 ~.*X-X-X-X-X%X%X<XLXF.~.g r V * u < x.Z.Z.;.;.Z.b.n.Q.g.B g n.V.c.c.S.N.H.m.J.K.Q B Q q.w.n.D.S.S.U.U.U.!.s.v h h 2 h h l G G Z Z S Z Z Z V k k y h u u u p C Z Z k y y y y y - - - - - - j . X + + @   2 - y i i p - - % j u u - - j L _ v l h y y y y y y y y i k Z Z S C i y i V Z Z Z Z V k h y - - - j * = T x.P.D.P.K.J.J.B.Q B f t p p y k H m.U.U.B.t g K.M.K.K.W.i.I c.D.F.D.x h - k - * t s P Q.Q t p t f B.B.B.n.K.J a 3.B H.m.N.M.B.n.B.B.K.e.= - - - * * # - - - % % % % ",
"# % % # # % - - # # * - - - - - u * * ! B.n.n.N.N.N.M.n.d.t u h 2 %   &X*X#X%X%X%X%X%X<X*XU x.s k p s 1 6 >.#X#X#XA.&XR.b.D.n.I I x.x.D.F.S.N.N.H.H.K.~ B B q.w.x.M.N.N.H.N.e.w.i.l h h h 2 h h l l l l k k k k k k k h y - u j l Z Z z i y y k y y - - - - - - - - 3 1   1 2 % - y p p p - % 2 h - - - * - G _ l l l h k h y y y y y k C Z Z Z k i y i C Z Z Z Z k k k y y y - - - = > ~ !.S.S.N.N.B.h.Q f B B f p y a M m.U.S.B.* b K.K.V.B.J.p.B N.I.S.V.s h - k * y j * * j.P # p t t B.m.m.n.K.w.B B B K.B.N.M.V.M.n.V.K.e.* - - - * * # - - - % % % % ",
"# # # # # # - - * * * - - - - - # - u Q V.M.M.N.N.N.n.I f * * - . 3 + R.*X-X-X%X%X-X<X1XA.@ x % * = !.@X*X<X-X-X-X-X<X*X#XG.G.F.E 9 9 R.>XS.S.K.K.K.K.e.B Q B.K.n.V.H.N.K.m.B a C k h h 2 2 h h i i i i y i i i i i k k y y j l l C z k y y y y y y y - y y - y h h # ; ; . 2 h y y a f p u 2 2 - * u j - * - - G G l z l z k k k k k k z Z k h k y y y k k z Z k k k z h y y - j j ; $ ~ !.D.I.C.S.V.V.B.J.B.B.g.9.H M B N.U.U.W.= ! K.!.l.B B f g c.D.D.D.> u y h - j u - # j u * u t f B.m.B.n.B.K.W.g J K.m.M.N.S.S.N.V.K.i.* - - - * * - - - - % % % % ",
"# # # # # # - - * * * - - - - - - - = T B.V.V.V.V.K.!.g t u y - 2 & O &X*X#X-X#X*X#X>.:.E : ; # X + ,X#X-X-X-X-X-X-X-X-X-X%X_.*XE.@ @ ,X,XG.S.M.P.V.P.e.B B h.K.n.N.N.m.K.L.3.J r u u - - j l y k V k i i i i i i i V V k y j v Z z i y y y y - y y y - y y - y y k h # - j % h y y p f f u - - - - - - * - u u l l z z l z k k y y y k z z k y y y y y k k k z k y k Z h y y - - u ; = ~ !.D.I.$X$XG.c.M.K.N.H.K.g.q.3.B m.U.P.W.= T V.^.l.I W m.x.P.S.S.V.: = y - - y # - j # - j - = W n.n.N.N.x.m.e.B B B.B.c.C.G.G.S.V.B./ * - - - - * - - - - % % % % ",
"% % % # # # - - * - u u - - - u - - = d V.n.!.e.x.x.! f r y h - - & : R.<X<X<X1X,X5 4 % . ; X b.Z.>.=X-X-X-X-X-X-X-X%X4X4X4X-X1X&X9 9 ,X<XG.C.S.D.N.P.l.W ! g.K.S.S.P.H.K.K.J.K.x.x.l.~ x.d.* F i V V Z r l i i D i a V k k Z G k y y y y y y h y y y y y y y y y y y # - h z - h p u t t y 2 - - - - * - - - - y y y y y y y y - k z Z Z Z z k y y y y y y y y y y y y y y y y - u u = v.^.D.;.<X1XG.C.c.N.N.H.m.J.Q.J g K.!.^.W.f t g I > I e.!.P.N.S.D.c.x.d.y y y k - h - h - l # s I V.D.N.c.D.^ g = F T.B.%.&.<X@XG.D.f y - - - - - - - - % % # # % % ",
"% % % # # # * - * - - u - - - - - - * b W.B.K.W g g t r y k k h % 2 $ E c.&.>.>.Z.X o 2 2 _ R >X<X-X-X-X{.{.{.-X%X4X4X4X%X4X4X:X=X+ O 2X<XG.>.G.C.C.D.$.g J x.!.S.S.z.e.K.K.K.K.I.F.F.S.I.K.g a a V y y y - # y i i m D D V k k y y y y y y y y y y y y y y - y h * * u j # - h y y r t t u h - 2 - - - - - y - y y y y y y y y y k Z Z Z Z z k k k k k k y y y y y y y y y y y - - ; ; Y E x.R.*X-X&.G.C.N.H.N.H.L.J.q.t ` x.v.s.f W e.e.e.x.x.S.S.S.N.b.D.~.^.s h y l h j h - - h ; d.x.N.C.S.C.S.~ d = G > -.@X#X<X#XC.x.* - - - - - - - - - % % % # % % ",
"% % # # * * - - - - - - - - - - - - ; Q W.T.W.a.t g p p p k k h h h h # < @ 9 9 : $ % % u v.D.,X<X-X-X-X-X-X{.-X4X4X-X-X-X4X{.4X>.+ 9 KX<X#X>.>.>.A.I.^ f f ~ P.I.U.^ W B.B.V.N.G.G.@XG.D.V.t r a D i - & & & ; l k V i V V k k h y y y y y y y y y y y y y y - - 2 u # s = - - - - y r y y h h h - - - - - y y y y y y y y y y y k z z z z z k k k z z k h y - y y y y y y y y - - # ; $ < !.KX<X-X_.#XG.C.U.I.P.L.W.h.f s x # t t d.W.!.P.P.P.S.S.S.c.;.C.@XR.> u * - - h k k h - ; T.b.C.&.G.F.F.E $ - # : @.<X<X<X$XC.x.u h - - - - - - - - % % # # % % ",
"* # # # * * - - - - - - y - * - - j - ; n u v * t p p y y k k h - - h h x = I I : v.T.j.d.V.D.G.>.>.>.[.-X{.{.-X4X-X7 [ :X{.`.4X&.7 O ) &.<X<X-X-X<X,X$.P P M.KX~.^.^ W V.M.D.G.G.#X*X>XF.V.f M a i l &   @ q X % - k i k V y h y y y y y y y y y - y y y y y h . - , $ I g = # - - - y y y y y y - - - - - y y y y y y y y y y y y h k h h h h h h k k h y y y y y y y y y y y - h # ; $ : -.;.[.:X-X*X*X@XG.P.N.x.m.! d u z h G f x.!.V.M.V.I.S.G.$X,X,X,X*X@X@ s u v y y y y y # = T.R.*X*X*X@X,XE = j ; 2X,X<X<X<X@Xc.~ # * - - - - - - - - % % % % % % ",
"* * * * * * * * - - - y y y - - # - - - y * p y y p y r y y i h h y - h - u > > > M.V.V.V.P.S.S.C.;.=.>.-X-X{.4X4X-X6 o.zX;X-X-X=X&X) O 7 <X-X-X-X-X<X~ v u c.KX^.!.^ I -.-.>.>.#X#X<X,XZ.v.y i V y ; 1 e O + + < & j k k k y h y y y y y y y y y y y y y y y h 2 o 1 ~ c.U : x - - - y y y i k h - - - - - y y y y y y y y y y y y y y y y y y y y y y y y y h y y y y y y y - - h % 2 1 : 9 + ,.:X1X-X-X#X>.G.;.$.$.U x.s h Z k t e.~.P.~.~.~.C.G.@X*X*X*X-X#X1 s = u y i k k C - : E.&X*X*X%X&XKX~ 1 . > 2X<X*X#X*XF.b.d.t y - - - - - - - - % % % % % % ",
"* * * * * * * * - - - y i u u - - j - h - y y y p i i i y y y y y y - * # j.B.B.M.P.S.U.S.S.N.P.N.c.;.&X-X-X%X4X4X_.5 5 8 >.1X<X<XKX:.O 7 <X-X4X-X-X1X$.n u D.LXZ.x.E E >.A.*X-X-X-X<X*XZ.v.u C i y X *.;XO.O.2X*.4 ; u y i y k y y y y y y y y l k y y y y y 2 o   q $.;.@.9 $ % % 2 h y y k Z h - - - - y h y y y y y y y y y y y y y y y y h y y y - - y h k y y y y y y y y h h - ; : @ 1 5 6 } -X-X4X-X-X=X#X@X@X>XKX~ y V k u l.>XF.~.-.9 ,X<X*X-X-X-X-X-XR.T.b u r i i V i # : ~.*X=X-X-XC.E : I 2X2XZ.&.G.>.G.C.b.d.a p y - - - - - - - % % # % % % ",
"- - * * * * * * - - - u u j u u - - % h - h y h y y y i i i i y y j ! I I M.P.P.P.V.P.N.z.S.M.K.H.N.c.&X-X-X-X%X-X#X>.#.0 @.A.>.*X,X` 1 7 <X%X{.-X-X1X0 j x Z.<XZ.c.>X,X<X<X-X-X-X-X-X=XA.b.= y l j X :.CX+.} zX,.+   ; - h y - h h y y y y y y l z k y y y y - o q :.;.&.C.;.< & 2 - h y y C K h h - - - h y y y y y y y y y y h y y y y y y k y y y y y y y h y y y y y y y y h - h # 1 R 9 0 7 [ %X-X4X4X4X{.[.#X%X<XKX^ M D V u $.>XF.>X$.+ A.*X-X-X-X-X-X-XE.v.> t p M m m y * @ E.=X_.%X-XE X I U ,XF.c.F.C.C.C.c.V.g.a i y - - - - - - - % % # # % % ",
"- * * * * * * * - - - u j l l j h - - h - h - h h y y y y y i u j b W.!.D.D.I.P.D.P.!.~ W V.V.K.K.H.N.G.#X-X-X-X-X-X<X,X>X$.@ $.G.F.' 3 7 1X-X4X4X-XKXE G u U 0 ;.%.,X<X-X-X4X4X4X-X-X#XA.b.> v u ; O :.zX} { :XzX] X ; # - u y k h y y y i i k l k k i y - - ; e e =.&.&.&.=.w < 2 2 h - y A K k h y y y y - - y y y y - - y y h y y h y y y k - - y y y y y y y y - - y y y y h - j . -.2X,X1X1X-X4X4X4X%X4X-X-X<X<X%X>X^ 3.i k # $.<X>X>X$.6 R.1X<X-X-X-X-X-XR.V.g s B i i i r s : E.*X-X<X1X-.s @ I F.C.S.C.c.Z.c.c.!.m.a i y - - - - - - - # # # # # # ",
"- - * * # % % - - u * y l l z y - - - - - - y y h - y h y y u = > U n.V.D.D.S.P.S.K.d.! ! B.B.n.N.K.c.l.S.@X*X<X<X<X<X@XC.$.U n.^.^.d.> E 2X@X#X#X,X,XI F K W U %...%X%X<X<X#X%X-X_.<X*X*X@X  3 ; , O E.CX+.} zXzX:.& - 2 % ; - i i - u S N m M k k i i v $ & @ =.=.>.#.X.} X.o.;.: = = ; - V D V k h h y u & & h y i y . 3 u * - j y h y h y y 1 : u i i k h k k i , $ k k k y y k - @ =.;X-X-X-X-X%X%X4X-X%X=X#X*X<X@X~.e.C y z n c.,X@XF.%.6 R.,X$X*X#X&X<X*X>XV.1 > f y y p p s > ~.F.R.C.b.! u d.c.I.S.S.c.M.M.D.D.P.B.* l y y i u y - - - - - - - - - ",
"- - * - # # - - - - * - k l C i y - - - - - - - j h - - * # = T D.D.!.!.P.D.P.I.I.e.B a.L P W W ~ D.V.P.S.S.G.@X*X*X*X&XD.D.M.e.w.e.Q b I !.C.G.F.~.^.Q J J Q e.KX<X1X<X<X<X#X#XG.>.<X<X<X,X1 2 * & @ :.[.} { <.+.e & h h ; j - k - @   p a 2.r i y k i u @ q w >. . .&._.).'.+. .@.-.< , - a m k k h k k u ; ; h i m u @   X c ; - - h y k i - @ @ i m V V i y y * O e & . 2 h h k - O >.:X4X4X4X4X-X4X4X-X#X>.>.*X1X>XF.I p k x v.>XKX,X>X;.9 S.>X,X,XF.C.*X<XKX~.I > u y y k u b W P.D.^.d.$ * y !.P.S.S.D.D.V.M.V.K.!.W.u - y y h y y y y y y y - - - - ",
"- - - - - - - - * - * - p k C i y - - - - - - - * y - - u s T d.D.c.V.V.V.V.S.S.P.l.! i.9.f.m.x.N.S.N.N.D.S.Z.C.Z.>.Z.C.C.F.S.l.m.W g d R ~.Z.C.S.c.m.B B M w.V.~.&X&X&XR.R.G.G.A.Z.R.F.>XF.; - i Z . O 7 7 7 7 { O - k k k V y o   ;X{ @ n # - , = i i u < -.;.=.o. .[.oXoXoX).+.o.=.@ & - V V u - h h V C k h V D m * O 6 6 O % 2 % . 1 c r Z & & h V V i u ; ; q ;X{ 6 ,.*.X - - u @ [.:X-X-X-X*X%X%X*X*XA.#.A.@X>XG.D.I l y b T.F.$XF.F.-.I N.I.c.c.F.G.G.@X~.M.> = j k h k p t I !.x.~ > = v * K.V.S.I.I.c.c.M.P.x.g f * l y y h h y - y y y y - - - - ",
"- - - - - - - - - - * - y k C i y - - - - - - - j h * # = ! V.!.D.V.P.D.P.P.S.S.N.V.0.J Q h.B.P.V.P.P.N.D.V.D.b.Z.Z.Z.C.D.D.S.P.P.~ g I ` ^.D.N.D.^ ! B 9.! m.!.C.A.C.Z.b.b.F.G.F.F.Z.b.F.c.j h D i $ ,.:X+.} :X:Xo.3 h y i V k   O.}._.8   & ; 1 $ p y = 1 *.=.=.>.X.[.oXoXOXoX3X+.o.e . - D k - & 2 z D D k k D D a X 7 [.1X>.& 2 O 8 1X2Xs * & - k k k i u ;   *.ZX} 7 CX[.5 3 - f 1 =X-X-X-X#XG.G.G.G.@XF.%.>XC.C.C.D.! F r g P.D.I.I.~.d.= !.^.^ 9 S.$XC.C.^.V.b v h h y y p = Q JXB.g # b s = n.K.N.S.S.N.M.M.V.d.t f u * y y h h y - y y y y - - - - ",
"- - - - - * % % - u - - y y k y y - - - - - - - y - u u = ~ !.V.D.S.D.c.l.N.N.N.P.M.Q Q Q 0.e.K.N.P.V.M.~ d.V.!.Z.Z.Z.Z.D.S.c.P.H.N.x.^ ~ x.x.P.K.W B B s.g.M.D.C.F.G.F.D.C.F.G.S.D.D.D.I.c.s y r l X =.3X)...:X3X} + > v u a = { 3XoX3X>.O & . 1 & y y j q =.=.o.+.} ).oX].`.+XoX+.} 6 & h V k - ; h V S S z k k y . 8 +.{.3X+.@ X 7 } oX3X+ * - y k k y u y - o O.xX} [ :X-X7 : * J U =X-X-X-XA.F.F.F.F.c.l.$.I.C.G.F.!.g p M W ~.S.S.c.x._ F Q m.e.l.S.D.G.F.~ ! * y h k h k l y t _ f f u * T d.d.V.P.c.P.S.D.V.K.d.* r l y y k h y y - y i y y - - - - ",
"- - - - - - % % u j - - y y k y y - - - - - - - h - ; s : ^ P.D.S.D.D.~ I M.P.N.P.M.s.Q Q J.^.!.W.B.! g g e.!.!.D.b.D.D.D.I.P.U.P.!.V.~ I I e.^.W.0.w.J n.K.P.D.F.I.S.S.D.D.I.$X~.I.I.U.I.S.B l l -   ,.CX)...3X3X} 6 : > u i : { 3XoX3X>.O o 2 & % y h _ ) >.=.o.X...'.vX).X.].3X'.+.6 s i y y j j k z S A l j - ; O ,.oX.XoX).O @ [.+X.X}.5 ; i i i i y - h 2 o :.CX} [ CX-X6 > p h.P.<X-X-X<XF.I.P.I.~.l.W M.P.D.D.P.!.g p M W I.I.I.~ g F L t g n.^.P.V.D.D.g f i Z z z y y i p a u r l v = x.!.e.e.x.c.I.S.M.!.W.B.i * u u p k h y y y y i y y - - - - ",
"* * - - % % % % u j - - y y k i y y y y y y y y - u u _ x.c.I.D.D.D.I.^ I c.P.V.M.K.d.B W W.^.B.g.F t * B 0.B.~ D.Z.Z.Z.D.V.V.K.D.S.V.x.x.! d.B.h.9.9.B m.P.P.D.D.U.U.S.U.U.z.l.l.l.U.S.U.P.a k # ; @ >.3X).X.:X:X..5 1 : s p $ o.3X{.CXE.  x % 2 h h i -.#.&.X.X.X.).].OX).X.{.3X).o.6 g M p v Z V z D S Z x 3 ; $ O =X3X].+X'.9   [.+X X}.e - i i a p ; - h h . :.zX{ { PX<X6 u a s.P.@X#X*X*XS.P.P.P.P.N.e.n.V.D.S.M.!.J A M w.^.I.>X~ g g.B.J.s.U.I.P.P.P.D.g u y k h z k V i p p l p * i v ~ !.V.x.> I c.S.P.n.f y y k p r l k y y y y y y y y - - - - ",
"* * - - - # % % - j - - y y C k y y y y y - y y y j * ` !.D.S.D.D.D.P.^ I c.P.K.K.W.d.W ! 0.g g r i i H r f W > D.F.S.D.P.~ I n.P.S.~.!.x.I ! Q 5.H i.J n.P.F.F.I.S.P.S.U.P.^ g g W P.U.U.P.r k j #   E.PX+.{ CXCX| @ = > s i & 6 7 7 6 O ; - y 2 z h u ;.&.+.+.X.`.oX+XoX).X.{.vX+.o.E B J n G Z D D D S C x 3 ; ; X =XcX3XSX[.$ $ :XcXoX3X4 y y i i i - - h h ; O 5 6 8 *.-.9 u a s.P.C._.#XG.D.P.^.!.P.^.P.I ~ P.^.K.W.J 2.H w.V.x.P.I g B.W.W.W.I.S.S.I.D.V.g p y k h z k i C G i r k k y = l.M.V.K.~ ~ c.N.P.B.p y y y u v l k y y y h i y y y - - - - ",
"* * * - - - - % - - y * r k C k y y y - y y y - y i t d.!.S.S.S.D.V.D.S.M.$.~ e.e.m.0.W W e.e.0.C y i V M B B I V.D.N.D.!.l.e.m.P.N.D.P.M.n.g.9.y.5.5.Q m.I.D.F.S.P.D.P.I.P.M.g t d.P.S.I.N.C k y - h c w 8 q E w Y M m y y i ; 8 [.'.;Xw ; - - 2 2 y * =.&.+.+.X.{.+X X+X`.).{.oX).>.0 B B = n G Z V V m a u h h i u w [ 7 [ 8 y i 6 7 7 7 , y y h k k h u u u $ w 1X=.@ % $ s y r d.D.A.G.G.G.S.I.l.l.K.K.N.P.c.I l.V.J.p.6.7.9.B W I x.D.W.B.K.P.P.S.U.S.D.!.g f k k h k a M M p y k k y s.B.D.P.V.V.!.V.N.P.I g y y y k l p i y y y y y y i y y - - - - ",
"* * - - - - - - - - y * r p k k y y y y y y y - y i = ~ V.D.S.F.D.V.D.S.c.l.~ ^ ! 0.W ! ^ B.K.W.i.V V V m M F B K.n.^.V.D.M.^ N.P.V.S.S.N.!.B.H 7.2.2.J x.D.C.S.D.P.M.M.V.K.m.g p Q P.c.S.V.a k h - h j 1 : * y v p D D V k i & { :X:XCX*.. % h 2 2 - * -.&.+.+.X.`.+XXXXX+X+XoX+XoX:X| B H u ; v z k k m m i k V i * ) +.+.).o.- h :.+.).>.< r h h k k h u u ; O ;.PXo.  2 h y k t x.P.Z.F.U.I.S.D.U U !.!.V.D.N.^ e.! w.H 7.7.2.M B I c.D.V.V.!.P.I.U.I.S.N.V.W f y k k V i B a p i k i r g.!.D.S.V.V.V.V.V.V.g s y y h k l p p y y y y y y i y y - - - - ",
"- - - - - - % % - h y - y i k i y h h y y y y y y l s d.K.D.S.D.D.c.D.S.S.M.n.0.0.0.! B.m.K.V.W.Q p i V V D V C F g I ~ D.S.S.N.l.M.P.P.N.P.J.5.y.y.i.w.x.P.C.G.U.c.g ! V.!.B.s t T ^.P.!.W.t i h 2 h k , - i V y i D D k h y X [ oX].3Xo.O ; % 2 2 - - -.=.+.+.X.)..X X XXXXX X XXX3X{ = C z j x j h k m m i h y l < =X3XoXOX).  X {.oXXXoXe u k k k k - ; y ; 5 >.3XX.O 2 2 - - = x.P.Z.D.P.I.F.F.@.^ V.V.M.D.D.M.V.d.w.3.r.2.S C i.v.D.F.S.D.^ U c.U.I.G.F.V.V.d.p k k k l G a p k V k r d.P.D.N.D.D.M.V.!.W.g p y y k k p p y y y y y y y y y y - - - - ",
"- - - - - * - - - h y - y y i y k k k y y y y y * v f d.K.V.S.S.D.V.D.S.S.D.V.0.Q ! W K.V.K.M.K.Q a i D D D D D G v g x.P.S.I.z.e.m.N.P.N.P.B.i.4.K 3.! x.I.D.F.~.x.= v j.B.j.t u u n.x.B.B.u u - - y h j h V D y y V V k h - @ { 3XoX3X=.  & 2 & & - - ` =.+.+.X.'.OXXX XXXXX XXXXXoX{ & k h j x u y i V N k h - ; O [.oX XXX).6 O {. XXXXX6 j V V V i ; ; k ; 5 >.3X+.4 2 % y j s n.P.D.P.K.K.I.G.U ~ B.K.P.S.D.D.V.~ Q H 6.2.4./ j.V.D.D.S.I.~ W V.I.S.C.D.D.!.d.y k k k p p B p k k k u n.P.D.S.F.P.D.V.B.B.f u i y k k p i i y y h h y y y y y - - - - ",
"- - - - % - % - - h u y y y i y k k k y y y y y u Q ! B.!.P.P.I.V.c.S.S.S.D.B.a.p.Q B V.N.K.K.W.s.F C V V D D D C F W.V.V.I.U.I.W.s.e.S.U.I.n.! 5.2.3.! n.!.D.D.P.m.l k l r i y h - f = t y y h ; - u u ; ; y i u u i k ; ; ; X 8 [.'.[.*.o 2 % & 1 ; , -.=.+.+.} [.OXXXXXXXXXXXXXXXoXO.x ( z z v j h k D A j ; x 1 + [.oX XXX).6 +  X XXXXX6 j V N m p , ; k h O =XCX+.  % - * * t n.!.!.V.w.W D.I.~.V.T I V.P.D.D.M.! 9.J q.6.u.K ! V.D.F.I.>X! P V.!.I.S.I.D.I.x.t k z V Z F p l k k k t x.D.S.S.S.S.P.M.d s p y i i k i i y y y y h h y y y - - - - - - ",
"- - - - - - % % - - y y y y i i h k k h y y u u * P Q B.W.x.l.l.V.c.S.S.D.N.n.a.Q 9.Q V.P.n.n.B.Q p C V V D D V C i.W.P.V.N.S.N.B.9.e.P.I.I.n.! L H J W x.P.S.D.P.x.y k Q P G k k l ! ~ Q v j y u p p p ; ; k k j 2 k i ; ; ; ; X e + 6 & 2 z - ; ; u 1 ;.&.+.+.X.[.+X XXX X XXXXXXX3X{ % D Z k F z k V A G x , ; $ + =X3XoXOX'.O O {.OXXXoXe h i m m p ; u k k , b.E.| o % u t l p B.!.D.b.B g D.S.W.B.B W P.D.D.D.V.x.B.Q Q 3.6.2.! P.I.I.S.c.G k a.m.H.U.S.S.~.x.t h k k k p p k z k k s c.D.D.D.S.c.~.V.g * k y i k i i i y y y y h h y y y - - - - - - ",
"* * * - - % % % - - y y y i i k y k k i y u u u r P i.B.W.e.W I V.D.D.S.I.c.~ Q p.B.K.K.P.W g t u y V V V D V M g d.x.P.!.V.^.e.H J m.I.U.S.x.~ L L 0.0.n.!.P.I.^.N.g W P.!.B.C i Q P.I.!.n.f p m m N m i h V k j h k i i p i i * u 1 & y m m V h 2 y ; ;.&.+.+.X.{.+XXXXXXXXXXXOXOXCXo.x ( G G Z V V V A G x j k k a v.E.,.E.:.; 2 :.,.,.,.j i u ; h k i i i m V y o o 2 - t B m N J.^.~.E.T g P.^.^.Q.L ! P.!.I.~.!.T.W.a.w.r.3.q.w.^.I.I.$.g Z V V B N.I.I.I.^.V.f k k h l l l k h h h f V.I.D.D.F.F.~.V.d i k h i l p p i y y y y k k y y y - - - - - - ",
"* * * - - - % % - - - u i y k k y h k i y y u p t P L h.B.! W W x.M.N.S.I.x.W Q L B.W.M.P.^ ~ ~ v k Z D m D A M B e.!.P.V.V.x.0.9.w.m.P.S.I.M.W P Q 9.B ~ x.l.z.S.z.I W N.P.g.r p J P.S.P.n.t F N D D D i k k k y y i i k i V m D i j y i 1.m V h h h ; :.&.+.+.X.'.+XXXXX+XoXoX`.[.;Xw ; k k Z S D D D S C j j i V a p $ X , * k y * - # i m V - ; h k k i i m m D h 2 2 y t a A a q.0.~ E > b x.m.s.L M P m.x.c.N.V.V.W.Q W w.w.q.9.K.S.$XS.d.G ( y.Q P.I.S.S.x.~ * k k k k p i k k z z u ~ ^ M.c.D.c.l.~ t - k h i k l i y y y y y k h y y y y - - - - - ",
"* * - - - - % % - - - y y h k k y y y y y y y p a L i.9.J J Q W g B.K.B.B.e.W ! ! K.K.V.P.S.D.^.d.M C V V V V C f W P.K.P.K.^ ^ J B.K.P.P.P.m.0.Q L 9.J 0.W W I P.z.I W P.K.h.a t ! K.P.^.W.g B C V V V k k k k z z k k k k k k y y u u p V M k V z h , *.>.+.+.X.{.+X XXX.XvX>.+ + @ X . - h ( 1.1.D D S S Z z y y k l j 2 j u k h k h i i k k y h h y i k k k V k y h h k p p p p M g I I t W W g f f G p f g > N.P.V.V.~ ! w.w.Q i.Q.P.I.I.,XT F j.^.U.S.~.x.g p p k k k k i k k k k k p p t n.!.W.^.t f y Z y y k k k i y y y y y h k h y - - - - - - - ",
"* * - - - - - % - - - - y h k k y y y y y y y i a L i.9.3.3.9.Q ! Q 0.g.W.Q B 0.g V.!.P.D.c.c.D.0.a i V V D V i B 0.K.m.P.K.W ! W B.V.V.N.P.x.^ ! 9.5.J h.K.V.l.P.n.g g K.W.h.p p B W.V.F F t f p k k k i i i k i i k k k k k k y h h p p p i i V z - & *.>.+.+.X.).OX XXXOX'.=.< p v % . % 2 h S 1.A D V k k k k h h u y i j h i i i i i i i i i k k i i k k k k k y k k k p l G r Q j.W.W.Q t ~ e.g.Q r L j.d.l.V.N.D.!.e.! 9.0.Q i.Q.P.I.I.^.I d d.D.F.F.I.B.p k k k k k k k k k k k k k k l Q s.Q h.r l y y y y k k k k y y y y y h k h y - - - - - - - ",
"* * - - - - - % - - - - y y k k y y y y y y y i p L 9.9.9.9.9.9.Q B W g.Q.s.B Q 0.K.!.V.D.D.D.D.d.B p V V V V M r w.!.K.!.K.! ! W B.P.P.P.P.M.~ ! 0.Q P J.!.!.P.K.V.g P W.^.h.p F P ^.W.p l G f l k k k i y i k k k k z z z k k k k k m M m m i D V u , *.=.+.+.X.).OX XOX3X{ O i V i # X & % k V A S A V k k k z k k k y i p i k k k i i i i k i k k k k C Z Z k k i k k p p p r f Q.Q.Q.Q.B B P.^.^.B.t j.W.W.V.P.P.P.^.d.J 9.w.w.a.Q.P.P.I.I.! f B.V.S.I.P.K.p k k k k k k k k k k k k k k Z f f a F u l i y i y k k k i y y y y y y h h y - - - - - - - ",
"- - - - - - - * - - - - y y k k h h y y y y y y p L 5.5.9.3.9.J ! Q J J s.Q Q Q ! 0.d.n.K.P.D.x.m.J C V V k k V M Q !.J.0.! ! ! W B.P.P.P.P.M.~ ! 9.P P B.K.P.!.P.W.f a P p.C y p a 0.P r k p p Z C z k k i i i k k z C C z k k V V V m M m m m a i * > *.=.+.+.X.{.oXOX].X.6 & i D i & 1   . z p C G K K Z k y k k k C V V V i k k i i i i i i k k k k k Z Z Z V k i k k i p p l u L F J.Q.g ! P.P.K.V.g d.!.P.V.I.D.l.e.J J K w.w.H a.d.P.I.^.T = B.!.S.S.~ P p k k k k k k k V k k k k k k l f f t t p p i i k i k k k i y i y y y y y y y y y y - - - - ",
"- - - - - * # # - - - - - y h h h h h y y y y y p G G K 5.K L L P 0.9.B J P 9.J Q ! ! m.K.K.V.e.B.9.M V V V k i M Q Q.J.! B P B 0.n.K.P.P.P.N.~ ! Q ! J n.W.!.P.!.^.L i a M i C C i r r k D i Z k k i p k k i i k k k C C l k k V V m m M i m i i p s < *.&.&.+.X.).oXcX{.5 1 k V D l , @ @ , ; u p l G L L Z l i i V C V D A A i i i i i i i i k k k k V Z S Z V k i k k i i p F r p p Q.JXB g !.P.K.K.g ~ K.V.P.P.P.e.W Q y.5.w.0.5.3.e.P.~.^.Q v h.V.^.P.g u l k k k k k k k V k k k k k k C p p p r p y y k k k y k i y i k y y y y y y y y y y y - - - ",
"- - - - - - # # - - - - - y h h h h h h y y y y r p p H 5.L 5.9.P P L 9.p.L 9.J 9.Q J 0.0.Q e.d.Q.g.M i V V V i M F 9.B B H H i.! e.x.K.P.P.m.W W 0.Q P B.^.^.x.! p.M i M C V k i i p p V k i V i i i i p k k k / K K Z C z k k V k k p p p p p p u s < *.=.&.+.X._.CX[.{ + j i D a * X   E j.u p y y p G G G C k i V V V A 1.S V k k k k k k k k k k k k Z Z Z V k i k k i i i i y Z p p K a f V.P.!.K.> ~ !.P.P.l.l.e.0.9.K A B w.5.K W l.l.~ Q G F Q ^.!.= v l k k k k k k k k k k k k V Z Z p y p r k y k k k k y i i y p k k y y y y y y h y y y y - - ",
"- - - - - * % % % % # - - - y h k k k h y y y y r p y G 5.L i.i.p.F M K a.H 5.9.3.9.3.9.9.W Q a.Q.g.M i V k V V M p B p 5.K H 5.w.w.e.K.P.K.m.0.! Q Q P d.B.B.! f M i i C i Z k k C C p i i k V i k C l p i k C y.y.K Z C k k k k h h h h h j l - - ; , ) *.=.o.} =XPX,.O   z D D r . @ @ ) d.u l p y p z Z Z Z k i m V m N A A k k k k k k k k k k k p k C C C k i i i k k k k k k p k p p C p W.!.!.n.g ~ !.V.!.^ ^ W ! 3.4.2.w.w.5.K B ! W W L / L i.W.B.u i k k k k k k k k i k k k V C Z Z p r p y y k k k k k y y y y p l k y y y y y h h y y y y y y ",
"- - - - - * % % % % # # - - u h k k k k y y y y r p y G / L 5.i.f.G G i.f.5.i.5.5.i.3.9.p.i.9.9.9.J p C C i i V C a M M M i S K 9.W W s.e.0.! ! 9.P L L B g W B P C V k Z y S k V G p r V Z V k C K / G k y k C G Z C k i p k k h h h 2 j j j l / / _ T ` -.-.*.>. .[ 7 O % h k k y X E b.` s l k k k k V C Z C i i V V V V V i C l k k k k k k k k k i p k C l k i y i k k k k r Z * i Z i l p b s b b g ~ ^.K.P.^ e.! ! 9.y.5.Q Q H i.Q ! ! Q G G K L f f F p k k k k k k k k k k k C C C C V k y i i y k y k k k y y y y i l k y y y y y h k y y h h h h ",
"y - - u # * x ; , ; % - * # y * y h k k y k i y p r y l G K L G K C C G H 5.5.H 5.6.5.K i.L i.K F F F C V k i i C i i i V V i C 9.9.9.w.w.Q Q L L L G F v f b J F C M i V V k k M C C G C C V V V K y.K V k i C K Z C C k k k k l u j u x x f P i.a.p.Q a.~ ~ E *.0 + O & 2 k y y # X E ) d C C i V V k k V V k k k k k k k p k C i i i V V i i i k C C k i i k i i i k V i i k k k k k k k k p l p p u f f B g.!.e.! w.9.L K 9.0.W L i.L P ! F L K K G b F z k k k V C C k k i k k C Z Z C k k y y y y y k k k k k i y i i k k k k k k h h k k y y y y h h ",
"y - * - - x ` ` . & % ; - * - - y h k k p k k i y y y p p G K C p y p M C K 5.5.5.6.5.5.i.H G p C C C C V V V V V i i i V V k S 5.3.9.9.L J K L L K G Z C l F F C C M M V V k C C M M p M C V V k C / C i i i C C C k i k V V C p a l p f f t f B H J B Q W ! T R 9 X $ j h h h j 3 ' E R b i D D k k V V k V Z k k k k k k l p C k i k V V k C V G K C i i i i i i i V Z C k i k k k k k k k k k k k p l p f p.^.h.0.9.Q 9.Q Q T s._ F _ i.Q L K G K G F l k k k k V V C k k i k k C C C k k i y y y y y h k k k k i i i k k k i i i i y y y y y y y y y h ",
"- - * - % ; T n , , & - - - - - y i k h p k l k r y i r y G G p y y y i i M H 3.3.5.5.5.a.C i r M M M C V V V V V i V i V V V K K J L 5.K K 5.y.K K Z C C C Z Z C C C C V V i M p.9.H C B M V i i k C k i i k C C V i i V C C A A A H H K 3.J H 3.3.q.3.q.3.9.Q d.b # * h - 2 2 . X E q < ! M K k k k V V k y k k k k k k h j l k i i i i i i C C y.y.C i k C i i i V S K Z k i k k k V V V V V z z k k k C M 3.f.9.J P 9.0.Q ! ! T.j.u v G p G G K K H C k k k V k k k k k k i k k V V k k i y k k y y y k k k i i k k k k k k i i i i y i y y y y y y y y ",
"- - - u - ; , , ` _ ; # - - - - - y k k k k l l y p p y y F G i k i k i r a M H 5.3.5.5.y.M M i V V V V V C C V V V V k k i i K i.5.i.y.5.4.y.y.K Z C C C C V V C A H C V V i M 9.L C M M M V V i k V k i k k V C C C C C C C V 1.1.1.y.y.y.y.5.6.3.q.q.q.3.y.5.h.P # # h - 2 ; , X 1 : 1 b F K l h h i l Z z l l l l k k h h k i i i C C i i i G y.y.C i C C i k C K / S k i k k k V V V V C D k V k k V V V C a C L 9.9.Q J ! _ v._ # # - r F G G K G C k k V V k i i k k i y k k k k k k i i k k k y y y i i y i k k l k k p i i i i y y y y y y y y y y ",
"y - - - * ; , < ` ' c ; ; - % - - y k y y k z z p y i y y h l h y h k i y r M 3.9.3.3.9.a.C C C V V V V V V V V V V V V k i i K L L L K C S K K S C C V V V V V V A H C D V M F J H K A B F V V V V V C C V V i C C C C C C V V 1.1.1.u.u.D Z Z K G L K G l / z _ v # - j h 2 ; & $ . ! ` ! _ R ` R n c n n u u l l l l k k k k C C A G K G C M C S A A V C V i V C S S V i i V V V V V V C C Z V V V V V V V V i V K K P P T d.` R , . . # - l Z G H G C i V V k k y y y y y y i i k k k k k k k k k i i i i i y i p k k k p p i i y i i i i i y y y y y y ",
"y - - # # % & , c c T n 2 - % - y y y y y y k k k y y y y y u i y h k p p a B 9.9.9.9.9.i.C C k V V V V V V V V i V V V V C C K 9.Q L G C C C C C C M M A C A V D A C M D D A H 9.5.y.y.3.J S S V C V S S C C i V V V C C C C V 1.1.D ( z j x 3 < < < < q 3 q 4 3 ; # 2 h - ; u * = t h.T.` :.) b.E q q R Y c _ v F C C V V V V A V C G K G C i M i i C A V i i V i i V V V V V V V V C A C C C V C V V V V D V D i k p v Q ! ` R @   X % # * * F G G F C V V V V k i i y y y y y i i k k k k k k k k i i i i i y y i i p p p p i i y y i i i i y y y y y y ",
"- - u - ; ; $ , $ $ R R ; ; - - y y y y y y y y l y y y - * y y h h h i a a B 9.9.9.9.J K i C k V V V V C C C C i V V V C A M F a.i.Q G C C C C C M M M H K A D S S C M D D V C H H A A J J S S V V V S S C S C C C C S S S C V A H P b c E :.=.=.>.>.>.>.>.,.=.O % # % - - h i p r r p ,   + 6 6 6 *.:.b.v.~ T P J H A A A 1.A V M M C C C i i i p C G G C C A C V k V S S C C V V V C C C C A C C M A A m D V D k V z n _ ! > 1     & % % - # F F F F A V V V V V V k i y y i i i i k k k k k k k k i i p p k y y y y y i i i i i i i i i k k y y y y y y ",
"- - h - ; ; $ $ , $ R R & & ; - y y y y y y y y z k h y y y i h y y y y p a F p.Q 9.K M M a C V k k k V C C C C V V C C Z G p p t u p p i S y.y.C C M C K L K S u.u.A i V V i m F M a a M M V k k k a A H A K G / / / 4.K K G v I U U 9 0 ;.&X=X=X*X=X=X[.[.[.>.  . . - j j l y r r i r # X O + + *.E.T.T.T.v.! ! ! ! P K S S D V V V A A M p C k Z K / L K K 1.S S S S S S Z G C C C C C V V M A C m A A m D V D i z v n d.T X   X X . % # # * F F F F C C C V C Z C C i y i k k k k k k k k k k k k i p p i k y y y y y y y k k k k k k k k k y y y y y y ",
"- y - # # # % ; # & _ c . & & ; - y y y y h k h h k k k y y y y i y i k i y C y.L C i i V m m V V C C M C G H H G G Z Z l u * # . # * y V D S S D V k l p p p Z Z D V k k V A C C M M M M C S S Z k M M M M B Z ( z D A W W T 9 =.>. . . .#.=.| @.w 0 0 0 6 6 @ . # # - u l C r i y i * - # & $ : , x j 2 % & ` -.c.c.D.R n j z ( k D u.a A Z k z k j x c v D 1.D A A V V Z Z ( Z Z l i i V V D A A A A A N V k l x * c j., # & . $ & x x # # * v v F F l l l C Z C G C p i y k p i k k k k k k i i i i i i i k k l p r * - h h k k y y y h k h h y y h h - ",
"- - - - - % % - % % R n & ; & ; - y y - y h h h h k k k y y y y y y i i y y l G l p y k V m i m i M M M C K K K K G G l u - # % . # # y C S 1.u.S C i p i y y l k k k V C C C C H A C A A A A S G l C F M F M i k ( y.f W 9 9 0 =X-X=X=X*X#.6 6 9 < 1 < , : : $ % # # * * y z r y r i - u - - # - - - . % & Y :.;.>.A.R.0 @ & 3 2 / V m 1.4.i Z D z z x v p N 1.D N N V V C Z G G F Z l V V D D S S 1.1.1.A A C u T R ' ` 3 # . # - ; x v * * y v v F F l l l C C C C C p i p l l i p i l k k y i i p k k k k i k l p y * - h h h k y - y h h h h y y h h - ",
"- - - - % - - # % & _ _ n n , % - y y - y y h h h k z z y y y y y y y y - y u l y y i Z K S S S H K K H K K K K G F l j - # # % 2 % # r F J 3.3.9.J P L G l p i k k i i V C G K K K H H H K K K _ P G G F A 1.D u.5.s E -.E.R.&X>.>.>.>.R.0 w ~ b v v p ; = $ = & - - ; - - u * ; * ; * u - - % o o o   9 w | =. .7 [ 7 =.#.E.E.b.q x G S V D S M p k k k i m m D D D V A C F P J G F C V D D D V N D A D N M p x _ ` 3 , . % # - j j l j * * r Z C C C C C C V C l C C p i p l C i i k l C i y i k k l C V k i l l p y - - u h h k y - y h y h y y y y y y ",
"- - - - # % - # % & n _ R n x & - - - - - y y y y h k k y y y y - u - - - ; ; * * - u G K K / y.K 2.5.2.2.5.5.K G p y y - - - 2 n - # r J 3.J 3.9.3.5.y.4.S V m V V V V C A K K 5.L 2.K K K 4.K L L L v l C 1.1.7.B 9 ;.=.;X2X=X0 6 6 5 0 9 -.` b v p y * = $ > ; ; $ = ; $ $ X X $ $ $ ; . % % o o @ e @.=.=.;.| 7 8 6 =X=X=X=X>.7 q Y l k u.N H H A D D V p p V V D V M M F F H C C V V D V V V A A A A A A p v _ ` 3 X . % . - l z z i * * r C C C V V V m m i i p k i i p k C l k l C l k i i k k C C C C i l l p u - - - h h k y - y y y h y y y y y y ",
"- - - - # % % % ; % & , ; , b ; - - - - - - u u - u u i y h y y - ; - * - ; ; # ; - u l l l z C K 4.4.K K K K G G p * * - - - - - * * r C G Z G Z Z V V D D 1.1.m V S 4.4.4.K H K K K G G K K K N D M f j k z z b E #X_.o.8 o.0 9 9 9 w E -.v.` T v F v ! ` ` ` R c $ : < q R q E E R 1 1 $ c _ ) ) *.@.@.0 0 0 E -.q e w 0 7 #.#X=X>.5 c G y.1.3.3.7.1.1.D p u p M M M M M V D D D D D V M M p M M A A A A M p x R ` 3   . % # y Z C C k y i V V V V V V m m m i i i k i i k k k C Z Z C k l l y i k C C C k p k k p u u - - - y h y - - y y h y y y i i y ",
"- - - - ; ; % ; ; ; $ # $ , T , - - - - - - ; u * u v u y k k y - ; ; % - ; - # - - y y y y k k y.y.5.K H K K G L l * # - - % # * y r y C C z z k k k k V D 1.1.m V S 4.4.4.2.K K K K K K K 4.4.1.1.M F v j 2 3 6 &.=X_.,.8 8 6 E ` ` -.:.-.9 < d , c Y E -.-.-.` R 1 R ) *.*.*.:.*.E 9 1 X < ` *.-.;.;.U 6 9 9 q E ) ) 6 6 7 | =X#X_.>.-.c G 4.3.3.8.8.1.1.l u f F H H A S S D D D D D C C f f M M C C A C C f s R ` 3 o o . - y S S S C V V V V V m m V V m m i i i i i i k i k C Z Z C k C Z y i p k k k i p p p p i - - % - - h - - - y y h y y y i i y ",
"- u * - n n ; ; = ; & ; $ c _ ; - - - - ; = ; s = b P j - j k h - ; - - - - - - - u i y y i k C C A C A A K 5.y.L l * # - - % # ; G L L J H B F p C C C A 1.1.D A A A A A K K K K K K K K L L 5.7.8.1.1.S j q | -X=X| 7 6 w | #.E ` ) E -.E 9 9 0 0 @.@.*.:.*.) Y q 9 E :.=.*.=. .=.*.*.*.9 1 q E *.-.-.R < d d Y < ~ -.-.-.;.@.| 7 X.;X>.R T F K 7.6.8.8.1.G n F J K 4.1.1.u.u.A H B B F Z Z G G J H K 5.K L n s R -.3 X & . # y G S C C C C k V i m m V V V V i h h y y k k y i k C C C l l Z y y y i i i p p p y i j - * # # - h - - - - y h i y y p i i ",
"- u * ; _ _ ; = & ; $ $ $ 3 ' , - % % - ; = = s = _ i.v - h k h h h u - - - u i y p k i y y y i i i i r p C H K G l * * - % % % . Y _ Q B H B B J H H M M A A A A A H A A C C C C C C H G G G K H 3.1.1.D j ) >._.>.e 4 9 w #.| @.E -.9 9 1 R @ 0 0 =. . .*.0 9 q q 9 E =.*.| o. . .#.@.*.q 9 9 E *.-.) E R R d < I E -.@.$.%.@.0 w ..>.>.;.E T K 5.6.8.8.2.F l v F G S D 1.1.4.H J B B F v G / P P P L L L L P n R '   o & . # * l l l C F G l p p p i V C V V i k h y y k k y y i i k l C C l y y y y y i i i i y i j - * # # - h - - - - y h i y y p i i ",
"- - - * * * % * _ v & & & & < & % % - % * = = ! _ b u u y y k k k h y y y y k k k i k Z k k i i a a p l p p l G L p * * % # # &   w ` ! J 6.6.8.8.1.y.K P Q b ! L 5.5.5.H C A M C C C C C C C F f Q M S ( j R.&.7 6 1 3 ) *.#.&.@.9 < T c T ' *.=. . . .=.=.q @ R ) *.*.=.#. . . . .#.@.*.-.E 6 0 :.*.@.$.;.-.E : 1 9 ) ;.;.%.#.9 9 w 6 #X<X8 @ ! L 1.1.J J C Z Z K K y.H 5.H 5.H F F P P b n b T ! Q Q L Q P d.T.3   X & & . - # * l v n P x n v v v v l u l y y y y y y y y h k k k V C k p i p i h h k k p p k y y - - - - # - - - - - - * * y y p p p p ",
"; - - * * * * * _ n & % $ & ; % - % - % = = = T _ f u u y y k k k k k k k k V V V i i V C V k y v u u p p p v L L u # # % # . .   q ` T L 6.7.7.1.1.G P T ! T d i.5.5.K H H H C C C C C C C A F B b / G v R F.;.9 3 & c ` -.#.#.@.9 > s x b _ ) @.|  . .| E I > E -.*.@.@.|  . . . .#.| *.-.E 9 q w 0 @.#.%.%.-.q X 1 R E @.#.@.R T R 0 &.>.&.=.R / ( Z v F S S / Z i F J 9.P P F G n P ! T R ~ ~ R T b b Q b _ j.3 X   . . # - - # * ; n ! Y Y , R c > s ; u u y y y y y y y - k k k V C l p p i k k k k k p p k y y - - - % # - - - - * - * * u i p l l p ",
"u - - - - - - - n x ; % # # = # 2 - - % * % ; b P s u l i i k k V V V V V D V V V i i V Z C G F v s = u s u x b G u # # # # . # $ n _ _ / K l z j v 2 x b T Q ! Q L 5.K K 5.y.K 4.4.4.4.4.4.2.5.i.v / c Z.~.~ : < 3 1 q -.-.~ I I Y T n F u _ ` *.#.=.@.0 d u v R -.*.@.#.#.=.=.=. .=.=.*.-.E 9 1 9 9 $.;.%.%.-.` , & & X Y -.-.` _ b I 5 7 _.=Xq n / G ( / 5.4.S K L P J J P n l j 2 n v.T.F.Z.b.x.x.v.j.d.= . .   X X . & % # - # $ $ R ` -.-.-.v.` < > , d s = y u u y y y h k k k V C C C l l h k k k k k k i y y - - - % # % - - - # * * * u u i u p p ",
"u - - - - - - ; u u u ; # $ = ; j - - % % * ; v v p i k k k k k V D Z Z S D V V i i k l p l F v b T T T T b n x x - # # # # # % * i l l x x R ' q ) ) :.` d ! Q J L / L K K 5.G K K K K K 2.2.2.2.y./ 1 A.A.+ < , c q E -.-.W f W g s = n c ' E -.*.$.E I s p v E *.*.*.*.=.#.| | | #.=.*.*.E 9 < d I U U $.$.-.R Y ; ; s d T ~ ` ! d R 9 7 -X<Xw n n n n G 5.2.2.K K P P b T T ' ' ' ) -.b.;.;.$.E E ` ` _ $ . . X X X . # # # . . . X < R E ) E q R E 9 R ` , = u u u y - y k y i k k C C C C l h k k k k k l y y - - - - % # # % - # # # # # - - - - - - ",
"- - - - - - - u * ; v x * # = ; x ; - - * - u j l l p i k k k k k V V C C V V V k p p l u u s = ` -.v.d.` ` _ T & % # # # % % - y i r # X 9 ;.=X=X;X=X,XE.R T f Q L L L K K K A K K K 2.2.2.2.4.3.y.v 3 b.;.+ w < ) *.*.` ! B B B ! T q @ O q q E E T W f p p u U @.*.@.@.@.@.| 0 0 0 @.@.*.E 9 p C l u ; Y < R -.-.I I I t f ! -.) _ R 9 6 | 0 R.b.R n / P 6.6.5.H A Z / n Y @ Z.,X,XA.| O     O + O O X : X , : X X . . $ # - # # $     X O O @ + E b.v.v.v.R = = ; ; y y y y y y i k k k C l k h k y y k k k y y - - - - % # # % % # # # # # # # # # # # ",
"- - - - - - - u * ; n v - # # ; x ; * * * - j h k k k p V i i V i k C C C C k i C p u v T ! Y : E ) ` ) R R R d $ # # # % % % - - y r * @ 9 #.>.>.>.=.=.;.*.-.v._ P F G K / K A K 2.2.2.2.2.4.2.q.J T v.v.-.9 @ @ E -.$.E c g B B T 9 | 8 { | 8 9 I g B F p u $ q *.-.@.0 w -.-.$.U w @.@.@.@.q p i k j 2 3   E 0 0 0 9 I g F T @.*.) q 0 9 : @ &XZ.R n Q F 2.1.7.5.y.Z n ; ) *.>.>.>.&.| 6 4 q 9 0 9 9 X X . 1 3 1 . . $ $ # # # # $ X 1 q q q 9 6 q E E E I R ! d = * u j h y y y i i p p p i k y y y y y i k y y y - - % % # # # % # # # # # # # # # # # ",
"- - - - - - - - - - j j - - # * x ; * * - - l h k k k i V i a i i k k l C l p p v u x T ` ` ' 9 @ @ @ @ : : X . $ # # % % % % . o . & ; % * $ X X O + 5  .=X=X2XE P F P G G G G S S A 1.2.2.2.H b T M.V.> ; 3 3 @ E $.E U 9 6 9 ! I + =X:XCX[.7 0 T B 2.H s 3 @ E -.-.E 9 U -.$.-.E U @.@.*.*.9 b s s & 1 e 6 ,.=X=X .7 9 : u 3 w  .=.0 Y d u = ~.Z.@.E Q 5.y.u.1.u.y.p T 9 E./.7 6 5 6 | *.=.;.=.*.*.E 1 1 1 R v.` , . $ # * * # # # . 3 ` ) -.q 9 6 @ 9 1 9 ` v._ b s u u u y y y i i i i p p y y - - y y y y y y u - - % % % # # % # # # # # % % # # # # ",
"- - - - - - - - - # - - - ; - - x ; # - * - l y k V k i i i i i V k V k p p p p v s b ! ` ` R 1 9 + + 9 9 9 : $ & & & & # # # . @ O X $ # u u & & @ q 5 | ,.o.=.-.` -.-._ F K u.1.1.K K J 2.7.2.T U c.M.* l j , 9 @.$.E U 9 9 q R U 7 {.{.oX'.[ 6 T H 2.H d q e w @.E U 9 E -.E ~ U 9 E E -.-.0 < R R 9 9 0 7 [.:X3XX.7 0 Y - 3 6 | #.| R s f = ^.Z.@.U W H y.u.u.A F R Z.;.Z.*.w q 8 8 | | @.*.@.E w w 9 q q ' ' ' 1 $ < c b c Y < , . ; ' ) *.@.0 0 0 9 9 < Y R ! ! T n x u i y y y y y y y y y y - * * - y y y y u - - - - % # # - # # # % # % # # . # # ",
"u - - # # - - - - - - u - - - # x - # # * - - u l k y r * * r V V D V m G F p u = _ j.b $ < > 1 9 @ w | *.-.R > u # & X   $ $ d E E q < T ` -.E @.*.0 0 0 9 > : Z.=X[.:Xw T N 8.u.D 5.Q ! K u.1.f U -.b.d * l , 9 *.*.E R d Q P T | :X+X+XOX{.6 w s J q.B s 3 q I I I Y Y Y I W W W R R R E E E Y R q U ^ @.#.X.+X+X).).0 I v x 1 0 @.;.-.R 1 & < 9 ;.$.I Q K u.1.q.1 8 >.1X| 9 ' ` *.o.} =.R ; d : @ 9 *.*.*.*.) E < : q E -.*.=.| : = * u ` *.#.#.=.0 9 : & < 1 ` v.` c ; - i y y i k p y y i i y - - - - - h h h j u - * * - * # * # # % # # # # # # # # ",
"- - - * * - - - - - - - - - - - j - # # # - j j l i * * p l p V D D V V C f v b v b ' c : < > 9 < e w *.@.E Y s u , Y q @ : = ! -.@.E E E E ~ -.@.=.| w U R W g 6  ._.[. .*.9.u.u.1.K f T F 1.1.d.-.q 9 , t u b w | w 9 b v P T ) { {.+XXX+X'.8 e T ! ! ^ T 3 3 I U T b b T T W W W T R R R E E R R U E I %.&.X. X X+XSX&.U s s d R ~ -.-.w @ 1 1 1 x.x.W 0.4.u.8.H :.o.X.X.| U d.` |  . .*.T l f d R E *.w | @.) R 9 I E E @.|  . .U T y # < 9 | | #.| E q 3 1 1 9 E ) R s * y i y y i p y y i y y - y h - - - h h i u - * * * - # # # - - - # # # # # # # ",
"- - - - - - - - - - - - - - - - j - - # # - j j l u * y l G z k D D C C f f ! _ _ c c , 1 9 Y ) E E *.*.q 9 > s b R *.E w 1 $ R @.| *.-.E I I R q -.-.-.-.-.E 9 0 7 7 [ -X:X) F 8.8.7.Z Q P A K d.-.9 1 T P s b E w w 9 T b < 0 6 } +XOX X X0XAX8 q W W W I 9 9 I I Y b b Y R W ^ W T T R R U U R ! ^ ~ 6 ,.}..XXXXXXX3X[ 0 I T d I I $.-.w @ 3 X : x.x.! Q K S 5.R R.[.[ [ 0 9 ~ ` $.@.0 9 > g d T ` *.*.| *.*.6 @ < E $.@.@.=. .=.-.-.b # ; , -.@.=.@.@.E Y c Y 9 9 R ` T ; - u u y y y y y i - - - h j y * * u u u - - * * * - # . . # # # # # # # # # # ",
"u - - - - - - u u - - * # * - - j ; - # # - j - y u i p l l k z C V Z v s T _ _ R , : : 1 9 Y ` ) E E w 9 : b ! ! E @.@.*.q $ R *. .@.*.E 9 d d d R ~ ) *.-.@.E U @ w [ `.{.{ Y 6.8.1.S L G b ! -.-.9 9 g f d Y *.0 E < T R 7 } ).].+X+X XXXpXVX7 6 0 U I 9 I R I U Y Y Y R R U ~ U R T R R E E I T ^ E + ,.nXyX7XXX X X+.&.0 I < I 9 E -.U @ 3 1 < v.v.! ! K K d :.;X,.7 [ w E I ~ ~ I I 9 E U T I R w @.| @.@.+ @ I ~ -.@.@.@.#.#.*.-.R # - ; 3 q *.*.@.U I g I 9 < < T _ c & u u y u y y y y y - - h j h * # u u u - - * * * . # % & ; # % # # # # # # % ",
"- - - - - - - u j - - * # # * - j - # # - j u # * i l l l l k z z l v s d ! ` R < 1 < 3 1 1 9 E ) q 9 1 1 d ! a.~ $.| | =.w < _ *.*.| w q q Y d d b T ` E @.@.=.R ` U 7 {.{.[ ;.W.3.5.K C l T E @.*.9 1 t f d R *.9 ~ T T 9 7 X.oX X X XXXpXgX0XO.<.=.0 ^ ^ I R U I T Y Y R E U ^ U T T R R E E E E I q 6 '.hXdX7X X X+XoX).7 6 9 Y 9 E -.E 1 1 < < ` ` W P K P 5 >.1X&.[ 6 *.@.@.^ W g T 1 0 0 ~ R I 9 @.*.*.E 9 E -.-.-.-.@.@.*.*.*.*.q X - h h 3 ) *.;.@.^ W d Y d < c T T R x ; - y y y y y y - - - j 2 * * - - - - - - - * . $ . X $ . # . # # # % % % ",
"u - - - - - - - j u - * # # * - ; # # - u j u * * j l l l l z l l v v d T ` ~ < : 1 < 3 1 9 R ` ' < 1 < < d W W ` @. . .*.0 < R q E *.*.w E R < d s T ~ U w 0 | T g U | } +._.;XE.Y T J C Z ! R E ;.9 : B f = R @.U ! Q I 0 +.).+XXX XXXXXrXpXiXwXFX;X6 ^ ~ I I W I T T R Y U U U U I T T R E w w w 1 w <.|.fXdXyX.XOX XOX].).o.6 Y I ~ -.~ R < < : d b P Q K T >.>.>.#.w E E 0 E U ^ W T + >.*Xw I I 9 E E @.E 9 U -.E E $.@.E U U @.@.0 X * y k - 3 q @.@.^ ^ T d d T c < R v.c ; = - y y y y y - - - - - * - - - - - - - - % & &   $ , , , & # % % % % % ",
"- - # - - # # - j u - - # # # - - # - j j u - * * j l l j h h j j x x T ` ` Y : , 1 1 < < Y E ` b < : Y I I W W ` $. .| | q d d d R -.*.*.*.E 9 9 d d I 9 w 7 0 R d.E 0 0 0 _.1X>.7 U b F G L ! -.b.9 $ t t $ R -.E B J g | 3XOX X X.XpXpXgXfXfXqXBX|.6 9 W ! ~ T T T T R U w 0 0 U U R T R U 0 0 @.9 :.ZXbXdXdXpXmXpX X X X3X[.6 I 9 E ~ ~ ` R < , s s Q Q L ~ 1X[.[ | w -.R 9 E U U 1 6 6 [.3X0 U E E -.-.-.` I E -.E E $.@.E I I E @.E q d x h - 3 q @.$.$.~ g s s c < : Y v.< , & - y y y y - - % - - % # - - - - - # # # % X 1 1 ' ` ` ' 3 # % % % % % ",
"- # # - - # # - j j - - - # # # # # ; x j - * # * l v j - * - u u x s T ` ! > : 1 , , < Y Y I < , ; 1 R E I W W ~ U w | | E T f f v R E @.@.w 6 9 I R R E >.=.0 U I 9 E T 9 @X+.[.+.:.Y J H D Z 1 q > > r p d Y E R f L g 0 oX X X X.XdXqXkXkXkXkXhX5X|.*.9 R W T T T T R w 0 [ | w U ^ ! ! R 0 @.| + O.AXfX8X9XyXmXaXXX X XOX'.6 Y I E U E ` 9 > c s s P P F ` =X>.| *.-.` 9 R U 9 0 0 ,.[.oX}.7 9 q 9 R I R T I R ) U 9 E 0 U T d 9 U @.E 9 : c , 3 : 9 U @.E T b b s < < R ` q 1 & * y y y y * - - - - # # # - - - - # # # % X 1 X < Y 3 3 & & % % % % % ",
"% % % % % # # % - - - - % % % # - # - j u - * - * v l - - - - j u x v ! _ ! s $ = s ; c Y d I 1 ; 3 @ + 9 9 ~ I I 9 q ) -.E I B B f T ) -.@.0 9 9 R R U 0 1Xo.6 | 0 R T 3.0.0 [ :X:X,.q B H 1.D $ X 1 s p p s R -.Y b F 1 { }. XXX X.XyXkXkX9X8XyXkXfXFXO.O 9 W T ! T ~ I + >.>.=X#.9 R ~ ! U E 0 | 6 <.bXkX9X9XdXpXgX XXX XOX].8 R I E R ~ x.I < c v ; u P P R 0 ..| ;.-.E ~ R I 6 7 7 {.oX].].+.8 w q 9 d ` d d R ` E q E U I d s d U 0 7 #.| 6 9 c c Y q $.E d b s > < < R ` : X $ ; - - y - - . # % # # % % # % % - - % # $   ` '   X X   X # # # % % % ",
"% % % % % % # # - - - - % % % # - # - 2 u - * - - v l - - * - u j x s s b b s = u u u b T d Y c 3 @ 5 >.&X@.0 I R T q q R I I W B f d R E E I 9 Y d 9 9 { 1X[.'.} 0 R Q H B E { } {.E.9 B 2.1.D * X , u p i > q w q T _ < 7 }. XXX X.XfXkXlX9XdX9XyXlXqX'.,.:.9 ^ I I I 9 w zX[.+.[ @.~ W W U E 6 1XZXbXfXdX9X9X9X7XpXXXXX XXX].8 Y 1 R ~ ~ -.I Y d u - j P T R U 0 E -.*.E ! ! I 6 [.{..X XXXuXIX,.6 q ~ g g T d < q q Y R I Y b b < 9 &.&.-X1X[ 0 Y b c I *.0 > d s , < < < R 1 $ $ ; * - y * # # % # # % - % # # % - % # % , 3 ' Y : & & X $ # # # % % % ",
"% % % % % % % % - - - - % % % # - * * u u * * - - j j - - - - h j x u ; s > t u s u x _ _ c I < @ O 6 -X1X7 6 E c n c c d d I W I < < g d g B B f , 6 7 [ {.].3X..[ 9 0.Q I w 8 7 =XR.q P 1.1.A * & x j p y = < w w q d 1 | CX+X X XXXgXkXkX8XyXdX9XdXkXnXIX;X0 E I ! I 5 8 CX'.+.[ 0 U W e.U U 7 ;XAXnXkXdX9X9X9XdXgX7X XXXOX'.{ E 9 9 ~ $.~ I I c j % u n T R U U E -.E U W T R 5 {.oX X X8XfXFX<.5 e R T d b c 1 < q q Y d c < c 9 5 ....{.4X[ 7 9 T = < -.w 9 c < < Y < 1 < 1 $ & ; * - - * # % % # % % % % # # # & % . & x ` 3 & $ . $ & # # # # % % % ",
"% % % % % % % % - - - % % % % % * * * - - * * - # - - - - - - j j v v s s = = u b u x _ R < < @ 6 ,.+.{.}.[.[.0 < x x x b T I I 9 9 9 d f B M C f 1 5 ,.'.oX.XoX)._.0 I ~ q 9 w 0 ;.;.9 L D A K * % x j p y & 1 w 8 9 q R w +...+X X.X0XsXmXgXyXyX8X8XjXnXAX;X6 U T ~ R 5 { AXoX}.|.o.E ~ e.U E 0 =XAXnX6XdX9X8X8X9XyX6X].oXoX{.7 E q 9 E $.$.9 I c j % % ; Y ~ W I E *.@.U ^ R q { {..XXXXXdXtXAX<.8 w 9 ! ! t c < q q q Y b T R 9 w >.[.).+X+X{.>.0 9 d R ) q E E 9 < I < , s > ; * - * - - - # % # # % # # # # . # % % & ; , ` , . . . . & # # # # % % % ",
"% % % % % % % % % % % % % % % % * * * - - - # - # - - # - - - j ; c b d s > > > = ; c R ` E 9 6 [ :XoX+X+X].cX7 q b b B b I I I 9 9 I f B M M p c + + CXSXmXXX X.X}.o.7 w q 0 E R I 9 I / D K M * * j x u u > 9 7 6 | w q 6 7 7 {.3XcXAXAXAXvXvXyXdXdXBX+.7 8 w 9 R ~ q 5 +.VXmXmXAX+.| U U U $.$.6 |.BXNXdX9XjXdXjXNXBXcX[.X. .w 9 q E E E $.9 I c j % # & I ~ R I w *.@.0 R I 5 [.oX XrXrXyXtXnX} 7 8 w R W T d < q q q R T R q 6 7 |.oX X X XoX[.7 9 Y R E ) ) ) q 1 < < d s s u - * - - - % # % . % % . . # . . # # & x x # ; # . # & % # # # # # % # % ",
"% % % # % % % % % % % % % % % % # * * * - * # # - - % # # - - - % c b < > : > , < c Y q q 6 O 6 ..{. X.X X0XcX{ 6 < T W I I I 9 9 9 d f M M l u   6 6 cXiXeXyXyX.X X{.o.7 q E 9 T T E ~ n Z y.p r * x x u u , q 7 ,.zX=.0 w w 8 { } O.+.+.} +.}.]..XoXSX} 7 w 0 E 9 9 + 6 <.fXkXtXFX+.7 E ~ E 9 9 7 {.cX.X.X.X.X.X0X].'.+.o.7 | E 9 9 E E U U U U Y - % % $ U $.R Y q *.@.w R U 5 [.oX].yXyXyXiXnX}.[.{ E R g b R q q 9 q R T I + ;X}.wXeXyX7XrXoX{.[ 8 0 I 9 E *.*.q 9 < , s s p p y * - - % % % % . % % . ; % . . # # & n n . . - % # ; % # - # # % % # # ",
"% % % # % % % % % % % % % % % % # * * * * * % # - % # % % % % % $ 3 b < : : : 1 < Y q @ 9 9 @.=X`.OX X].XXjXnX6 8 9 W ~ W I Y < < < x p i l j 1 + ;XcXVXgXtX8XdXXX XoX'.6 R T T 9 R ` R T b i.V y y x x s s d w 6 =XCX .5 q q q e e 9 0 7 7 +.}.}.}.}.:X| E ^ I E E q :.zXcXjX9XdXmX} 6 w 9 E w ) 6 +.}.oXoXoXoX3X3X[.7 5 8 @.@.6 E E 9 U E U U I Y - % % X E -.R q 0 *.@.0 R w [ _.oXOXmXaXmXmXwXAXAX{ 0 I T ! R q q q 9 I g I + CXBXpX8X9X8XyXwX'.7 7 7 $.I > ) *.q 9 < > f p p l y * - - # % # % # % . & n ; # . # # $ x c # % - - # * # # - # % # # # # ",
"% % # # # # # # # # # # # # % # # # # # # % # % - # # # # % - % . 3 Y < > > : > > ~ E 9 9 5 | :XoX X XXX9X8XsX5XO.w I ^ U I Y < 9 Y b v C F x 4 + xXVX]..XdXdXdXXX XOX).6 ! g ! 9 @.` ! ~ T L l i y x 3 s s d U 7 _.:X{.[.| 6 E 9 E ^ ^ E | [ } { [ }  .0 ~ W Q R q O O.IXwXkX9X9XgXcXxX2Xw w E 9 w { } } ..} X.X.....{ w w E %.7 =XE.U E ~ U U I R j 2 %   w ;.E 9 0 *.) q R U 7 [ {.oX'.} ].oX.XwXCX{ | E E R 9 6 q w U I I E ;XbXtXdXdX9X9XdX.XoX].[.7 9 W I *.*.q 9 < > b v p l y * * - # % . % % % . 3 ` 3 & . . $ # , x - - # - - % - - # # % % % # # ",
"% % % # # & < c < : $ X $ . . . % % % % % - 2 2 * # # # % * * % . & < 1 > > > g d ~ E 9 6 5 6 }. X X X7XyX6XsXFX|.6 E I U U : R 9 : 9 T P l l 3 O cXnX.X8X9X9XdX.X X.X[.6 Y I U 0 @.` ! B ! _ n * = 3 3 , s B I 7 _.oXoXAX).7 w E ~ U I ~ U w 0 0 | 0 U E E ~ R U w ;X|.nXdX9XdXdX8XfXFXZX8 Y ~ E | 0 7 8 | E U ^ %.0 | 0 w @.A.[ {.1X0 R ~ ~ U 9 R v * = X | >.| w R R ) q ~ I U | [.3X[.7 '.oX XvXAX{ w 1 E 0 8 E.0 | 9 q @ ,.AXqXkXhXvXuXyXyX+X X+X+X[ E g T @.*.q 9 d s s v s x ; % % * # * - # % . & ' ' Y X X X . . 2 x % - # # % # # % - % % % # # # ",
"% % % # # & , < ' Y 1 X   $ 3 & # % % % % % % % * # # % * * * % . & < 1 1 , ; s d ~ E @ 6 e 7 }. X X X7XyX8XkXMX<.6 7 E I I R 9 6 ;.E.q < Q n X + cXmX8X9XdXjXDXeXOX3X[.6 R E U 0 @.` ! J L n 2 # = 3 3 , s g I 6 [.+X X.X}.[ 7 9 U ~ E U 9 R E U U I U E q R E w  .CXnXgXdXdXyXyXyXgXfX5X{ E ^ $.U U E q Y ~ ^ ^ ^ w 7 { 7 6 _.+XoX[.0 ~ ! I 9 9 R v r = X { +. .6 < n q R R ~ ~ 0 @.=.8 6 ).oXoXoX+.7 e *.0 6 ;XPX| w q R O >.VXqXsXbX} ..tXdX+X+XXXoX[ 9 b T @.*.q 9 d s s v s x ; # % % * - - # % . X 3 q q q @ X & ; x j - ; % # - - - % # % % % % # # ",
"% % % % # & & , < b c < , & . . . # # # % % % % % % # % % % * % # , Y < 1 , ; , < R R q q O 6 :XoX X XOXyXyXyXgX0XxX*.1 ! b 3 q [ [.[.{ q c ; q 5 }.uXOXyXpX}.+.+.+._.o.9 R E 9 0 @.-.! F K P u * * 3 < , , d I 6 [.oX X]..X).[.>.U U E E E R R ^ ^ ^ ~ E q q w [ [ :XoX X XOXXXOXOX.X].).7 | U ^ ^ U w E I ~ ~ ^ I *.7 ,.'.[ ).OXOX{.7 E R E 9 9 R v r * X | &.@.9 < R q ) 0 @.@.U U 9 0 8 >.:X:X=X{ 8 w 7 7 [ [.IXO.8 I I @ E.IXFXFXIX[ [ NXdX.XoX{.{.| R Y q *.*.q 9 I > s v s x ; # % % * - % # % # $ X X R ` 1 X 3 c , - # - # # % - - # % # # # # % % ",
"% % % % % % # # # n _ ` j.c   & # # # # % % - - % % # # % % * * # x Y 9 1 & & & Y R R 3 3 O 0 1X:X{.+XvXpXyXyXgXBXIX,.O ! b & e 7 3X}.7 6 q R 9 5 =X3XoXoX3X[.7 7 6 7 7 6 q ~ E 0 @.-.R p H L F * * c c < d d 9 6 [.3X]. XeXmXSX+.6 + 6 6 E R T g W ! I R E w 0 .. .[.{.oX{.oX{.{.{.{.{.[.} | 0 W ^ E 9 ~ ^ ~ ~ E 9 w 6 }.AX3XOX XOX:X7 0 E E 9 q Y l y - X w =.@.9 < Y E 8 7 [ | U E Y R w [ ....0 8 e | 7 =X3XcXFXO.7 E ~ 9 =.[.[.+.=X7 { nXtX.XoX} 7 9 q 1 q *.@.0 9 d = ; n s x ; # % % # - # % # . $ X   R ` 1   3 c & # # # # - # # # # ; # # # # % % ",
"% % % % % % % . . # ; x 3 , 3 3 & % % % % % % # % % * * # # # * * d R 9 1 @ o & 1 ' R 3 3 3 O 0 7 [ X.oXOXXX.XoX).O.8 Y b R @ e } cXwX|.[.7 E 1 U ;.o.O.+.[.;.@ U I 0 7 w E E q 6 *.-.R a M H C y - b Y I I I 9 w { } ]..X7XyXgX5X'.|.;Xo.q 9 T T T R Y I U U I I q 0 5 8 7 7 [ ..7 7 7 w @ R T ! d ~ ^ ^ ~ 9 q O e 5 5 }.vXpXXX X+X{.7 | E 0 w q < j y - . w =.~ 9 < q w 6 _.X...0 R P b R 0 0 U R w 8 6 o._.{..X.X+.} | U 9 0 6 7 6 0 U | }.0X0XcX| 9 ~ R 3 Y E *.0 9 < = ; n s x ; # # % # - # % # . $ X X R ` 1 X < 3 & $ $ ; % % # ; ; # % # # # # % % ",
"# # % % % % % % 2 . % # . Y j.3 $ . # ; 2 2 - # # % # * # # # * = b R 9 1 @ o 4 3 q 3 3 o X O 0 6 7 +.:X3XoXoXcX|.O.e q : 1 q zXAXvXuXFX}.7 7 0 g I 9 6 + 5 9 ~ W ! 5 5 7 0 w q e @.*.R * r i r - - b T I I q q 6 O.7 ].].pXdX6X9XkXMXAX[.w R ! T c R E q 9 9 E T b T I q 9 U U 9 U U 9 Y b P b q 1 I e.^ ~ w e :.zX:X5XVXuXXX X.XoX}.[ w w w w e & u - - . w *.-.: 9 E E 7 3X`.[ [ 1 n n T U ^ I R q w 6 =X:XoX X X.X}.[.0 E U U 0 | w ~ U O.+.} O.q T R 9 c < E *.q 9 < = ; v s x ; # # % # - # % # . $ : X R ) 1 : < < $ & % ; # # % n _ ; # % # # # % % ",
"% # % % % % % % % . % % . b ' , , $ $ & , x ; # # # # # % % # * = b R 9 1 X o 4 3 1 3 3 o   + + @ q w o.X.X.X.X.{ w @ 9 w 6 5 CXcXoXOXeX.X'.[.0 U I 1 q e e 6 R B T 6 >.[.>.w w w *.*.E * * r * % % x b I R 9 q 8 8 [ {.}.eXyX9X9X9XqXAX[.7 U R R q q + 5 6 6 5 R W ! ^ I I ^ U U E ~ ^ T ! B > ] /.E ~ 0 E E 6 { ZXcXBXiXXX XXX+X{.:X{ 8 w *.E @ $ - - * X w *.) : I E E 7 4X{.).[.8 3 q Y U I E E E w 6 [.3XoX.X X XoX[.7 U 9 E e 8 w R ! U 6 0 U I R 9 9 3 3 E *.q < , = u x s x ; # % % % - # # # . $ X X R ` 1 : < < $ & # $ $ ; > ! _ ; ; % # % # % % ",
"% # % % % % 2 2 % 2 % % ; . . , _ b & $ ; , ; # % # # # % % # # = c R 9 1 & & & 3 q @   4 /.;X6 4 c 9 9 6 0 7 6 9 9 1 q 6 w | 1X3XoXoX XoXcX;X7 E ! 3 3 4 q q q c O 5 :X3X[.7 w | *.@.E ; - i - % . s b I I 9 q w 7 7 >.}.uXyX9X6XdXqXBX'.5 8 0 q q q 6 o.:XCXzX0 I 9 U 9 0 0 7 w 0 0 E E U 9 + ,.IX,.w w | 8 5 +.AXmXBX X X X X+X..[ 7 | w *.) @ X * * % X w *.E 9 9 q R 0 {.oX+XvXO.O O + I U U 9 U E 0  .[.).].OX+X3X:X7 9 ~ q e e w Y ! T ! ^ I 0 7 0 w < 3 E *.R < , = s x s 3 & # # % % % # . $ $ X   X R ` 1 X < < $ $ # $ < R c x x # ; % # # % % % ",
"; * # # # % % 2 % % % % # . $ < ' , & $ & , ; & ; # # # % % # . # Y R 9 < , x x d 9 e + + PXCX6 O n X R d R I ~ I I I q 9 E U | } } } } { | @.I T d n 3 3 4 c q + <.}.oXoX{.[ 8 | | #.w # % # % % . u $ d E E w q w w  ...{. X.X.XgXyXmXcXcX[.7 w U E 5 [.AXAXbX6 + 6 6 7 { 8 8 7 6 8 5 5 6 8 +.|.FX<.8 @.6 +.cXwXNX.XOX X XXX+X}.} 7 | w U U ) < $ * * $ X w =.*.6 9 Y T 0 {.+X X X'.<.O.,.w E U U ~ E $.U 7 ..X.+.+._.>.0 E T ! Y q q E R n ! W 0 [.SX&.0 T c Y E q < d > s c c < & $ # % % % x x . . $ X X R ` Y < X $ & $ ; c > c n ; # % & % # # # % % ",
"# # # # # % % % % % % # # . X & R , & X & c , . & % % # % % % % % c Y 9 < > u s I q 6 + 8 ZX}.7 e 1 Y Y d T Q g I d 9 R 9 R I 9 0 7 6 8 w q R T T ` ` < Y q @ O 8 5XVXvXoX).[ =. .| #.w & 2 % % o o - # d ~ E w E E E 0 7 {.oX X.XyXyXgXgXBX|.7 7 5 6 5 <.VXMXsXwXcXbXbXbXbXbXbXbXcXbXcXcXcXbXBXkXDX'.7 7 7 [.BXmXgX X X+XOX].).X.7 0 w U E E E < $ ; ; : @ w :.| 6 9 Y ! E :XoX X X0XVXAXIXO.0 U U 6 5 6 0 $.U U | 0 %.0 0 q @ < R ~ R 9 q q ' U  .3XIX[.0 Y c q E q < d = s n < , & # # % % % n x $ $ X X X Y ' Y Y : X $ $ , _ , = = # $ ; % % # # # % % ",
"# # # - % % % % % % # . # % # $ 3 3 , X $ c < . & , ; # # % % % & 3 q Y c ; u s > E w 5 5 CXcXSXE.+ @ 9 X 1 R ^ R 9 q q 4 3 , & q w q 1 R E E 9 0 9 w w 0 5 { :X|.mXeXeXoX'.[  . .@.#.U $ % . . o o - * T ~ @.w w E U U 7 [.{.oXeXdXjX9X9XNX0X].+.} O.} '.nXgXdXjXkXjXkXkXfXfXnXmXnXnXfXkXgXkXdXdXjX].+.O.{ '.vXOXrXXX X+XoX....0 0 $.U 9 E ~ ~ T = ; = $ O w :.w 6 9 q T 9 >.). X XOXmXnXVX+.7 w 6 O.O.O.o.9 9 I Y I E U 8 e O.:.9 R ~ 9 6 O O 5 X.oXvXX.6 e 4 q E Y d < $ , n , & X . # % - - n x $ & . X $ < R Y Y : . < n < T ; # & % % ; % % # # # % % ",
"- - - - - # % # # - % # % ; # . $ , c & X 3 , $ & c x # # # # . % 3 3 q c = = s R 9 5 6 O.IXSXAX:X8 { 7 { | @.E 9 q R q 3 3 n c q q _ ! ~ E 5 0 =.| =.7 7 _.}.BXmXyX].].}.[.{ ..#.#.;.E $ # . o o % - * T ) @.w w E U E 0 [ ..{.oX7X7XXXXX8XyXNXVXVXAXbXnXmXkX8X9X9X9X9X9XdXkXgXgXgXdXdX9XdXdX9X9XdXNXVXbX}..X.XXX X XXXoX3X..0 E E E E U E ~ v.T ; - % X   w :.| 0 q q R 9 { [ {. XXXgXpXmXAX[.e + bXAXZXCX6 R R ' R Y E 8 O.IXzXw U ~ 0 >.[.[.+.'.+XOX>.7 e 4 q E Y < , $ , n $ X X . # % - - x ; & 3 . X , 3 R < , $ $ R ' , & % - ; - % % % # # # # % % ",
"- - - # - - ; ; ; x ; % % % % # . & n , $ < , $ & n c # . # # # . & : < b ; - s d I w w 6 ,.+.}.wXwXfXsXwXAX[.7 9 R b = > X > : 4   $ s R E { PXPX=.w 5 =.PXvXiXyXrXXX].} 7 7 =.#.#.-.R * * % o % % - * n R E w 0 | 0 E @.0 [ :XoX.X X X X X7XdXyXkXjXfXjXgXkXdXdX9X9X9X9X9XdXgXgXgXdXdXdXdXmXgXjXyXfXmX0X.X X X X XXX+XX. .7 E R R U E E E E ` x * - - & X q -.*.*.w w w w w 7 :X{.OX7XyXyXBX'.6 6 cXbXAXCX+ 6 O @ @ 5 6 5 8 AXCX7 7 7 5 '.VXVXuX.X X3X*X0 O e q R 9 < > $ , n $ X X . # % - - & & , n . . & < Y , $ $ & R ' & # # - - # # % - % # # # % % ",
"- - # # - ; x x x c , % # % % % # X , , , c , . $ b 3 . $ % # % . & X < c & % ; : Y 9 8 6 7 7 }.].7X6X6XlXBX'.6 q T , < :.:.>.+.O.,.T.< R 0 7 ZXZX} 8 7 { CXwXgXgXpXOX].{ | E w @.w q , * y & . & * - # , < E | | | E q q w 0  .X.].+X+X.X XXX7XdXyXkXqXkXfXgXiXiXdX9X9X9X9XyXyXpXgXdXdXgX6XvXvXiXgXmXmXXX.X XXXXX X XoX} 0 U Y d R E w @.*.U : ; * y - - . 1 9 E -.*.w 7 7 E E | [ ].].7XyXgXwX}.cXnXfXnX}.O.{ O.{ O.} } +.'.ZXZX7 o.;X'.wXNXdXXX.X).X.#.9 9 q q R < > , = x n $ X X . o % - % % & 3 n . . $ , 3 & $ & $ 3 c # % % % % # # # # # # # # % % ",
"- - * * * ; > s s , ; ; ; % % % & . & & 3 c : X $ c , . # % # ; # & $ < c & . % 1 R 1 q e 7  .:XoXvXXXyXyXnX<.6 @ & 4 :.ZXbXgXdXiXAX:X5 5 + +.VXnX'.} 7 { bXfX6X.XOXoX[.e 3 E E | 7 X # r r ; . = * - - # 1 *.| { { | 8 q ) E 7 [ _.3XoXOX X X XpXmXvX}.].].'.).cXvXdX9X9X9XdXdXyXyXdXyXgX'.].{.).oXmXgX7X X X XXXOXoX3XO.w T f , R w w | *.E X - - y - % . . . 9 -.*.8 7 8 E ~ U 7 oX.X7X8X8XdXNXDXdX8XdXgXMXbXbXsXfXmXpXmXnXVXnX[ '.AXMXgXXXXX XOX).6 0 E ) @ q Y : $ s s x n $ X X X % % - % % & & , # # $ , , ; & , & . & # % % % % - % # # % % % % # # ",
"- - - * * * $ $ $ $ & , n 2 % . & . $ 3 3 , $ $ , b , . & # . - # = $ 1 c & . . X R R q q 6 | } ).OX]..X7XmX|.{ O.8 5 O.nX6X8X8X8XtXcX[.;X} }.mXpX.XoXVXcXnXlXlX.X]...[ q R ` E *.e X % r r - % = * u - . & -.*.| | | w E q 9 @.| .._.X.].+X X XOXvXOX).[ [ } [ cXnXdX9X9X9X9X9XdXdXdXkXmXX.} } [ }.mXyXrX XXXXX).).X.+.8 w d g < 9 w | @.*.R $ ; - y # - - 2 $ I -.E w 7 { R ~ ~ 7 +.].]..XyXyXgXtX8X8X8X9XlXkXlX9X8X9X9XyXiXiXNX'.0XnXqXdXXX XXX3X>.0 ~ 9 9 q R Y X $ x x c n & $ X % % % % # # % # % # ; & , ; ; & x x # # % # - % # % % - - % % % % # # ",
"% % % # * * * * = # $ ; , ; & # # . # ; x , ; $ , c , $ $ & # & = # # s x ; $ & < Y q R q q 0 7 } {.).].].OXmXmXnXmXiXiXiX7X6X8X9X9XkXfXnXBXvX.X.X.X.X.XtXNXlXlXcX:X} [ | w ) E ) < . # * * # # * * - % % & < w E | | w w 0 0 E E E 7 [ ).OXOX+X X X+XX.} { | 7 5XfXkXlX9X9X8X9X9XdXdXfXVX} O.O.[ }.BXBXaX XOXOXX.X.....@.E < < 9 0 E E ) E c ; * - - - - - % & d -.U w w w w U w =.[ [ {.oXoX].X.X.].].yXdXlXkXlXlX9X9X9XyXnXBXmXdXyXyX.X.X].oX).+.| U E 9 q q Y d , $ s n ; & % # # . # # - ; - - * * - u j x * ; j x x ; % # - - - - - - - - # - - - - - ",
"- - - - - - - - - * % % & , , & . . # ; , ; & $ , x , $ $ ; ; ; * # # u v u % & & 1 1 R q q q e 7 [ } 3XoX0XpX7X7X7X8X8XyX7X6X.X6XXX.XyX8XtXaX X X X]..X.X0X6XwX+.O.[ { 8 w ) R < $ # # - - - h - - - - % . X @ ) E @.@.0 0 0 -.R R w 7 +.{.`.`.].oX3XX.} { @.{ VXNXjXdXdXdX9X9X9XyXgXBXAX+.{ { [ }.cXvX.X].].{.} ..| @.-.E : @ q w E E R < & & # # # # # # # % I -.E E w 9 9 6 0 | o...>.[.{.{...} oX XrXyXkXkXdXlX9X9XdXNXcXX.]..XXXgXpX.X].3XX.7 0 U U 9 w @ < , > $ x n ; % - % % # # # # # * * * * * - ; u ; ; u u u - * # # # * - u j j v * # # # * % ",
"% % - - - - * - * ; ; $ # ; , & # # # ; , ; & & ; 3 ; . & , ; ; % # # ; x x ; % $ $ $ R R q q q | 7 { [.+.}.OX]. X X8XyXyX.X.X X X X XyX8X7XyX.XOX)...].oXoX`...} 7 { | 8 E *.E $ $ = * # * - - - - - - % # . X R E E @.0 9 0 E R E ) 8 { } [ [ }.3X:X}  .| @. .cXoXoXuXOXaXpXrXrXOXvXvX3X+.}  .[ }.3XoXX.} ....} ..w E E R < R E E E R < $ % ; # * * - - - * # @ w w *.w q 9 6 9 E @.| 7 [ } .. .[ {..XrXpXpXrXpXdXjX9XdXVXcX6 X..X.XuXOX'.).{. .7 0 E U U w @ X $ $ & x n ; # # # # # % # # # - - - - - - ; u u u ; - * * * * - u j j u - - - - - - - - - ",
"% % % - - - * - # - - % & & ; & ; % # & ; ; ; ; , x , # & , ; # # # # - ; j u ; ; $ X Y q q q q 9 U 0 5 6 [.oX+X+X XrXpXmX.X.XXXoXoXoXmXrXyXgX.X.XX...:X3X4X{.} } { | w w ) -.E $ = ; * # * - * y - * * % % % & 1 R E E U E E 9 : 1 ) *.| { { { [.,.+.7  . .|  .} X.`.oXoXoXoX+X+X+XoX{.+.....| } [.:X{.X.} } } { | E E Y : X 3 R q 1 1 , . # - - - - - - - - & @ + 6 ) w q @   9 R 9 w | | .. .{ [ }.oX.X X X X+X X X.X].{ O.8 +.3X}.}.'...[ }  .| E 9 E q q @ $ & ; , x 2 % # # # # # # # # # * * * # # * - ; u u ; - * * - y * u l l u * # # - - - * * # ",
"2 2 - - u u u u * * % - & # # & n ; # % ; , , , , , ; # % 2 2 # % % - # - - j j , & $ < 1 R q R T T R 9 7 >.[.}.{.).+X+XuX X XX.} [ ).oX.XXXXX.X].[ ..&. . .&...| *.6 w ) q R < $ = * * * u j u u u - - - - % % X 1 9 R E R R : @ : R ) w w w 8 | 8 | 0 | | |  . .X.+.).).`.`.`.`.`.{.+.} =.@.| 7 7 [ [ } } o.{ | E R < : & 3 q ' < $ $ ; * # - - - - - - - * # @   @ ) ) q < 1 c c d E E @...| | O.[.'.]. X X+X X+X X].{.7 8 8 } :X{.:X).} [ 7 7 9 E R E q q @ $ % ; x j # # # % % # # % ; 2 x % - - - - - - u u u u u u u y y * i l l i - * * u u - - - - ",
"j j j j j j l l u - * * % $ # ; n 2 % & ; , , , & % & % % 2 2 % % % - # # - ; j ; ; & $ X R R R ! s I 9 7 ..7 [ ..[ {.oXoXoXoX..7 6 +.:X}.oXoXoX}.[ { 7 | @.#.@.w -.@ q ' $ $ # * * * * * j v j y - - - - - % # & $ $ R R < Y c @ : q R ) ) *.@.w w @.@.w @.*.| o.o.} ..X.X.X.X.X...} }  .=.E w $.0 0 0  .| | w -.) < $ $ c ' ' ` n ; & u ; - - - - - - - * * % &   1 ' ' ' ' ` ; $ T ` E E @.| @.8 [ [ ).oX+X+XoX+XoX3X:X{ w w 7 ..7 ..7 7 | @.9 : R ~ Y q ' 4 $ # ; x 2 # # - # # # # ; x n n % ; x x x j j j u u j l l p u u l l l u y - y u j j j j j j ",
"2 2 j j j j j j l u ; ; ; ; % % ; ; ; ; ; ; ; ; % # % - % - - % % % % % % % - - # # $ $ X Y Y R n Y q 9 0 | | 7 7 [ [.-X_._.[.{ | 0 | o.} } } O.O.e w w @.| | *.q R : < c $ ; ; ; - * * * - u u - - - - - - - - ; & $ c , ; n x # & : < E $.$.U %.%.0 @.w w w w o. . . .o.&.+.X.+.} { O.=.) q E U U E @.w w 0 ) Y c = = = ; 3 & c , ; - - - - * - - - - ; ; ; ; % - ; n x x x n u # b R E q @.0 w @.} [ X.).).`._._.[.+.} { E 9 w 0 7 | 0 @.w E I > T T , X 3 o . # # - % # - % % % % % - ; ; 2 # % ; ; - - u j u j j l l l p p l l p i y y u i y - - - y y ",
"% % # # * * * * j v x j j x ; . # - 2 x ; % % ; % # % - # # % % % # # % - - # # # # # $ X < < Y Y Y @ 9 w 0 w @.@.0 7 7 7 7 7 8 0 $.0 0 8 8 8 6 q w q ) -.) w *.3 $ & & # * - - y - y - * * - * s u - * * - - - # u * % # 2 n # # - & : E -.$.@.| %.@.%.E O   ) :.| o.=. . .o. .} o.o.=.:.e 4 q R ~ I E E -.R ` & # # u * # ; $ # % ; - - - y h j j j j x s , s u j - % # ; # * * # = . ' E *.*.-.E |  .} } [ ..} [ [ [ { | U ~ I E E E w -.1 : d b ! x , . o o # # # # # % 2 . % % # # # # # # % % # . . # j v j j u u p p l l p p p l p y * * * * * * * * ",
"% % - - - - - * y u u u u - - - # # ; x ; & % # # % - % - - % # % % % % % % # # - % % % $ $ $ X @ q 3   @ q w U w 9 U 9 @ 9 E w q w E E E $.@.9 6 0 0 E ) q q 3 & % # # - - - * h - - - - # - v _ b u u - - - - - - * % * * - - - - # $ < U @.%.| @.@.E q $ & 3 | | |  . . . . . .| =.| w 9 @ R R R Y 1 : 1 1 & % - - y - - * # ; ; * * # # - j j j , x c , 1 c x * u ; $ = ; ; * * - ; 3 < q q -.-.9 0 | | @.| w w w w w 9 9 I R R R R Y 9 : : ; x v u # . . . % # # # # % % % % % % % % % - - # % - - % # - u u j l u p l l i p p l l l l i * * * * * - y ",
"% % # # * * * * * * - - * * * - # # ; ; % $ & & . # % # % % % # % % . . # % - - # # # % # $ $ X @ q 3 o & , I R E R R c ; x R R q 0 E E ~ ~ ~ I 9 U @.*.E X o . % % # - - - - - # - - j u ; ; c T b c x ; - # * - - * * * - - - - - - - : 9 0 w @.@.E R < . # & *.| *.=.*.*.=.*.=.*.*.q @ @ : c ` ' Y 1 X X & . % - - - - - t = # % % ; ; u x n x x c < < 9 1 1 < $ : : : : : ; ; y - - % & X X ~ ~ > 9 ) ) ) E E E ) ) q 1 > > R _ _ R < $ $ $ * - - - # % & % % % # % % % % % % % % # # # % # # % % % % # - - - - - * y p l l p l l p l l u y y - * * - - ",
"% % # # # # * * # * * * * * - - # # ; ; # # = ; * ; ; - - # # % % % % % % % - - - - - % % & & & . 2 2 . # % ; d T Y c , & 3 q q e e q R n G v u $ q q R Y = r r * # % % - - - - % ; 2 x x x < c > > < c ; ; - - ; ; ; ; = % % - - y h - % X @ @ @ 4 1 3 & # - ; q e q q q R U R R R R : . = = u & & & X X X & # % - - - * * u s > < > ; s , , < 3 Y q 1 9 E E w q 0 0 0 w 0 @ $ = * y y - - - - s B # ; R Y R 9 R Y c c 3 & # & & 3 3 < & $ # ; # % - # * * % # % # # # % % % # % - % % % % - - % % % % # # * - # * * * * i l l p l l u l l l u l j u j j j ",
"% % - # * * * * * * * * * - - u j j v x ; * = = = u x j ; - # # # # # # # # # - * * # # # # % # % % % # - - * - ; & & X . X & @ e + 4 3 2 - - - & 3 X : = r a a * # % % % % ; ; ; , , 1 < < < 1 9 9 < < , ; ; ; , , > ; $ $ # # - y y - % o o o o o o % % # - - &   X X $ $ $ $ $ $ ; % * p y y . X & & & ; & # % % % - - u u s d I d < c c < c 1 < 9 @ 6 w *.@.=.=.=.=.;.*.9 1 > u u y - - % - # = * - ; & > > : : & - - % % % # . # $ $ # % # # % - - * * # # = % % # % % % % % % # % # # % # # # # # - - - - * * * * * y i u u u i i i j l l l j j j j j ",
"% % - # - - y u h i i y - - - - j j x x = # & $ = , x n x ; * % & & & & # # - - - - - - - - - - - - - - u - - - % # $ X X X & & o o o . % # . % . & . $ - y i r = , , < , , < < < R R R R E U U E E E R < , 3 , c c d d < < , ; * * - % % % . o o % . % % # * - % % % - - y y - * # % - - y y y % & & $ & = = ; - - - 2 x s s d < R I I R Y 9 9 q q E w 0 | =.@.=.=.|  .=.| 0 9 : : > ; ; & & & & , - - - # : > : $ - - - % % % - % % % % * % # % % - % % % ; s s , s x x ; - # % % % % % % % % # # # - u j j j h u j j u - - - y - - - - - u j u u u u u - ",
"# # # # - u j l l l l i - * # # # # # # # = s x x n b b c ; = % c c R n x ; # # - - - - - - - - % % - ; = * - - - - $ $ : $ $ % . % % & ; ; & ; $ ; & % - - y ; 1 < < < < < < 9 E -.:.-.-.-.-.;.-.-.;.-.q 1 c < d d < I I < < < = = = * - - - % % % # # % % & - - - - y y y y - - # # % - * * * - % - ; = s s u x x x x c c c Y -.x.x.-.x.E U E -.*.*.*.@.=.=.=.=.;.=.=.=.*.@.@.*.) ) R q 1 @ @ @ X . # # % : : > = * - - - % % # * = = * * - - # % % % % ; b _ b n T T b x ; # # # % % # # # # * # * - h j j j j j j l j - * * * * * * # # * - j j j - - - ",
"% % # # - - j j l l l l u - - - - # # * ; x b b b b b n x ; = & c R ' _ T x ; - * - - - - - - - # # ; ; - % ; ; ; ; ; ; u u = = t b T d I I d d b n x ; 1 < 9 q q 9 9 q q q 9 0 w @.-.-.$.$.$.=.;.*.;.*.9 < Y c Y I 9 q Y Y < 1 < < d s s s f f u u u ; ; ; $ $ ; ; r r r r = = & . & & ; ; = - j l v b b B B s c x x c c c c Y E $.$.$.$.U 9 E -.@.*.=. .=.=.| E E E *.@.w @.@.@.@.*.*.*.*.o.=.6 O o . % & : : > = r y y - > > ; u u u t t * - % % % % & ; b ! T T b b c x ; # % # # # # # # # - * - - u u j u j h j j h - - - - * * - * # # - j j j - - % ",
"- - % # # * - u y u j j j j j j j ; - - % ; = # = = * = ; = ; ; $ , , , , , c n x x j j j j j x d , ; , , x d 1 < < , x x c d Y T ~ ~ I 9 9 U R I d < < E *.*.*.=.-.*.*.-.-.*.*.0 0 0 0 0 0 0 0 0 7 6 0 9 E -.) -.-.*.*.-.*.E q q U R R I d b T b b b b c c c c s f f f f d d c 3 3 3 3 < d c b n n c d d T I R Y q < < < 9 9 9 9 0 0 0 0 6 6 *.*.@.=.=.=.=. .6 : $ $ 1 + 5 @.*.@.@.*.*. . .o.=.| ] ) ' ' ' E E I d s u u s < , d s s s d d s ; , & & 3 3 ; > s d > = = = = = * x v v x x x x v - - - - - - - - - - - - - - - - - - - u - # - - % - - - # # ",
"- - # # # * * - # * u j j j j u j 2 ; - % % # # * - - * * * u u = = = = , d c c Y < < c c 3 c n s s x , x c < 1 1 @ 9 9 6 0 0 0 0 @.U 0 w 0 6 0 e 0 6 6 8  .=.=.=. . . .o.=.o.| 8 8 0 9 q R Y I 0 0 0 0 0 | @.*.=.@.=.=.| =.| 7 0 e 0 9 9 9 9 < : Y < < c x x , c c c c c c c d Y Y Y Y I Y Y < 9 1 q 9 9 0 0 0 7 w 0 0 0 0 0 w 0 0 0 8 0 0 | | =.=.=.*.*.;.@.1 = * ; = X 9 ) -.@.*.@.@.*.*.@.#.=.*.*.*.*.*.@.w 9 9 1 > 1 1 < d d s > > < < 9 9 9 9 < < , < , s v s ; = = = = * x b P b b P b x * - - - - - - - * - % - - - - - v j j j - - # # % % % % % % ",
"- - * # # # # * # * - - u j j j x j 2 2 j j j ; j j l j u u p l u u u x c b Y R Y < < c < < c c c c < , d R ` ) *.) *.@.| #. . .#.=.=.#.=.=.=.=.o.o.o.o.o.o.o.o. . .o.o. . . .o. .=.=.E U Y Y Y ;.=.=.#.@.#. . .=.o.=.#. .=.=.#.=.=.=.*.*.*.*.*.) ) R q q Y Y Y q < < < Y Y Y 9 9 I I I I ~ -.` *.@.-.*.*.=.=.=.=.=.=.=.=.=.=.*.=.o.o.=.o. .=.=.=.=.| 0 9 w 9 : u l v s $ : 9 9 E *.@.@.0 9 9 w =.| |  .#. .| | @.E E E R < 1 < d < Y E ) E E *.E ) ) R c < , j x s s s v v f s u v v s s v v u u u u - - - * # - - % - - - - - j j 2 - - % # # # # # # # # ",
"- - * # # # * * * * # # * - j j x x x x x x x x x x v v l u u u v v v n n T Y Y R Y Y Y c < d < , s , 1 d R ` ) ) E *.*.*.=.=.=.#.#.#.#.=.=.=.=.o.=.=.o.o.o.o.o.&.&.&.o.o.o.o.o.#.=.=.@.w w 0 U =.=.=.=. . .o.o. . .=.;.;.;.*.;.=.#.#.#.#.#.#.=.=.*.w 0 0 9 0 9 9 9 9 9 9 9 9 9 9 w w 9 9 E -.-.-.*.;.*.=.=.=.=.=.=.=.=.@.@.;.*.=.=.=.=.=.o.=.=.=.| 0 6 6 9 9 9 s s x s : 1 9 O E -.-.-.9 9 1 E *.*.*.*.*.*.*.@.-.*.-.-.` R < < , > Y ` -.) ) -.) ) ` ' c , ; x x v v v v v f u s v v u u v v j j j j j j u - - - - % - % - - - - - % % % # # # # # # # # # ",
"- * * * * - - - - * # # # - - ; j 2 2 2 j ; ; ; u u v v p p u u v v v n n b c < < 1 , < 1 < d d > d d < < < 9 9 9 9 E *.@.*.@.#.=.#.#.=.#.=.=.=.=.=.=.o.o.o.o.=.#.@.| | #.&.&. .&.#.&.#.=.=.#.#. . . . .o.o. . .=.| w 0 w 9 9 -.#.&.&.&.&.&.&.#.&.=.#.#.#.#.=.=.=.=.*.=.*.*.*.*.@.*.*.w 0 w @.@.| | w w  .=.=.=. .#.=.*.0 0 *.*.*.*.*.*.=. . . .@.| @.@.E E E E R d s > : 1 9 9 9 E E E q < < Y E w w w w w E E E E E ` ` R < < , > < R R q q R 9 q q < 3 , x v j v v v v v u u u v v u u v v u - u u u u - - - - - % % % % - - % % % # # # # # # # # # # # ",
"* * * * - - u j - - * # # # * - ; % % & ; % # # ; u j x v v v v j l x v v x , ; $ . $ & ; c ! ! ! ! T < : : < < 1 9 E *.*.-.=.=.=.=.=.=.*.=.=.=.=.=.o.o. . .&.&.0 0 0 0 @.=.=.#.&.#. . .=.=.#. .o. .o.o.o. . . .=.| 5 + + O 1 -.=.&.&.&.&.&.&.&.&.&.&.&.&.&.&.&.o.o.o.o.=.=.=.=.=.=.=.| 0 7 7 7 6 6 6 7 | =.=.;.=.=.;.;.w w *.*.*.=.=.=.=.=.=.=.*.*.=.;.-.*.-.-.` R < < : : 1 9 1 1 @ < 1 3 > , 1 6 @ @ 9 9 9 9 : 1 9 d c c < , s s , , < < 1 1 @ : : , , x x j u u j j x j v v ; u j j j j u ; - - - - - - - - # # # # % # # # # # # # # # # # # # # # # # ",
"* * * - - u j j - - * * * * * # % # # # % % # # * - u u u l v v j j j v x x ; ; = & = = ; n ! ! ! T T d 1 < < < 9 9 E E E E E E w e 8 w 8 0 |  . . . . .o.o.o.#.0 I 9 9 E @.@.| =.|  . . . .|  . . . .o.o.o.o.=.*.0 5 @ 1 : > ~ *.*.*.=.=.=.=.=.=. .o.&.o.&.o.o.o.o.o.o.o.o.o.o. .|  . .| 7 7 0 0 0 0 0 | @.| | | @.@.*.w q E q q q 0 0 0 0 0 0 w w E E E E E E R I < 9 9 1 9 9 q < 1 c , x j , < < 1 1 1 < < 9 : < < > , < < , ; s s , > < < : 1 : $ $ ; ; - - u u u u u - u u - - u j u u ; - - - - - - - - - # # # # # # # # # # % % # # # # # # # # # # ",
"- - # # - - - ; - - - # - - - - ; % % # % % % # # # * * * * u u j j j j x j u ; ; ; = * * u v v s d d d d < < 1 d > < < 1 9 9 9 @ 4 @ e 6 6 0 | =.&.&.&.&.&. .| I v b d < < 9 9 6 6 e e 6 6 6 0 =.o.o.o.=.=.*.*.*.9 @ @ $ . # $ & 1 1 4 4 4 e e e e | o.O.o.o.o.o.&.o.o.o.o.=.=.=.=.=.=.*.*.*.*.*.*.:.*.w w 0 9 9 9 9 q q q q q q q 9 9 9 9 q 9 9 9 9 9 9 9 q q R ` ` ` -.-.:.v.R c < c ; j j j d d < , < < d d s d s , , < s , ; u u ; > , 1 > 1 , $ & * * # # - - u u - # # # # # * - * * # # # * - - - - - - - # % # # # # # # # % % # % # # # # # # # # ",
"- - # # # # - - - - # # - - u j x 2 & % % # # # # # * # # # * - j j j j j j u u * * * * * u n x ; > > ; , x s ; x , < < < d < < @ q q 9 9 6 0 #.#.#.#.#.#.=.| 0 x l v x x 3 < 3 < 1 q q q q q E *.@.*.*.@.@.*.*.-.9 1 < , s s ; , 3 3 3 3 3 < q e e | =.o.o.O.o.o.o. .o.=.=.=.=.*.@.@.@.@.*.-.*.-.-.:.*.0 9 0 9 9 Y 9 < c c Y R Y Y 9 < < Y Y I 9 9 I q 9 9 q < : R ` R R ) ' R R 3 , x - j l u s s s ; = ; s , ; = ; , , ; ; x x u u u ; $ = , = ; ; ; * * * - * - j j u - * # - * * * * * * - # * - u j j j j - % % # # # # # # # % # # # # # # # # % % # ",
"# # # # # # # # # # # # # # ; 2 j ; # # # % # . # # # # # # * * * - * * * * - * - u u u u u ; ; u ; ; 2 ; ; ; ; x , ; , < > > > Y -.-.@.-.;.;.;.-.w 9 9 1 @ 1 3 v l j u u ; , , 3 c c 3 < c c < @ @ @ @ @ 9 9 Y 9 Y Y c c b b b T R R I 9 9 E @.*.=.#.#. . . . .=.| 0 7 0 0 0 0 9 E 9 9 9 q 9 R 9 9 9 9 q q q I I > = $ = s ; = ; = s d b T T d d d d d < < d < < 3 1 1 1 1 & 1 $ , s s u u p v s u ; * * * * - * * ; ; ; ; s s u u u u u ; ; ; ; ; ; j j u * # - - - - - - % % # # # # % % % # - - - - - ; ; j % # # # # # # . # # # # # # # # # # # # # # ",
"# # # # # # # # # # # # # # - ; ; - # # # # # . # # # # # # # # % % # * * * - - - u j l v j ; - - - ; ; - - - - j 2 ; j s ; ; , R -.$.E E E U U E 9 : 1 , & 2 j j u u ; = = ; ; x x v x s v v x = > > > > d I Y I Y Y c b b b b T I I I I U $.;.;.;.;.&.&.&.&.&.=.@.0 0 0 0 9 U U R I > < > > Y I 9 I I I Y d d T s = = = = * * * = = u f b d d s s s s s s s c 3 & & & & $ $ & & ; ; u u u u p u u - * * * * - * - - ; ; ; ; u ; ; ; ; ; - - - j j j j j j y * - - - - - % % % % # # # % % % # # # * * - - - - % # # # # # # . # # # # # # # # # # # # # # ",
"# # # # # # # # # # # # # # # % - % # # # # # # # # # # # # # # % % # # # - * * - u j l v j ; - - - - - - - - - 2 - - j j u u s > I I > I I 9 9 I < , , j 2 2 j s g > > > = > > b b b b B b b F t p f s s d b b c Y Y Y b T T b T T T T T I R E E U U w | | | | @.E U I I I I R T R d = = = = d c c c c d b b b P b s t t = r = u t u u f f f f t t = = t u s s 2 & % % & % # % & = ; ; = = t u u y y * * * - - * * * - - - ; ; * * * * * * - - j j j u j u - - - % % % % % % # % % # # # # # # # # # # # # # # % # # # # # # . # # # # # # # # # # # # # # ",
"# # # # # # # # # # # # # # # # # # # # # # # # # # # # # # # # # # # # % % - * - - u j j ; - # % % % % % % % % 2 - - u j j u x > d d > d d d d < d s s x j j j d d d < < g d d b T T b B B B B f F G P b b b b b T Y Y T T T T T T b b b d I I I 9 9 9 9 0 0 0 R R I I I I I T b b s t t t s b c c c c b b b b P b v f s s f v v v v v v v f f t t t = t u s s ; % % % % % # * % * * * = = * * u y - * * * - - * * * # * - - - * * * * * * # # - - - - - - * * % % % % % # # # % % # # # # # # * # # # # # # # % # # # # # # . # # # # . # # # # # # # # . ",
"# # # # # # # % # # # # # # # # # # # # # # # # # # # # # # # # # # # # % % - - - - - - - - * # - - - - - - % % - % - - j u x x j j j ; ; s s s d d d d s d s d Y Y I I I I I Y I I I T T T T T f P P P T T T T T Y T T I T T T T T T T T R R R R I I I I U U I I Y T I Y Y T T b b d s d d b P b b c b b b b b b b b b b b T T b b n n b v v v v f f s s s s x 2 - % - - - - - * * # # * * * * - * * * * * - - # # # # # # % * # # # # * * - - - - * # # # # # % % % # # # # # # # # # # # # # * * * * # # # # % # # # # # # . # # # # # # # # # # # # # # ",
"# # # # # # # # # # # # # # # # # # # # # # # # # # # # # # # # # . # % # % - - - - - * # # # # - - - - - - - - - # # - u j s x - - % # - ; u s c c c d d d d d Y I I I I I I Y I I I I I I I T d P P b b T T Y T Y I T T Y T I T T T I T R I I I I I I I I I I Y Y T T d T T b T T b b P P P b c b c c b b b b b b b b T T T T c c b c b b b b P b b x s s x x j - - - - - - - - * # # # - # # * * * * * - - - % % # # # # # # # # # # * - - - - - - * # # # # # % # # # # # # # # # # # # # # # # # # # # # # % # # # # # # . # # # # # # # # # # # # # # "
};
