/* XPM */
static char *_18aec567c2f469db5b1137a78ff8f4atVxMYJvrCabCjgkV[] = {
/* columns rows colors chars-per-pixel */
"640 640 256 2 ",
"   c #040003",
".  c #080309",
"X  c #160608",
"o  c #090418",
"O  c #150819",
"+  c #19141A",
"@  c #16130D",
"#  c #2A0B13",
"$  c #0D0A2B",
"%  c #0A0625",
"&  c #130B25",
"*  c #140D2D",
"=  c #180926",
"-  c #15122C",
";  c #1B142C",
":  c #1A1627",
">  c #150E31",
",  c #190E32",
"<  c #151233",
"1  c #1A1434",
"2  c #1D1A34",
"3  c #1C1639",
"4  c #1D1A3B",
"5  c #15163A",
"6  c #0D0F31",
"7  c #24192A",
"8  c #231C34",
"9  c #221C3C",
"0  c #271936",
"q  c #30102C",
"w  c #28252A",
"e  c #25223C",
"r  c #2B243C",
"t  c #2C2B3C",
"y  c #282634",
"u  c #332A3A",
"i  c #373638",
"p  c #34322D",
"a  c #242524",
"s  c #57153C",
"d  c #4D1432",
"f  c #6A1535",
"g  c #4A3036",
"h  c #732B34",
"j  c #5A1B14",
"k  c #3D4334",
"l  c #38451D",
"z  c #464739",
"x  c #565A3A",
"c  c #4D5036",
"v  c #5B623B",
"b  c #5C602E",
"n  c #695836",
"m  c #1C1D42",
"M  c #241E41",
"N  c #291E42",
"B  c #3A1C41",
"V  c #1E2246",
"C  c #252243",
"Z  c #2A2444",
"A  c #2C2A4B",
"S  c #292848",
"D  c #332C43",
"F  c #322D4C",
"G  c #382A45",
"H  c #393548",
"J  c #2A2C52",
"K  c #2D3359",
"L  c #33355B",
"P  c #35395E",
"I  c #3B3B5C",
"U  c #383554",
"Y  c #30314E",
"T  c #363D64",
"R  c #3A3E66",
"E  c #393F69",
"W  c #353C67",
"Q  c #2F3661",
"!  c #561942",
"~  c #44394A",
"^  c #463C56",
"/  c #52314C",
"(  c #732E47",
")  c #572A51",
"_  c #3B4454",
"`  c #394066",
"'  c #3C436B",
"]  c #374267",
"[  c #3E4671",
"{  c #3C5164",
"}  c #484647",
"|  c #534B49",
" . c #575847",
".. c #4A4458",
"X. c #54445B",
"o. c #57485A",
"O. c #5A5557",
"+. c #4C534B",
"@. c #635A59",
"#. c #6B514E",
"$. c #5D6347",
"%. c #646748",
"&. c #686658",
"*. c #707156",
"=. c #42456C",
"-. c #464767",
";. c #594B63",
":. c #5A5567",
">. c #444B74",
",. c #4A4D74",
"<. c #464C77",
"1. c #4B5176",
"2. c #4D537C",
"3. c #49547A",
"4. c #51557D",
"5. c #53597E",
"6. c #575777",
"7. c #4B546A",
"8. c #645766",
"9. c #655369",
"0. c #586673",
"q. c #6A6567",
"w. c #746A69",
"e. c #797569",
"r. c #7B7675",
"t. c #706B75",
"y. c #911C39",
"u. c #9A223B",
"i. c #8E3434",
"p. c #A43633",
"a. c #953516",
"s. c #944936",
"d. c #B04D33",
"f. c #AD5825",
"g. c #DA7537",
"h. c #CF6A33",
"j. c #D46834",
"k. c #8D2F46",
"l. c #9B2744",
"z. c #934A4A",
"x. c #AC4E48",
"c. c #B36A4E",
"v. c #887B77",
"b. c #8A7972",
"n. c #9F6A5F",
"m. c #CF734A",
"M. c #D2694D",
"N. c #7B836F",
"B. c #8A8579",
"V. c #92867C",
"C. c #8C8C74",
"Z. c #B18D67",
"A. c #D7894F",
"S. c #E9904F",
"D. c #E9A469",
"F. c #ECA559",
"G. c #4E5581",
"H. c #515681",
"J. c #545B83",
"K. c #595D85",
"L. c #494E83",
"P. c #5A6286",
"I. c #5D658B",
"U. c #5E698D",
"Y. c #566286",
"T. c #5D6A90",
"R. c #616A8E",
"E. c #63668A",
"W. c #636C92",
"Q. c #696D93",
"!. c #6A7395",
"~. c #6C759A",
"^. c #6E799C",
"/. c #667294",
"(. c #727B9D",
"). c #747799",
"_. c #727787",
"`. c #747DA1",
"'. c #797EA2",
"]. c #6E7AA1",
"[. c #615E84",
"{. c #897C83",
"}. c #AA7A85",
"|. c #778594",
" X c #7681A3",
".X c #7A83A4",
"XX c #7D87A9",
"oX c #7C96A4",
"OX c #7EA1AE",
"+X c #8A8685",
"@X c #948985",
"#X c #989588",
"$X c #999796",
"%X c #8A8D96",
"&X c #A49A91",
"*X c #A8A598",
"=X c #B2AB96",
"-X c #848CAA",
";X c #8A93AD",
":X c #8893AA",
">X c #8B95B3",
",X c #8B96B4",
"<X c #929AB6",
"1X c #9095AB",
"2X c #98A6B1",
"3X c #B2B0AC",
"4X c #9EA09C",
"5X c #C4BBAE",
"6X c #DCB28E",
"7X c #DDCDAC",
"8X c #D7C9A7",
"9X c #DED1AD",
"0X c #D8CCB5",
"qX c #DCD3B6",
"wX c #C9C5B4",
"eX c #E1CEAD",
"rX c #E2D2AE",
"tX c #E7D8AD",
"yX c #E4D4B3",
"uX c #E9D5B5",
"iX c #E6D9B5",
"pX c #E9D9B6",
"aX c #E5D5B9",
"sX c #EBDCBB",
"dX c #E7D9BA",
"fX c #E7D3B4",
"gX c #EDE2BD",
"hX c #F2E4BE",
"jX c #FFE4AC",
"kX c #ECCA93",
"lX c #AAB1C5",
"zX c #B7CAC9",
"xX c #D2D2CA",
"cX c #E7DCC5",
"vX c #E6DCD3",
"bX c #ECE5C6",
"nX c #F3E5C3",
"mX c #F5EAC5",
"MX c #F9EDC6",
"NX c #F6EDCA",
"BX c #FAEECB",
"VX c #F3E6CA",
"CX c #FCF1CC",
"ZX c #F8F1CA",
"AX c #EAE6D6",
"SX c #F6EDD4",
"DX c #FDF3D2",
"FX c #FBF6D9",
"GX c #EDF1D8",
"HX c #FEFCE4",
"JX c #FEFDEB",
"KX c #F9F4E5",
"LX c #FDFCF6",
"PX c #EDECE7",
"IX c #D6E3DC",
"UX c #B8C5BA",
/* pixels */
"T T T T T T T T R R R R R R T T T T T T T T T T T T ` ` ` T T T R R R R R R R R R R R R R R R R R R R R R R R R R R R R R R R R R R R R R R R R R R R R R R R R R R R R R R R R R R R R R R R R R R R R R R R R R R R R R R R R T ` E T R R R R ' =.>.' T R R R T Q [ ` T 1.<.E ` ' >.' ' ' >.' ] ' Q T ' >.3.] R [ >.>.1.' R >.2.1.2.>.<.2.>.>.<.1.4.1.' 1.H.<.1.1.1.1.1.1.2.2.2.2.G.2.2.2.2.2.4.1.2.1.4.4.1.2.H.1.4.J.H.1.2.1.I.J.H.J.K.G.2.K.K.K.K.Y.K.I.I.J.2.R.5.>.P.R.J.P.I.Y.Y.Y.P.P.P.P.I.I.I.I.I.I.I.I.I.I.I.I.I.I.I.I.U.R.U.I.I.U.U.I.I.I.I.U.U.U.U.U.R.I.R.Q.R.I.I.I.!.J.P.R.I.I.R.I.P.!.Q.I.P.R././.R.U./.!.I.P./.^.R./.U././.U././.!.^.^./.R.R.^..X/./.U.U.!.^.!.!.!./.^.(.!.R.!.!.Q.Q.Q.R.I.Q.~.Q.R.Q.I.R.R.I.R.P.Q.P.I.R.U.R.!.R.P.U.P.P.U.P.Q.R.R.R.I.P.P.P.I.I.U.I.I.I.I.I.I.I.U.U.U.U.U.U.U.U.I.I.I.I.I.I.I.I.P.U.I.I.R.P.J.Q.Y.U.I.P.Y.5.4.Y.R.I.5.1.5.P.5.4.I.1.5.5.K.E.1.5.,.5.,.1.,.,.4.2.1.1.1.1.2.2.2.2.2.2.2.2.2.2.2.2.2.2.2.2.2.2.2.2.1.2.>.` =.1.4.4.4.,.' <.J.H.1.1.2.1.>.' =.2.2.' R ' ` ' 3.>.R ` ' T ' ' ' R T ,.=.T ' ' L T ' T T ` P ` =.T P ` P T T T ` ` T ` R R R R R R R R R R R R R R R R R R R R R R R R R R R R R R R R R R R R R R R R R R R R R R R R R R R R R R R R R R R R R R R R R R R R R R R R R R R R R R R R R R R R R R R R R R R R R R R R R R R R R R R R R R R R R R T T ",
"T T T T T T T T R R R R R R T T R R ` ` T T T T T T ` ` ` T T T R R R R R R R R R R R R R R R R R R R R R R R R R R R R R R R R R R R R R R R R R R R R R R R R R R R R R R R R R R R R R R R R R R R R R R R R R R R R R R R R Q R T T R R R ` R =.,.>.R T T T ' T >.[ E ' ' R ' 2.G.E K [ 1.>.T 3.<.W T >.3.T Q >.1.1.1.' T R 1.>.=.` ' 1.>.>.1.<.1.[ R >.2.<.1.1.1.1.1.1.2.2.2.2.G.G.G.G.2.2.2.1.4.4.4.4.1.1.4.1.1.1.1.5.K.H.I.J.3.3.2.2.J.I.2.Y.I.G.G.Y.I.2.J.I.J.2.I.I.J.I.I.I.I.I.I.Y.Y.Y.I.I.I.I.I.I.I.I.I.I.I.I.I.I.U.U.I.U.U.I.U.R.R.I.U.U.U.U.U.U.U.R.Q.I.R.Q.I.I.I.P.J.Q.R.J.P.P.P.I.P./.!.Q.U.I.U.!./.I.P.I.R.!.!.I.P./.!.^./.R./.U.^.).^.!.R.R.!.(.!.!.R.R.!.^.!.^.R.R./.^./.U.R.R.(.~.!.R.I.R.!.Q.I.!.Q.!.R.P.I.I.P.5.P.R.I.R.R.P.P.R.P.U.P.P.R.P.R.R.I.P.U.R.R.R.I.I.I.I.I.I.I.I.U.U.U.U.U.U.U.U.I.I.I.I.U.U.I.I.I.R.I.I.U.5.5.I.U.P.J.Y.U.I.J.Y.1.J.P.J.K.5.J.I.>.>.I.P.K.K.,.6.K.J.,.1.,.,.4.2.2.1.1.1.2.2.2.4.2.2.2.2.4.4.2.2.2.2.2.2.2.2.2.2.1.2.>.' >.1.2.1.4.,.` ' ,.4.2.4.>.>.1.1.<.1.2.<.' >.' ' 3.>.T ` T L ` ` T T ' K.-.L L T T -.2.>.K T ` ' ' T T T P T T T ` ` T ` R R R R R R R R R R R R R R R R R R R R R R R R R R R R R R R R R R R R R R R R R R R R R R R R R R R R R R R R R R R R R R R R R R R R R R R R R R R R R R R R R R R R R R R R R R R R R R R R R R R R R R R R R R R R R R R R ",
"R R R R T T T T R R T T T T T T ` ` ` ` ` ` ` ` T ` ` ` T T T T R R R R R R R R R R R R R R R R R R R R R R R R R R R R R R R R R R R R R R R R R R R R R R R R R R R R R R R R R R R R R R R R R R R R R R R R R R R R R R R R T T T T ` R R ` T ' >.=.R T R R Q Q >.2.>.` E ` E 1.1.R T >.2.<.K <.3.[ E >.3.' E <.1.>.1.<.' ' 2.>.' ` >.2.1.<.2.1.1.>.` <.H.2.1.1.1.1.1.1.2.2.2.2.2.2.G.G.G.2.2.4.4.4.4.1.1.4.4.2.4.2.1.K.K.4.Y.J.H.H.H.H.J.Y.H.Y.Y.2.H.Y.Y.H.I.P.J.Y.I.P.P.R.I.I.I.I.I.I.I.I.I.I.I.I.U.U.I.I.I.I.I.I.I.U.U.U.I.U.U.U.U.R.U.I.R.R.R.U.I.I.R.W.R.I.R.R.I.R.R.I.P.I.I.R.!.R.R.(.U.W.!.!./.U.U.!.^./.P.P.!. X(.I.U.~.^.~.~.~.!.I.~.^.(.~./.Q.!.^.(.^.!./.~.^.^.(./.Q.~.(.~././.!.'.(.^.!.R.!.~.~.I.!.~.~.!.R.R.R.I.P.R.Q.R.Q.W.R.P.I.I.R.Q.R.R.I.R.U.I.U.R.R.R.U.I.I.I.I.I.I.I.I.U.U.U.U.U.U.U.U.I.I.I.I.U.I.I.I.U.R.I.P.I.J.5.P.R.Y.4.Y.R.U.Y.P.>.5.I.I.P.5.5.I.2.2.P.5.4.5.,.4.P.J.1.1.4.1.1.,.4.1.2.2.2.4.4.4.4.4.1.1.4.4.4.4.1.1.1.1.1.1.1.1.1.2.,.=.,.1.1.1.2.,.' R >.4.H.J.R ' 2.2.=.' <.2.1.1.' ' <.' R =.,.` T R ' T T 1.=.P T R L T ' P P ' ` ` ` T T P T T T ` ` T T ` R R R R R R R R R R R R R R R R R R R R R R R R R R R R R R R R R R R R R R R R R R R R R R R R R R R R R R R R R R R R R R R R R R R R R R R R R R R R R R R R R R R R R R R R R R R R R R R R R R R R R R R R R R R R R R R R ",
"R R R R R R R R T T T T T T T T ` ` ` ` ` ` ` ` T ` ` ` T T T T R R R R R R R R R R R R R R R R R R R R R R R R R R R R R R R R R R R R R R R R R R R R R R R R R R R R R R R R R R R R R R R R R R R R R R R R R R R R R R R R ` R T R ' R T ` T ` ` T T T ' ,.T E <.1.' T T E T T E [ <.>.[ >.[ [ <.3.>.T R [ G.G.>.' <.2.2.3.2.1.<.<.1.2.2.1.1.3.2.1.<.2.H.1.1.1.1.1.2.2.2.2.2.2.2.2.G.G.G.2.2.4.4.4.2.2.4.H.1.1.H.J.H.K.J.,.2.5.J.H.H.Y.I.Y.I.J.H.J.Y.J.H.J.I.5.J.R.P.2.H.R.I.I.I.I.I.I.I.I.U.U.U.U.U.U.U.U.U.U.U.U.U.U.U.U.I.U.U.U.U.R.U.I.R.R.U.I.I.I.U.R.I.I.R.R.R.!.~.~.~.I.Q.(.~.!.~.~.!.Q.Q.Q.~.~.W.~.!.!.~.!.~.).(.!.^.~././.~.'.^.R./.!.^.^.~.~.^.(.`.`.(.^.^.^.(.'.(.(.`..X'.^.(. X(.(.(.(.(.(.'..X!.!.!.~.~.~.(.!.Q.!.(.~.Q.!.~.~.R.R.R.~.~.R.R.R.R.I.I.U.R.R.I.I.I.I.I.I.I.I.I.I.U.U.U.U.U.U.U.U.I.I.I.I.U.U.I.I.I.U.I.I.U.P.Y.U.P.5.5.I.P.5.5.I.5.Y.P.J.J.5.4.2.E.P.5.,.,.5.1.,.4.4.4.4.5.J.5.,.1.2.,.2.1.1.2.2.4.4.1.1.4.4.4.4.1.1.1.1.1.1.1.1.1.4.1.<.1.1.1.1.1.,.<.,.2.4.4.4.` >.1.1.` R [ 2.H.2.' ` >.' ' 1.P.>.T ' 1.>.T T P T 1.1.T P ' R 2.1.T P T T ` T ' T ` ' ` T T ` R R R R R R R R R R R R R R R R R R R R R R R R R R R R R R R R R R R R R R R R R R R R R R R R R R R R R R R R R R R R R R R R R R R R R R R R R R R R R R R R R R R R R R R R R R R R R R R R R R R R R R R R R R R R R R R R ",
"R R R R R R R R T T T T T T T T T T ` ` ` ` T T ` T T T ` ` ` ` R R R R R R R R R R R R R R R R R R R R R R R R R R R R R R R R R R R R R R R R R R R R R R R R R R R R R R R R R R R R R R R R R R R R R R R R R R R R R R R R R R R R ` R T ` T R T Q T R =.4.' ' ` T T E ' E T Q T <.2.' Q E K.' ' G.2.E Q [ J.G.<.<.1.<.<.2.1.1.1.1.1.<.1.1.<.1.2.1.1.3.2.<.1.1.1.1.1.1.2.2.2.2.2.2.2.2.2.2.1.2.1.1.1.1.4.J.1.,.H.P.K.J.J.1.Y.J.J.2.<.H.I.P.I.H.3.H.Y.J.2.J.P.1.5.I.J.1.2.Y.I.I.I.I.I.I.R.I.U.U.U.U.U.U.U.U.U.U.U.U.U.U.U.U.U.R.R.U.U.R.U.I.U.U.I.I.I.U.U.U.I.I.R.I.I.~.'.(.R.!.(.!.R.'..XI.!./.!.R.!.(.!.(.R.!.(.(.!.R.!.(.'.!.Q./.^. X(.~./.~.^.(.(.(.'.'.`.`. X'.(.(.'.'. X'.`.'.`.^.(..X!.~.(.'.'.(.~.~.(.!.!.!.!.~.'.(.Q.~.'.(.Q.Q.!.!.'.!.!.(.(.R.Y.I.P.I.U.R.U.P.I.I.E.E.I.I.I.I.R.R.U.U.U.U.U.U.U.U.I.I.I.I.I.I.U.I.I.I.I.I.R.U.I.R.P.J.Y.U.P.5.5.I.R.I.J.2.5.P.J.1.P.P.P.5.5.J.2.1.>.4.K.4.2.K.J.1.1.1.1.1.1.1.,.<.2.2.1.1.1.1.2.2.2.2.1.1.2.2.2.2.1.4.1.1.1.1.1.1.1.,.2.J.J.4.1.1.1.2.2.1.>.' >.2.2.2.>.' >.>.>.1.1.-.T -.J.1.T T ' ` ,.1.` R =.' 5.>.T ` ` T R T [ ` ` ' ` ` ` T R R R R R R R R R R R R R R R R R R R R R R R R R R R R R R R R R R R R R R R R R R R R E E R R ` ` ` ` ` ` ` ` R R R R R R R E ` ` ` ` ` ` ' ` R R R R R R R R R R R R R R R R R R R R R R R R R R R R R R R R R R R R R R R R ",
"` R R R R R R R T R T T T T T T T T T T T T T T ` T T T ` ` ` ` R R R R R R R R R R R R R R R R R R R R R R R R R R R R R R R R R R R R R R R R R R R R R R R R R R R R R R R R R R R R R R R R R R R R R R R R R R R R R R R R L R R T R R R ` T E R R =.=.' >.E ` K K ' <.<.K Q ' [ >.<.` T ' K.>.[ <.3.<.[ <.' >.2.H.2.' ' <.1.2.1.1.>.' <.2.1.1.1.1.<.3.3.1.1.1.1.1.1.1.2.2.2.2.2.2.2.2.2.2.4.1.1.1.2.4.J.H.4.>.4.P.H.4.K.J.I.Y.P.J.3.H.I.J.J.Y.H.H.Y.Y.H.H.I.J.P.R.I.5.J.R.I.I.I.I.I.I.R.R.U.U.U.U.U.U.U.U.U.U.U.U.U.U.U.U.U.R.U.U.U.W.W.U.U.I.I.R.W.Q.U.I.Q.Q.Q.I.I.~.'.~.J.(.(.!.~.(.~.).Q./.`././.(.!. X/.!.^.(.)././.(.~.!.^.(.(.(.^.'.^.^.(.`.'.'.`.'.`.`..X.X'.'. X(. X'.(.(.`.~.~.`.!.(.(.'.(.!.I.I.'.~.'.~.R.Q.~.(.Q.~.'.~.!.!.Q.R.'.!.!.~.~.Q.P.R.U.R.R.R.U.P.I.I.E.E.I.I.I.I.R.R.U.U.U.U.U.U.U.U.U.U.U.U.U.U.U.U.U.U.I.I.I.I.I.I.R.P.P.U.I.Y.Y.P.P.P.J.5.2.P.R.P.1.J.E.P.5.4.J.I.1.J.K.1.,.4.4.1.1.2.2.2.1.1.,.,.2.2.1.1.1.1.2.2.2.2.1.1.2.2.2.2.1.4.2.1.4.1.1.1.1.1.2.4.1.1.1.1.1.2.1.1.2.2.1.1.' <.1.<.1.1.<.>.L =.=.>.1.' R =.P.=.T T T =.=.L ' ` ` <.[ P T T ' ` ` ' ` ' [ T R R R R R R R R R R R R R R R R R R R R R R R R R R R R R R R R R R R R R R R R R R R R E E R R R R R E R R R R E E R R R R R E R R R R E E R R R R R R R R R R R R R R R R R R R R R R R R R R R R R R R R R R R R R R R R R R ",
"` ` T T R R R R R R ` ` R R T T T T T T T T T T ` ` T T T T ` ` R R R R R R R R R R R R R R R R R R R R R R R R R R R R E E R R R R R R R R R R R R R R R R R R R R R R R R R R R R R R R R R R R R R R R R R R R R R R R R R R T >.>.E T E E E R ` R ' 1.>.R E ' <.` E [ <.[ J E <.<.>.>.' ` >.J.G.3.] ' 2.<.>.K ` 1.H.2.<.>.=.2.4.1.2.1.>.1.2.4.4.1.1.1.4.2.2.2.2.2.2.2.2.1.1.2.2.2.2.2.2.2.2.4.1.,.2.K.Y.J.1.4.1.J.K.1.1.Y.K.2.2.J.Y.J.I.Q.W.H.Y.Y.Y.I.K.H.I.I.I.I.R.R.I.I.Q.I.I.I.I.R.I.I.R.U.U.U.U.U.U.U.U.U.U.U.U.U.U.U.U.U.U.U.U.R./.!.!.U.I.U.Q.~.~.W.P.~.^.~.I.I.~.'.~.!.~.).'. XR.U.'.W.Q..X(.^.^.R.(.`.(.~.~.(.(.^.(.!.~. X(.^.`.^.'.'.`.(.(.`.`.`.`. X(.'..X`.'..X'. X.X`.'. X~./.~.(.'.'.'.(.Q.I.R.'.~..X(.Q.!.~.).(.(.~.!.~.(.~.Q.!.!.~.Q.!.(.!.!.R.!.~.!.R.P.I.R.I.I.I.I.I.I.I.I.U.U.U.U.U.U.U.U.U.U.U.U.U.U.U.U.U.U.U.I.I.I.I.P.Q.I.P.U.I.I.I.P.5.5.P.I.J.5.P.R.5.J.K.K.5.4.K.R.K.5.5.1.1.4.1.1.5.J.J.4.1.,.1.4.2.2.2.1.2.2.2.2.2.2.1.1.2.2.2.2.1.4.2.2.4.1.1.4.1.2.1.=.E <.H.2.1.1.>.=.1.H.1.>.R ,.1.,.1.H.,.' L ,.=.' ' T T ' P.=.P T R >.1.R K P ` >.' T ' ` ` P T ` ` >.<.T R R R R R R R R R R R R R R R R R R R R R R R R R R R R R R R R R R R R R R R R R R R R E R R R R R E E R R R R E E R R R R E E R R R R E E E R R R R R R R R R R R R R R R E R R R R R R R R R R R R R R R R R R R R R R R R R ",
"` ` R R R R R R R R ` ` ` R T T T T T T ` ` ` T ` ` T T T T ` ` R R R R R R R R R R R R R R R R R R R R R R R R R R R R R R R R R R R R R R R R R R R R R R R R R R R R R R R R R R R R R R R R R R R R R R R R R R R R R R R R ' G.2.' R E E R E R K E 1.>.T T [ 3.' R R ' <.>.1.G.1.>.<.` T ` >.3.3.Q Q 2.G.3.' >.1.1.1.1.,.` 1.2.1.J.J.,.1.1.1.2.1.1.4.4.1.1.2.2.2.2.2.2.1.1.2.2.2.2.2.2.2.2.4.,.,.H.R.R.J.,.4.4.P.K.>.1.K.H.J.2.H.H.<.2.Y.I.2.H.P.R.I.1.1.W.K.I.I.P.I.I.P.I.I.I.R.R.R.R.R.R.U.U.U.U.U.U.U.U.U.U.U.U.U.U.U.U.U.U.U.U.W.~.^.(.R.I.R.!.`.`./.I.`.`.(.W.R.(..X(.Q.I.!.'.^.~.(.~.Q.U.`..X.X(.P.Q..X X!.R.^..X(.).^.(..X~.~..X(.(.'.`.(.^.(.`.'.'..X(.`.`.(.'..X'.'. X`. X.X~.R.Q..X.X'.'.'.~.!.(..X~..X.X(.'.(.~.-X'.R.I.!..X'.!./.(.'.R.Q.XX'.!.R.~.(.).R.I.R.Q.I.I.I.I.I.I.I.I.U.U.U.U.U.U.U.U.U.U.U.U.U.U.U.U.U.U.U.U.I.U.R.P.R.I.U.U.I.U.U.P.4.1.P./.P.1.2.P.R.J.1.5.P.P.5.1.P.1.4.5.5.4.>.1.K.P.K.4.,.,.4.J.2.2.2.1.2.2.2.2.2.2.1.1.1.2.2.2.1.2.2.2.4.1.1.4.,.J.4.R K ,.Y.4.H.4.=.R <.5.1.>.R 1.2.>.<.H.1.' =.4.T K R ' ` T =.T R ' P T ' L T T P T T ` <.' T P P T ` 3.2.` R R R R R R R R R R R R R R R R R R R R R R R R R R R R R R R R R R R R R R R R R R R R R R R R R R E E E R R R R R R R R R E R R R R R E E E R R R R R R R R R R R R R R R E E R R R R R R R R R R R R R R R R R R R R R R R R ",
"` R T T T T T ` ` ` ` ` ` ` ` ` ` ` T T T T ` ` ` ` ` ` ` ` ` ` R R R R R R R R R R R R R R R R R R R R R R R R R R R R R R R R E R R R R E E E R R R R R R R R R R R R R R R R R R E E R R R R ` ` ` ` ` ` ` ` R R R R R R T T R [ >.' T E ` T [ 2.>.R Q T ' Q ' >.>.G.<.E ` ` ' >.' Q <.H.' >.3.3.G.>.<.<.` >.H.2.<.=.>.1.4.4.2.2.1.1.2.2.2.2.2.2.2.2.1.1.1.2.1.1.1.1.4.4.1.1.1.1.1.1.,.1.J.J.H.,.H.J.1.2.K.4.Q.I.1.>.J.R.P.J.P.P.P.Y.I.I.I.I.I.I.J.2.J.Y.Y.P.I.I.I.I.I.R.I.I.I.I.I.I.I.I.R.R.R.U.I.U.R.R.U.I.U.I.I.I.R.U.I.R./.~.U.I.R.~.^.I.Q.(. X~.W.Q.~.`.(.~.!.~.'.(.Q.R.(..X).R.!..X.X(.~.~.~.^.(.~.~.~.~.`.'.(.).(.(.(.(.(.(.(.(.(.(.(.(.(.(. X X(.(.(.(.(.(.(.(. X(. X(. X X X(.(.(.(.'..X'.(.(.(.(.~.'.(.(.(.(.(.'..X(.(.(.'.'.'.(.(.Q.'.'.(.'.(.!.~.!.!./.!.^.^.!.R.I.R.W.Q.R.U.U.U.R.Y.R.U.P.R.P.P.U.R.R.R.U.U.U.R.I.I.R.R.I.I.U.I.U.U.U.U.U.U.U.U.U.P.P.P.P.P.J.J.J.R.I.J.J.5.4.P.Q.1.1.4.K.R.4.-.1.P.>.,.P.1.>.I.K.1.,.1.4.2.1.1.4.2.1.2.1.1.1.4.1.1.1.1.1.1.1.1.2.1.1.1.1.1.1.2.=.<.1.1.1.4.2.<.>.H.2.1.T >.>.1.1.1.R ' 1.=.E =.T >.T R =.R =.=.[ ' ` R T ' 2.' ` K T >.' ` ` T R R R R R R R R R R R R R R R R R R R R R R R R R R R R R R R R R R R R R R R R R R R R R R R E R R R E R R R R R E E E R R R R R R R R R R R R R R E E R R R R E E E R R R E E R R R R R R R R R R E E R R R R E E E R R R R E ",
"` ` T T T T T ` ` ` ` ` ` ` ` ` ` ` ` T T ` ` ` ` ` ` ` ` ` ` ` R R R R R R R R R R R R R R R R R R R R R R R R R R R R R R R R E R R R R E E R R R R R R R E E R R R R R R R R R E E E R R R R ` ` ` ` ` ` ` ` R ` ` ` ` ` ` ` T R E R T R E T T 2.2.>.T Q E T <.R E 3.>.Q R T T E ` Q ' 1.[ >.3.[ ' ' <.2.' ' 2.1.>.=.>.1.1.1.2.2.1.1.2.2.2.2.2.2.2.1.1.1.2.2.2.1.1.2.4.4.1.1.4.4.4.2.2.J.I.Q.Y.2.J.K.1.1.Y.P.4.J.J.4.J.J.K.R.1.2.J.P.I.P.J.H.I.I.J.5.J.I.I.Y.I.I.I.I.I.R.I.I.I.I.R.I.I.I.I.R.R.U.I.U.R.U.U.U.U.R.R.R.R.I.U.!.`.`./.!.!.W./.U.J.~.XX`.R.I.~.XX`.(.~.~.'.(.Q.Q.). X^.R.!.(.(.(.'.'.`..X.X'.'.'.(.(.'.(.(. X X(. X X X X X X X X X X X X X X X X X X X X X X X X X X X X X X X X.X.X.X X'..X'.(.'.'.'.(.'.'.'.'.'.'.'.'. X.X'.(.~.'.'.(.'.!.U.!.(.!.R.R.!.(.(.!.~.!.!.~.'.'.~.U.Q.I./.Q.R./.R.R.U.I.I.I.U.P.I.R.I.I.R.R.I.U.U.I.U.U.U.U.U.U.U.U.U.I.P.P.P.P.P.P.Y.I.I.5.2.5.P.J.,.1.5.1.2.P.J.4.,.5.4.4.4.1.H.,.R.5.1.4.J.5.2.2.4.4.4.4.1.1.1.2.1.1.1.1.1.1.1.1.4.2.1.1.1.1.2.4.=.>.1.1.1.2.1.,.>.,.>.,.>.1.=.=.K.4.=.4.P.=.Q ' ' J.>.' ` R 1.J.2.<.` ' [ R R R 2.' ' <.' R ` R T T T T T T R R R R R R R R R R R R R R R R R R R R R R R R R R R R R R R R R R R R R R R R R E R R E E R R R R R R E E R R R R R R R R R R R R R R E E R R R R R R E R R R R R R R R R R R R R R R R R R R R R E E R R R R R E ",
"T T T T T T T T ` ` ` ` ` ` ` ` ` ` T T T T ` ` ` ` ` ` ` ` ` ` R R R R R R R R R R R R R R R R R R R R R R R R R R R R R R E E E E R R R R R R E R R R R R E E R R E E R R R R R R R R R R E E R R R R R R ` R ` ` ` ` ` ' ' [ E T T E ' E R E T <.2.>.R T ` E G.E ` >.T K E K E ` [ ' >.2.1.<.G.<.>.[ 3.H.<.<.2.1.<.>.<.1.1.1.2.2.1.1.2.2.2.2.2.2.2.2.2.2.2.2.2.2.1.1.4.2.1.1.1.1.1.1.1.4.K.P.I.H.J.I.2.2.Y.I.1.H.Y.I.J.1.4.I.2.5.P.I.I.P.J.5.I.I.P.J.P.I.Y.I.I.I.I.I.I.R.R.R.I.I.R.R.I.I.I.R.W.U.I.I.U.I.U.R.I.R.R.R.U.P.I.!..X`.~.'.(.Q.!.~.!.(.'.^.!.~.^.`.'.'.(.(.'.(.!.!.(..X(.~.).(.(.'.(.(.`.`.'.(.(.(.(.'.(.(.(.(.(.^.).).).).).).).).).).).).).).).).).).).).).(.).(.).).(.(.).).).).(.(.(.(.(.(.(.).(.).(.(.'. X'.(.(.(.(.(.(.(.(.).(.'.(. X'.Q.U.!. X^./.R.^. X X^.(.(.~.!.(..X^.U.Q.R.!.!././.R.U.R.P.P.R.R.U.I.U.U.I.U.R.I.I.R.I.U.U.U.U.U.U.U.U.U.U.I.I.U.U.I.I.I.J.P.I.5.J.I.J.2.5.P.J.5.5.2.J.2.>.1.P.H.1.J.5.J.2.3.5.J.J.4.2.1.2.2.2.1.2.2.1.2.1.2.2.2.2.2.2.4.4.2.2.2.2.4.2.>.,.1.2.1.,.<.,.2.1.' <.2.4.' R 1.,.' 1.Y.>.' >.' K.,.R T T 1.4.2.1.R ` >.R P T >.R ` >.` P T R T T T R R R R R R R R R R R R R R R R R R R R R R R R R R R R R R R R R R R R R R R R R R R E E R R E E R R E E R R R R R R R R R R R R R R R R R R R E R R R R R R R R R R R R R R R R R R R R R R R R R R R R R R R R R R R R ",
"T T T T T T T T ` ` ` ` ` ` ` ` ` ` T T T T ` ` ` ` ` ` ` ` ` ` R R R R R R R R R R R R R R R R R R R R R R R R R R R R R R E R R R R R R R R R E R R R R R E E R E E E R R R R R R R R R R E E R R R R R R ` R R R R R R ` ' ' E T Q ' >.` T R ' >.' R T ` ' ' ' ' ' R Q >.H.' <.' >.1.1.1.1.<.<.<.3.<.[ ' >.1.2.2.1.,.1.4.4.1.2.2.1.1.2.2.2.2.2.2.1.1.2.2.2.2.4.2.2.1.2.2.1.1.1.4.5.5.4.,.,.1.K.H.P.I.J.J.J.4.J.H.J.W.I.H.5.Y.Y.I.I.I.P.P.J.J.I.R.P.J.I.I.I.I.I.I.I.I.I.R.I.R.I.I.R.R.I.I.I.R.R.I.I.U.I.I.U.W./.W.U.R.W.I.I./.^./.Q.~.^.~.^..X.X^.Q./.(..X'.~.`.'.(.'.'.(.~.(..X.X'.(..X(.(..X'.'.'.'.'.'.'.'..X'.(.(..XXX.X(. X X X X X X.X.X.X.X.X.X.X.X.X.X.X.X.X.X.X.X.X.X X X.X.X.X.X X X X.X.X.X.X.X.X.X.X.XXXXX.X X(.(..X X X X.X X'.(.(.(.(. X.X^.!.(. X(.^.^.(. X(.!.^.(.~.R.U.!.~./.^.!.!.~.~.!.R.P.R././.!.!./.R.P.R.I.U.U.I.I.R.R.U.U.U.U.U.U.U.U.U.U.U.U.U.U.U.U.I.1.5.Q.R.5.5.P.I.R.R.J.P.P.2.1.H.2.2.J.P.2.5.I.2.1.2.J.P.J.2.1.1.2.2.1.1.1.2.1.2.2.2.2.2.2.2.2.4.2.2.1.1.2.2.4.1.1.4.H.1.=.=.<.4.,.R =.2.1.>.1.1.4.=.' ,.>.>.<.R ,.R ` ' R ' R ` >.T P ` ` ' R R T ' <.[ R R ` R T R ' >.>.' T R R R R R R R R R R R R R R R R R R R R R R R R R R R R R R R R R R R R R R E E R R R R R R R E R R R R R R R E R R E E E E R R R R R E R R R R R R R R R R R R R R R R R R R R R R R R R R R R R R R R R R R R ",
"` ` ` ` ` ` ` ` ` ` ` ` ` ` ` ` ` T T T T T R ` ` ` ` ` ` ` ` ` R R R R R R R R R R R R R R R R R R R R R R R R R R E E E R R R R R R R R R R R R R R R R R R R R R R R R R R R R R R R R R R R R R R R R R R R R T T T T T R ` T T T ' >.' Q T [ ' T Q T [ [ [ E <.>.T E G.J.G.<.' >.3.>.R ` >.<.3.3.<.>.' <.,.1.2.2.1.2.4.4.1.4.4.4.4.1.1.1.1.4.4.4.1.4.4.4.4.4.4.4.1.1.1.1.1.P.R.E.P.K.1.,.4.2.H.I.I.J.J.J.1.Y.2.2.P.W.I.Y.Y.I.I.I.P.J.J.J.P.I.I.Y.P.I.I.P.I.I.I.I.I.I.I.I.I.I.I.R.R.I.I.I.R.R.I.U.R.U.I.U./..X~.W./.^.!.W.!./.U.U.R.!.(.`. X/.W.W./.^.`.`.`.(.'.(.'. X(.). X X(.).(.(.).).(.(.(.(.(.(.(.(.(.(.(.).(.XX;X,X,X,X,X,X,X>X>X,X,X,X,X,X,X,X,X,X,X,X,X,X,X,X,X,X<X,X,X,X,X,X,X,X,X>X,X,X>X>X,X,X,X>X,X<X>XXX(.(.(.(.(.(.).(.(.(.).). X(.(.(.(.(.(.).(. X X X(.(.~.(. X(.R.I./.^.(..X(.!.^. X X!.U./.(.(.!./.!./.I.R.I.I.U.P.P.R.R.U.U.U.U.U.U.U.U.I.U.U.U.U.U.U.U.Y.2.2.I.Q.5.1.P.5.R.P.1.5.Q.P.=.J.R.R.2.<.J.H.>.P.H.5.J.J.2.1.1.2.2.2.1.1.1.2.2.2.2.2.2.2.2.2.2.2.1.1.1.1.1.1.2.4.4.4.4.,.=.=.,.4.1.>.=.,.' =.4.4.J.=.' >.<.1.1.' =.R ,.4.' ' T T T R ` R ` <.' P T ' >.' ` R R ` R T ' ,.,.' T R R R R R R R R R R R R R R R R R R R R R R R R R R R R R R R R R R R R R R R R R R R R R R E E R R R R R R E E R E E E E E E R R R E E E E R R R R R R R R R R R R R R R E E E R R R R R R E E R R R R R R R R ",
"` ` ` ` ` ` ` ` ` ` ` ` ` ` ` ` ` ` T T T T R R ` ` ` ` ` ` ` ` R R R R R R R R R R R R R R R R R R R R R R R R R R E E R R R R R R R R R R R R R R R R R R R R R R R R R R R R R R R R R R R ` R R T R T T R R R R R T T T T T W [ ' ' [ [ E ' E T ' ' ' [ [ [ >.3.<.R ' <.>.2.' <.1.G.>.Q ` 1.G.<.>.<.G.G.H.<.1.2.2.1.1.4.4.1.4.4.4.4.1.1.1.1.4.4.4.1.4.4.4.4.2.4.4.2.1.1.2.4.K.P.K.J.5.,.1.K.1.J.U.Y.2.4.J.H.I.J.H.Y.J.Y.I.Y.J.P.I.I.P.P.P.Y.I.I.I.I.R.I.Y.R.I.I.I.I.I.I.I.I.I.I.I.I.I.I.R.R.U.U.W.!.Q.I.U.!..X~.Q.~.`.~.W.~.(.~.~.Q.!. X'.`.R.Q.~.(.`.(.^.(.(.(.(.(.(.(.)..X(.(.^.(..X.X X.X X'.(.(.(.(. X X.X X(. X-X,X<X,X<X<X<X<X<X<X<X<X<X<X<X<X<X<X<X<X<X<X<X<X<X<X<X<X<X<X<X<X<X<X<X<X<X<X<X<X<X<X<X<X,X<X<X,X-X.X X X.X X(.(.(.(.(.(. X.X X).^.(.(.).^.(. X(.(.(.'.'.(.'.(.!./.^.(.^.'.(./.!. X X(.!.^.(.^./.R././.U.R.I.R.Q.R.I.R.R.U.U.U.U.U.U.U.U.I.I.U.U.I.I.U.U.P.I.J.J.I.I.J.I.J.5.2.P.P.J.P.J.J.5.R.J.=.5.J.' P.J.5.2.2.1.2.J.2.2.2.4.2.1.1.2.2.2.2.2.2.2.2.2.1.1.1.1.1.1.1.1.1.1.4.2.2.,.,.1.,.>.1.,.>.T =.,.1.,.' >.1.>.>.,.,.<.' 4.J.=.<.>.R K ` 2.>.R ' ` T ` ` R R ' ` R R T T E >.>.' T R R R R R R R R R R R R R R R R R R R R R R R R R R R R R R R R R R R R R R R R R R E E R R R R R R R R R R E E R E R E E R E R R E E E E E R R E E R R R R R E R R R R R R E E R R R R R R E E R R R R R R E E ",
"` ` ` ` ` ` ` ` ` ` ` ` ` ` ` ` T T T T T T T T ` ` ` ` ` ` ` ` R R R R R R R R R R R R R R R R R R R R R R R R R R R E R R R R E R R R R R E E R R R R E E R R R R R R R R R R R E R E R R R ` R R R R T T T T R R R R T T T T E 3.<.' [ >.<.3.W T [ <.<.<.' ' ` ` ' T ' 3.<.1.R 2.1.<.>.[ 1.G.<.[ E <.2.H.H.>.,.1.1.1.1.1.1.2.1.1.4.4.1.1.4.4.4.4.1.1.1.1.4.1.2.2.4.2.1.1.4.H.1.4.1.1.4.1.1.R.J.J.J.P.J.H.J.Y.R.R.I.J.H.Y.I.J.H.P.I.R.I.I.I.R.I.I.I.I.R.I.P.R.I.I.I.I.I.R.I.I.R.I.I.I.R.R.R.I.U.R.!.(.~.R.R.~././.!.^.^.W.W.(..X X.X(.^..X(.'.`.^.(. X.X'.^.~.'.(.~.~.(.).^.(.(.(.^.(.-X>X-X-X>X>X;X-X-X;X>X>X-X-X-X-X-X>X>X;X;X;X;X;X;X;X;X;X,X,X,X,X;X;X;X;X,X,X,X,X;X;X;X;X<X<X,X,X,X,X,X,X>X,X,X>X>X,X,X>X;X;X>X;X;X;X-X-X,X>X;X;X;X;X;X;X-X.X X(.^.^.).).). X X(.(.(. X X(.(.(.^.(.`.(.~.(.(.R./.(.(.(.^.(.!././.!.!.R.U.U.I.Q.^.!.R.U.U.U.U.U.U.U.U.U.U.I.U.U.U.I.P.U.U.I.Q.R.P.P.R.Q.R.R.>.1.!.I.>.J.R.I.1.J.I.5.5.5.J.5.4.2.2.1.1.5.I.2.1.2.P.J.2.1.2.1.1.1.1.1.1.1.1.2.2.1.1.1.1.2.2.2.2.2.1.2.1.1.1.T L >.,.1.>.4.,.1.2.<.2.2.>.' E 2.1.' 1.1.>.2.2.E R ' G.3.E T T >.<.' T ' 3.1.' R R T T R ' ' =.R R R R R R R R R R R R R R R R R R R R R R R R R R R R R R R R R R R R R R R R R R R E R R R R R R E E R R R R R R R R R R R R R R R R R R R R E E R R R R E E R R R R R R R R R E E E R R R R R E E R R R R E ",
"` ` ` ` ` ` ` ` ` ` ` ` ` ` ` ` T T T T T T T T ` ` ` ` ` ` ` ` ` ` R ` R ` R ` R ` R ` R ` R R R R R R R R R R R R R E R R R R E R R R R E E E R R R R E E R R R R R R R R R R R E E E R R R R R R R R T T T T T T T T R T T T T G.<.Q T >.3.G.' W >.3.G.G.' E R R [ Q T H.G.` K <.` Q [ 3.G.<.[ <.<.G.2.1.J.1.1.2.2.1.1.4.4.1.1.1.1.1.1.1.2.4.4.4.1.1.1.1.1.1.1.2.4.2.1.1.4.J.<.4.H.J.P.J.J.!.W.H.1.Y.W.Y.J.Y.I.W.W.J.H.R.W.J.J.P.I.I.P.P.I.R.I.I.I.I.R.I.P.R.I.I.I.I.I.R.I.I.R.I.P.I.R.W.R.I.U.R.~. X(.W.W.~.I./.(..X~.I.W.XX(.^..X(.^.(.~.`.'.(.(.`.^.~.(..X'.'.~.~.(.^.~.).).).~.(.-X<X<X,X,X,X,X,X,X,X<X<X,X<X,X,X<X<X,X>X,X,X,X,X,X,X,X,X<X<X<X<X<X<X<X<X<X<X<X<X<X<X<X<X<X<X<X<X<X<X<X<X,X<X<X,X,X,X,X,X<X,X>X,X<X<X<X,X<X<X,X>X,X,X,X,X,X-X|. X).!.).(.(. X X X X X`.^.`.'. X X`.`.`.'.(. X!.!.(.^. X X^.U.I.^. X^.R.P.I.I.!. X(./.U.P.U.U.U.U.U.U.U.U.I.U.R.U.I.P.I.U.U.P.I.R.J.P.R.P.P.2.5.R.2.1.R.P.U.R.I.5.P.Y.5.W.5.J.P.P.5.2.H.U.3.1.5.R.I.2.,.1.1.1.1.1.1.1.2.1.4.2.1.1.1.2.4.2.2.4.4.,.,.4.4.2.>.L >.,.4.2.4.E ' 2.2.2.H.H.2.' H.1.R >.<.<.J.2.T >.` >.1.' T Q <.1.' K E 1.>.Q R R R T L T =.,.R R R R R R R R R R R R R R R R R R R R R R R R R R R R R R R R R R R R R R R R R R R E R R R R R R E E R R R R R R R R R R R R R R R R R R R R E R R R R R E E R R R R R R R R R E E E R R R R E E E R R R R E ",
"` ` ` ` ` ` ` ` ` ` ` ` ` ` ` ` R ` ` ` R R R R R R R R R R R ` T ` T ` T ` T ` T ` T ` ` ` T T ` ` ` ` ` ` R R R R R E R R R R E E R R R E E E R R R R R R R R R R E E R R R R R R R R R R R R R ` R K K T R R ` T T T ` R P 5.[ E E T T T T 1.E T E <.3.>.` ' [ 3.G.>.<.>.' <.G.G.3.3.3.>.>.G.,.H.<.' 1.H.1.1.2.2.1.1.2.2.2.2.2.2.4.4.2.2.2.2.4.2.H.H.,.1.4.4.H.I.5.>.Y.Y.<.J.J.2.J.J.G.K.I.G.1.I.R.5.5.I.R.P.2.5.J.P.I.I.I.I.I.I.I.I.I.I.I.I.E.I.P.I.I.I.I.I.I.I.R.R.I.R.R.R.I.!.~.!.Q.R.R.!.~.).(.^.~.~.`..X'.(.W.R.(..X'.^.I.R.^. X'.`.`.'.'.^.(.'.'.'.'.`.(.(.^.(..X;X>X;X>X>X>X,X;X1X1X1X;X,X,X,X<X<X<X,X>X>X>X>X>X>X>X>X;X;X>X>X>X>X>X>X,X,X,X,X,X,X,X,X<X<X,X,X,X,X<X<X,X,X,X,X,X,X,X,X,X,X,X,X,X,X,X,X,X,X,X,X,X,X,X,X;X;X,X,X,X>X>X>X>X;X<X;X).E.R.^.>X;X.X^. X X(. X`.`.'..X.X`.^.^.^.~.(.'.(.!.^.'.(.^.`.'.~.~.^.~./.~.(.~.Q.!.!.Q.W.!.R.I.Q.R.P.R.Q.R.I.R.R.R.I.I.I.I.R.R.E.I.I.I.I.P.P.I.U.I.Y.5.J.U.J.>.5.I.J.3.I.J.>.1.E.R.2.=.J.H.1.,.2.1.<.1.2.1.2.2.1.2.H.2.2.2.2.2.2.2.2.4.1.1.1.1.2.2.2.2.H.4.4.1.,.1.1.=.' 1.4.1.4.1.' ` <.R ' J.K.,.R T >.H.>.E R ' ,.' T R T =.=.L T =.4.R K T E R T T T ' >.' T T R R T T T T T T T T R R R R R R R R R R R R R R R R R R R R R R R R R R E E R R R R E E E R R R R E R R R R R R R R R R R R R R R R R R R R R R R R R R R R E R R R R R R R E E R R R R R R E E R R ",
"` ` ` ` ` ` ` ` ` ` ` ` ` ` ` ` ` ` ` ` R R R R R R R R R R R ` T ` ` ` ` ` ` ` ` ` ` ` ` ` ` ` ` ` ` ` ` ` R R R R R E R R R R R E R R R R E E R R R R R R R R R R E E R R R R R R R R R R R R R T R ` ' ` ` ' K R ' T T T T 2.<.Q Q E >.<.[ >.T K K T E T T Q 3.3.G.3.3.[ T >.G.G.3.<.>.E E >.1.2.=.T >.1.1.2.2.1.1.1.2.2.2.2.2.2.4.4.2.2.2.2.4.1.4.H.4.4.4.,.J.I.Y.1.J.I.H.Y.K.H.J.K.G.J.K.H.2.P.P.5.H.I.I.J.5.J.P.P.I.I.I.I.I.I.I.I.I.I.I.I.I.I.I.I.I.I.I.I.P.P.P.Y.I.I.I.P.J.!.`.`.!.P.I.(.(.(.(.).~.!.~.).(.^.Q.R.~.'.(.^.U.W.~.^.(.^.`.(.'.(.'.'.(.(.^.!.^.^.^.(..X;X,X>X,X,X>X,X<X1X1X1X;X:X:X;X;X;X>X>X,X,X,X,X,X,X,X<X<X<X<X<X<X,X<X,X<X,X<X,X<X,X<X,X,X<X,X,X,X,X<X,X<X<X<X<X<X<X<X<X<X<X<X<X<X<X<X<X<X<X<X<X<X<X<X<X<X<X<X,X,X>X>X;X:X:X1X;X(.!.~.(.;X-X X!.^.^.~.^.~.~.(.(.`.`.`.`.`.(.`.'.(.!.!.^.`.(.`.^.W.Q.^.`.(.'.'.^.Q.R.R.P.~.`.~.I.I.I.I.R.I.I.I.I.I.I.P.I.I.I.R.R.I.I.I.I.U.I.P.I.I.I.P.J.I.J.5.P.R.U.J.=.P.Y.5.5.P.P.5.4.J.R.K.1.1.4.2.1.H.1.1.2.1.3.H.2.2.2.2.2.2.2.2.2.2.1.1.1.2.2.2.2.2.1.2.2.,.1.1.>.,.4.1.,.4.1.>.=.>.R ' 4.4.=.R R ,.1.E Q T ' ,.>.` R R 1.1.T T =.1.' R T T R R T ' <.,.=.R T R T T T T T T T T T R R R R R R R R R R T T R R R R R R R R R R R R R E E E R R R R R E E R R R R E R R E R R R R R R R R R R R R R R E R R R R R E R R R R E E R R R R R R E E E R R R R R E R R R ",
"` ` ` ` ` ` ` ` ` ` ` ` ` ` ` ` R R ` ` R R R R R R R R R R R ` ` ` ` ` ` ` ` ` ` ` ` ` ` ` ` ` ` ` ` ` ` ` R R R R E E R R R R R R R R R R R R R R E R R E E R R R R E R R R R R R R R R R R R ` P R <.1.' ` >.T R R K ` >.' ' [ K E <.1.>.T T >.<.>.` R ` ' [ 3.>.<.3.G.[ T [ 3.G.H.G.>.E W [ 2.H.<.E >.1.1.H.2.2.1.1.2.2.2.2.2.4.4.4.2.2.2.2.4.1.1.4.4.4.4.1.R.J.P.J.2.2.1.J.3.3.J.J.G.K.T.I.J.J.J.H.J.I.I.J.J.J.P.I.I.I.I.I.I.I.I.I.I.I.I.I.I.I.I.I.I.I.I.P.I.I.I.I.W.W.Q.Q.R.!.(.'.~.I.R.'.(.(.(.(.~./.Q.Q.'.'.~.!.(.'.'.`.!.^.'. X'.'.'.'.'.(.(.(.).(. X^. X X X X-X;X,X,X,X,X,X,X,X,X<X<X,X;X>X,X>X>X,X>X>X>X;X;X;X:X:X:X;X>X,X>X;X;X;X;X>X>X;X;X;X;X>X;X<X<X<X<X<X<X<X<X;X;X;X;X;X;X;X;X;X;X;X;X;X;X;X;X;X;X,X;X;X;X;X;X<X<X,X,X>X>X>X>X;X;X<X<X-X.X-X-X;X:XXX X.X.X.XXX'..X'.(.^.`.'.(..X'.'..X'.~.~.).`.(.(.~.R.R.^..X!.!.~.(.~.!.Q.R.!..X`.I.P.I.I.Q.R.R.R.I.I.I.I.R.I.I.I.I.I.I.I.I.U.I.I.I.I.I.P.J.U.J.P.R.Y.J.P.J.J.P.P.J.J.H.J.K.1.K.J.1.1.1.1.1.J.1.1.2.2.2.2.1.2.2.4.4.4.1.1.1.2.2.1.1.2.2.1.2.1.1.1.2.1.,.1.1.2.2.>.>.4.J.1.1.>.=.=.1.1.=.' >.1.,.` R ' =.>.' R ` T ' =.L L T =.' ' E T T R T ` >.>.' R R R R R R R R R R R R R R R R R R R R R R R R R R R R R R R R R R R R R R R R R R E E R R R R R R E E R R E E R R E E R E E R R E R R E E R R R R R E E E R R R E R R E E R R R R R R R R R R E E R R ",
"` ` ` ` ` ` ` ` ` ` ` ` ` ` ` ` R R ` ` R R R R R R R R R R R R ` ` ` ` ` ` ` ` ` ` ` ` ` ` ` ` ` ` ` ` ` ` R R R R R R R R E E R R R R R R R R E E E R R E E E R R R R R R R R R R R R R R R R ' T R <.1.` T ` R R T R >.2.>.T T Q E <.H.>.T ` <.H.H.>.' <.J.K.[ E ' <.G.<.' <.<.G.J.G.3.[ [ <.2.H.2.1.2.H.2.4.2.2.1.1.2.2.1.1.2.2.4.4.4.2.2.2.2.2.4.1.,.1.H.K.2.1.5.2.2.J.5.Y.2.J.Y.J.2.K.T.J.Y.J.J.P.P.P.P.P.P.Y.I.I.I.I.I.I.I.I.I.I.I.I.I.I.I.I.I.I.I.I.I.P.R.!.!.W.~.(.`.'..X~.I.R.~.(.(.(.(.(.(.(.~.!.Q.Q.'..X'.(.'.'.'..X(.(.'.'.'.(.(.(.(.(..X X.X;X,X;X>X;X;X-X;X;X;X;X;X;X,X,X,X,X<X<X<X,X<X,X>X>X>X>X,X,X,X,X,X;X;X;X<X<X,X<X>X>X,X<X,X<X<X<X<X<X,X<X<X<X<X<X;X1X1X1X<X<X<X<X<X<X<X<X<X<X<X<X<X<X<X<X<X<X<X<X<X<X,X>X>X>X>X>X>X>X;X,X<X;X<X<X>X;X>X,X<X<X;X;X;X,X<X<X<X<X>X.X`..X.X(.`.`.`.'..X'.(.'.^.(.'.(.!.!.^.`.I.P.R.(.'.(.(.(.R.~.!.R.R.R.I.I.R.R.R.U.I.R.R.I.R.I.I.I.I.I.I.I.U.I.I.I.U.I.P.Y.I.I.U.Y.3.4.U.Q.J.J.J.J.J.J.J.J.1.,.1.2.4.1.2.H.Y.4.2.H.J.2.1.2.1.1.4.4.2.1.1.1.2.2.2.2.2.2.1.1.4.1.1.4.1.>.<.1.1.1.' ' 1.4.,.,.,.1.>.=.>.,.1.1.>.=.=.,.<.=.' T >.4.=.T T ' <.R T R >.,.' T T R T R ' R T T R R R R R R R R R R R R R R R R R R R R R R R R R R R R R R R R R R R R R R R R E E R R R R R R R R R R E E R E E E E E E R R E E E E E R R R R E E E R R R R R R R E E R R R R R R E E R R R R R R ",
"` ` ` ` ` ` ` ` ` ` ` ` ` ` ` ` R R R R R R R R R R R R R R R R T T ` ` R R R R T T ` ` ` ` T T ` ` ` ` ` ` R R R R R R R R E E R R R R R R R R R R R R R R R R R R E E E E R R R R R R R R R R ` R R ' ' R T T T T ` >.<.>.' R >.>.T ' J.>.Q ' E ' ' T E 1.J.H.[ ' ' ] >.3.<.1.>.<.1.1.1.>.>.3.1.2.2.2.H.4.1.1.2.2.2.2.1.1.1.1.4.4.2.2.4.4.4.4.1.4.4.1.1.1.J.P.>.J.J.<.J.!.Y.J.J.J.K.K.J.Y.Y.J.W.J.P.R.I.K.P.I.I.I.I.I.I.I.I.I.I.I.I.I.I.I.I.I.I.R.I.I.I.E.I.P.I.~.~.!.!.~.(..XXX~.P.J.!.XX.X(.~.(.(.'.(.^.~.~.(.'.'.(.(.(.(..X(.(.).).^.~.~.^.!.).).^.(.;X<X,X<X,X,X>X>X>X;X;X;X;X;X,X,X,X,X<X,X,X,X,X>X>X>X>X,X,X,X,X>X>X;X;X,X,X>X>X>X>X,X,X,X,X,X,X,X<X,X,X,X,X,X>X,X,X,X,X,X,X,X,X,X,X,X,X,X,X,X,X>X>X>X>X,X,X,X,X>X>X>X>X,X,X,X>X>X>X,X,X>X:X>X>X;X;X>X>X<X,X<X<X<X<X<X<X<X<X>X.X(.'.'.~.(.(.~.^. X X(..X(.'.'.`.`.(.(.(.!.R.Q.'.`.~.~.~.Q.W.U.Q.~.!.R.I.I.U.U.I.I.R.I.P.R.R.I.I.I.R.I.I.U.I.I.I.I.I.I.P.I.U.I.Y.I.P.J.I.P.5.2.H.P.I.J.1.K.4.4.K.K.4.4.H.Y.H.2.J.Y.H.1.1.1.1.2.1.1.1.1.1.2.2.2.2.1.1.1.2.2.1.1.4.1.>.>.1.1.1.=.=.1.<.R T ,.4.>.T ' 1.4.1.T T >.1.,.=.R T 1.J.>.T T =.2.=.T R >.2.>.R ` =.T R R T T T T T R R R R R R R R R R R R R R R R R R R R R R R R E R R R R R R R R R R R R R R R R R R R R R R R R R E E R R R R R R R R R R R R R R R R R R R R E E R R R R R R E R R R R R R R E R R R R R R R ",
"` ` ` ` ` ` ` ` ` ` ` ` ` ` ` ` R R R R R R R R R R R R R R R R T T ` ` R R R R T T T T ` ` T T ` ` ` ` ` ` R R R R E E R R E E R R R R R R R R R R R R R R R R R E E E E E R R R R R R R R R R T T T T T T T R ' T T >.>.` ` Q 3.H.` E >.T K [ ' E T R [ 1.<.[ 3.<.<.E ` 1.3.2.<.<.<.>.<.1.<.3.1.1.2.2.2.2.1.1.2.2.2.2.1.1.1.1.4.4.4.2.4.4.4.4.4.4.1.1.J.J.J.K.5.J.H.2.R.I.1.J.Y.2.G.I.R.J.J.W.R.J.P.Q.I.K.I.I.I.I.I.I.I.I.I.I.I.I.I.I.I.I.I.I.I.R.I.P.I.R.E.E.P.(.(.!.!.!.!.~.Q.~.~.Q.!.'.'.(.(.(.(.(.`.`.`.(.(.'.'.'.'.(.(.XXXXXXXX.X.X.X.X.X X X X(. X-X>X;X>X;X>X>X>X>X,X<X;X;X;X,X,X,X,X,X,X<X<X,X,X<X<X<X,X,X,X,X>X>X>X>X<X<X,X<X,X,X,X<X,X,X,X<X,X<X,X,X,X,X,X,X,X,X,X,X,X,X,X,X,X,X,X,X,X,X,X,X,X,X,X,X,X,X,X,X,X,X,X,X<X<X<X,X,X,X>X>X,X>X>X>X>X>X,X;X>X>X>X<X>X>X,X>X:X;X-X.X.XXXXX.X-XXX(.)..X.X(..X X X(.(.'.'.(.`.'.~.(.'.(.!.W.W.'.!.Q.!.~.!.Q.Q.Q.Q.Q.U.R.Q.Q.R.R.R.I.I.R.R.I.I.U.U.U.U.I.I.I.I.U.U.I.I.R.5.3.I.R.J.2.J.I.R.P.1.R.P.P.K.J.K.J.,.Y.J.2.H.J.2.1.2.1.1.2.2.1.1.4.4.2.2.2.2.1.2.1.2.,.1.1.1.4.1.1.4.4.4.,.1.J.1.R R 1.J.<.T =.4.4.1.=.` ,.2.<.>.' ` =.=.R ' R T =.' T T ' >.` T ' >.T T T T R R R R R R R R R R R R R R R R R R R R R R R R R R R R E E R R R R R R R R R R R R R R R R R R R R R R R R E E R R R R R R R R R R R R R R R R R R R R R R R R E E R R R R R R R R R R E E R R R E R R ",
"` ` ` ` ` ` ` ` ` ` ` ` ` ` ` ` R R R R R R R R R R R R R R R R T T R R R R R R T T T T ` ` ` T ` ` ` ` ` ` R R R R E E R R R R E E R R R R E E R R R E R E R R R R R R R R R R R R R R R R R R T T T T T T E ' 1.E K ' ' E ' K R ' E E R T [ <.>.>.<.3.3.>.' E [ <.G.>.[ 2.3.1.H.3.>.[ 1.2.2.1.2.2.2.2.2.1.1.2.1.1.1.1.1.1.1.1.4.4.2.2.2.2.2.2.K.K.4.4.J.J.J.J.H.<.1.J.U.J.2.U.I.J.J.I.Y.5.H.I.I.5.J.R.I.P.R.I.I.I.I.I.I.I.I.I.I.I.I.I.I.I.I.I.P.I.I.P.I.!.~.!.P.~.'.~.(.).Q.R.J.~..X'.(.~.!.!.'.(.(.(.`.'.'.'.`.'.'.'.'.(.(.-X,X,X>X>X,X;X>X;X,X>X>X>X>X,X<X,X;X-X;X>X>X;X>X,X,X,X,X;X,X,X,X,X<X<X<X<X1X;X1X1X<X<X<X<X<X1X1X1X<X1X<X1X<X1X<X1X<X1X<X1X<X1X<X<X,X,X,X,X;X;X;X;X<X<X<X<X<X<X<X<X<X<X<X<X<X<X<X<X<X<X<X<X<X<X<X<X;X;X<X<X,X,X,X>X<X,X<X<X,X,X,X;X>X>X,X<X>X>X,X;X,X,X,X,X,X<X<X<X<X,X.X)..X.X(. X(. X(.(.(.(.^. X'.(.'.'.~.!.~.~..X'.(.~.W.W.Q.Q.!.(.(.Q.I.Q.~.(.Q.R.I.I.R.R.R.I.U.U.U.U.I.I.I.U.R.U.U.U.Y.2.J.W.U.P.J.J.J.P.P.J.J.H.K.K.H.J.H.,.Y.Y.H.1.2.2.2.J.H.H.4.2.1.1.4.4.1.1.2.2.2.2.2.2.,.2.1.1.4.4.1.2.2.4.1.4.J.2.>.>.4.J.1.>.1.,.>.1.J.,.4.2.<.1.1.>.R R ' 1.,.` =.' T E ' R T ' =.R T L T T ' ' ' ' R R R R R R R R R R R R R R R R R R R R R R R R E E R R R R R R R E R E R R R R E E R R R R R E R R R R R R R R R R E R E R R R R R E E R R R R R R R R E R R R R R R R E R R R R R R R E E R R ",
"` ` ` ` ` ` ` ` ` ` ` ` ` ` ` ` R R R R R R R R R R R R R R R R R R T R R R R R T T T T ` ` ` T ` ` ` ` ` ` R R R R R E R R R R E E R R R R E E R R R E E E R R R R R R R R R R R R R R R R R R R R E E T Q E >.1.[ ` ' Q K [ E T Q T >.' >.H.' T ' 2.K.1.T Q ' K ] H.G.3.H.3.<.H.1.' E <.H.2.1.1.1.2.2.2.1.,.,.1.1.1.1.1.1.1.1.4.4.2.2.2.2.2.2.P.R.K.2.2.1.H.R.2.H.I.H.1.I.I.H.2.Y.I.J.H.P.I.I.I.1.2.I.I.I.R.I.I.I.I.I.I.I.I.R.I.I.I.I.I.I.I.I.P.I.I.P.R.~.(.(.5.!.(.(..X.XQ.I.P.!.'..X.X~.U.R..X'.(.(.(.`.'.'.^.(.).).(.^.(.XX,X,X,X,X,X<X,X>X>X;X>X,X>X>X>X;X,X>X;X,X;X-X-X>X>X>X,X,X;X;X;X;X1X;X1X:X%X%X%X%X%X%X%X%X%X%X%X%X%X%X%X%X%X%X%X%X%X%X%X%X%X%X%X%X%X%X%X%X%X%X%X%X%X%X%X%X%X%X%X%X%X%X%X%X%X%X%X%X%X%X%X%X%X%X%X%X%X%X:X;X<X<X<X,X>X>X,X>X;X;X>X;X;X-X,X<X>X,X<X>X;X;X;X,X,X>X>X<X<X<X(.!.).).~.(.~.(. X(. X).^.(.(.(.(.'.~.~.'..X~.'..X~.I.Y.R.R.~.'.'.Q.P.I.(.XXQ.R.I.I.R.R.R.I.U.U.U.U.I.I.I.U.I.P.I.P.Y.R.Q.Y.I.I.I.P.1.1.P.R.1.=.1.K.J.1.4.K.I.I.H.,.1.2.J.Y.K.J.H.2.1.1.1.4.1.1.1.1.2.2.2.2.1.H.2.,.4.H.1.1.1.4.1.1.2.>.' >.1.4.1.1.2.' T >.J.<.2.1.<.J.4.,.T R >.H.1.>.<.' R >.<.R T ,.,.T ' R T R E E R R R R R R R R R R R R R R R R R R R R R R R R R R R R R R R R R R R E E E R R R R E E E R R R R E R R R R R R R R R R E E E R R R R R E E E R R R R R R R E E R R R R R R E E E R R R R R E R R R ",
"` ` ` ` ` ` ` ` ` ` ` ` ` ` ` ` R R R R E E R R R R R R R R R R ` ` ` ` ` ` ` ` R R R R R R R R T T ` ` ` ` R R R R R R R R R R E R R R E E E R R R R R E E E R R R R R R R R R R R R ` R T ' 1.' R T ` R T ` <.G.E T T Q <.1.J T T T E 3.2.' <.T [ 1.H.H.<.` E <.<.<.<.3.2.1.[ 3.3.2.1.2.2.2.2.2.2.4.4.4.4.4.4.4.4.1.1.4.4.4.4.2.1.4.K.J.,.1.4.W.K.1.2.J.H.4.K.3.J.J.J.J.J.5.P.U.Y.I.Y.2.2.Y.I.I.I.I.I.I.I.I.I.I.I.I.I.I.I.I.I.I.R.I.I.R.R.I.I.!.!.I.P.R.(.(.!.I.(.'.(.(.!.Q.(.(.~.^.'.(.(.'.(.'.'.`.`.'.'.'.'.).(.-X;X-X-X;X-X<X,X,X,X>X>X>X<X>X,X-X,X-X<X;X<X;X;X:X:X,X,X;X<X>X>X>X<X<X<X<X<X1X1X1X3XxXxXxXxXxXxXxXxXxXxXxXxXxXxXxXxXxXxXxXxXxXxXxXxXxXxXxXxXxXxXxXxXxXxXxXwXxXxXxXxXxXxXxXxXxXwXxXwXxXwXxXwXxXwXxXwXxXwXxXxXxXxX%X-X1X;X,X,X,X;X1X1X:X<X<X;X>X;X>X;X;X,X,X;X;X;X>X>X,X,X<X>X,X;X-X-X-X-X-X-X-X).)..X(.(. X(.^.(.(.(.(.~.).(.(.^.~.~.(.^.~.!.'.'.(.!.Q.~.'..X(.Q.R.I.I.R.R.I.I.R.R.U.U.U.I.U.U.U.I.I.I.I.U.U.U.U.U.U.I.I.J.J.Y.Y.5.H.4.K.W.1.>.P.U.J.J.H.5.K.J.4.5.5.1.1.4.4.1.4.4.2.1.1.1.1.2.2.2.2.1.1.2.2.2.2.2.2.1.1.1.1.4.,.4.1.>.>.>.>.4.4.>.T T <.1.>.=.>.=.>.=.R ' T R T R ' ' T L T >.4.=.T T T R K ,.>.R Q T ` R R R R R R R R R R R R R R R R R R R R R R R R R R R R E E E R R R E E E R R R E E E R R R R E E R R R R R R R R R E R R R R R E R E E R R R R E E R E R R R R R E R R R R E E R R ",
"` ` ` ` ` ` ` ` ` ` ` ` ` ` ` ` R R R R E E E R R R R R R R R R ` ` ` ` ` ` ` ` R R R R R R R R T T R R ` ` R R E E R R R R E E R R R R R R E E R R R R E E R R R R R R R R R R =.R R R T T ' 1.[ R E ' ` T T E T T E >.>.[ ' ' [ [ <.>.' ` T <.<.<.1.3.3.<.<.<.H.2.1.3.2.1.>.[ 3.3.2.2.2.2.2.1.2.2.2.2.4.4.4.4.4.4.1.1.4.4.4.4.4.1.1.4.J.J.H.1.H.2.1.H.K.J.J.P.2.J.P.I.I.J.5.J.R.P.I.I.2.2.P.P.I.I.I.I.I.I.I.I.I.I.I.I.I.R.I.I.I.I.I.I.I.I.P.P.!.(.~.(.'.!.R.(.(..X'.~.!.I.I.~.'.(.'..X'.'..X.X'.'.'.'.`.(.(.(.).(.-X,X>X,X,X,X>X>X;X;X;X;X>X,X>X,X>X<X-X>X:X;X,X<X<X<X<X;X:X1X1X1X:X1X1X;X1X1X1X4X4XxXLXLXKXKXHXHXHXHXHXHXHXHXHXHXHXKXHXHXHXHXHXHXHXHXHXHXHXHXHXHXHXHXKXKXKXKXKXKXKXKXHXHXHXHXHXHXKXKXHXKXKXHXHXHXHXHXHXHXKXKXJXPX$X%X1X1X1X1X1X1X:X%X-X:X>X>X>X>X,X;X>X>X;X>X,X,X,X,X,X<X<X<X<X<X<X<X<X<X<X<X-X(.).(.).).(.^.^.).(.(.(.(.(.(.'.`.(.(.`.`.`.~.'.`.(.(.'.(.Q.J.!.'.'.Q.P.P.I.R.I.I.P.P.I.I.I.I.U.U.I.I.I.I.U.U.I.I.I.I.I.P.J.H.P.J.2.5.K.P.W.H.1.J.P.P.P.5.1.4.4.1.5.P.K.1.1.4.1.2.2.2.1.1.4.4.2.2.2.2.1.1.2.2.1.2.2.2.1.1.1.1.,.>.4.4.1.2.1.1.1.1.>.T T =.>.' H.4.=.` T L ` ' =.' =.1.1.=.' >.R =.' =.' R ' ` ' =.' T T R R R R R R R R R R R R R R R R R R R R R R R R R R R R R R R E R R R E E R R R R E R E R R R R E E R E R R R R R R R E E R R R R E E E E R R R R E E E E R R R R E E R R R R E E R R ",
"` ` ` ` ` ` ` ` ` ` ` ` ` ` ` ` E E R R R R R R R R R R R R R R R R R R E R R R R R R R R R R R T T T T T T R T E E R R R R R E R R R R R R R R R R R R R R R R R E R E E R E R ' R T R R T R =.' T R ' E T E E Q E ' >.1.R T H.<.E E ' R T T ` J.H.H.1.>.[ <.G.2.<.<.2.2.<.' ' 1.1.1.1.1.1.1.1.2.2.2.2.2.2.1.1.4.4.1.4.4.4.4.4.4.4.4.4.4.K.K.1.,.,.1.J.K.J.H.I.J.J.P.U.W.J.5.J.W.Y.I.R.P.J.I.I.I.I.I.I.I.I.I.I.I.I.I.I.R.R.I.I.I.I.I.R.R.R.I.I.Q.'.(.(.XX!.R..X.X.X(.).~.U.R.(.(.).(. X(.).'.'.~.(.'.'.(.).).).(..X-X,X,X,X,X>X,X,X,X;X;X;X,X,X-X,X>X<X>X,X<X<X:X:X;X:X%X%X%X%X%X%X%X%X%X%X%X%X+X+X+XwXKXSXNXNXNXNXNXNXNXNXNXNXNXNXNXNXNXNXNXNXNXNXNXNXVXVXNXNXNXNXNXNXNXNXVXVXNXNXNXNXNXNXNXNXNXNXNXNXNXNXNXNXNXNXNXNXNXNXNXNXFXAX#X+X%X%X%X+X+X%X%X%X1X:X-X,X;X>X>X>X>X;X,X>X>X>X>X>X,X,X,X,X,X,X,X,X>X>X,X,X-X(.).).~.~.(.^.).).^.^.).).).^.'.`.(.(.'.'.`.(.(.(.'..X.X'.Q.J.Q.XXXX!.I.I.I.I.R.U.P.P.U.R.R.U.U.U.I.I.I.I.I.U.I.I.I.I.I.P.Y.J.U.I.2.H.I.Y.P.H.J.J.5.P.Y.5.1.4.4.,.4.I.P.2.1.4.2.2.2.2.4.4.4.4.2.2.2.2.1.1.2.2.1.1.2.2.2.2.1.1.,.>.4.2.1.4.1.4.2.2.,.=.=.<.,.>.4.4.=.` ` T R <.>.` R >.>.R R =.R R T ` ` T R T R >.<.` T T R T E E E E E E E E E E E E E E E E E E E E E E E E R R R R R R R R R R R R R R R R E E R R R R R R E E R R R R E E E E R R R R R E E R R R R R R E E R R R R R E E R R R R E R R R ",
"` ` ` ` ` ` ` ` ` ` ` ` ` ` ` ` E E R R R R R R R R R R R R R R R R R R E R R R R R R R R R R R T T T T T T T T E R R R R R R E R R R R R R R R E R R R R R R R R E E E E E E R R T R >.>.R T T E Q R ` T Q ` [ <.<.T T ' Q Q 2.<.Q R <.>.>.<.>.>.' ' >.<.3.H.J.' ' >.1.2.1.<.>.1.1.1.1.1.1.1.1.2.2.2.2.2.2.1.1.4.4.1.4.4.4.4.4.1.4.K.K.4.4.J.4.2.4.4.J.J.1.4.P.P.H.J.I.I.J.J.I.P.H.J.I.I.I.R.I.I.I.I.I.I.I.I.I.I.I.I.I.I.I.I.I.R.R.R.!.!.!.!.!.!.'.~.I.!.(.~.~./.^.(.'.(.~.~..X X X X X(.(.'. X)..X-X;X;X-X-X-X-X-X;X,X,X>X;X;X<X<X<X,X;X;X;X;X,X<X>X,X>X;X;X:X;X:X<X1X$XUXAXIXxXxXxXxXxXxXxXxXvXxXqXGXHXSXNXNXZXZXZXZXBXBXBXNXBXBXBXBXBXBXBXBXBXBXBXBXNXNXNXNXBXNXBXNXNXNXNXNXBXZXBXNXBXZXBXBXBXBXBXBXBXBXBXBXBXBXBXBXBXBXNXNXSXFXxXxXxXvXvXvXvXAXAXPXIX3X-X<X;X<X>X>X>X,X<X,X,X,X,X,X<X<X<X<X;X;X,X,X,X,X>X>X<X-X-X-X-X-X;X-X-XXX(.).(.(.(.^.(.(.(.(.`.`.`.(.(.'.'.(.~.~.^.(.!.'.~.Q.~.~.R.P.Q.U.I.I.U.R.R.U.I.I.I.I.I.I.I.I.U.U.I.I.I.I.I.P.R.W.J.J.I.P.H.J.Q.P.2.H.J.J.5.J.J.4.4.5.4.5.K.K.H.4.4.2.4.4.4.4.2.2.2.1.1.1.2.2.1.1.2.2.2.2.2.2.4.,.2.<.>.,.>.1.4.4.4.1.1.1.2.1.' <.<.,.1.' T =.J.>.R ' ' T T >.J.=.Q R =.>.=.T T ' ' ` R ' >.E E E E E E E E E E E E E E E E E E E E E E E E E R R R R R R R R R R R R R R R R R E R R R R R R E E R R R R E E R R R R R R R R R R R R R R R R R R R R R R R R R R R R R R R R ",
"` ` ` ` ` ` ` ` ` ` ` ` ` ` ` ` E R R R R R R R R R R R R R R R R R R R R R R R R R R R R R R R T T T T T T T T R R R R R R R R R E R R R R R R E E R R R R R R R R E E E E R R R R ' 1.1.=.R T T T ' [ Q K E [ G.3.E K Q E E [ E K ' H.3.<.H.2.G.' T [ 3.H.1.E ' <.<.<.1.H.J.1.1.1.1.1.1.1.1.1.2.2.2.2.2.2.1.2.4.1.1.4.4.4.4.4.4.1.K.R.H.1.2.2.P.P.J.J.H.1.H.Q.J.2.2.Y.I.P.Y.W.5.2.5.P.P.I.I.I.I.I.I.I.I.I.I.I.I.I.I.I.I.I.I.R.R.I.R.!.(.(.(.'.'.'.~.P.I.(.(.R.5.R.^.(.(. X(.(.(.(.(.).(.(.(.(.(.XX>X<X<X,X,X,X,X<X<X<X<X,X;X,X;X;X;X;X;X:X;X;X>X,X:X<X<X1X1X:X:X%X%X_.+XwXLXJXJXHXHXHXHXHXHXHXFXHXFXFXDXnXNXMXBXBXBXBXBXBXBXBXNXmXmXmXMXMXMXMXMXMXMXMXmXmXMXBXBXNXBXNXBXNXBXNXBXNXNXNXBXNXBXBXBXBXBXBXBXBXBXBXBXBXBXBXBXBXBXNXVXFXSXHXKXJXKXHXHXHXKXLXPX3X_.1X-X<X:X:X:X:X<X-X>X>X>X>X,X;X;X;X<X<X<X<X,X,X,X>X<X,X,X<X,X,X,X,X>X-X(.^.).).).^.).).(.(.(.`.`.'.'..X'.!.R.R.~..X'.!.I.R.'.'.R.P.R.I.I.U.P.I.U.I.I.I.I.I.I.I.I.I.U.U.U.U.U.U.I.I.Y.I.Y.Y.I.P.H.Y.R.P.5.5.J.P.P.J.J.P.J.,.,.K.E.K.K.J.4.2.4.2.2.2.1.1.1.1.2.1.1.1.1.2.2.2.2.2.2.2.4.1.2.>.=.>.=.,.1.1.1.1.1.2.2.1.R >.4.J.H.=.L T K.<.R ' ' T T ' J.=.T T ' 1.,.R R T Q T ' 2.2.>.E E E E E E E E E E E E E E E E E E E E E E E E E E R R R E E E R R R R R R R R R R R R R R R R R R R R R R R R R R R R R R R R R R R R R R R R R R R R R R R R R E E E E E R R ",
"` ` ` ` ` ` ` ` ` ` ` ` ` ` ` ` R R R R R R R R R R R R R R R R R R R R R R R R R R R R R R R R T T T T T T R R R R R R R R R R E E R R R R R R E E R R R R R R R R R R R R R R ` T R =.>.` R R T T <.3.' E >.>.' [ ' W W ' [ ' ` T ' 2.1.<.G.>.>.E ' >.<.2.H.1.1.H.1.' =.2.J.1.1.1.1.1.1.1.1.1.2.2.2.2.2.2.4.4.4.1.1.2.4.4.4.4.J.,.H.R.J.2.2.1.R.P.J.J.J.J.K.Q.H.2.H.U.R.I.I.I.P.J.J.I.I.I.I.I.R.I.I.I.R.R.R.R.I.I.I.I.Y.I.R.Q.I.I.R.~.(.(.(.'.'.~.(.~.Q.~.'.!.U.~.(.).)..X.X(.(.(.^.^. XXX.X.X.X-X>X,X>X;X;X;X<X<X,X;X,X,X;X<X;X;X1X1X1X1X1X<X,X,X:X:X:X_.%X%X%X%X$X%X#XwXSXSXVXnXnXnXbXbXnXVXVXZXmXmXmXMXCXBXBXBXBXBXBXBXBXZXBXBXBXBXBXBXBXBXBXCXBXCXBXBXBXBXBXBXBXBXBXBXBXBXBXBXBXBXBXBXBXBXBXBXBXBXBXBXBXBXBXBXBXBXBXBXBXZXZXDXNXFXVXSXbXVXNXbXbXSXAX=X+X$X+X%X%X1X1X%X1X;X,X,X<X<X,X<X<X<X<X1X;X;X;X;X;X;X;X;X>X>X>X>X>X;X;X-X X(.(. X.X X).(.(.(.(.(.'.'.'.'.'.~.!.~.(.'..X!.R./.(.~.Q.R.U.U./.!.I.P.U.I.I.I.I.I.I.I.I.I.U.I.I.I.I.I.I.I.Y.I.I.Y.Y.P.H.J.P.J.J.J.J.P.K.5.5.K.K.1.,.P.E.4.K.J.4.2.2.2.1.1.1.2.1.1.2.1.1.1.1.2.2.2.2.2.2.2.1.1.H.1.1.1.>.,.1.1.1.1.1.4.2.,.' >.H.2.>.=.R ' 1.' R ' =.R T T =.R ` R R >.=.R 1.E Q T ' 1.1.E E E E E E E E E E E E E E E E E E E E E E E E E E E E R R E R E R R R R R R R R R R R R R R R R R R R R R R R R R R R R R R R R R R R R R R R R R R R R R R R R R R E E R E E R ",
"` ` ` ` ` ` ` ` ` ` ` ` ` ` ` ` E E E E E E E E E E E E E E E E E E E E E E E E E E E E E E E R T T R T ` ` R R R R E E R R R R E R R R R E E R R R R R E E R R R R R R R R R R R T L R R T R ' E T <.G.[ [ 3.>.Q W ' >.>.' ' >.2.1.>.<.<.<.H.<.1.<.G.H.>.' 1.3.2.H.2.>.=.,.2.1.2.2.2.2.4.4.4.4.2.2.2.2.4.4.4.4.4.1.1.1.4.4.4.4.J.,.H.P.4.4.J.2.J.H.4.K.I.K.J.P.Y.J.Y.W.R.I.I.P.R.R.R.R.R.R.I.R.R.R.I.I.I.I.R.R.I.I.I.I.Y.I.Q.~.Q.Q.Q.(.'.(.~.(.(.~.(.'.(.(.'.'.).(. X(.).'..X(..X.X(. X;X<X,X,X>X,X,X,X,X,X>X<X;X,X:X:X;X;X:X1X<X<X1X1X1X:X;X;X;X,X<X<X2X$XxXPXAXbXGXSXVXFXFXNXCXCXCXCXCXCXCXCXZXCXBXCXBXMXCXMXBXBXBXBXBXBXBXNXBXBXNXNXBXBXBXBXBXBXBXBXBXBXBXBXBXBXBXBXBXBXBXMXBXBXBXBXBXBXBXBXBXBXBXBXBXBXBXBXBXBXBXBXBXBXBXBXZXNXVXZXVXFXNXZXZXZXZXDXHXSXAXKXKXKXPXPXxX$X4X2X1X<X<X<X<X<X<X<X<X<X<X<X<X<X<X<X>X,X,X>X,X,X>X>X,X;X;X:X>X,X>X>X~.).(.(.(.(.'.'.(.'.`.(.`.'.'.'.'.~.(.^.R.R.~.~.U.Q.'.'.R.I.R.R.I.I.U.U.U.I.I.I.I.I.I.I.I.I.I.I.W.I.W.Y.J.Y.H.1.J.H.P.I.J.5.J.K.J.4.4.J.J.5.4.4.K.J.2.1.1.2.1.1.2.2.2.2.2.2.1.1.2.2.2.2.2.2.1.1.,.1.J.2.4.4.,.2.1.4.1.<.<.4.1.>.R ' 2.,.R >.,.1.,.>.=.<.1.,.' T ' R ,.,.` ` ` ' J.' R E R E ' Q E E E E E E E E E E E E E E E E E E E E E E E E R R R R R R R R E E R R R R E E R R R R R R E E R R R R E E R R R R E E R R R R E E R R R R E E R R R R E E R R R R R R R R R R ",
"` ` ` ` ` ` ` ` ` ` ` ` ` ` ` ` E E E E E E E E E E E E E E E E E E E E E E E E E E E E E E E R R T ` ` ` ` R R R E E E R R R R E R R R R E E R R R R R E E R R R R R R R R R R ' T T ` ' R ' <.' Q ' [ W E [ E E W E <.G.E Q 3.<.H.<.' T T 1.H.2.>.<.G.3.2.H.1.2.2.2.2.1.4.4.H.2.2.2.2.4.4.4.4.4.2.1.2.4.4.4.4.4.1.1.1.4.4.4.2.1.1.K.K.,.2.P.J.,.,.1.K.W.K.1.1.W.I.R.R.I.I.R.P.I.I.I.I.I.I.P.I.R.R.I.I.I.I.I.I.R.R.I.I.I.R.!.(.(.~.(..X.X(.~.(.(.'.^.(..X'.~.(.(.(.(.(.).).(.(.^.).!.^.-X<X,X,X,X,X>X;X;X;X,X,X,X<X>X;X<X<X;X,X;X;X:X:X:X%X|.|.|.|.|._.r.q.wXLXFXSXDXFXFXZXZXBXMXMXMXMXMXMXMXMXBXCXBXCXBXmXCXCXBXBXBXBXBXBXBXBXBXBXBXBXBXBXBXBXBXBXBXBXBXBXBXBXBXBXBXBXBXBXBXBXCXCXCXZXCXCXCXCXZXZXZXZXZXZXZXZXZXZXZXZXZXZXZXZXBXnXZXDXnXFXnXBXmXCXMXgXmXDXDXFXDXDXSXJXxXB.B.$X+X%X%X%X|.%X%X%X1X:X;X;X;X;X;X;X,X,X>X>X>X>X>X>X;X;X;X>X,X,X>X;X!.~.~.~.~.~.(.`.(.'.(.~.~.(.'.'.(.^..X(.P.R..X.XP.W..X.XR.P.U.U.U.U.U.U.U.U.I.I.I.I.I.I.I.U.U.I.U.J.I.J.H.W.J.<.I.J.I.Q.J.3.J.R.P.>.,.E.P.,.>.H.K.H.1.1.1.4.2.1.2.2.2.2.2.2.1.2.2.2.2.2.2.2.2.2.1.2.4.1.2.4.1.J.4.H.1.=.=.1.,.` T T 4.,.T <.4.1.1.,.>.>.1.1.=.T R K >.,.R T T =.4.' E ' T Q R T E E E E E E E E E E E E E E E E E E E E E E E E R R R R R R R R E E R R R R E E E R R R E E E R R R R E E E R R E E E R R R R E E R R R R R R E E R R R R E E E R R R R R R R R ",
"` ` ` ` ` ` ` ` ` ` ` ` ` ` ` ` E E R R R R E E R R R R E E E R R R R R E E R R R R E E E R R R R R R R R R R R R R R R R R R R R R R R R R R R R R R R R R R R E ' R T E T T ' ' ' T Q E E T T T Q ' <.' Q T >.<.>.T R >.<.[ K <.H.1.T Q ' 1.2.<.<.1.[ ] <.J.3.' ` >.G.4.4.H.2.4.1.4.1.1.4.1.,.4.,.1.1.,.,.2.2.2.4.5.2.K.Y.1.>.2.2.2.1.1.4.H.1.4.J.K.J.J.K.Y.Y.I.I.I.I.I.I.I.I.R.R.I.I.I.I.R.R.R.I.I.R.I.P.I.W.I.Q.I.J.I.W.R.W.(.'.(.!.~.'.'.(.~..X'.(.(.(.(.(.'.^.(.-XXX.XXX.X.X.X.X-X;X,X,X,X,X<X,X;X;X;X<X:X>X;X,X:X-X<X,X,X,X,X<X:X2XxXUXxXxXwX3X=X*X3XxXSXNXNXNXNXBXBXBXBXBXBXBXMXBXBXBXBXBXBXBXBXBXBXBXBXBXBXBXBXBXBXBXBXBXBXBXBXBXBXBXBXBXBXBXBXBXBXBXBXBXBXBXBXBXBXBXBXBXBXBXBXBXBXBXBXBXBXBXZXZXZXZXZXBXBXBXBXBXBXBXBXBXBXBXBXBXBXBXBXBXBXBXBXBXBXBXBXDXNXSXVXqX5X=X3X3X3XUXwXUXxXwX3X%X1X1X:X;X;X>X,X;X;X>X;X>X,X>X>X>X,X>X>X>X>X>X>XXX-XXXXX-X.X'.'.'.'.'.(.`.`.'.'.(.'.`.^.^.`.^.~.^.~.~./.W.W.W.W.Q.I.U.W.I.I.I.I.I.I.I.I.I.U.U.I.I.I.I.I.I.I.I.I.I.2.5.P.P.R.I.2.Y.I.Y.H.2.J.K.J.2.H.J.H.4.H.H.4.2.H.H.2.2.H.H.1.2.2.2.2.4.4.4.4.2.2.2.4.4.4.4.4.J.,.=.>.1.4.1.<.T <.<.1.J.1.=.2.5.' ' >.=.' ' R =.R T R R T L T T T T Q ` ' P ' T ` R R ' E T E E E E E E E E E E E E E E E E E R R R R R R R R R R R R E E E R R R R R R R R R R R ` ` ` ` ` R R R R R E E R E E E E E E E E E R R R R R R R R R R R R R R R R ",
"` ` ` ` ` ` ` ` ` ` ` ` ` ` ` ` E E R R R R E E R R R R R R E R R R R R E E R R R R E E R R R R R R R R R R R R R R R R R R R R R R R R R R R R R R R R R R R R E E T E ` T T [ 3.>.R T [ [ E R E E <.G.>.T [ H.R ' >.1.>.' [ T >.G.H.>.[ <.3.3.2.1.2.<.[ 3.H.3.` R [ 1.2.2.2.2.H.H.1.1.4.4.4.4.-.-.,.4.2.1.4.1.K.J.,.<.K.P.4.2.H.J.Y.Y.J.J.H.1.~.Q.P.K.H.K.I.R.I.I.I.I.I.I.I.I.R.R.I.I.I.R.R.R.R.I.I.I.I.I.I.R.P.W.I.P.W.~.(.`.^.`./.I.I.!.~.(.^..X'.(.(.(.(.(..X.X-X<X;X,X<X,X,X,X,X;X;X,X>X>X;X;X;X;X:X;X<X>X;X>X,X:X;X<X;X;X:X;X1X%X3XLXLXLXJXHXHXHXFXSXFXDXNXNXBXBXBXBXBXBXBXBXBXBXBXBXBXBXBXBXBXBXBXBXBXBXBXBXBXBXBXBXBXBXBXBXBXBXBXBXBXBXBXBXBXBXBXBXBXBXBXBXBXBXBXBXBXBXBXBXBXBXBXBXBXBXBXBXBXBXZXZXBXBXBXZXBXBXBXBXBXZXBXBXBXBXBXBXBXBXBXBXBXBXBXBXBXBXmXNXBXDXDXSXDXFXHXFXKXJXKXJXKXPX+X%X1X:X:X:X:X;X;X;X<X-XXX;X;X>X>X>X>X>X>X>X>X>X>X,X<X,X<X-X'.(.(.(.(.(.'.'.'.'.`.'.'.`.`.`.`.~.^.^.^.`. X X`.`.(.U.P.I.I.I.R.I.U.U.U.I.I.U.U.I.I.I.I.I.I.I.I.I.Q.P.P.I.P.P.J.<.J.R.I.2.<.J.I.K.2.H.H.J.K.Y.K.H.1.2.2.2.2.4.4.2.2.2.4.4.4.4.4.4.2.2.2.2.4.4.4.4.,.=.' ' ,.2.1.<.E 1.1.1.2.' K P ,.,.1.1.R K T >.K.>.T T >.1.=.T ' ` ` ` 1.2.T T ` >.>.` ' E T E E E E E E E E E E E E E E E E E R R R R R R R R R R R R E E R R R R R R R R R R R R ` ` ` ` ` ` R R R R E E R R E E E E E E E E R R R R R R R R R R R R R R R R ",
"` ` ` ` ` ` ` ` ` ` ` ` ` ` ` ` R E R R R R R R R R R R R R R R E R R R R R R R R R R R R R R R R R E E R E E R R R R R R R R R R R R R R R R R R R R R R R R R ` R T E ` R E >.G.>.T T >.[ E R K Q ' <.' T ' 1.' [ 1.H.' T [ ' <.1.2.2.3.3.3.<.J.2.2.2.<.3.H.3.>.=.<.2.4.H.H.2.4.H.1.4.5.,.,.J.K.K.K.5.4.4.4.,.K.E.K.J.K.1.1.P.J.3.2.J.J.K.J.4.!.P.P.E.J.P.R.R.I.I.I.I.I.I.I.I.R.R.I.I.I.I.R.R.I.R.I.I.I.R.R.R.P.R.I.P.W.(..X`.`.'.~.R.R.!.(.'.~.'.(.^.).(.).(.). X-X;X;X,X<X,X,X<X<X<X,X;X>X>X<X<X<X;X;X;X;X;X-X;X;X-X;X;X%X1X%X%X%Xr.*XGXFXAXAXNXZXDXDXDXNXbXNXBXBXBXBXBXBXBXBXBXBXBXBXBXBXBXBXBXBXBXBXBXBXBXBXBXBXBXBXBXBXBXBXBXBXBXBXBXBXBXBXBXBXBXBXBXBXBXBXBXBXBXBXBXBXBXBXBXBXBXBXBXBXBXBXBXBXBXBXBXBXBXZXZXBXBXBXBXBXZXBXBXBXBXBXBXBXBXBXBXBXBXBXBXBXBXBXBXBXDXDXNXDXFXSXSXSXSXSXSXSXAXr.+X+X+X+X%X%X%X1X%X1X<X-X,X,X;X>X>X;X;X>X>X;X>X;X,X,X,X,X-X(.!.).^.^.(.'.'.(.~.(.`.`.(.`.`.`.^.~.^.^. X.X.X.X X XR.P.R.R.I.I.I.U.R.U.I.I.U.U.I.I.I.I.I.I.I.I.I.I.J.I.I.J.J.J.2.J.I.Y.2.2.H.Y.J.2.4.4.H.K.Y.J.2.1.1.2.4.4.1.1.2.2.2.4.2.2.4.2.2.2.2.2.2.2.2.2.2.,.>.=.>.1.4.4.1.,.J.5.1.2.>.R ` >.1.2.,.=.T R ,.H.<.R T >.4.>.L E T T T <.1.T P T =.' R R E R T E E E E E E E E E E E E E E E E R R R R R R R R R R R R R R R R E E E R R R E E E E ` ` ` ` ` ` E E R R E E R R E E E E E E E E R R E E E E E R R R R E E R E R ",
"` ` ` ` ` ` ` ` ` ` ` ` ` ` ` ` R R R R R R R R R R R R R R R R E R R R R R R R R R R R R R R R E E E R R E E R R R R R R R R R R R R R R R R R R R R R R R R R E R T R ' [ >.[ >.` Q R ' ` ` ' ' E ' >.>.` ` [ H.>.[ <.E T <.>.2.<.>.<.<.<.3.3.H.<.<.2.2.2.2.3.2.2.G.J.J.H.H.2.2.2.,.H.1.K J T I I L J T J.Q.E.5.E.E.E.E.4.4.P.4.L S S S S J J J J >.Q.I.I.Q.I.I.I.I.I.I.I.I.I.R.R.I.I.I.I.R.R.I.Q.Q.R.I.I.I.Y.Q.!.Q.I.W.~.'.(.~.'.'.(.(.(.(.`.'..X.X'.'.'.'. X(.-X,X,X>X,X,X,X;X>X,X,X;X;X,X<X-X:X;X;X;X,X;X<X;X<X1X1X2X1X1XzXxXxXxXwXcXSXSXSXDXZXNXmXNXZXZXZXZXBXBXBXBXNXBXBXBXBXBXBXBXBXBXBXBXBXBXBXBXBXBXBXBXBXBXBXBXBXBXBXBXBXBXBXBXBXBXBXBXBXBXBXBXBXBXBXBXBXBXBXBXBXBXBXBXBXBXBXBXBXBXBXBXBXBXBXBXBXBXBXZXZXZXBXBXBXZXZXBXBXBXBXBXBXBXBXBXBXBXBXBXBXBXBXCXBXMXBXBXmXNXNXNXNXSXSXSXFXDXSXxXvXvXvXvXIXIXIXzX%X1X<X;X<X>X;X>X>X;X;X>X>X>X>X>X>X>X>X,X>X;X-X;X;X;X;X>X-X.X(.(.(.^.^.(.(.^.^.~.^.^.^.~./.~.^.(././.^.~.R.P.I.I.U.U.I.I.I.U.I.I.I.I.I.I.I.I.I.J.J.I.I.J.J.Y.J.Y.H.H.Y.I.J.G.G.K.J.4.4.H.H.4.1.Y.H.4.4.4.1.1.1.4.2.2.4.2.2.2.2.2.2.2.2.2.2.2.2.4.1.1.1.1.4.4.2.1.H.<.' >.<.<.H.4.1.' ' 1.1.' ' T ' ,.<.' ' R Q ` ` R T ` ' ` ' K R ` T R ' ' T E E E E E E E E E E E E E E E E R R R R R R R R R R R R R R R R E E E R R R E E R E ` ` ` ` ` ` E E R R R R R R E E E E E E E E R R E E E E R R R E E E E E E R ",
"` ` ` ` ` ` ` ` ` ` ` ` ` ` ` ` R R R R R R R R E E R R R R R R E E R R R R R R R E E R R E E E R R R R R R R R R R R R R R R R R R R R R R R R R R R R R R R R R E E T ' 3.1.' T T T E R E [ <.G.1.>.[ ' E E ' G.` T >.>.[ 2.1.H.[ E ' ' >.1.G.1.[ [ 1.2.3.3.2.4.4.4.2.H.H.2.1.2.2.,.J.=.$ % 6 $ $ % % 5 ,.E.5.6.6.1.6.6.6.[.5.,.V % $ % % $ % % $ T R.R.I.Q.I.I.I.I.I.I.I.I.I.R.I.I.I.I.I.I.R.P.Q.~.!.I.I.P.P.(.'.(.!.!.~.(.!.Q.(.'.'.'.'.(.(.(.(.(.(.(.).(.(..X>X<X,X,X,X,X<X>X<X<X<X,X;X;X<X,X<X<X:X:X:X|.%X%X%X%X%X$X%X%XxXJXFXHXFXFXDXZXZXZXZXNXmXmXnXnXmXZXZXBXBXBXBXNXBXBXBXBXBXBXBXBXBXBXBXBXBXBXBXBXBXBXBXBXBXBXBXBXBXBXBXBXBXZXZXBXBXBXBXBXBXBXBXBXBXBXBXBXZXZXBXZXBXBXBXBXZXZXZXBXBXZXZXBXBXBXBXBXBXBXBXBXBXBXBXBXBXBXBXBXBXBXBXBXBXBXBXBXBXBXBXBXBXBXMXMXBXCXCXBXBXBXBXBXNXNXCXCXCXFXHXHXHXJXJXJXLXIX%X%X%X%X-X-X<X;X;X>X;X>X>X>X>X>X>X>X,X,X<X<X<X<X<X<X<X<X>X.X^.`.(.^.(.(.(.(.(.^. X X^./.R.!.^.(.~.~. X'.!.I.R.I.U.U.I.I.I.U.U.I.I.I.I.I.I.I.I.I.I.I.I.J.H.J.J.I.H.H.Y.I.J.2.2.R.P.K.J.4.2.H.J.R.J.1.1.4.1.1.1.4.4.2.2.2.4.2.2.2.2.2.2.2.2.2.2.4.4.2.1.1.1.1.1.,.1.' T R ' >.1.J.1.R R 1.1.R K K R 2.J.>.T T R [ >.E T T R ` ' P T R T ' 1.<.' E E E E E E E E E E E E E E E E R R R R R R R R E R R R R R R E R R R R R R R R R R ` ` ` ` ` ` E E R R R R R R R R R R R R R R R R R E R R R R R R E E E E R R ",
"` ` ` ` ` ` ` ` ` ` ` ` ` ` ` ` R R R R R R R R E E R R R R R R R E R R E R R R R E E R E E R R R R R R R R R R R R R R R R R R R R R R R R R R R R R R ` R R R R ` ' ` ' 3.<.E K Q E E T T ' <.1.<.' T Q T ' 1.E Q Q <.G.3.H.2.G.' ' >.>.>.3.2.<.[ [ <.3.3.3.2.1.4.2.2.H.H.2.2.2.4.1.K.=.6 % $ < 5 < 6 C 1.E.6.6.6.7.-.Y I [.1.,.J m 5 6 5 5 $ V J ,.Q.I.I.R.I.R.R.R.R.R.R.I.I.I.I.I.I.I.I.I.I.I.Q.~.~.Q.R.I.I.(.~.~.(.~.~.~.!.Q.~.(.(.'.(.~.(.~.!.).'.(.(.(.(..X:X>X>X>X>X;X;X1X<X<X<X,X;X;X;X;X;X;X|.%X4X%X%X$X$X%X+X+Xr.B.UXFXZXZXZXNXCXCXMXmXCXCXCXCXCXZXCXBXBXBXBXBXBXBXBXBXBXBXBXBXBXBXBXBXBXBXBXBXBXBXBXBXBXBXBXBXBXBXBXBXBXBXBXZXZXBXBXBXBXBXZXBXBXBXBXBXBXBXBXZXBXZXBXBXBXBXBXZXZXBXBXZXBXBXBXBXBXZXZXBXBXBXBXBXBXBXBXBXBXBXBXBXBXBXBXBXBXBXBXBXBXBXBXBXMXMXBXBXBXMXmXBXDXDXBXBXBXBXBXNXNXVXVXNXAXAXSXxX+X%X$X%X1X%X%X:X;X;X;X>X;X>X>X>X;X;X>X>X>X>X:X;X>X>X>X>X-X.X)..X`.`.`.'.`.`.'.^. X.X^./.W.~. X(.!.Q.!.'.~.U.P.U.W.W.I.I.I.U.U.I.I.I.I.I.I.U.U.R.R.I.I.P.J.J.J.P.I.I.J.5.H.J.J.Y.K.J.J.4.2.H.K.P.H.1.1.2.4.4.4.2.2.2.4.4.4.2.2.2.2.2.2.2.2.4.2.2.4.2.2.1.1.1.1.,.4.1.>.<.<.<.<.>.,.,.>.,.,.=.` =.R =.1.>.' ' R [ ' T T ` [ >.` R T R R ' <.<.E E E E E E E E E E E E E E E E E R R R R R R R R E R R R R R E E R R R R R R R R R R ` ` ` ` ` ` R E R R E R R R R R R R R R R R R R R R E R R R R R E R R R R R ",
"` ` ` ` ` ` ` ` ` ` ` ` ` ` ` ` E R E R R R R R E R R R R E E R R R R R E E R R R R R R R R R R R R R R E E R R R R R R R R R R R R R R R R R R R R R R ` ` ` R E ` >.>.' ' ' T R E ` R Q E ' T ` ' E T E [ 1.H.R E T <.J.2.3.3.1.' >.3.1.1.2.1.1.<.<.1.2.2.3.2.1.H.2.2.H.J.H.H.4.H.1.K.1.R E J 5 5 3 > , 4 4 > 6.E.E.-.$ 3 6.-.6 6 < 6 5 T 5.,.1.5.E.E.I.I.U.I.I.I.R.I.R.R.R.R.I.I.I.I.I.I.I.I.I.R.!.~.~.!.!.~.Q.I.Q.'.(.~.~.~.(.(.(.(.'.(.).(.'.(.XX>X>X;X>X;X;X,X,X,X<X,X>X<X;X:X;X;X,X,X;X1X;X1X1X1XUXPXPXPXKXGXAXAXAXxXxXGXDXZXmXmXmXCXDXMXBXCXBXBXBXBXBXCXBXBXBXBXBXBXZXZXBXBXBXBXBXBXBXBXBXBXBXBXBXBXBXBXBXBXBXBXBXBXBXBXBXBXBXBXBXBXBXBXBXBXZXZXBXBXBXBXBXBXBXBXBXZXBXBXBXBXBXBXZXBXBXBXZXZXBXBXBXBXZXBXBXBXZXZXBXBXBXBXBXBXBXBXBXBXBXBXBXBXBXBXBXBXBXBXMXBXBXBXBXCXBXBXMXBXBXMXBXBXmXMXCXZXBXBXDXBXSXFXKXcXKXPXAXPX3X:X:X:X:X;X;X>X>X>X,X>X,X,X>X,X,X:X>X>X,X,X,X>X;X-X.X X(. X X`.`.'.^. X`.^.~.!.^.'.(.~.Q.Q.(.(.Q.I.!.~.!.W.U.U.U.U.I.I.I.I.I.I.I.I.I.I.P.P.I.I.Y.P.J.I.I.H.2.H.P.Y.4.2.4.J.K.4.4.4.J.J.4.1.1.4.4.4.2.2.2.4.4.4.2.2.2.2.2.2.4.4.4.4.4.4.4.4.4.4.4.4.2.J.H.2.2.H.5.2.T >.H.4.,.1.4.1.4.' T ` ' >.>.R 2.<.E E >.3.2.' R T R R R ` ` T R R R R R R R R R R R R R R R R R R R R R R R R E E R R R R E E R R R E R E R R R R ` ` ` ` ` ` R R R R E R R R R R R R R R R R R R R R E E R R R R R R R R R R ",
"` ` ` ` ` ` ` ` ` ` ` ` ` ` ` ` E E E R R R E E R R R R E E E R R R R R E E R R R R R R R R R R R R R E E E R R R R R R R R R R R R R R R R R R R R R R ` R R R ` ` <.3.' Q T T <.>.>.' E >.[ K Q T Q Q [ <.>.>.1.1.E ' 2.<.>.<.<.' <.H.2.G.H.1.G.H.G.2.G.G.2.2.2.J.2.1.2.H.2.2.H.J.2.4.1.J.Q.' % % > 5 1 > > > 6.Q.).6.$ 3 6.R % 6 5 % $ =.!.E.K.P.P.P.I.I.U.I.I.I.R.I.R.R.R.R.I.I.I.I.I.I.I.I.R.I.R.!.(.'.'..XR.P.Q..X.X'.'.'.'.'.(.(. X(.^.).(.).XX>X,X,X<X,X<X<X;X,X<X>X:X1X<X<X<X,X,X,X;X:X:X-X%X+X3XJXKXFXFXFXFXSXHXHXSXFXNXnXmXDXCXBXCXBXBXBXBXBXDXDXBXCXBXBXBXBXZXZXZXZXBXBXBXBXBXBXBXBXBXBXBXBXBXBXBXBXBXBXBXBXBXBXBXBXBXBXBXBXBXBXBXBXBXBXZXZXZXBXBXBXBXBXBXBXBXZXBXBXBXBXBXBXBXBXBXBXBXZXBXBXBXBXBXBXBXBXBXZXZXBXBXBXBXBXBXBXBXBXBXBXBXBXBXBXBXBXBXBXBXBXBXMXMXMXBXBXmXCXBXMXBXBXBXCXmXMXmXBXCXBXmXBXSXSXJXSXKXLX3Xr.%X:X:X:X:X;X>X>X,X;X>X>X>X>X,X>X,X,X>X>X>X>X,X,X.X X(. X`.(.(.`. X`.`.`.(.(.(.(.(. X`.(..X.X~.!.(.`.^./.R.U.U.U.I.I.I.I.I.I.I.I.R.I.P.P.R.R.I.P.P.J.J.J.J.J.J.Y.2.2.J.R.W.P.2.,.J.K.P.J.2.1.4.1.2.2.2.2.4.4.2.2.4.2.2.2.4.4.4.4.4.4.2.2.2.1.1.1.1.2.<.` ' <.1.<.L ' 2.2.>.1.4.>.H.>.R T T >.1.' J.2.E T ` ' =.K T T ` ` T T T T R R R R R R R R R R R R R R R R R R R R R R R R R R R R R R R R R R R E E E R R R R ` ` ` ` ` ` R R R R E R R R E E R R R R R R R R R R R E R R R R R R R R R R ",
"` ` ` ` ` ` ` ` ` ` ` ` ` ` ` ` E E E R R R E E R R R R E E E R R R R R R R R R R R E R R R R R R R R R R R R R R E E E R R R R ` ` ` ` ` ` ` ` ` R R ` T T R R E T E ' R E ` T E R ' >.>.' R T R Q <.2.T T >.[ K.>.E >.H.3.<.G.3.<.>.<.1.2.2.1.2.2.2.2.2.2.2.2.4.4.4.H.4.4.4.H.2.H.1.2.1.4.5.T C J 5 > M > * 4 6.7.-.U M < 6 > 5 % 6 m 5 T E.P.P.P.I.I.I.I.I.I.I.I.I.I.I.I.I.I.R.R.R.I.I.Y.R.!.~.I.P.!. X'.~.~.W.Q.!.~.'..X'.(.(.'..X.X).(.(.).(.(..X-X;X;X>X<X<X:X;X,X,X>X<X<X<X:X<X;X<X2X-X%X%X%X+X+XwXSXFXmXmXmXmXZXNXNXNXNXZXZXmXmXNXBXBXBXBXBXBXBXBXBXZXZXZXBXBXNXBXBXBXBXBXBXBXBXBXBXBXBXCXBXMXMXCXCXBXBXCXBXBXBXmXBXBXnXnXBXZXZXZXNXNXCXNXCXZXBXCXZXNXCXBXBXBXBXBXBXBXBXBXBXBXZXZXZXNXmXBXBXNXBXZXZXBXBXDXBXNXZXZXBXNXBXBXBXBXBXBXBXBXBXBXCXBXBXBXBXBXmXBXBXBXBXBXBXBXBXBXBXBXBXBXBXMXMXBXBXBXBXBXMXMXBXBXNXVXNXFXGX3XB.+X$X%X%X2X%X<X,X,X<X<X-X<X>X;X<X,X,X,X,X>X>X,X,X.X X X X(. X X X X].`. X^.^.`.(.^.~.'..X(.'..X~.Q.^..X^.I.I.R.I.U.I.I.I.I.P.P.U.I.I.I.I.I.I.I.I.P.U.P.Y.I.J.3.H.E.E.J.2.4.K.J.4.J.4.1.1.1.1.5.J.>.1.J.4.<.1.H.2.4.4.2.2.2.2.2.2.4.4.2.2.2.2.4.4.,.4.<.` ' <.3.3.' =.4.J.,.>.>.R ,.1.1.' >.J.1.T ` >.T T R Q T ` ` T T T T T R R ` T T R R T R R R R R R R R R R R R R R R R R R R R E E E R R R R R R R R R R R R R ` ` ` ` ` ` R R E E R R R R E E R R R R R R R R R R R R R R R R E E R R R R ",
"` ` ` ` ` ` ` ` ` ` ` ` ` ` ` ` E R E R R R R R E R R R R E E R R R R R R R R R R R E E R R R R R R R R R R R R R E E R R R R E ` ` ` ` ` ` ` ` R R ` R R ' >.` ` T E E ' <.1.' E ' 2.G.[ T R ` <.` ' ` T <.H.>.1.<.<.3.1.` ' 2.G.1.>.>.<.2.2.2.2.2.2.2.2.2.2.4.4.4.4.H.4.4.4.4.2.4.1.J.4.4.J.1.5.4.C $ 5 4 4 M 1 < > > > 6 5 m 5 5 R 4.=.4.Q.I.P.P.I.I.I.I.I.I.I.I.I.R.I.R.R.R.I.I.R.!.~.!.Q.Q.~.~.~.(.(.~.Q.R.(.(.(.(.'..X'.(.'.(.(.(.(.XX>X;X;X-X>X,X,X>X,X<X;X:X>X<X<X<X<X<X<X<X<X<X<X1X2XIXAXPXAXcXSXFXZXZXmXmXMXmXmXmXNXNXZXZXmXZXZXZXCXCXBXBXBXBXBXBXBXBXNXNXNXNXBXBXBXBXBXBXBXBXmXnXnXsXyXyXyXpXmXBXBXBXBXBXCXCXBXBXBXmXnXBXCXZXZXNXmXZXmXBXNXmXZXBXNXZXBXBXBXBXBXBXNXBXBXBXNXBXBXBXBXBXBXBXBXBXBXZXBXBXDXBXNXZXZXBXBXZXBXBXBXBXBXBXBXBXBXCXBXBXBXCXCXBXBXBXBXBXBXBXBXBXBXBXBXBXBXBXMXBXZXZXBXBXMXMXMXMXBXBXmXnXNXFXNXcXPXPXPXPXIX4X1X<X<X<X<X;X<X-X;X;X,X,X,X>X>X>X,X,X>X>X>X;X;X;X>X>X.X].]. X`.`. X`.^.~.`.(.Q.!.'.'.!.~.(.~.Q./.Q.P.R.U.I.U.U.U.R.R.I.I.I.I.I.I.I.I.P.U.I.I.W.J.3.4.P.K.5.4.J.P.P.K.5.1.1.5.K.P.J.5.K.1.1.1.4.H.4.,.4.4.2.2.2.2.4.2.4.4.2.2.2.2.4.4.4.J.2.>.<.1.1.3.1.1.,.>.=.>.>.,.4.4.<.R ' ,.>.T ' 1.' T T T T T P ` >.<.' T ` >.' T T R R R R R R R R R R R R R R R R R R R R R R R R R E E R R R E R R R R R E R R ` ` ` ` ` ` R R E E R R R R R E R R R R R R R R R R R R R R R R R E R R R R ",
"` ` ` ` ` ` ` ` ` ` ` ` ` ` ` ` R R R R R R R R E E R R R R R R R R R R R E R R R R R E R R R R E E R R R R E E R R R R R R E E ` ` ` ` ` ` ` ` T ` ` P T <.3.' R T T T E 3.2.` E T >.1.` T E T 2.3.>.Q T 3.J.<.>.1.G.G.>.Q T 1.H.1.<.<.,.2.2.2.2.2.2.2.2.2.2.2.4.4.4.4.4.4.4.4.4.2.2.J.2.,.4.4.R.J.V $ < 5 < < 4 3 1 < < 6 6 6 % m 4.!.K.K.R.J.Y.Y.I.I.I.I.I.I.I.I.I.R.R.R.R.R.I.P.I.(..X'.!.Q.Q.(..X(.~.~.!.R.(.'.(.(.).(.(.(. X).^.).(.-X,X,X,X,X,X,X,X>X;X;X>X,X,X,X,X,X<X1X1X1X1X%X%X_.%XAXKXHXFXFXFXZXnXCXMXMXMXMXMXmXMXMXZXZXZXZXZXZXZXZXZXZXBXBXZXZXZXZXBXBXBXBXCXDXCXCXBXBXDXDXBXmXsXdXyXyXrXyXnXBXBXBXmXBXCXDXBXBXCXBXBXZXZXBXZXZXBXCXBXZXNXNXZXZXBXZXBXBXBXBXBXBXBXBXCXZXBXBXZXZXZXZXZXBXBXBXBXBXBXZXZXBXBXBXZXBXZXZXBXBXBXBXBXBXBXBXBXBXBXBXBXCXCXBXBXNXNXNXNXNXBXBXBXNXBXBXBXBXBXBXZXZXNXNXBXMXMXMXCXCXDXZXVXNXFXFXFXFXKXJXvX+X_.%X%X%X;X-X,X>X<X,X,X>X>X>X;X;X>X,X,X,X,X,X,X,X<X<X X^.^.].^.^.`.(.^.(.`.~.I.R.'..X`.^.!./.~.`.~.P.I.I.I.I.U.U.U.U.U.U.U.U.U.I.I.I.I.R.I.I.R.P.2.4.P.P.P.K.J.J.K.K.P.J.4.5.P.P.J.4.R.4.1.4.4.4.2.1.4.4.2.2.4.4.4.4.4.4.2.2.2.2.2.4.2.H.2.2.2.2.1.2.1.1.' T =.,.1.K.4.,.R L R >.=.T K >.' E ' ' =.' K ` 3.4.' K T ' R T R ` R R R T R R R R R R R R R R R R R R R R R R R R R R R R E E R R R R R E R R ` ` ` ` ` ` ` ` ` ` ` ` ` ` ` ` ` ` ` ` ` ` R R E E R E E R R R R R R R E E ",
"` ` ` ` ` ` ` ` ` ` ` ` ` ` ` ` R R R R R R R R E E R R R R R R R R E E E E R R R R R E E R R R E E E R R R E E R R R R R R E E ` ` ` ` ` ` ` ` R ` ` P P ' <.' T T ' ` E >.>.T T K T [ T T ' E ' G.1.T T >.2.2.3.<.>.>.<.' ' <.1.1.1.2.2.2.2.1.2.2.2.2.2.2.2.2.4.4.4.4.4.4.4.4.H.H.4.4.1.,.4.5.J.4.T L P C > 6 3 5 < $ 6 m V m m J J.Q.5.5.P.J.Y.I.I.I.I.I.I.I.I.I.R.R.I.I.I.I.W.R.Q.~.~.(.~.!.Q.). X).~.(.).~.~.).(.).^.(.'.'..X(. X.X.X-X>X>X;X;X>X>X>X>X;X;X>X,X,X<X<X<X1X1X%X2X2X4X3X4X$XvXFXZXbXnXZXmXnXBXBXBXBXBXBXBXBXMXCXZXZXZXMXmXmXmXZXBXBXBXZXZXZXBXBXBXNXmXmXmXmXmXnXmXNXNXmXnXgXnXBXnXyXyXmXDXBXmXgXnXmXMXBXBXCXBXCXBXnXnXZXCXZXCXCXZXBXBXZXCXBXBXBXBXBXBXBXBXBXBXZXZXBXBXBXBXNXNXBXBXBXBXBXBXZXZXNXNXBXZXZXBXBXBXBXBXBXBXBXBXBXBXBXBXBXBXBXBXBXBXBXBXNXNXNXNXNXNXBXBXBXBXBXBXBXNXZXZXNXNXMXMXMXMXhXmXBXCXZXNXNXNXNXNXSXSXvX&X$X3X2X3X2X%X-X;X,X-X,X>X>X>X;X>X>X>X>X>X>X>X>X>X,X,X.X`.`. X^.^.`.`.'.`.'.^.W.Q.(.`..X(.!./.~. X(.R.P.U.R.U.I.P.I.I.U.U.U.U.U.U.I.I.I.U.I.U.R.I.J.J.P.E.R.P.J.4.5.J.R.P.4.2.4.5.5.K.H.H.J.J.1.<.1.J.4.4.2.2.4.4.4.4.4.4.2.2.2.2.2.2.1.1.2.2.5.1.>.<.H.4.>.' >.,.>.>.,.<.T T >.4.1.R K <.>.>.<.>.=.` P T [ >.E R ` T R R =.<.` R R T R R R R R R R R R R R R R R R R R R R R R R R R E E R R R R E E R R ` ` ` ` ` ` ` ` ` ` ` ` ` ` ` ` ` ` ` ` ` ` E E E R R E E E R R R R R R E E ",
"` ` ` ` ` ` ` ` ` ` ` ` ` ` ` ` R R R R R R R R R R R R R R R R R E E E E E E R R R E E E E R R R R R R R R R R R R R R R R R R ` ` ` ` ` ` ` ` ` ` ' ' R T R R R E <.1.' ` ' T E T >.<.T T <.1.T >.>.R E >.3.J.H.<.R E <.2.3.2.1.2.2.2.H.4.2.2.2.2.2.2.2.2.2.2.4.4.H.4.4.4.4.H.H.H.4.1.2.J.Y.P.J.P.J.E.R.=.m 6 < 5 6 $ m <././.1.2.E.R.J.P.R.I.I.I.I.U.I.I.E.E.I.I.I.I.I.I.I.Y.!.~.'.~.Q.~.'.(.'.).~.!.).(.(.^.).(.'.(.(.(.'.(.(..X-X>X-X;X>X;X;X;X>X>X,X<X,X<X<X<X,X1X<X1X1X2X$XxXPXKXKXKXAXFXFXDXZXmXZXCXBXBXBXBXBXBXBXBXBXBXCXCXBXMXMXBXZXZXBXBXBXBXBXBXBXBXmXnXsXyXyXyXyXyXyXyXyXyXyXyXyXnXFXmX9X9XmXFXBXsXyXyXyXdXnXBXCXBXCXmXdXdXBXDXBXBXBXBXBXBXBXBXCXBXBXBXBXBXBXBXBXBXBXBXBXBXBXBXnXnXmXNXBXZXBXBXZXZXNXBXCXCXZXZXBXBXBXBXBXBXBXBXBXBXCXBXBXBXBXBXBXBXBXBXBXBXBXBXBXBXBXBXBXBXBXBXNXNXZXBXBXBXBXBXBXBXBXmXmXBXCXBXBXNXnXNXZXSXFXbXFXKXPXLXIX$X1X<X<X;X,X;X;X;X>X,X,X>X;X>X>X>X>X>X>X>X>X-X>X-X.X(.'. X.X'.`.`.(.`.~.W.~.(.(.~.~.(.!.U.U.!.^.!.U.I.U.R.U.U.U.U.U.I.I.I.U.U.I.I.U.I.P.I.K.K.K.K.P.P.K.K.4.K.J.4.4.1.4.E.1.J.K.J.1.1.4.4.2.2.4.4.2.2.2.2.4.4.4.4.4.4.4.4.2.2.2.4.2.=.` ' J.1.1.2.1.2.,.R =.2.>.>.4.J.4.' T >.' ' >.' ` ` >.R T T ` 3.2.T ` ` <.3.` T ` R R R R R R R R R R R R R R R R R E E R R R E E E R R R R R R R R R R ` ` ` ` ` ` ` ` ` ` ` ` ` ` ` ` ` ` ` ` ` ` R R R R R R R R R R R R R R R E ",
"` ` ` ` ` ` ` ` ` ` ` ` ` ` ` ` R E R R R R R R R R R R R R R R R E R R E E R R R R E E E E R R R R R R R R R R R R R R R R R R ` ` ` ` ` ` ` ` R R [ 1.[ T K T T E 1.2.[ E ` E 1.>.>.<.[ ' >.>.' ' T T [ 1.1.1.1.>.E ` <.H.G.G.2.2.2.2.2.2.H.H.2.2.2.2.2.2.4.4.4.4.H.4.4.4.4.H.H.H.4.1.2.P.J.J.5.I.P.P.Q.5.P m % % $ % 5 [ T.I.I.Y.I.U.I.U.R.I.I.U.I.U.I.I.E.E.I.I.I.I.I.I.I.I.~.'.XX.X!.~..X'.XX).Q.!.(. X(.(.(.'. X(.(.(.(.).~..X>X<X>X>X,X;X;X>X>X>X>X<X<X;X:X;X:X%X%X%X%X$Xr.3XJXFXZXFXNXNXmXZXCXMXmXZXCXBXBXBXBXBXBXBXBXBXBXBXBXBXCXCXCXBXCXCXCXCXCXCXBXCXmXnXdXyXyXyXyXyXyXyXyX7XyXrXyXmXDXmXyX9XnXDXmXyX9X9X7XyXnXCXCXCXCXnXiXiXmXBXBXMXBXBXBXCXBXBXDXCXCXCXCXCXCXCXCXCXBXBXCXCXCXBXmXnXnXmXBXZXZXZXZXZXBXCXDXZXBXBXZXZXBXBXBXBXBXBXBXBXCXBXBXCXCXBXBXBXBXBXBXBXBXBXBXBXBXBXBXBXBXBXNXBXZXMXBXBXBXBXBXBXDXCXBXBXBXMXmXNXZXZXDXnXBXSXFXSXSXJXxXr.+X%X%X%X1X,X;X;X,X,X,X>X>X>X,X,X>X,X,X>X<X,X,X,XXX`.(.(. X`.(.`..X.X~.I.R.(.`.^.^.~.Q.U.R.~.`.~.R.I.U.U.U.U.U.U.U.U.I.I.R.I.I.I.I.I.I.R.P.5.4.J.R.R.P.5.,.J.P.P.K.1.,.J.K.Y.J.2.J.P.4.,.2.2.4.4.2.2.2.2.4.4.4.4.4.4.4.4.2.4.2.2.2.>.' >.4.<.1.4.2.J.K.<.' J.1.1.2.>.>.' ' >.T T ` T T ` J.' T T ` G.2.Q R T [ >.T K R T R R R R R R R R R R R R R R R R E E R R R R E E R R R R R R R R R R ` ` ` ` ` ` ` ` ` ` ` ` ` ` ` ` ` ` ` ` ` ` R R R R R R R R R R E R R R E E ",
"` ` ` ` ` ` ` ` ` ` ` ` ` ` ` ` E E R R R R E E R R R R R R R R R R R R R R R R R R R R R R R R R R E E R R R R R E R R R R R R ` ` ` ` ` ` ` ` R T ` <.' T R ` E E [ [ E ' ' T 2.>.E ' 3.1.` T >.[ [ [ >.1.1.>.' >.>.<.1.3.<.>.1.2.2.2.2.2.4.J.2.2.2.2.4.4.4.4.4.4.4.H.4.4.4.4.H.2.4.1.5.5.<.2.J.I.H.5.I.P.5.-.P ` >.>.3.T.].T.J.J.Y.Y.Y.I.I.Y.I.I.I.I.I.I.R.R.I.I.I.I.R.W.Q.!.~.!.`..X~.~.'.'..X).!.^.(. X X X(.(.(.(. XXXXX.X.XXX>X,X;X;X,X>X;X>X;X;X;X>X,X:X%X2X3X4X4X4X4X*X$XwXSXNXmXZXmXCXBXCXCXCXMXmXmXmXBXBXBXBXBXBXBXBXMXBXBXBXCXCXBXnXmXmXmXVXVXVXVXVXnXcXdXdXaXaXaXaXaXsXaXuXsXyXyXmXnXmXnXgXmXCXBXgXsXgXsXsXBXCXBXBXBXBXnXnXBXBXBXBXBXBXCXCXmXmXmXmXmXmXmXmXmXmXmXmXmXMXMXBXBXmXnXgXgXnXBXCXCXZXZXZXZXDXZXnXnXnXBXZXBXBXBXBXBXBXBXBXBXmXmXBXCXBXBXCXBXBXBXBXZXZXZXZXMXBXMXZXBXZXBXBXBXBXBXBXBXBXBXBXmXNXBXZXBXBXBXmXNXnXBXnXBXBXDXNXVXFXcX*X3X3X3X3X1X,X;X;X<X,X,X,X>X>X,X,X,X>X>X>X,X>X>X,X-XXX.X(.`.`.`.`..X'.~.Q.!.`.(.~.(.(.~./.R.~.(.!.Q.R.R.I.R.R.R.U.U.U.U.U.R.I.I.I.I.I.I.U.R.P.K.P.P.P.J.J.4.K.K.K.P.J.1.4.K.K.4.1.K.K.4.1.2.2.4.4.2.2.2.2.4.4.4.4.4.4.4.4.1.4.2.2.2.1.1.2.K.2.,.>.<.1.2.,.>.4.=.,.1.R =.>.G.H.` T ` R T P 2.` ` ' R ' ' Q ' P T ` K T ' ` T T T T T T T T R R R R R R R R R R R R R R R R R R E E R R R R E E ` ` ` ` ` ` ` ` ` ` ` ` ` ` ` ` ` ` ` ` ` ` R R R R R E R R R R E E R R R R ",
"` ` ` ` ` ` ` ` ` ` ` ` ` ` ` ` E E R R R R E E R R R R E E E R R R R R R R R R R R R R R R R R R R R E E E R R R E E E R R R R ` ` ` ` ` ` ` ` ` K T ` R R ' >.>.' ` T T >.<.T ' ' E ' 2.<.E E T >.J.H.>.<.G.3.Q >.1.2.2.<.` T >.1.2.H.4.2.2.2.2.2.2.4.4.4.4.4.4.4.4.4.4.4.4.4.H.1.4.5.P.J.1.P.Y.Y.2.5.H.2.P.Q.K.Y.W./.U.W.W.J.Y.I.W.U.I.I.U.U.I.U.I.U.I.I.I.I.R.I.I.I.R.!.~.(.~.P.U.(.~.~.(.(.'. X X'.(.(.(.(.).(.).(.XX>X<X,X,X,X,X,X-X>X,X>X>X,X,X;X;X1X<X1X4XIXLXJXJXLXJXJXJXSXDXZXZXCXgXCXDXBXBXBXZXZXZXZXZXZXBXBXBXBXBXBXBXBXNXBXCXBXsXyXyXyXyXyXyXyXyXyXyXyXyXyXyXyXyXyXeXyXyXuXsXeX7XsX7XnXCXBXBXCXCXDXBXDXCXBXDXDXBXBXCXDXCXCXDXCXBXCXBXBXBXMXpXyXyXyXyXyXyXyXyXyXyXyXpXdXpXsXsXsXpXiXiXnXBXCXCXZXZXZXZXZXmXgXdXgXmXBXBXBXBXBXBXBXBXBXnXnXnXMXBXBXBXCXBXBXBXBXBXZXZXZXMXMXMXZXZXZXBXBXBXBXBXBXBXBXBXBXBXZXBXmXNXZXBXnXZXnXDXNXCXhXBXBXNXFXFXSXJXJXLXLX1X1X1X;X1X<X<X,X>X,X,X,X,X>X>X>X:XXXXX,X,X,X;XXX(. X X(.(.`.'..X.X.X^.Q.^..X.X X!.^.(.~.!.~./.U.R.R.R.R.R.R.R.U.R.I.I.R.U.I.I.I.P.R.Q.E.K.1.5.I.E.P.1.1.P.P.K.E.1.4.4.4.4.1.2.R.2.2.4.4.4.2.2.2.4.4.4.4.4.4.4.4.4.J.5.2.2.2.2.5.2.1.' T >.,.,.4.J.2.T ,.J.' ,.J.3.J.>.` <.1.<.` R K ' 1.E K E ' 2.R T ` T =.4.<.T T T T T T T T R R R R R R R R R R R R R R R R R E E E R R R R E E ` ` ` ` ` ` ` ` ` ` ` ` ` ` ` ` ` ` ` ` ` ` R R R E E E R R R E E E R R R R ",
"` ` ` ` ` ` ` ` ` ` ` ` ` ` ` ` R R R R R R R R R R R R R R R R R R R E E E E E R R R E E E E E R R R R R R R R R R R R R R R R R T ` ` R ` ` T ` T T T Q R ' ' ' [ >.E W 3.J.[ T [ <.>.Q T >.3.` 3.3.<.3.<.[ >.[ <.<.<.1.>.' ' 2.2.G.G.G.G.G.G.G.G.G.G.G.G.2.2.2.1.1.1.4.H.4.3.H.4.1.4.I.Y.J.W.Y.Y.2.J.W.K.P.R.1.4.Y.I.I.I.I.I.I.I.I.I.I.I.I.I.I.U.I.I.I.R.R.U.W.J.I.Y.P.^.'.'.(.(.^.^.(. X X(.(..X.X(.(.(. X.X.X X(. X.X-X;X;X;X<X;X-X,X,X,X-X,X>X:X<X-X%X%X%Xr.xXHXGXVXSXDXVXBXBXZXZXZXZXBXBXBXBXBXBXBXBXBXBXBXBXmXCXZXmXCXmXBXDXDXBXBXBXnXyXyXyXyXyXyXyXyXyXyXyXyXyXyXyXyXyXyXyXyXyXyXyXyXpXyXhXBXDXDXCXBXBXDXDXDXDXDXDXDXDXCXCXCXCXCXCXCXCXCXCXCXBXdXyXiXyXyXyXuXyXuXyXyXyXpXdXdXdXsXsXsXsXgXnXmXZXZXZXZXZXDXZXZXgX9XiXNXDXBXCXDXCXBXBXZXDXnXiXsXNXZXBXBXBXBXBXBXBXBXBXBXBXBXBXBXBXZXZXZXBXBXBXBXBXBXBXBXBXBXBXNXNXNXNXBXBXBXBXBXBXBXBXBXBXBXBXBXBXCXCXSXSX+X+X%X%X|.;X|.<X,X;X>X<X>X>X<X;X,X>X>X>X,X>XXX.X X(.).~.^.].`.`.`.(.^.!.^.(.^.!. X(.W.!..X^.I.I.P.I.I.U.Q.Q.U.I.I.I.I.U.U.U.U.U.I.I.I.I.P.5.H.P.W.I.5.2.P.I.I.P.,.2.H.H.2.1.2.J.1.J.H.<.1.2.2.2.4.4.4.4.4.4.4.4.4.4.4.4.4.4.4.4.4.4.=.' 1.4.1.2.5.5.[ ` <.4.2.H.2.' >.' >.J.2.T R T >.1.' T R ` ' L R R T ' >.,.T T T R R R R T R R R R R R R R ` ` ` ` ` ` ` ` R R E E E E R R R R R R R R R R ` ` ` ` ` ` ` ` ` ` ` ` ` ` ` ` ` ` ` ` ` ` ` ` ` ` ` ` ` ` ` ` ",
"` ` ` ` ` ` ` ` ` ` ` ` ` ` ` ` R R R R R R R R R R R R R R R R R R R R E E E E R R R R E E E E R R R R R R R R R R R R R R R R R T ` ` R ` ` R ` ` ' >.' E R K [ E W T T [ <.E Q E >.<.E T [ G.<.3.3.<.<.] R <.1.3.<.<.G.G.1.1.2.2.G.G.2.G.G.G.G.G.G.G.G.G.2.2.4.H.H.4.2.2.4.4.I.W.J.<.3.2.1.2.1.J.2.H.P.5.H.P.H.J.Y.I.I.I.I.I.I.I.I.I.I.I.I.I.R.U.I.I.U.R.P.J.~./.`.^.Q.~.(. X~.`.(.!.~..X.X(.(. X X(. X).(..X>X:XXXXX;X>X>X>X-X>X;X>X,X-X>X>X;X,X:X1X%X4X4X$X*XcXSXNXVXNXDXBXMXMXMXMXBXBXBXBXBXBXBXBXBXBXZXZXCXCXBXCXZXmXCXmXsXnXnXsXnXnXdX7XyXyXyXyXyXyXyXyXiXyXiXiXpXpXyXyXyXyXyXyXyXyXyXyX7XyXdXsXdXdXdXdXsXsXsXsXsXsXsXsXsXsXsXsXsXsXsXsXgXsXnXgXyXyXiXyXuXuXuXuXyXuXyXyXyXuXiXiXdXdXdXsXgXnXnXNXNXNXNXNXDXCXCXmXgXnXCXDXCXBXmXnXnXNXBXZXNXgXnXZXCXBXBXBXBXZXBXBXBXBXZXBXBXBXBXBXZXZXBXBXBXBXBXBXBXBXBXBXBXBXNXNXNXNXZXZXBXBXBXBXBXBXBXBXBXBXBXBXBXBXBXSX0XwXxXxXxXxX1X<X<X>X,X<X<X,X>X>X>X,X>X>X>X>X-XXX;X-X-X.X.X.X.X X(. X X(. X(.(.(.^. X'.'.'.W.P.R. X^.R.P.I.I.I.R.I.I.U.U.U.U.U.U.I.I.I.I.I.P.Y.I.I.I.P.P.P.H.J.I.J.J.H.H.H.J.H.2.2.Y.Y.2.2.H.H.H.4.4.4.4.4.4.4.4.4.4.4.4.4.4.4.4.4.H.,.>.4.4.2.H.2.1.' ` 1.H.2.4.>.' <.<.' R T [ <.` R R L T ' R ' ` 1.>.T R R T R R T T T T R T R R R R R R R R ` ` ` ` ` ` ` ` R R E R E E R R R R R R R R R R ` ` ` ` ` ` ` ` ` ` ` ` ` ` ` ` ` ` ` ` ` ` ` ` ` ` ` ` ` ` ` ` ",
"` ` ` ` ` ` ` ` ` ` ` ` ` ` ` ` R R R R E E R R R E R R R R R R R E E R E E E E R R R R E E E E R R R R R R R R R R R R R R R R ` R ` ` R ` ` T ` ` [ >.>.' ' R E T ' >.[ [ [ [ G.E T [ <.[ E T 2.G.1.3.<.R E 3.2.<.[ >.2.J.2.2.2.2.2.2.2.2.G.G.G.G.2.2.2.2.2.2.1.2.H.2.1.1.1.2.J.I.5.1.J.I.P.P.H.R.Y.J.P.J.Y.I.I.I.Y.Y.I.I.I.U.I.I.I.I.I.I.I.U.R.U.U.I.U.U.U.U.(.!.'..X(.^.^.^.^.(.^.!.~. X.X'.(. X.X.XXX.X.X:X<X,X>X>X>X,X>X;X<X<X>X<X,X-X<X<X;X<X1X1X4XIXKXKXbXSXSXNXDXBXBXCXMXMXMXMXBXBXZXZXZXZXZXZXBXBXBXBXBXBXmXBXMXmXBXhXrXyXyXyXyXyXyX7XyXyXyXyXyXyXyXyXyXyXyXyXyXyXyXyXpXyXpXpXyXyXyXyXyXyXyXyX7X7XyXyXrXrXrXrXeXeXeXeXyXyXyXyXyXyXyXyXyXrXyXyXyXyXyXyXuXuXyXyXyXyXyXyXyXyXyXyXiXdXdXdXgXnXmXNXBXBXBXBXCXCXCXCXBXZXCXNXFXBXnXnXnXBXZXZXDXnXmXDXDXBXBXBXZXZXBXBXBXBXBXZXZXBXBXBXBXBXBXBXBXBXBXBXBXBXBXBXBXBXBXBXNXNXNXZXBXBXBXBXBXBXBXBXBXBXBXBXBXBXBXNXFXFXKXHXJXPX$X%X<X<X>X;X,X;XXX;X;X;X-X;X>X>X>X>X,X,X>XXX X`.`.^.(.(. X X(.(.(.(.'. X(.(.'./.U.Q.XX(.R.I.U.I.U./.U.U.U.U.U.U.I.I.I.I.I.I.I.R.I.P.5.P.I.W.Y.1.2.I.W.Y.H.2.J.I.J.1.3.Y.Y.2.1.2.2.5.2.2.2.2.2.2.2.2.4.4.4.4.2.2.4.4.2.H.4.2.4.,.<.H.1.2.>.>.3.3.<.3.>.<.1.1.<.` R 2.I.1.` T R ,.4.>.T R 1.=.T R R L E R R T T T T T R R R R R R R R ` ` ` ` ` ` ` ` R R R R R R R R E E R R R R E E ` ` ` ` ` ` ` ` ` ` ` ` ` ` ` ` ` ` ` ` ` ` ` ` ` ` ` ` ` ` ` ` ",
"` ` ` ` ` ` ` ` ` ` ` ` ` ` ` ` R R R R E E R R R R R R R R R R R E E E E E E E R R R R E E E E R R R R R R R R R R R R R R R R ` ` ` T T R R K ` R E E ` ' >.<.T E 3.J.>.E [ >.J.' Q ' G.H.<.E 3.H.2.<.<.<.<.G.1.>.' ' <.2.2.3.2.2.2.2.2.2.G.G.G.G.2.2.2.2.2.2.1.2.2.2.2.4.4.4.I.J.2.4.P.5.>.>.Y.R.H.2.J.H.Y.I.W.I.I.I.I.U.U.U.I.I.I.I.I.U.U.U.P.U.R.U.I.U.~..X(.U.R.(. X.X(.!. X!./.(. X(.(..X(.(.(.XX;X;X;X<X>X;X>X>X>X>X;X-X<X:X-X;X-XXX-X|.%X%X|.B.@XxXKXHXHXFXNXNXZXNXmXCXMXMXMXBXBXBXZXZXBXBXBXBXBXBXBXBXBXCXBXDXDXCXCXmX7XyXyXyXyXyXyXyXyXyXyXyXyXyXyXiXyXyXyXyXpXiXyXyXyXyXyXyXyXyXyXyXyXyXyXrX7X7XeXyXyXyXyXyXyXyXyXyXyXyXyXyXyXyXyXyXyXyXyXyXyXyXyXyXyXyXyXyXyXyXyXyXyXyXyXyXyXiXiXyXgXnXmXBXBXZXCXCXDXDXDXDXDXDXCXZXDXBXnXnXNXZXZXBXDXBXBXDXDXBXZXZXZXZXBXBXBXBXZXZXZXBXBXBXBXBXBXBXBXBXBXBXBXBXBXBXBXBXBXBXNXNXZXZXBXBXBXBXBXBXBXBXBXBXBXBXBXBXBXNXNXNXNXSXGXvX%X|.1X,X,X;X;X<X,X>X>X;X;X;X>X>X,X,X>X,X>XXX`.^.^.^. X(.(.(.(.(.(.(..X(.!.!.^.^.~.^.!./.Q.!.~.Q.I.R.U.U.U.U.U.I.I.I.I.R.R.I.I.R.Y.5.1.J.R.Q.I.2.2.P.I.I.J.H.J.Y.Y.2.2.J.J.1.1.2.2.3.2.2.2.2.2.2.2.2.4.4.4.4.4.4.4.4.1.4.5.4.,.` ' 2.2.H.4.2.3.>.[ <.2.2.2.3.>.` R ` 2.' R R ` >.1.>.' R ' R T =.=.=.' E R T T T R R R R R R R R R R ` ` ` ` ` ` ` ` R R R R R R R R E E E R R R E E ` ` ` ` ` ` ` ` ` ` ` ` ` ` ` ` ` ` ` ` ` ` ` ` ` ` ` ` ` ` ` ` ",
"` ` ` ` ` ` ` ` ` ` ` ` ` ` ` ` R R R E E R R R R R R R R R R R R R R R R R R R R R E R E E E E R R R R R R R R R R R R R R R R ` ` ` R R ' ' T ` E T T T ` [ >.T ' G.G.' T ' E [ <.<.<.>.>.<.G.<.<.>.>.1.3.3.3.1.<.<.<.<.3.2.3.2.2.2.2.2.2.2.2.4.2.2.2.4.4.4.4.H.2.3.H.Y.I.Y.J.<.1.2.5.J.J.H.P.Y.Y.1.H.Y.H.H.Y.I.I.I.I.U.W.W.U.I.I.U.U.U.U.U.U.I.I.U.R.R.R.~.XX(.R.W.(.^.^. X(. X!.~..X.X(.(..X X(.(.XX1X<X;X1X;X>X>X>X,X,X>X>X;X:X:X1X:X2XzX2X3X3X*X3X3XbXNXVXNXNXNXNXNXNXMXCXBXBXBXBXBXBXBXZXZXZXZXZXBXBXBXBXCXCXmXmXBXmXmXsXyXyXyXyXyXyXyXyXyXyXyXyXyXiXiXiXyXyXyXyXyXyXyXyXyXyXyXyXyXyXyXyXiXiXiXyXyXyXyXyXyXyXyXyXuXuXyXuXuXyXuXyXuXuXuXuXuXuXyXyXuXuXyXyXyXyXyXyXyXyXyXyXyXyXyXyXpXpXyXyXsXgXnXnXnXnXnXnXnXnXmXnXnXnXmXBXBXBXNXBXBXZXBXNXDXBXBXDXZXBXZXZXBXBXBXBXBXBXBXBXZXZXBXBXBXBXBXBXBXBXBXBXBXBXBXBXZXZXZXBXBXBXZXZXBXBXBXBXBXBXBXBXBXBXBXBXBXBXBXBXnXNXbXbXVXbX3X3X2X-X<X<X:X<X,X-X,X>X>X>X>X>X,X,X,X,X,X-XXX.X.XXX-X(.).(. X X.X'.^.(.~.~.~.~.^..XQ.!.~.`.`./.P.P.U.U.U.U.U.I.I.I.I.I.I.Y.I.R.Y.5.2.P.P.J.P.P.J.J.2.Y.Y.J.2.5.P.I.5.H.5.2.H.Y.Y.H.2.2.2.2.2.2.2.2.4.4.4.4.4.4.4.4.2.4.4.4.>.R ' 2.2.1.1.2.2.<.[ <.4.1.2.4.[ ' >.` ` T ' ,.=.R ` R J.' T T T ' ' >.' ' R R R R R R R R R R R R R R ` ` ` ` ` ` ` ` E E R R R R E E R R R R R R R R ` ` ` ` ` ` ` ` ` ` ` ` ` ` ` ` ` ` ` ` ` ` ` ` ` ` ` ` ` ` ` ` ",
"` ` ` ` ` ` ` ` ` ` ` ` ` ` ` ` R R R E E R R R R R R R R R R R R R R R R R R R R R E E E E E R R R R R R R R R R R R R R R R R R R ` R ` <.<.' T T R E ' ` R E E W ' ' E [ >.' T <.G.>.T Q [ 3.<.] ] <.2.>.[ <.1.1.2.2.3.3.2.2.2.2.2.2.2.2.4.2.4.2.2.2.4.4.4.2.H.3.1.H.Y.R.I.H.2.I.R.H.2.J.Y.I.J.J.1.J.W.J.2.H.Y.Y.I.I.W.W.U.U.I.I.I.U.U.U.U.U.R.I.U./.~.!.Q.Q.~.^.'.'.R.I.^..X(.(.`.'. X.X X(..XXXXX-X1X<X;X;X>X>X>X>X>X;X>X;X;X:X:X:X%X3XLXLXLXJXKXHXSXFXZXmXnXmXDXZXBXCXBXCXBXBXBXBXBXBXZXZXCXCXCXCXZXZXBXBXBXBXyXyXyXyXyXyXyXyXyXyXyXyXyXyXyXyXyXyXiXiXiXiXyXyXyXyXyXyXyXyXyXyXyXyXyXyXyXyXyXyXyXyXyXyXyXyXyXyXyXyXyXyXyXyXuXyXyXyXyXyXyXyXuXuXyXyXuXuXyXyXuXuXyXyXyXyXyXyXyXpXpXiXpXiXyXyXyXiXiXiXyXyXyXyX9XyXyXrXyXyXsXBXBXCXDXDXDXDXCXZXCXNXBXDXBXBXZXZXBXBXBXBXBXBXBXBXBXZXBXBXZXBXBXBXBXBXBXBXBXBXBXBXZXZXZXBXBXBXZXBXBXBXBXBXBXBXBXBXBXBXBXBXBXBXBXBXBXCXZXZXNXFXAXLXxX%X:X1X-X-X:X<X,X,X>X>X>X>X>X>X,X,X,X,X>X>X>X>X>X(.^.(.(. X.X(.(.^.~.^.`.(.~./.~.(.^.~.^.!.Q.Q.U.U.U.U.U.U.I.I.I.I.I.I.R.W.R.P.P.I.H.1.5.I.I.P.<.J.I.Y.2.3.J.R.5.2.2.2.J.W.W.J.4.4.4.4.4.4.4.4.4.4.4.4.4.4.4.4.4.4.4.H.1.>.1.J.1.` R <.J.4.<.<.J.' ` 4.2.3.H.>.R R 1.K.<.T T R 4.R Q T T T L R ' E R R R R R R R R R R R R R R ` ` ` ` ` ` ` ` E E E R R R R E R R R R R R R R ` ` ` ` ` ` ` ` ` ` ` ` ` ` ` ` ` ` ` ` ` ` ` ` ` ` ` ` ` ` ` ` ",
"` ` ` ` ` ` ` ` ` ` ` ` ` ` ` ` R R E E R R R R R R R R R R R R R E R R R R R R R R R R R R R R R R R R R R R R R R R R R R R R R ` ` R ` <.1.' K R E ' [ ' T T E Q T E ' <.3.>.W [ [ [ [ ' >.3.3.' ' 3.2.[ ' >.1.<.2.G.1.2.2.1.3.3.2.2.2.4.4.2.4.4.2.2.2.2.2.2.2.2.2.H.J.J.H.5.4.Y.P.3.1.J.K.4.2.H.1.5.Y.5.2.2.I.I.U.U.U.U.U.U.I.U.U.U.U.U.U.U.W.I.U.~.'.^.Q.I.!.(. X'.U.P.(. X(. X(.(.(..X X(..X;X<X;X<X<X<X>X>X>X>X;X;X;X>X;X>X-X1X%X|.*XKXFXSXNXbXZXnXBXmXmXCXBXDXCXBXCXBXBXBXBXBXBXBXBXZXZXZXZXZXZXBXBXBXBXBXBXyXyXyXyXyXyXyXyXyXyXyXyXyXyXyXyXyXyXyXyXiXiXyXyXyXyXyXyXyXyXyXyXyXyXyXyXyXyX9X9XyXyXyXyXeX7XyXyXuXuXuXuXuXuXuXuXuXuXuXuXuXuXyXuXyXyXuXyXyXuXyXyXyXyXyXyXyXyXyXyXyXyXyXyXyXyXyXyXyXyXyXyXyXyXyXpXyXyXuXuXhXCXCXCXCXCXCXCXCXDXBXBXBXDXBXBXCXBXBXBXZXZXBXBXBXBXBXBXBXBXZXZXBXBXBXBXBXBXBXBXBXBXBXBXBXBXBXBXBXBXBXBXBXBXBXBXBXBXBXBXBXBXBXBXBXBXNXNXmXBXgXNXSXHX3X+X+X%X%X%X%X:X>X>X>X>X>X;X:X;X,X,X,X>X>X,X,X,X>X(.(. X(.(.'.(..X^.~.^..X.X~.I.(. X^.W./.~.(.`.I.I.U.U.U.U.U.U.R.I.I.I.R.R.R.R.R.R.J.2.H.Y.Y.P.H.H.Y.Y.J.2.H.Y.H.2.2.2.H.I.I.5.4.4.4.4.4.4.4.4.4.4.4.4.4.4.4.4.2.2.4.4.4.4.H.H.1.` R <.H.4.3.3.Y.[ K >.4.2.<.P ' ' 1.4.' T T R ` T ' R T T K R R R T T T R T T R R R R R R R R ` ` ` ` ` ` ` ` E R R R R R R R R R E E R R R R ` ` ` ` ` ` ` ` ` ` ` ` ` ` ` ` ` ` ` ` ` ` ` ` ` ` ` ` ` ` ` ` ",
"` ` ` ` ` ` ` ` ` ` ` ` ` ` ` ` R R R R R R R R R R R R R R R R E E R R R R R R R R R R R R R R R R R R R R R R R R R R R R R R ` ` ` T R >.>.E ` ' ' E ' E T E [ W E >.[ [ >.' 3.<.<.3.H.1.>.G.3.<.3.2.3.<.<.>.3.<.3.G.2.2.H.1.3.3.2.2.2.4.4.2.4.4.2.2.2.2.2.2.2.J.Y.K.4.1.2.H.U.H.1.4.P.R.K.,.J.R.J.J.I.P.I.I.I.U.U.U.I.I.U.R.I.I.U.U.U.U.U.U.U.I.R.^. X(.~.!.^.(.~.(.^.^.XX)..X(.^.(. X(.(. X(.;X<X;X;X>X<X,X>X,X,X,X>X<X<X<X:X:X2XUX3XwXFXNXZXMXmXCXnXCXZXCXCXmXMXmXmXCXmXBXBXBXBXBXBXBXZXZXZXNXBXmXNXmXmXmXnXnXyXyXsXuXyXyXyXyXyXyXyXyXyXyXyXyXyXyXyXiXiXdXnXnXnXnXnXnXnXnXnXnXnXnXnXnXnXnXnXnXnXnXmXmXnXgXyXyXyXyXyXyXyXyXuXuXuXuXuXuXuXuXyXuXuXyXuXyXyXuXyXyXyXyXyXyXyXyXyXyXyXyXyXyXyXyXyXpXdXdXdXsXsXsXyXyXyXyXyXyXuXmXBXmXnXnXnXmXNXBXBXBXCXDXBXBXBXBXBXBXZXZXZXBXBXBXBXBXBXBXZXZXBXBXBXBXBXBXBXBXBXBXBXBXBXBXBXBXBXBXBXBXBXBXBXBXBXBXBXBXBXBXBXBXBXBXCXBXBXDXnXZXNXSXbX0XvXxXxXIX3X1X:X>X>X>X>X>X;X;X>X>X>X>X>X,X,X>X>X.X.XXX X`..X'.(.(.`.`.~.~.~.!.(..X(.R.W.~.(.(.I.I.I.U.U.U.U.U.Q.I.I.R.R.I.Y.I.I.I.P.P.P.J.J.P.I.J.5.Y.I.J.2.2.P.J.J.H.2.J.Y.1.4.4.4.4.4.4.4.4.4.4.4.4.2.4.4.4.2.2.2.4.4.J.4.1.4.>.>.2.2.<.<.4.<.H.>.>.2.H.2.' 1.<.1.<.R R >.=.L ' 2.>.' R T >.T T T T T T T T R R R R R R R R ` ` ` ` ` ` ` ` R R R R R R R R R R R E E E R R ` ` ` ` ` ` ` ` ` ` ` ` ` ` ` ` ` ` ` ` ` ` ` ` ` ` ` ` ` ` ` ` ",
"` ` ` ` ` ` ` ` ` ` ` ` ` ` ` ` R R R R R R R R R R R R R R R R E R R R R R R R R R R E R R R R R R R R R R R R R R R ` R R R T ' R T R T E E Q ' K <.J.T ' J.[ Q T >.K.J.T Q >.H.<.<.[ >.G.<.<.3.G.3.[ ' <.1.<.2.2.2.2.2.2.2.2.G.3.G.H.2.2.4.1.J.J.2.1.2.G.3.3.2.Y.2.4.2.<.2.H.J.2.2.2.4.5.J.5.5.J.J.P.P.P.I.I.I.I.I.I.I.I.I.U.U.U.P.I.Q.R.P.I.R.Q.Q./.U.R.'.'.!.U.W.(. X(.(.).^.(. X(.!.(.-X<X>X>X>X;X>X>X,X,X<X>X,X<X<X<X1X1X:X%X3XKXJXFXDXMXMXMXMXMXMXBXNXBXMXMXMXMXBXBXBXBXBXCXCXBXBXBXBXNXBXBXCXNXiXyXyXyXyXyXyXyXyXuXuXyXyXpXyXrXyXyXyXyXyXyXyXyXyXuXnXBXBXBXBXBXCXCXDXDXDXDXDXDXDXDXDXDXDXCXDXCXBXDXCXsXyXyXuXuXyXyXfXfXyXyXuXuXuXuXuXuXyXuXyXyXdXsXuXyXyXyXyXyXyXyXyXyXyXyXyXyXyXyXyXyXyXyXyXsXMXBXBXBXpXyXyXpXiXrXpXmXDXNXyX7XyXyXdXBXBXBXCXDXBXBXBXNXBXBXBXBXBXmXBXBXBXmXBXBXBXBXBXBXCXDXCXBXBXBXBXBXBXBXBXBXBXBXBXBXCXBXBXCXmXmXBXBXBXBXBXBXBXBXBXBXBXBXBXMXMXMXmXNXDXDXFXFXKXLXxX%X1X<X<X:X;X>X>X>X,X<X,X>X>X,X,X,X>X,X<X-X^.^..X.X X.X X`.(.`.`.`.(.^.!.^..X~./.'.(.(.Q.Y.I.R.U.U.I.R.I.I.I.R.R.R.I.I.I.I.I.J.1.2.W.W.Y.1.1.Y.I.H.<.J.Y.H.3.2.H.H.1.4.R.!.R.J.4.4.4.1.4.4.1.2.J.4.4.4.4.4.4.4.2.2.2.H.J.2.` ` <.4.<.' >.2.1.<.2.5.<.T R >.R R 1.>.T =.H.>.K L =.K.' T ` ' T ' >.R R ` R T ` R T T R R R R R R R R R R R R R R R R R R R R E E E R ` ` ` ` ` ` ` ` ` ` ` ` ` ` ` ` ` ` ` ` ` ` ` ` ` ` ` ` ` ` ` ` ",
"` ` ` ` ` ` ` ` ` ` ` ` ` ` ` ` R R E E R R R R R R R R R R R R E E R R R R R R R R E E R R R R R R R R R R R R ' R ' ' R ` ' R R R ` ` T T E R E R ' E T [ >.E E ' >.3.<.E E <.H.>.E Q E <.3.H.3.2.3.[ [ <.3.1.2.2.2.2.2.2.2.2.G.3.3.2.1.1.4.4.2.4.4.4.J.J.J.J.J.I.H.J.Y.4.5.5.~.Y.2.1.2.J.R.Q.H.J.J.P.I.I.R.R.I.I.I.I.I.I.U.U.I.W.R.R.Q.R.U./.R.Q.Q.!.R.U.`..X~.W./.`. X`.(.(.(.(. X X.XXX;X>X>X,X<X<X,X,X<X<X<X,X;X-X|.%X%X|.+XB.3XAXFXDXBXMXMXMXMXMXMXBXBXBXMXMXMXMXBXBXBXBXBXDXDXBXBXDXDXCXDXDXDXBXsXyXyXyXyXyXyXyXuXuXyXyXyXyXyXyXyXyXrXyXyXyXyXyXpXdXnXmXDXDXDXDXCXCXBXCXBXBXBXBXBXBXBXBXCXBXCXBXBXDXBXnXyXyXyXuXyXyXfXfXyXyXyXyXyXyXyXyXyXuXyXyXyXyXyXyXyXyXyXyXyXyX9XyXyXyXyXyXyXyXyXyXrXrXyXsXmXBXBXCXyXrXrXyXrXrXyXgXBXNXiX9XiXyXsXCXCXBXCXBXBXBXDXBXDXCXDXDXCXCXCXDXDXDXCXCXCXCXCXCXmXBXBXBXBXBXBXBXBXBXBXBXBXZXZXZXCXBXCXCXBXBXCXCXBXBXBXBXBXBXBXBXNXmXMXMXMXMXMXMXZXmXNXVXVXGXxX%X%X|.|.%X:X;X,X>X>X;X;X;X>X>X,X,X>X,X,X;X.X.XXX`.'.'.'.(.(.`.'.'.^.(.!.~.(./.R.!.(.^.Q.I.U.U.U.R.R.R.I.I.I.I.R.R.I.I.I.I.R.P.5.J.J.Y.I.J.H.H.Y.J.J.J.P.J.5.2.2.2.1.2.P.R.J.4.2.1.J.4.J.J.1.2.4.1.4.4.4.4.4.4.2.2.3.2.5.1.' ' <.4.2.<.1.3.1.2.2.>.2.' ` >.=.` >.' =.=.,.>.` ' >.4.R K L T T =.1.' P R R T ` R T ` R R R R R R R R R R R R R R R R R R R R R R E R ` ` ` ` ` ` ` ` ` ` ` ` ` ` ` ` ` ` ` ` ` ` ` ` ` ` ` ` ` ` ` ` ",
"` ` ` ` ` ` ` ` ` ` ` ` ` ` ` ` R R E E R R R R R R R R R R R R ` ` ` ` ` ` ` ` ` ` ` ` ` ` ` ` R R R R R R R R ' ` ' ` R R ` T T ' <.<.' T E ' <.3.' T [ >.E W >.>.[ E E ' [ [ >.[ >.[ >.3.3.G.1.2.3.>.<.2.2.1.2.2.2.2.2.2.2.2.G.3.2.2.1.1.1.1.>.1.1.,.3.3.G.K.J.J.4.J.Y.J.H.5.I.K.4.4.4.1.,.1.J.J.J.Y.P.I.I.I.I.I.I.I.U.U.U.U.I.R.R.I.I.P.P.U.U.R.Q.(.!.R.^. X`.!.~.`.'.'.(.(. X(.(..X;X;X;X>X>X,X,X,X,X,X,X<X:X<X2X:X1XxXxXUXxXwXqXSXDXBXMXMXMXMXBXBXBXBXBXBXMXMXMXMXBXBXZXZXBXBXNXnXVXmXmXnXnXnXnXhXiXyXyXyXyXyXuXuXuXyXyXyXyXyXyXyXpXyXyXhXmXmXmXmXmXmXmXmXmXmXmXnXnXnXnXhXsXsXsXsXsXsXsXsXsXsXsXsXsXsXdXyXyXyXuXuXuXyXuXuXuXuXuXuXuXuXuXyXuXuXuXyXyXyXdXmXmXmXmXmXmXmXmXmXgXnXnXnXnXnXgXgXhXhXhXpXpXmXBXCXmXMXmXmXhXhXnXMXBXBXsXiXdXyXyXnXsXsXsXiXdXmXBXmXgXsXsXhXgXsXsXgXhXhXsXdXgXMXBXBXBXBXBXCXBXBXBXBXBXBXBXBXBXBXCXCXBXBXBXBXmXBXBXBXBXBXBXBXBXBXBXBXmXmXmXmXBXBXBXBXBXnXmXnXVXSXAXwXxXwXxXxX2X-X;X;X<X,X,X>X,X>X>X>X,X>X>X>X;X;XXX(.(.(.(.(.(.(.'..X(..X(.^.`.~./.!.~.~.!././.R.U.R.I.I.I.I.I.I.R.R.I.I.I.I.R.I.P.I.1.J.I.I.J.2.5.P.W.Y.H.J.P.J.2.1.Y.J.J.J.J.K.J.1.4.4.H.H.2.2.4.1.4.4.4.4.4.4.2.2.5.2.4.2.<.<.4.4.H.2.2.1.<.2.1.` 2.H.1.1.=.K T =.,.' ' R ' >.' ' R L R ' T ' >.R P R R R R R R ` R R R R R R R R R R R R R R R R R R R R R R R R ` ` ` ` ` ` ` ` ` ` ` ` ` ` ` ` ` ` ` ` ` ` ` ` ` ` ` ` ` ` ` ` ",
"` ` ` ` ` ` ` ` ` ` ` ` ` ` ` ` R R R E R R R R R R R R R R R R ` ` ` ` ` ` ` ` ` ` ` ` ` ` ` ` R R R R R R R R ` R R R T R R L R ' 3.2.>.E E E <.[ W E [ E T W G.3.[ T ' [ ' W E >.G.H.G.G.<.3.1.2.2.<.1.2.2.1.2.2.2.2.2.2.2.2.3.3.H.H.2.1.,.,.J.P.K.4.2.1.G.I.H.H.H.J.J.5.5.J.K.E.E.E.E.Q.Q.R.I.I.P.P.I.I.I.Y.U.U.U.U.U.U.U.U.R.R.U.U.W././.Q.U.R.Q. X'./.!.~..X(.(.`.(.`.(.).(.^.^.XX>X,X>X>X;X>X,X,X,X,X,X,X<X1X<X%X2XPXLXKXHXFXNXNXCXBXMXCXBXBXBXBXBXBXBXBXBXMXBXBXBXBXZXZXBXmXnXdXyXyXyXyXyXyXyXyXyXyXpXyXyXyXuXuXuXyXyXyXyXyXrXyXyXyXdXBXBXBXBXBXmXnXsXdXyXyXyXyXyXyXyXyXyXyXyXyXyXyXyXrXuXyXyXyXyXyXyXyXyXyXyXyXyXyXyXuXuXuXuXuXuXyXyXyXyXyXyXyXyXyXsXDXDXDXDXDXDXDXDXDXBXDXDXCXDXCXBXCXDXCXMXiXrXsXMXCXBXCXCXBXBXBXBXBXBXBXnXnXnXsXiXsXyXyX9X7XyXmXDXBXyXrXrXyXyXyXyXyXyXyXyXrXsXBXDXBXDXDXDXCXBXBXBXBXBXBXBXBXBXBXZXZXmXBXBXBXBXBXBXBXBXBXBXBXBXBXBXBXmXmXmXmXBXBXBXBXBXmXBXZXNXFXHXSXHXFXLXLX2X_.;X<X<X,X,X>X,X,X,X>X,X>X>X>X,X,X-X X.X X X(.(.(.`. X(..X`.^.(.'.(.(.R.W.!.^.~.R.P.I.I.I.I.I.I.R.R.R.I.I.I.I.I.I.I.R.2.J.P.J.H.4.H.J.U.J.4.H.Y.Y.H.3.Q.P.4.1.H.I.P.J.1.1.2.2.2.4.4.2.4.4.4.4.4.4.2.2.H.2.2.4.2.2.3.<.2.3.2.1.[ >.<.` 1.2.,.1.>.T ' >.' T L K R ' T T T R ,.1.R Q R T ` ] ` R R R R ` R R R R R R R R R R R R R R R R R R R R R R R R ` ` ` ` ` ` ` ` ` ` ` ` ` ` ` ` ` ` ` ` ` ` ` ` ` ` ` ` ` ` ` ` ",
"` ` ` ` ` ` ` ` ` ` ` ` ` ` ` ` R R E E R R R R R R R R R R R R ` ` ` ` ` ` ` ` ` ` ` ` ` ` ` ` R R R R R R R R R R R T R ' =.R T R ' ' ` E R T ' Q ' >.T E <.' 3.3.<.>.<.<.>.>.>.3.<.<.<.<.<.G.1.2.2.3.3.2.2.1.2.2.2.2.2.2.2.2.1.H.J.4.4.J.K.K.6.4.,.,.J.H.H.Y.J.5.P.P.J.4.4.J.E.P.' S A I R T E.I.I.I.R.R.R.I.U.U.U.U.U.U.U.U.I.I.I.U.W.^.(.(.~.!.Q.'..X~.~.~. X(.(.(.^.(.(.^. X.X.X-X,X>X;X<X>X,X,X,X,X,X,X<X1X-X4X|.@XvXKXSXNXZXBXBXCXBXmXBXBXBXBXBXBXBXBXBXBXBXBXBXBXBXZXZXDXmXsXaXyXyXaXyXyXyXyXyXaXaXyXyXyXyXuXuXyXyXyXyXyXyX7XyXyXyXdXmXBXBXBXBXnXyXyXyXyXyXyXyXyXyXyXyXyXyXyXyXyXyXyXyXyXyXyXyXyXyXyXyXyXyXyXyXyXyXyXyXeXeXeXeXeXeXeXrX7X9X9X9XrX7XiXBXBXZXBXBXBXBXBXBXBXDXCXBXCXDXBXCXBXCXmXiXrXsXMXCXMXCXCXBXBXCXBXBXBXBXBXBXBXBXBXBXyXyXyX7XyXmXDXBXyXrXyXyXyXyXyXyXrXyXyXyXsXBXBXmXBXnXmXmXmXBXBXDXBXBXBXBXBXBXBXBXBXBXBXBXCXCXBXBXBXBXBXBXBXBXBXBXmXmXMXNXBXBXSXSXCXNXBXBXnXVXSXSXNXbXFXGX$Xr.%X%X;X;X;X>X,X,X,X,X>X>X>X>X>X>X;X-XXX.X.X.X X(.(.(.^.`.^./.~.(.`.(.R.R.!.^.~.R.I.I.I.I.I.R.I.I.I.I.I.I.I.I.I.I.R.I.Y.I.H.2.J.Y.Y.Y.2.J.P.H.H.Y.Y.Y.J.K.H.1.4.J.J.H.4.4.2.1.4.4.4.4.4.4.4.4.4.4.2.2.4.1.1.2.3.1.>.R 1.1.H.2.' ` <.<.2.` T >.1.1.4.=.K K T K T R T ' K R <.,.R L T R ' R T T T R R R R R R R R R R R R R R R R R R R E E R R R R R R ` ` ` ` ` ` ` ` ` ` ` ` ` ` ` ` ` ` ` ` ` ` ` ` ` ` ` ` ` ` ` ` ",
"` ` ` ` ` ` ` ` ` ` ` ` ` ` ` ` R R E E R R R R R R R R R R R R ` ` ` ` ` ` ` ` ` ` ` ` ` ` ` ` R R R R R R R R R R R R ' ,.1.>.R T T T T E ' E E Q <.<.Q [ G.' ' >.<.<.3.<.<.G.G.G.[ ' <.<.3.<.>.1.2.2.3.3.2.1.2.2.2.2.4.2.2.2.2.H.=.J m m 4 5 C C 4 J 4.P.J.J.P.4.J.K.K.J.4.J.Q.4.S % $ 6 % % 5.J.P.I.I.I.I.R.U.U.U.U.I.I.I.I.I.R./.R.I.W.^.(.'.(./.(..X(.(.`.(.(.'.^.^.(.(.^.XX;X;X;X,X>X;X<X<X,X<X,X<X<X,X<X-X%XUX3X3XbXSXNXNXCXBXMXBXBXMXBXBXBXBXBXBXBXBXBXBXBXBXBXBXBXZXZXCXmXdXaXaXaXaXsXuXaXyXyXaXyXyXyXyXyXuXuXyXyXyXyXgXsXsXnXmXsXiXdXsXnXmXnXdXyXyXyXyXpXpXpXyXiXiXpXpXpXpXpXuXuXuXuXyXuXyXyXdXsXdXsXsXsXsXdXdXsXsXsXsXsXsXsXsXsXsXsXsXgXsXsXsXdXgXZXZXZXZXZXZXZXZXBXNXBXmXgXmXBXBXBXmXMXMXhXgXhXmXmXmXmXMXBXCXCXCXBXBXBXCXCXDXBXBXBXsXsXsXdXdXmXBXmXpXdXsXsXpXyXyXyXyXyXyXyXyXsXdXyXyXyXyXyXdXnXBXCXBXBXBXBXBXBXBXBXCXBXnXnXBXCXBXmXBXBXBXBXBXBXBXBXMXmXMXBXBXBXBXBXCXBXZXBXnXbXNXNXCXbXNXGXwX3X3X%X1X<X<X,X,X,X>X>X>X,X>X>X>X>X;X>X;X-X-X-X.X(.^.(.`.`.^.!.!.^.(.^.(.~.^.(.~.!.~.!.I.I.I.R.I.I.I.I.I.I.I.I.Y.I.I.I.I.W.H.1.P.W.W.I.>.J.R.J.3.5.Y.U.,.J.Y.K.H.1.1.H.P.Y.J.4.H.4.2.4.4.4.4.4.4.4.2.2.4.1.3.2.3.3.>.R 1.1.H.H.>.' 1.3.2.` R ,.1.,.1.' T ' >.` E R T >.T T R ` T T R R R T T T T R ` T R R R R R R R R R R R R R R R R E E R R R R R R ` ` ` ` ` ` ` ` ` ` ` ` ` ` ` ` ` ` ` ` ` ` ` ` ` ` ` ` ` ` ` ` ",
"` ` ` ` ` ` ` ` ` ` ` ` ` ` ` ` R R R E R R R R R R R R R R R R ` ` ` ` ` ` ` ` ` ` ` ` ` ` ` ` R R R R R R R R R R R R ` ,.1.=.R E [ [ ` ` [ >.[ E [ >.' E [ E [ [ ' ' <.3.<.<.[ 3.>.<.J.G.<.>.E >.3.2.2.1.2.2.2.2.2.2.4.4.2.2.1.J.' 5 $ < 5 < * $ $ C ,.P.K.R.K.T L T ,.K.K.K.K S 5 < 4 < $ 4 ,.2.P.I.I.P.I.I.U.U.I.I.I.I.I.I.~.(.'.~.R.!.`.(.^.`.!.(..X(.'. X^.(.'.(.^.(. X^.XX,X<X;X,X,X;X,X<X<X<X<X<X>X>X;X1X1XPXJXAXFXZXZXZXNXNXmXnXMXMXBXMXBXBXBXBXBXBXBXBXBXZXBXBXBXZXZXBXgXyXyXyXaXaXdXyXaXyXyXuXyXyXaXyXyXyXyXyXyXyXdXBXBXBXBXDXBXdXyX7X9XyXyX9X7XyXyXyXyXyXyXyXyXyXyXyXyXyXyXyXyXyXyXuXsXdXdXmXBXBXBXNXNXBXmXnXnXnXnXnXnXnXMXMXBXBXCXBXCXBXBXZXBXBXCXNXNXNXNXNXNXNXNXBXZXnXiXnXZXBXBXBXCXCXCXCXmXhXpXpXpXgXmXBXMXmXMXCXBXBXBXBXBXBXMXBXBXBXBXBXBXDXBXMXMXBXMXgXuXyXuXsXuXuXuXuXuXuXyXyXyXyXyXyXdXnXmXCXCXCXBXBXBXBXBXCXmXiXyXnXBXBXBXBXBXBXBXBXBXBXBXBXBXBXMXMXMXMXBXZXNXZXZXBXBXDXDXZXnXVXFXGXJXKX2X1X;X;X,X<X,X;X;X>X,X>X>X>X>X;X,X>X;X;X;X-X X(.(..X'.`.(.(.(.`.(..X`.'.`.(.(.(.!.I.I.R.R.R.R.I.I.I.I.R.I.P.I.R.P.I.W.P.J.I.Y.J.Y.H.J.Y.J.5.H.J.J.J.K.K.K.K.4.1.H.R.R.J.2.4.4.1.4.4.4.4.4.4.4.2.2.H.2.2.4.2.2.1.>.2.3.4.2.<.1.1.' <.1.1.4.>.Q ` =.>.1.1.<.1.<.T ' ` T L T T R ` ' T R ' ' R T ` R R R R R R R R R R R R R R R R R E R R R R E E R ` ` ` ` ` ` ` ` ` ` ` ` ` ` ` ` ` ` ` ` ` ` ` ` ` ` ` ` ` ` ` ` ",
"` ` ` ` ` ` ` ` ` ` ` ` ` ` ` ` R R R R R R R R R R R R R R R R ` ` ` ` ` ` ` ` ` ` ` ` ` ` ` ` R R R R R R R R ` ` R T T ' =.T T [ G.H.>.E ' [ G.>.E <.K.[ Q G.K.<.T Q >.J.<.E K <.<.G.J.<.<.<.T ' 1.2.2.1.2.H.2.2.2.2.4.4.2.2.1.K.=.5 % < < % 1 3 < C R ,.1.E.5.C $ 5 L 5.[.E.4 5 < 5 3 % > R 1.J.I.R.R.I.I.R.U.I.I.I.I.I.I.I.!./.!./.W.^..X(.U.^.~.(..X(.(.`.^.(.'.).^. X X^. X>X>X-X>X<X;X<X,X,X;X;X:X:X:X%X%X+XvXHXVXNXhXmXNXNXDXDXBXMXMXnXMXBXBXBXBXBXBXBXBXBXBXBXBXBXZXBXBXsXyXyXyXyXyXuXaXsXdXyXuXyXeXyXyXyXyXyXrXyXyXsXBXBXmXmXDXBXdX7XyX9X7X9XyXyXuXdXyXyXyXyXyXyXyXyXyXyXyXyXyXyXyXyX7XyXyXrXnXCXZXBXBXBXBXmXmXnXnXmXnXmXmXMXBXBXCXCXBXCXZXBXDXDXZXBXZXZXZXZXZXZXZXZXDXDXnXiXnXDXCXDXCXMXMXCXCXmXsXyXpXiXgXMXCXBXBXCXBXBXBXBXBXBXCXBXBXBXBXBXBXBXBXMXBXBXCXBXsXrX7XrXrX7X7XrXyXyXyXdXsXdXuXyXyXyXyXdXDXDXDXCXCXCXBXBXDXmXrX7XgXBXCXDXBXBXBXBXBXBXBXBXBXBXBXMXMXMXMXMXmXmXmXmXmXNXBXNXmXNXnXNXSXKXAX+X+X%X%X-X:X;X;X,X>X,X>X>X,X>X;X,X>X;X>X>X;X.X(. X'.(.`.'.'.'.`.(.^.~.(.(.~.).~.I.I.I.R.R.R.R.I.I.I.I.R.I.P.I.R.P.Y.I.I.I.I.2.>.H.~.Y.1.5.Y.I.H.<.Q.P.1.2.K.J.1.4.I.P.4.,.2.4.1.4.4.4.4.4.4.4.2.2.2.1.1.2.1.2.G.3.H.2.2.1.1.H.1.K ' 2.1.1.>.K T <.<.,.,.,.K.J.' ' T L T ` R R =.>.R ' 1.3.' T R R R R R R R R R R R R R R R R R R R R R R E E E R ` ` ` ` ` ` ` ` ` ` ` ` ` ` ` ` ` ` ` ` ` ` ` ` ` ` ` ` ` ` ` ` ",
"` ` ` ` ` ` ` ` ` ` ` ` ` ` ` ` ` ` ` ` R R R R R R R R R R R R R R R R R R R R R R R R R R R R R R R R R R R R R ` R R R T T T ' ' [ 3.[ W >.[ <.>.[ <.<.' ' <.3.[ >.[ <.H.3.3.<.3.<.<.3.2.2.H.2.2.2.2.2.2.2.2.2.2.2.2.2.2.2.2.1.1.,.=.P K L I % 9 * < % $ 7.).6.I * $ U E.6.9 1 4 Z < % C -.E.E.U.U.U.U.U.U.U.U.I.U.Y.I.R.I.^.^.`./.U.^..X^.~.W.~.^.^.(.(.(. X(.~.(.XX-X;X;X;X>X>X-X;X>X;X:X<X>X>X<X:X%X3X$X3X*X=XwXNXDXDXDXNXBXZXZXZXBXBXBXBXBXBXBXBXBXBXBXNXBXBXDXNXgXmXBXsXsXpXyXyXuXuXuXyXyXyXyXyXyXyXyXyXyXpXsXsXdXdXsXsXBXBXgXyXsXsXyXpXyXyXyXrXyXyXyXyXyXyXyXyXrXgXmXhXsXnXnXsXcXnXnXcXsXgXgXsXnXNXNXnXmXNXNXNXnXgXgXnXnXnXnXmXBXBXBXZXBXBXBXZXZXCXZXZXBXZXZXZXBXNXBXBXFXNXcXsXnXBXDXDXBXBXBXBXBXBXNXNXmXnXmXBXBXBXBXBXBXBXMXBXBXBXMXmXnXBXBXBXBXBXmXMXBXBXBXmXnXgXgXhXnXsXdXnXsXyXyXyXyXyXyXyXpXdXdXpXnXnXnXnXnXmXnXgXnXsXyXiXuXiXdXgXsXdXmXBXBXBXBXBXBXBXMXBXBXBXBXBXBXBXBXBXNXNXNXNXNXBXBXmXNXDXbXwX3X3X3X2X%X:X,X>X,X,X;X;X;X;X>X>X>X>X>X-X-XXXXXXX.X'.`.`.'.`.`.`.`.`.~.(. X/.I.^././.!.!.R.Y.P.R.I.U.U.U.U.U.U.I.I.I.I.I.I.I.P.P.I.J.J.J.J.J.K.4.P.H.4.H.4.J.H.,.4.1.4.K.J.1.1.J.4.4.4.1.1.2.H.H.2.2.2.2.2.2.G.2.1.H.H.2.4.H.2.1.4.1.<.1.2.1.>.' J >.Y.=.' R =.T L >.' T L P ' L R ` =.' L T ` K R R R R R R R R R R R R R R R R R R R R R R R R R R R R R R R R R R R E R R R R ` ` ` ` ` ` ` ` ` ` ` ` ` ` ` ` ",
"` ` ` ` ` ` ` ` ` ` ` ` ` ` ` ` ` ` ` ` R R R R R R R R R R R R R R R R R R R R R R R R R R R R R R R R R R R R ` ` R T R ' ' ' T T Q T Q Q [ [ [ ' E W ' >.>.[ Q T <.<.<.<.<.1.` >.1.3.G.3.<.<.2.2.2.2.2.2.2.2.2.2.2.2.2.2.2.2.4.4.4.5.5.4.,.-.3 3 - 3 4 9 U U I 9 * $ * > > % 4 < 1 6 5 ' K.!.I.U.U.U.U.U.U.U.R.I.R.U.I.I.I.`././.!.^./.U./.^.^. X X`.(.`. X X'.(.(.-X;X;X;X;X-X>X,X>X>X>X1X<X<X<X<X2X3XPXPXKXFXVXNXDXNXVXNXNXBXZXZXZXZXZXBXBXBXBXBXBXBXBXBXBXnXNXZXnXyXyXdXyXyXyXyXyXyXyXyXyXyXyXyXdXuXyXyXyX7XuXmXBXBXBXCXBXCXCXsXrXyXyX7XrXyXyXyXeXyXyXeXyXyXrXyXyXyXnXCXBXBXBXBXBXBXDXDXDXDXDXZXNXBXCXCXBXBXNXNXmXnXnXnXNXZXZXBXBXBXNXBXNXBXBXBXNXBXNXmXmXmXmXmXmXmXnXVXVXBXVXnXnXmXBXBXBXBXBXBXBXBXBXBXBXNXnXmXBXBXBXBXBXCXBXBXBXCXBXMXmXnXBXBXBXBXBXBXBXBXCXCXBXBXBXBXCXCXBXBXBXnXdXyXyXyXyXyXuXpXdXpXyXyXyXyXyXiXdXiXyXyXyXyXyXyXyXrXrXyXyXmXCXCXCXCXBXMXMXBXBXBXBXBXmXBXBXBXBXNXNXNXNXBXBXBXBXBXDXDXbXFXJXLXxX%X%X;X<X:X,X<X,X>X>X>X-X>X>X>X>X;X;X-X-X.X'.`.`.`.`.`.`.^.^.!.~. X^./. X(./.R.R.!.!.Q.U.U.U.U.I.I.U.U.I.I.I.I.I.I.I.P.P.Y.J.I.R.K.J.K.I.2.4.P.I.J.J.Y.P.1.4.K.W.I.J.1.4.2.2.4.4.4.4.4.4.2.2.2.2.H.H.G.G.1.H.1.E ' 1.2.1.2.<.' ' <.2.2.,.K ' ,.L K K =.>.' 1.=.P P ' >.R L P ' ' T =.,.=.R R R R R R R R R R R R R R R R R R R R R R R R R R R R R R R R R R R E R R R R ` ` ` ` ` ` ` ` ` ` ` ` ` ` ` ` ",
"` ` ` ` ` ` ` ` ` ` ` ` ` ` ` ` ` ` ` ` R R R R R R R R R R R R R R R R R R R R R R R R R R R R R R R R R R R R R ` E T ] >.>.' E ' E ' ' T T T T E ' W E G.J.[ Q ] 2.2.3.3.<.2.R [ <.3.2.<.>.>.2.2.2.2.2.2.2.2.2.2.2.2.2.2.2.2.2.1.1.5.K.K.1.=.C 3 3 3 < 1 1 % 9 < < 1 * % * M 5 6 > 5 J 5.E.E.I.U.U.U.U.U.U.U.R.I.R.R.I.W.Q.~./.W.]..X/.U.^. X`. X X(.(.(.(.^..X.XXX-X;X;X;X;X-X>X,X>X;X>X,X1X-X%X|.%X3XJXKXHXHXDXDXDXBXNXCXBXZXZXZXZXZXZXBXBXBXBXBXBXBXBXBXBXCXCXDXBXiXyXyXyXrXyXuXuXyXyXyXyXdXyXyXyXyXyXyXyX7XuXmXBXDXCXBXBXBXBXsXrXyXyXeXyXyXyXyXeXuXuXyXyXyXyXyXyXyXmXCXBXDXDXDXBXCXDXDXDXDXDXDXBXBXCXCXBXBXmXnXnXnXnXnXmXBXBXBXBXBXBXBXNXmXNXBXmXmXnXnXnXnXnXnXnXnXnXcXsXnXnXnXnXmXmXNXNXCXBXBXBXBXBXBXBXDXZXBXCXCXCXCXCXDXCXBXBXCXBXBXmXnXBXBXBXBXCXBXDXMXBXBXBXBXBXBXCXBXBXBXBXnXyX9XyXrXrXrXrXyXyXrX9X9XyXyXyXyXyXrX7XrXyXyXyXyXyXyXrXyXyXgXBXBXBXBXmXBXBXBXBXBXBXBXmXBXBXBXBXBXBXNXNXBXBXBXBXmXBXDXDXNXFXKX3X+X_.|.|.1X%X-X:X;X>X>X;X>X>X>X>X>X>X>X>X.X.X`.(.`.(.`..X(.(././.(.(.^. X.X~.R.R.(.'./.Y.R.U.I.I.I.I.I.I.I.I.I.I.I.I.I.I.P.J.I.R.J.H.K.I.4.H.K.K.H.J.K.P.>.1.K.P.Y.J.2.1.1.1.2.4.H.4.2.1.2.2.2.4.H.H.H.G.2.J.1.T E 1.H.H.H.1.>.' >.H.H.<.T R <.E ' T 1.J.=.>.R L T ' >.R L L T T P =.1.>.R R R R R R R R R R R R R R R R R R E E R R R R R R E E R R R R R R E E R R R R ` ` ` ` ` ` ` ` ` ` ` ` ` ` ` ` ",
"` ` ` ` ` ` ` ` ` ` ` ` ` ` ` ` ` ` ` ` R R R R R R R R R R R R R R R R R R R R R R R R R R R R R R R R R R R R T R E T E >.[ Q Q [ [ >.<.[ T ' ' [ G.<.[ 3.J.>.<.<.1.3.2.2.1.1.>.>.>.>.<.<.<.<.2.2.2.2.2.2.2.2.2.2.2.2.2.2.2.2.1.1.,.,.1.1.,.-.5 $ < $ $ - < 4 < * < > > 1 3 M 3 M P =.4.Q.I.P.U.U.U.U.U.U.U.U.W.I.U.I.U.(.`.W.!.~.^.^.~.`..X^.(.^.(.(.(.(.(.^.-X-X;X;X;X;X;X;X;X;X;X;X;X<X<X:X2X3X3X3XwXFXSXVXNXnXNXZXNXmXMXmXZXZXZXZXZXZXBXBXBXBXBXBXBXBXBXBXCXnXnXgXyX7XyXyXyXyXuXuXyXyXyXuXdXyX7XyXyXyXuXsXgXnXmXmXhXsXsXsXsXgXuXyXuXuXuXuXyXuXyXyXuXyXuXsXhXgXsXdXsXmXBXBXBXBXBXnXsXsXcXnXgXgXnXgXgXnXmXNXnXgXsXsXsXsXdXsXyXyXyXyXyXyXyXyXdXdXsXdXpXyXpXdXBXmXmXmXBXBXnXsXdXsXsXnXgXnXnXnXBXBXmXmXmXBXBXNXBXNXBXBXBXnXgXsXsXsXdXdXsXdXpXyXyXdXdXdXsXsXsXgXsXhXmXBXBXBXBXBXmXmXBXBXnXsXnXmXnXnXnXnXnXnXhXgX9XyXdXdXdXdXiXyXyXpXpXyXuXhXmXmXBXnXsXpXiXpXgXnXCXBXBXBXBXBXBXBXBXBXBXBXBXBXNXNXBXBXBXBXmXmXmXNXNXSXSXcXxXIXxXxXxX1X-X<X<X>X>X>X-X:X;X;X>X;X>X,X-XXXXXXX.X`.`.'.'.`.~.!.(. X(.(.^.~.!.!.(.'./.Y.Q.R.I.I.I.I.I.U.I.I.I.I.I.I.I.I.R.Y.J.J.J.Y.K.H.W.K.2.4.J.K.J.1.H.J.H.2.4.J.J.4.4.2.2.4.4.4.2.1.2.2.2.4.H.H.H.G.2.J.2.<.,.4.H.2.H.H.<.' <.2.<.T T R 1.1.1.R =.,.T T T R T T R T =.R T P L T =.' R R R R R R R R R R R R R R R R R R E E E R R R R R E E E R R R R R E R R R R E ` ` ` ` ` ` ` ` ` ` ` ` ` ` ` ` ",
"` ` ` ` ` ` ` ` ` ` ` ` ` ` ` ` ` ` ` ` R R R R R R R R R R R R R R R R R R R R R R R R R R R R R R R R R R R R T R R T T [ [ Q T [ >.[ [ W T >.G.<.G.J.<.<.G.<.G.3.<.<.3.3.3.<.2.1.[ ' <.3.1.3.2.2.2.2.2.2.2.2.2.2.2.2.2.2.2.2.2.2.2.1.,.1.4.5.K Z 4 3 Z 9 $ 3 < < 9 < > 3 > < $ K P.Q.R.R.I.U.U.U.U.U.U.U.U.U.W.I.I.W./.(..X/.!.~.W.U.^..X X~. X(.(.(.(..X-XXX-X;X>X>X>X>X>X;X>X-X;X;X<X<X;X|.3XPXKXFXSXFXFXZXDXBXNXBXmXmXBXBXZXZXZXZXBXBXBXBXBXCXCXCXBXBXBXBXBXdX7XrXyXyXyXrXyXyXyXyXyXyXyXyXyXyXyXdXdXdXsXMXDXCXBXmXdXyXyXyXeXyXyXyXuXuXyXrXeXyXyXyXyXeXuXmXBXBXBXMXBXBXBXBXBXBXmXpXrXyXyXyXiXdXsXdXdXiXsXnXsXdXyXyXyXyXyXyXrXrXeXrXeX7XeX7XeX7XeX7X7X7XeX7XBXMXMXBXCXBXmXnXiXdXsXsXsXsXgXnXBXBXmXmXmXMXBXBXBXBXBXBXMXsXyX7X7X7X7XrXyXyXrXrXrXyXyXyXyXyXrXyXrXpXnXBXCXCXCXCXBXBXBXBXBXBXDXDXCXCXCXCXCXCXBXBX7XrXyXiXiXiXiXyXyXiXiXyXsXMXDXDXFXBXsXrX7XrXuXsXBXBXBXBXBXBXBXBXBXBXBXBXBXBXBXBXBXNXNXBXCXBXMXZXNXbXSXSXKXJXJXJXPX$X|.1X,X>X>X,X>X;X:X:X;X;X;X;X>X>X>X>X-X.X'.'. X.X(.^.`. X(.^.P./.`.^.!.!.!.!.!.R.I.U.U.U.U.U.U.U.I.I.I.I.I.I.W.I.H.1.H.I.Y.2.Q.P.J.J.K.K.H.1.W.I.H.1.4.P.R.P.H.4.4.2.2.4.H.H.4.4.4.4.G.G.G.G.1.2.2.4.H.1.>.>.2.2.<.' >.1.=.K Q Q <.1.1.K K T T L ' -.R L T ' 1.>.=.R P T T P R R R R R R R R R R R R R R R R R R R R R R R R R R E E R E E R R R R R R R R E ` ` ` ` ` ` ` ` ` ` ` ` ` ` ` ` ",
"` ` ` ` ` ` ` ` ` ` ` ` ` ` ` ` ` ` ` ` R R R R R R R R R R R R R R R R R R R R R R R R R R R R R R R R R R R R R T R T T [ <.] W ' <.[ E Q Q ' H.[ [ >.>.<.G.3.1.2.<.<.<.<.3.3.H.3.>.>.3.G.1.1.2.2.2.2.2.2.2.2.2.2.2.2.2.2.2.2.2.H.J.4.1.,.1.5.Q.E.P.5.6.U 5 $ * * 9 1 * $ % 4 % K I.R.Y.Y.Y.W.U.U.U.U.U.U.U.U.R.I.U.(.^./.^.'.^.~.U.W. X^.~..X X).).^.^.XX>X>X;X,X>X>X>X>X>X-X,X-X;X<X;X:X-X_.=XSXKXHXSXZXNXCXBXMXBXMXBXCXCXCXZXZXZXZXBXBXBXBXBXBXBXBXBXBXBXBXCXsX7XrXyXiXyXyXyXyXyXyXyXyXyXyX7XdXmXmXnXsXmXBXBXMXBXmXsXyXyXyXyXuXuXuXuXuXyXeXyXyXuXyXyX7XuXMXBXCXBXBXCXBXMXMXBXBXMXsXyXdXsXnXmXmXBXmXsXiXyXdXdXyXyXpXyXyXyXyXyXyXuXuXuXuXuXuXeXeX7X7XeXeXyXrXMXMXMXMXBXBXmXnXnXnXnXnXnXnXmXmXBXBXBXmXmXmXmXBXBXBXBXCXBXgXyX7XyXyXyXyXyXyXuXpXdXdXyXyXdXyXyXpXrXiXnXMXBXBXMXMXBXBXBXBXBXBXBXBXBXBXBXBXBXBXMXmXiXdXsXiXyXrXrXrXyXyXyXyXsXmXBXBXCXBXsXuXpXuXuXsXhXmXBXBXBXBXMXMXBXBXBXBXBXBXBXBXZXBXmXmXBXCXBXCXZXNXDXSXNXNXVXFXxX+X%X1X:X:X>X,X,X>X>X>X;X;X>X>X>X>X>X>X-X X(.(.`.'.`.`..X.X'.^.I.~. X^.R.U.~..X~.R.I.U.R.U.U.R.U.U.I.U.I.I.I.I.I.W.Y.2.J.I.I.Y.1.K.R.P.K.H.H.K.P.K.4.1.2.J.K.J.J.J.4.4.1.1.H.H.4.4.4.4.G.G.G.G.H.2.2.H.H.>.E ' 2.2.<.>.<.2.1.>.' E ,.,.1.R =.,.' L ' =.T P T =.=.=.' R T T T T T R R R R R R R R R R R R R R R R R R R R R R R R R E E R R E E R R E E R R E E ` ` ` ` ` ` ` ` ` ` ` ` ` ` ` ` ",
"` ` ` ` ` ` ` ` ` ` ` ` ` ` ` ` ` ` ` ` R R R R R R R R R R R R R R R R R R R R R R R R R R R R R R R R R R R R ` T ` ' E ' >.E Q Q [ [ E ' [ <.<.>.E Q E >.3.<.1.2.<.<.>.[ 2.G.3.3.1.<.H.2.1.1.2.2.2.2.2.2.2.2.2.2.2.2.2.2.2.2.2.2.2.2.1.1.,.,.1.K.P.P.=.A A < 4 $ > $ < 4 4 K L ,.I.P.Y.I.I./.U.U.U.U.U.U.U.U.I.!./.^.^.Q.~.'. X^.~.^. X^.^..X(.^. X.X(.XX,X>X;X,X;X;X>X,X,X-X,X;X<X1X-X%X2X3X5XSXVXDXNXZXZXCXmXMXZXBXBXBXmXmXZXBXBXBXBXBXBXBXCXBXmXnXsXsXsXnXsXaXyXeXyXyXyXrXyXyXyXyXyXyXyXdXdXhXnXnXnXMXnXnXuXdXsXsXdXyXyXpXpXsXsXuXuXsXgXsXhXnXgXnXmXsXhXBXmXBXBXBXBXmXdXdXsXnXmXnXgXnXBXBXDXDXDXDXmXiXyXiXpXyXuXuXuXyXuXsXuXuXyXyXyXyXyXyXuXyXeXyXsXnXnXnXmXmXMXMXMXMXmXmXBXBXBXBXBXBXBXBXmXMXBXmXnXnXnXmXdXiXdXsXdXyXeX7XyXyXyXyXyXyXyXuXuXuXyXyXuXyXeXyXyXiXsXsXsXpXiXdXdXsXmXBXBXBXmXmXBXBXBXBXBXBXMXMXmXMXmXsXiXyXiXiXsXyXyXyXsXsXsXdXsXgXsXmXBXnXuXuXpXsXnXnXnXmXmXBXBXBXBXBXBXBXBXBXZXZXNXnXMXMXmXmXMXBXDXBXnXnXVXFXAXwXxXUX%X:X<X>X,X,X>X>X>X>X>X>X;X;X>X>X-X.X.X.X`.(.`. X X'.`.(.(.(.(.^.!.Q.~.`.^.Q.I.U.R.I.I.R.U.U.I.U.I.I.I.I.I.I.Y.K.I.Y.Y.R.<.J.I.Y.J.4.H.I.1.H.H.5.2.1.1.1.H.J.J.J.4.1.H.J.2.4.2.2.G.G.G.G.J.H.2.4.H.<.>.1.H.2.1.<.1.H.H.2.1.,.H.1.2.>.4.J.,.R ' T P =.=.R P T R R R T P T T R R R R R R R R R R R R R R R R R R R R R R R R R E R R R R R R R E E R R R R ` ` ` ` ` ` ` ` ` ` ` ` ` ` ` ` ",
"` ` ` ` ` ` ` ` ` ` ` ` ` ` ` ` ` ` ` ` R R R R R R R R R R R R R R R R R R R R R R R R R R R R R R R R R R R R R T [ <.[ ' ] K ' Q E T K E >.G.>.J.<.Q K [ >.E G.G.[ [ ' ' 3.3.1.2.2.3.2.1.1.2.2.2.2.2.2.2.2.2.2.2.2.2.2.2.2.2.2.1.<.2.J.Y.J.4.,.5.P.R.,.1.!.=.-.C < * I E.E.Q.Q.Q.R.J.I./.I.Y.U.U.U.U.U.U.U.U.P..X^./.~.^.`./. X^. X X~. X.X!.(.(.-X>X-X;X,X-X>X;X;X:X;X,X>X-X>X;X<X1X%X4XxXKXbXFXnXmXMXZXCXMXCXCXCXBXBXCXCXZXBXBXBXBXBXBXBXBXDXBXhXyX9X7X9XyXeXuXaXuXyXyXyXyX7XyXyXyXyXyXsXnXBXmXyXyXnXDXnXyX7XyXyXyXyXyXyXdXyXyXyXrXyXsXBXCXDXBXBXDXDXCXBXDXmXBXBXBXCXnXyXyX7XyXdXsXnXmXBXDXBXDXDXDXmXiXyXiXyXyXuXuXyXyXsXnXnXmXnXsXdXyXyXyXeX7X7XyXnXMXBXBXMXMXMXMXMXMXBXBXBXmXmXBXBXBXmXmXnXmXmXmXsXsXsXnX9X7X7X7X9XyXyXyXyXuXuXyXyXyXuXuXdXuXyXuXuXyXyXuXrXyXyXyX9X9XyXyX7XdXmXBXBXBXBXCXBXBXBXBXCXCXBXBXBXCXMXhXsXhXmXmXBXsXyXyXiXyXyXrX7XyXsXBXDXMXuXyXpXdXpXyXyXsXmXCXBXBXBXBXBXBXBXNXnXZXZXNXBXBXmXMXCXBXCXmXMXDXmXNXSXGXLXvX%X%X2X;X;X:X:X:X:X>X>X>X>X>X,X,X>X;X;X>X X(.`. X`.(.^.(.XX^.!.^. X'.(.^.(.W.P.I.U.I.I.R.U.U.U.U.I.I.I.I.W.I.J.I.W.J.H.I.I.R.Y.J.Y.Y.Y.I.2.J.W.W.J.2.2.H.2.J.K.K.H.1.H.H.2.2.2.2.G.G.G.G.2.4.2.2.4.4.2.H.2.2.1.1.1.1.1.1.1.1.H.>.<.E =.' 2.=.' L R J.1.L L T ' =.' R T R T R R R R R R R R R R R R R R R R R R R R R R R R R R R R R R R R R R E R R R R ` ` ` ` ` ` ` ` ` ` ` ` ` ` ` ` ",
"` ` ` ` ` ` ` ` ` ` ` ` ` ` ` ` ` ` ` ` R R R R R R R R R R R R R R R R R R R R R R R R R R R R R R R R R R ` ` T T [ <.[ E T K H.3.Q [ <.E E Q ' ' E ' <.3.<.3.<.3.>.' 1.3.1.H.2.2.H.2.2.1.2.2.2.2.2.2.2.2.2.2.2.4.4.4.2.2.4.H.3.<.1.H.Y.I.J.2.2.P.R.J.K.P.5.R.5.5 % % A E.R.I.P.Y.I.I.I.I.T.I.W.R.R.R.U.P.I.~.'.!.P.P.~..X~.R.^.`.^.`..X`.^.^.^.(.XX>X;X>X,X-X>X>X;X:X;X;X;X>X-X<X%X4X_.B.xXKXSXNXZXBXMXMXBXBXBXBXBXBXBXZXZXZXCXBXCXCXBXBXDXBXDXBXnXdXyXyXyXyXuXuXyXyXyXyXyXyXyXyXyX7X7X9XnXDXDXmXrXeXnXCXBXhXeXyXyXyXpXyXrXyXyXrXyXrX9XsXmXmXNXBXmXnXBXNXnXNXmXnXBXBXmXhXdXyXyXdXnXmXnXsXhXmXmXmXmXmXdXiXdXyXyXyXyXyXuXyXyXnXmXnXhXdXpXyXyX7X7X7X7X9XsXBXBXmXMXMXMXMXMXMXMXMXMXmXMXBXBXBXmXnX7XeXaXdXyXcXmXdXyXyX9XyXyXyXyXeXyXyXuXyXeXuXsXyXyXuXuXuXuXyXuXuXyXyXyXyXyXyXyXyXyXdXhXmXmXMXMXmXgXmXBXCXCXBXCXCXBXCXCXBXMXMXCXBXBXyX7X9XyXyXyXrXyXyXsXmXnXBXDXBXBXgXyX7XyXmXBXBXBXDXMXBXBXmXBXBXNXnXNXZXNXNXBXCXBXBXMXMXMXMXMXNXVXAXFXxX+Xr.%X|.;X>X;X;X>X>X;X>X>X>X;X;X>X>X;X>X).).(.(.(..X.X'.R.W.Q.!.(. X~.I././.~.!.U.I.R.U.I.I.I.I.I.I.I.I.I.I.I.T.I.2.1.Y.W.I.1.<.I.I.2.2.I.I.J.1.H.J.H.2.,.J.I.P.4.1.2.2.2.4.4.4.G.G.G.G.4.4.4.4.2.2.2.2.2.>.<.>.E <.J.2.2.2.1.E T R Q E R K R >.R ' >.K P T =.,.>.' T P T T R T T R R T R R R R R R R R R R R R R R R R R R R R R R R R R R R R R R R R ` ` ` ` ` ` ` ` ` ` ` ` ` ` ` ` ",
"` ` ` ` ` ` ` ` ` ` ` ` ` ` ` ` ` ` ` ` R R R R R R R R R R R R R R R R R R R R R R R R R R R R R R R R R R ` ` ` R E ` ' <.3.' [ >.W [ >.[ <.>.' [ E E >.<.G.J.' 3.<.>.2.H.1.1.' >.1.2.1.1.2.H.2.2.2.2.2.2.2.2.4.4.4.4.2.2.2.H.H.1.<.2.P.Y.H.2.Y.P.J.2.P.R.5.J.R.` I P -.R.I.P.Y.Y.I.I.I.I.I.I.I.P.P.R.Q.U.U.~.`.`.~./.~.`.`.'.~.^.^.^.'.'. XXXXXXX-X>X;X>X>X-X,X>X;X>X,X,X>X,X;X1X|.UXxX3XcXFXNXmXZXZXBXBXBXBXBXBXBXBXBXZXZXZXBXBXCXCXBXmXBXmXnXsXdXyXyXyXyXyXuXuXuXuXyXuXpXdXrXsXnXgXsXgXnXnXnXsXrX7XpXsXdXyXyXdXyXyXdXdXdXsXMXmXmXnXnXmXBXnXnXBXNXNXBXnXiXiXyXyXpXdXpXyXyXyXyXyXsXsXsXpXpXdXyXyXdXdXyXyXdXyXsXdXuXyXuXyXyXdXyXdXnXmXmXnXnXmXnXnXnXgXmXBXBXmXMXMXMXMXMXMXMXMXMXMXmXMXBXBXmXnXsXdXsXdXyXnXBXnXNXnXnXsXsXaXyXqXyXyXuXuXyXuXuXyXuXuXuXuXyXyXyXyXyXyXyXyXyXyXyXyXyXyXyXpXpXyXyXyXgXnXMXBXBXMXBXBXmXmXMXMXMXBXBXmXCXnXgXnXsXyXyXyXyXyXpXsXsXgXnXgXMXnXnXsXsXdXpXpXsXBXMXBXCXBXBXNXZXNXNXZXZXNXBXBXBXBXBXBXBXMXMXBXNXVXFXAX0XxXxX2X1X<X,X>X>X>X;X;X>X>X;X;X;X>X;X;X-XXX.X(.(.'.'.`./.!.~.^.(.(.!.W.~.!.!./.U.I.R.U.I.I.I.I.I.I.I.I.I.I.I.I.I.J.H.I.R.Y.H.H.Y.Y.H.2.Y.J.5.J.Y.H.2.5.4.4.4.2.1.2.H.2.2.2.4.4.G.G.G.G.4.4.4.4.2.2.2.2.1.1.H.H.,.2.2.E >.1.2.E E >.' ' 1.L T 1.>.K L =.=.T P ' =.' R T L R ' E R T R R R R R R R R R R R R R R R R E E R R R E R R R R R R R R R R R E ` ` ` ` ` ` ` ` ` ` ` ` ` ` ` ` ",
"` ` ` ` ` ` ` ` ` ` ` ` ` ` ` ` ` ` ` ` R R R R R R R R R R R R R R R R R R R R R R R R R R R R R R R R R R R R 1.>.` T ` 1.1.] Q [ ' [ ' ' 2.<.T ' >.<.G.3.<.3.E 1.<.>.1.G.1.>.T ' 1.2.1.1.2.H.2.2.2.2.2.2.2.2.2.2.2.2.4.H.2.2.2.2.H.J.2.1.5.I.Y.Y.J.5.P.I.J.Y.!.P./.R.P.R.P.P.I.I.I.I.I.I.R.I.R.R.I.I.R.W.R.W.Q.(. X^.!.!.(.XX~.`.`.(.^.^.(..X,X>X>X>X;X;X>X;X>X;X-X;X>X:X:X:X<X1X+XIXLXFXSXFXNXBXBXBXBXBXBXBXBXBXBXBXBXZXZXZXmXmXBXCXBXBXCXBXyXyXyXyXyXyXyXyXyXyXyXyXyXyXyXyX7XmXDXDXDXDXNXiXyXyXyXyXyXyXrXyXyXyXyX7XrXyXyXsXDXCXCXBXBXBXmXgXnXBXCXDXDXnXiXqXyXyXyXyXyXyXyXyXyXyXpXpXyXyXyXyXyXrXyXyXyXyXyXyXdXpXyXyXyXyX7X7X8XyXNXDXDXBXDXDXDXDXDXBXBXBXBXBXMXMXMXMXMXMXMXMXMXMXmXmXmXmXnXnXmXnXcXdXaXVXCXBXDXCXBXnXcXdXyXqXeXeXyXaXyXaXaXyXyXyXyXyXyXyXyXyXyXyXyXyXuXuXuXuXyXyXyXyXrXeXeX7XMXBXCXCXCXCXCXCXmXmXBXBXBXCXBXBXBXBXCXBXsXrXrXyXyXrXyXyXrXrXyXeXBXBXBXBXnXyX7X7XsXBXCXCXCXDXDXmXBXNXNXZXZXBXNXNXBXBXBXBXBXBXBXBXBXnXCXSXSXJXGX4X%X%X>X,X>X;X>X,X>X>X;X;X;X;X;X;X,X;XXX(.(.(.(.(.^.(.(.`.^.!.!.~.`.~.!./.R.R.R.I.I.I.R.I.R.R.I.I.I.T.I.I.I.I.Y.I.2.H.W.W.5.2.Y.I.J.2.4.Y.I.H.2.J.P.J.1.,.1.J.J.4.2.2.4.4.G.G.G.G.2.2.2.4.2.2.4.4.2.H.J.2.1.H.,.K Q <.H.>.>.H.2.1.J.,.' ' =.' R ' ' P L ' >.=.T P R >.,.>.R T T R R R R R R R R R R R R R R R R R R R R E E E R R E R R R R E E E ` ` ` ` ` ` ` ` ` ` ` ` ` ` ` ` ",
"` ` ` ` ` ` ` ` ` ` ` ` ` ` ` ` ` ` ` ` R R R R R R R R R R R R R R R R R R R R R R R R R R R R R R R R R R R R 1.>.` T E [ ' T Q >.<.<.' ' G.G.Q E <.G.H.3.<.>.<.G.3.>.<.2.1.1.' <.2.H.2.1.2.2.2.2.2.2.2.2.2.2.2.2.2.2.H.H.2.1.2.J.I.J.1.1.H.I.1.Y.U.Y.J.5.J.W.W.P./.Q.U.R.P.P.I.I.I.I.R.R.R.R.J.Q.R.P.R.^.`.^.I.~.'.(.~.!.~.'.(.'..X'.`.`.`. X,X>X;X;X;X;X;X;X;X>X;X>X;X:X;X:X%X$X+XwXKXSXnXmXBXBXBXBXBXBXBXBXBXBXBXBXZXZXZXZXBXBXBXBXBXBXBXBXyXyXyXyXyXyXyXyXyXyXuXuXyXyX7X7XyXnXBXBXBXDXBXiX7XyXdXyXyXyXyXpXyXyXyXyXyXyXyXsXCXBXmXBXBXBXnXiXgXnXBXBXBXnXsXyXdXpXyXyXyXyXyXyXyXyXyXyXyXyXyXyXpXyXpXpXyXyXyXyXyXyXuXdXsXdXyXyX9XsXBXDXBXBXBXBXBXBXBXBXBXBXBXBXBXMXMXMXMXMXMXMXMXMXmXmXmXnXnXgXnXsXnXsXdXnXmXnXNXmXnXsXdXaXyXyXeXeXyXaXaXdXdXaXuXaXaXaXyXyXyXyXyXyXyXyXuXuXuXuXuXuXuXuXyXyXyXuXsXsXhXhXhXgXhXhXnXBXBXBXCXCXBXBXmXBXCXCXgXiXyXyXyXyXyXyXyXyXyXyXMXnXBXBXmXuXyXyXmXBXBXBXBXBXBXBXNXnXmXNXBXBXNXNXBXBXBXBXBXBXBXBXBXmXNXnXVXFXAX3X$X%X:X<X,X-X,X<X>X>X;X;X;X;X;X;X,X>X-X.X.X'.(.'.'.(.`.'.^./.!.(.(.(.^.~.!./.R.I.I.I.R.R.R.R.I.I.I.W.T.I.I.W.T.I.1.H.I.W.H.H.Y.I.J.J.J.J.J.J.J.Y.R.Y.4.,.2.H.H.4.2.2.4.2.G.G.G.G.2.2.2.2.2.2.4.4.2.H.1.R E 2.2.E Q >.H.<.>.4.1.1.1.2.,.T T ,.>.R R ' ' ' ' ` P P R >.,.>.R T R R R R R R R R R R R R R R R R R R R R E E E R R R E E R R R R E E ` ` ` ` ` ` ` ` ` ` ` ` ` ` ` ` ",
"` ` ` ` ` ` ` ` ` ` ` ` ` ` ` ` ` ` ` ` R R R R R R R R R R R R R R R R R R R R R R R R R R R R R R R R R R R R <.>.' R T Q Q Q E E E [ [ [ <.<.T ' <.3.<.<.<.<.2.2.3.2.2.2.2.J.2.2.2.2.4.4.2.2.2.2.2.2.2.2.2.2.2.2.2.4.H.H.2.2.Y.P.H.2.J.I.P.2.1.J.Y.Y.H.3.J.U.I.Y.I.I.I.U.I.I.I.I.I.I.E.E.E.E.P./.!./.!.^.(.'.!.^.~.~.(.`.(.(.`.`.'.`..X-X;X-X>X>X;X;X;X;X;X;X;X,X>X<X<X<X1X%X3XAXxXAXFXDXBXCXBXBXBXBXMXMXBXBXBXBXBXBXZXZXZXZXCXCXBXBXmXsXdXdXaXaXyXyXyXyXyXyXyXyXyXyXyXdXsXhXsXsXdXiXdXsXdXyXeXuXdXyXyXyXyXyXyXsXmXnXmXnXmXmXBXmXhXnXmXmXhXsXyXyXdXsXsXsXiXyXaXaXaXyXyXyXyXyXpXyXyXyXpXpXyXyXuXuXuXuXpXpXyXyXyXpXnXmXmXBXBXBXmXBXBXBXBXBXNXNXBXBXmXNXBXBXBXNXBXBXMXMXMXMXMXMXMXMXBXmXmXnXsXsXsXsXcXcXsXcXcXdXdXdXaXaXaXaXaXyXeXeXyXyXaXsXsXnXVXVXmXnXsXaXyXyXyXyXuXuXuXuXyXyXyXyXyXyXyXyXuXuXrXyXyXyXyXyXrXrXsXMXBXBXBXmXnXNXBXBXBXBXmXmXnXdXyXyXuXuXuXuXuXuXsXuXsXnXBXnXnXmXnXdXdXpXiXsXnXBXBXBXBXBXBXBXBXBXBXBXBXBXBXBXBXBXCXNXZXmXnXNXSXxXvX3X%X1X<X;X;X;X>X>X;X;X;X;X;X;X;X;X-X-X-X.X(.(. X(.^.(.^.~.~.(.!.^.`.`.^./.U.I.I.R.I.I.I.R.I.I.I.W.U.I.I.W.T.Y.I.J.2.H.W.W.J.<.Y.I.Y.1.1.J.I.J.2.J.4.1.2.1.2.2.2.2.4.4.G.G.G.G.2.2.2.2.2.4.4.4.4.H.>.Q E 2.H.1.>.<.H.<.' ' R T ,.` <.' T ' ' ' =.1.>.T P T T T T R ' ' R R R R R R R R R R R R R R R R R R R R R R E E E R R R R R R R R R R R ` ` ` ` ` ` ` ` ` ` ` ` ` ` ` ` ",
"` ` ` ` ` ` ` ` ` ` ` ` ` ` ` ` ` ` ` ` R R R R R R R R R R R R R R R R R R R R R R R R R R R R T T R R R R R R T T Q T E E [ 3.<.E T [ >.<.<.E Q E >.3.3.3.G.3.[ [ <.2.H.1.1.H.H.2.1.2.2.4.2.2.2.2.2.2.2.2.2.2.2.2.H.4.2.2.H.4.K.P.J.5.J.I.P.3.W.I.J.Y.I.Y.Y.Y.I.I.U.I.I.I.I.I.I.I.I.I.E.E.E.E.Q.Q.~..X.XQ.R.(.'.(./.Q.(..X'.(.`.^.(.^.'.-X,X>X>X,X>X;X>X;X:X;X:X>X-X;X:X:X1Xr.3XLXHXFXVXmXBXMXBXBXMXMXMXMXBXBXBXBXBXBXBXZXZXZXBXBXBXBXmXsXyXrXyXyXyXyXyXyXyXaXyXyX7XeXyXhXBXDXDXnXyX7X7X7X7XyXyXyXyX7XyXyXyXyXyXdXmXBXBXBXBXBXBXnXpXiXsXsXiXiXyXrXyXyXyXyXyXyXyXyXyXaXyXyXyXyXyXyXyXyXyXpXyXyXuXuXyXeXyXyXyXyXyXsXNXCXBXCXDXDXDXDXDXDXDXDXDXDXFXDXCXCXCXBXBXBXBXBXMXMXMXMXMXMXMXMXBXmXnXsXsXdXsXsXcXsXdXsXsXsXaXaXaXaXaXaXaXaXyXyXeXeXaXaXsXnXFXFXCXVXnXsXaXyXyXyXuXuXyXyXyXyXyXuXuXyXyXyXyXuXuXuXuXuXuXuXyXyXsXBXBXBXZXBXmXCXCXBXMXmXBXCXBXgX7XeXeXrXyXyXeXyXyXeXuXmXCXDXBXBXsX7X9XrXrXyXgXCXBXCXCXBXBXBXBXBXBXBXBXBXBXBXBXBXBXBXZXZXnXNXFXFXLX3X{.%X;X<X<X;X>X>X;X;X;X;X;X;X;X,X;X;X>XXX~.(.`.^.^.^.(.^.(.(.W.~.^.(.^./.I.I.R.R.R.I.I.I.I.R.T.U.U.I.Y.I.T.Y.W.Y.1.2.W.W.J.1.Y.I.Y.1.<.Y.I.H.,.J.J.H.J.J.2.H.2.2.4.4.G.G.G.G.2.2.2.2.2.2.4.4.2.H.1.>.1.2.2.2.H.2.H.<.' ' E E H.T ' >.>.,.' R ' ,.' P ' >.' P T R R T T R T L R R R R R R R R R R R R R R R R R R R E E R R R R R R R R R R R ` ` ` ` ` ` ` ` ` ` ` ` ` ` ` ` ",
"` ` ` ` ` ` ` ` ` ` ` ` ` ` ` ` ` ` ` ` R R R R R R R R R R R R R R R R R R R R R R R R R R R R T T R R R R R R >.>.` T E E T E <.>.<.<.>.3.G.[ W E <.G.G.3.3.<.T E >.2.2.2.1.1.2.2.2.2.2.2.4.4.2.2.2.2.2.2.2.2.2.H.H.4.1.2.H.K.4.J.K.P.J.5.H.J./.W.J.I.U.Y.I.J.I.U.W.U.I.I.I.U.U.U.I.I.I.I.E.I.I.I.Q.`..X~./.'.(.(.~./.^.`.`.`.(.`..X.X.X-X>X;X>X,X>X;X>X;X:X;X:X:X-X>X-X%X2X4X3XGXSXZXmXBXDXDXBXZXMXMXMXMXMXBXBXBXBXBXBXBXZXZXnXBXmXnXnXdXyXyXyXyXyXyXyXyXyXyXyXyXyXyXdXsXmXmXBXsXyXyXrX7XyXyXyXyXyXrXpXdXdXdXuXdXnXBXMXMXBXmXBXmXyXrXyXyXrXyXuXyXyXyXyXyXuXyXyXuXaXaXuXuXuXuXyXyXuXuXuXuXuXuXuXuXyXyXdXsXpXdXsXnXBXCXNXBXBXmXBXmXmXmXBXBXBXBXBXBXBXBXmXmXBXBXBXBXBXBXMXMXMXMXBXMXmXgXsXiXdXdXsXsXsXcXcXsXdXcXdXdXdXaXaXaXaXaXyXyXeXyXaXyXyXsXVXVXmXnXsXaXyXyXyXuXuXuXyXyXyXyXuXuXuXuXuXyXuXuXyXyXyXyXuXyXyXyXdXmXmXmXCXCXNXCXBXBXBXmXmXCXBXgXyXuXuXuXpXyXeXeXyXuXuXgXnXBXMXmXmXyXsXdXyXiXsXnXsXmXBXBXMXMXBXBXBXBXBXBXBXBXBXBXBXmXMXBXNXNXNXSXSX5X3X3X1X-X<X;X>X>X>X>X;X;X;X;X;X,X;X>X,X-X(.(.^.^.(.(.(.(.(.(.!.~.!.!.~./.R.W.E.E.E.E.I.I.I.I.T.I.I.I.Y.I.T.I.Y.Y.Y.Y.H.J.Y.I.J.H.H.J.H.J.J.2.H.K.H.4.R.I.J.H.2.2.2.4.G.G.G.G.4.4.2.2.2.2.2.2.2.H.2.2.J.<.' 1.H.G.H.>.' <.2.1.2.' >.' 1.Y.=.T P R P R 1.1.' T R R R T T R R R R R R R R R R R R R R R R R R R R R E E R R R R R R E E R E R R ` ` ` ` ` ` ` ` ` ` ` ` ` ` ` ` ",
"` ` ` ` ` ` ` ` ` ` ` ` ` ` ` ` ` ` ` ` R R R R R R R R R R R R R R R R R R R R R R R R R R R R T T R R R R R R ` ' T Q [ 3.[ T K E <.[ Q [ G.<.<.>.<.<.>.<.3.<.E [ 3.G.H.H.H.1.1.2.H.H.2.2.2.H.2.2.2.2.2.2.2.2.2.H.H.4.1.2.J.P.5.1.2.K.J.2.2.J.Y.I.Y.I.J.3.Y.I.I.I.Y.I.I.I.U.U.U.U.U.U.I.I.I.I.P.R.W.R.!.^.^.~.!.'..X'.`.(.(. X~..X;X>X-X>X,X-X;X>X;X-X>X>X;X<X:X<X<X2X-X%XxXPXAXFXnXZXCXBXBXBXBXMXBXMXMXMXMXBXBXBXBXBXBXBXBXBXmXBXgXyXyXyX7XyXaXaXaXaXyXyXyXyXdXsXnXmXmXsXpXyXyXyX7XrXyXyXyXyXyXyXyXpXnXMXmXMXBXmXBXBXBXMXCXBXCXmXpXyXyXyXyXdXuXyXuXdXuXuXsXyXaXaXuXyXyXyXyXuXuXuXdXsXuXuXuXuXyXuXyXuXmXBXBXCXBXBXDXDXBXBXNXsXyXyXyXyXyXeXeX7XeXyXyXyXyXyXsXBXBXBXBXBXMXMXMXMXBXBXnXsXyXyXaXdXaXsXsXcXnXsXdXdXaXaXaXaXaXaXaXaXyXyXeXyXaXyXeXyXyXyXyXyXyXyXyXyXyXuXuXuXyXyXyXyXyXyXyXuXuXuXuXuXuXyXyXyXuXuXyXyXyXdXiXdXBXZXnXNXmXCXDXBXmXBXBXnXmXBXMXnXnXgXuXuXyXyXyXeXeXyXyXyXBXmXBXnXyXpXrX7X7XsXMXMXMXMXBXBXBXBXBXBXBXBXBXBXBXBXBXBXBXBXNXNXSXSXLXPX4X_.|.|.;X>X;X;X;X;X;X;X;X,X;X;X,X-X(.XX!.(. X(.^.(.(.^.(.^.Q.R.~.~.!.!.I.E.E.I.I.I.I.I.I.Y.I.T.Y.I.W.T.W.Y.Q.W.3.2.T.I.J.>.1.W.T.H.1.1.I.P.1.1.R.R.4.,.4.4.4.4.4.H.H.G.4.4.4.2.2.2.2.2.2.2.2.H.H.' T 1.H.2.2.E T 2.J.1.E ` 1.=.<.<.T ,.' R L T 1.-.T ' L T R R ` =.,.,.R R R R R R R R R R R R R R R E R R R R R R R R R R E E E E R R ` ` ` ` ` ` ` ` ` ` ` ` ` ` ` ` ",
"R R R R E E E R R R E E E R R R R R R R R R R R R R R R R R R R R R R R R R R R ` ` ` R R R R ` R P ` <.>.P Q ' ` E T T T <.J.Q G.<.E R Q Q <.2.J.1.Q K <.H.1.<.2.2.3.3.3.3.2.2.2.2.2.2.2.2.4.4.4.4.4.4.2.2.2.4.2.1.2.2.2.J.J.3.J.1.1.2.1.J.Q.2.>.U.U.J.J.5.J.W.I.T.T.T.I.I.I.I.I.I.I.U.I.I.I.U.~.!.^.T./.^./.^.!.^.^.^.(. X'.(.(.'.;X,X,X>X>X-X,X-X;X,X-X>X>X-X;X-X|.%X%X4XPXLXSXSXBXBXBXBXMXMXBXBXBXMXBXBXBXBXBXBXBXBXBXMXmXmXsXsXpXpXpXpXyXyXyXyXyXyXyXyXyXyXBXBXBXBXCXBXsX7XeXyXeXeXyXyXeXyXyXyXqXyXsXBXBXBXCXCXCXBXnXsXiXyXyXyXyXyXyXyXyXyXyXyXyXyXyXyXyXyXyXpXyXyXaXyXyXdXyXyXyXyXuXuXyXyXyXyXrXyXnXBXBXZXBXBXCXBXNXCXZXiXyXyXyXyXyXyXyXyXeXrXyXuXyXyXsXDXBXBXBXBXBXBXMXBXCXBXhXpXyXyXuXdXaXdXdXdXdXdXdXdXdXdXaXaXyXyXyXuXyXyXyXyXyXyXyXyXyXyXyXyXyXyXuXuXuXyXyXyXyXyXyXyXyXuXaXuXyXyXyXuXuXyXuXuXyXyXuXyXyX7XyXgXBXCXCXBXBXBXBXBXBXBXBXBXBXBXBXBXBXdX7XyXuXyXuXuXeXyXsXuXnXgXgXsXpXuXuXyX7XnXCXCXCXBXBXBXBXBXmXNXBXNXBXCXBXBXBXBXBXBXBXBXNXSXSXAXxXxXxX4X|.;X:X>X<X<X>X<X>X>X;X;X;X>X;X>X^.`.^.(..X`.^.^.^..X~.!.~.!.^.(.!.~.!.P.P.P.J.I.P.P.W.W.I.I.Y.I.K.!.E.K.R.T.Y.G.J.T.H.J.I.J.2.1.K.I.2.1.1.,.5.4.5.4.J.5.4.H.2.K.2.2.2.2.G.2.2.2.3.3.3.3.3.3.3.3.1.' 3.' ' 2.1.2.1.T <.H.<.[ <.J.R ' R R T ' 1.T R ,.,.R T >.H.J.R R R T T T R R R R R R R R R E R R R R R R R R R R R R R R R R ` ` ` ` ` ` ` ` ` ` ` ` ` ` ` ` ",
"R R R R E E R R R R E R R R R R R R R R R R R R R R R R R R R R R R R R R R R R ` ` ` R R R ` ` R T ' 1.<.` E [ 3.[ T ' [ T E T <.' Q T ` >.3.>.[ 1.>.E >.2.3.G.1.3.2.G.G.2.2.2.2.2.2.2.2.2.4.4.4.4.4.2.2.2.2.4.2.,.1.2.H.P.P.2.>.~.I.>.5.I.I.J.4.R.R.Y.P.P.P.R.T.T.T.T.I.I.I.I.I.T.U.I.I.U.U.T.^.^.^./.~. X~.^.^.^.`.^.(.`.`.`.`. X-X,X>X,X>X;X,X;X;X,X>X,X,X;X%X%X+X%X#X*XcXVXCXBXBXBXBXBXBXBXBXBXBXBXBXBXBXBXBXBXCXCXCXBXmXnXsXdXpXiXuXuXyXyXyXyXrX7XrXyXyXyXCXBXmXmXVXmXdXeXeXeXeXyXuXyXeXaXyXyXyXaXnXBXBXmXmXmXmXnXgXpXyXyXyXyXyXyXyXyXyXyXyXyXyXyXyXyXyXyXyXpXyXuXdXaXyXyXyXyXyXyXuXuXyXyXeXyXyXyXgXBXNXZXmXNXZXBXmXCXBXdXyXyXyXyXyXyXyXyXyXyXyXuXyXyXsXBXBXBXBXBXBXMXMXMXnXnXsXuXyXyXpXdXaXaXaXaXdXdXdXdXdXaXaXaXyXyXyXyXyXyXyXyXyXyXyXyXyXyXyXyXyXyXuXuXyXyXyXyXyXyXyXyXyXaXaXaXyXyXyXyXuXyXuXuXyXuXsXuXiXyXyXgXmXmXmXmXBXBXBXBXBXBXBXBXBXBXBXBXBXdXqXyXyXrXyXuXeXeXyX7XyXyXuXyXuXyXyXyXyXgXmXnXnXnXmXCXBXBXNXNXBXNXNXZXBXBXBXBXBXBXBXBXBXCXSXSXAXSXSXwX:X2X:X-X;X;X:X:X>X;X;X;X;X;X;X;X^.`.(.^.'.`.(..X^.`.~.~.~.!.(.^.'..X).Q.!.!.R.Q.).R.E.J.J.W.W.W.I.E.K.R.T.K.J.3.J.W.I.J.3.G.I.H.G.G.3.J.K.K.E.K.E.[.E.[.E.K.H.E.H.2.2.2.2.2.2.2.2.2.2.3.3.3.3.3.K K <.1.<.1.' 1.>.' >.' ` T P ' R >.=.R T =.,.T R >.<.E W [ >.>.T R R R R R R R R R R R R R E E R R E R R R R R R R R R R R R R ` ` ` ` ` ` ` ` ` ` ` ` ` ` ` ` ",
"E E R R R E R R R R R R R R R R R R R R R R R R R R R R R R R R R R R R R R R R R ` ` R R R ` ` >.` ` >.>.R R ' E ' E <.3.' T ' ' ' E [ >.<.2.>.K >.1.>.1.G.<.<.T ' <.2.G.2.2.2.2.2.2.2.2.2.4.4.4.4.2.2.2.2.4.4.J.1.1.H.J.Y.Y.5.1.Q.J.5.R.5.2.R.I.W.U.P.U.R.I.U.T.T.I.I.I.I.I.I.I.W.R.I.U./.~.~.W.^. X!.!.~./.~.(.(.`.`.(.(.`..XXXXX;X>X>X>X>X>X>X;X:X;X:X:X:X:XAXPXAXAXAXAXFXDXBXBXBXBXBXBXBXBXBXBXBXBXBXBXBXBXmXBXBXmXmXmXgXiXsXdXyXyXyXyXyXyXpXyXyXdXhXnXnXnXBXsXyXdXdXyXyXyXyXyXyXyXyXeXyXnXhXnXnXnXmXBXmXsXpXdXsXsXpXyXyXyXyXuXyXyXyXyXuXuXyXyXyXyXyXuXyXyXyXyXyXpXdXdXaXsXBXBXBXVXmXmXnXmXmXMXmXnXmXZXZXZXCXDXDXBXBXBXmXyXyXyXyXyXyXyXuXuXuXuXyXyXyXyXyXhXyXyXyXyXyXyXyXyXsXdXuXyXaXaXdXdXdXdXaXdXdXdXdXdXaXaXaXaXaXyXyXyXyXyXyXyXyXyXyXyXyXyXyXyXyXyXyXyXyXyXyXyXyXuXyXyXaXaXaXaXyXyXyXyXuXuXuXyXyXsXmXmXnXnXnXmXBXBXmXmXBXBXBXBXBXBXBXBXBXBXBXBXBXmXnXBXdXyXdXpXyXyXyXrXeXeXrXrXyXyXyXuXyXiXyXyXyXiXgXCXBXBXBXBXZXBXmXBXBXBXBXBXBXBXBXBXBXNXVXSXSXKXKXxXr.1X1X:X<X<X<X>X,X;X;X;X;X;X;X>XXXXX`.^.`.`.(.(.(.(.^.(.!.!.(.R.E.Q.E.P.E.E.Q.Q.E.P.!.R.H.I.U.Y.U.Y.P.W.I.J.Y.G.K.Y.P.H.<.2./.T.[ <.4.4.P J K S S C A A S S V L J.G.2.2.2.2.2.2.2.2.2.2.2.3.3.3.1.' H.J.2.' K ` 2.2.=.T ' ' P T ,.J.>.T P R ' L R >.>.R T ' E E T T R R R R R R R R R R R R R R R R E E R R E E R E E R R E R E ` ` ` ` ` ` ` ` ` ` ` ` ` ` ` ` ",
"E R R R R R R R R R R R R R R R R R R R R R R R R R R R R R R R R R R R R R R R R R ` R R R ` ` 2.>.R R T P Q T T 1.1.' ' ' W K E >.3.J.1.[ <.<.' <.<.<.H.H.<.' Q ` <.2.2.2.2.H.2.2.2.2.2.2.4.4.4.4.2.2.2.2.4.4.K.4.2.J.Y.J.H.H.J.1.<.I.I.<.2.R.I.R.U.I.U.W.U.I.I.T.I.I.I.I.I.I.I.W.R.I.W.^..X`.Y.!..X].!.W.T./.`.(.`.'.^.~.`.XX>X>X>X>X>X>X>X>X-X>X,X<X1X:X%X%XGXHXSXFXFXBXNXmXMXMXBXBXBXBXBXBXBXBXBXBXBXBXBXBXBXBXhXyXyXpXpXyXdXpXyXyXyXyXyXyXyX7XyXBXDXDXCXBXmXpX7XyXyX7X7XyXyXyXyXyXyX7XuXBXBXBXBXBXBXBXmXnXyXyXyXyXyXyXyXyXuXuXyXyXyXyXuXuXyXyXuXuXuXuXyXyXdXuXyXyXyXyXdXnXFXFXDXDXDXDXDXDXDXDXDXCXZXZXZXBXDXDXDXBXBXMXhXyXiXiXyXyXuXyXuXuXuXuXyXyXpXyXyXpXyXyXyXyXyXyXyXyXyXyXyXyXaXdXaXaXaXaXaXaXaXaXaXaXaXaXaXyXaXyXyXyXyXyXyXyXyXyXyXyXyXyXyXyXyXyXyXyXyXyXyXyXuXyXyXuXaXaXaXaXyXyXyXyXyXuXuXyXyXnXBXDXCXCXCXCXCXBXBXBXBXBXBXBXBXBXBXBXBXBXBXBXDXBXBXDXdXyXyXyXrXrXyXyXyXyXyXyXuXuXuXyXyXyX9X9X9XrXsXBXmXBXBXBXZXBXmXMXBXBXBXBXBXBXBXBXBXNXVXNXSXSXAXwXe.$X%X%X-X:X<X;X,X;X;X:X;X;X;X;X,X-X`.^.`.'.(.!.'.(.(. X!.Q.~.P.% 6 6 < $ $ < < % 4 5.Q.P.I.U.U.U.Y.Y.I.Y.Y.W.I.E.H.J.I.Y.G.J.H.2.K.Q.4.5 % $ % $ $ < $ $ % % V J.H.G.2.2.2.2.G.G.G.2.2.2.2.2.2.>.Q ' 1.2.1.' >.3.2.=.T ` ` T R ` >.' T =.=.T L T ' R L Q R E E R T T T T T R ` R R R R R R R R R R R E R E E E E E R R R E E E ` ` ` ` ` ` ` ` ` ` ` ` ` ` ` ` ",
"E E R R R R R R E E E R R E E E R R R R R R R R R R R R R R R R R R R R R R R R R ` ` ` R R ` ` H.<.R T R R E E E ' ' K K E <.>.R ' <.J.3.' <.1.2.<.>.>.1.<.<.2.>.1.G.H.2.3.2.2.2.2.2.2.2.2.4.4.4.4.2.2.2.2.4.4.J.5.H.J.J.4.2.J.5.5.5.J.1.2.R.J.Y.I.I.I.U.U.I.U.I.I.I.I.I.I.I.I.I.R.U.I.R.^.'.(.U.^. X].^.~.~.~.`.(.`.`.(.^. X-X,X,X>X;X>X>X>X>X;X>X<X1X%X%X%X@XcXNXnXNXDXBXmXMXMXMXBXBXBXBXBXBXBXBXBXMXMXMXBXBXDXBXsXyXyXiXdXyXyXyXyXyXyXyXyXpXyX7XpXMXBXMXMXmXnXaXyXuXuXyXyXdXyXyXyXuXuXyXdXMXBXBXmXmXmXmXmXmXeXyXyXyXyXyXyXyXuXyXyXyXyXyXyXuXyXuXyXyXuXuXuXyXdXyXyXyXyXyXdXsXBXBXBXNXNXBXBXBXBXBXBXBXNXNXBXmXnXmXmXnXmXnXgXpXiXdXdXdXaXaXaXaXyXuXyXyXaXuXyXuXyXyXyXyXyXuXuXuXyXyXyXaXdXdXaXyXaXaXaXaXaXaXaXaXaXaXaXaXaXyXyXyXyXyXyXyXyXyXyXyXyXyXyXyXyXyXyXyXyXyXyXyXyXyXuXuXuXuXyXyXyXyXyXyXyXpXpXyXyXsXBXDXBXCXCXBXNXNXNXNXBXBXBXBXBXBXBXBXBXBXBXBXBXBXnXMXnXhXsXdXpXiXyXyXyXyXyXyXuXyXyXyXpXyXyXyXyXyXsXmXnXBXCXMXBXBXMXMXNXNXNXNXBXBXBXBXBXBXNXDXCXSXSXcXwXxX4X%X:X-X>X;X,X;X;X;X>X;X;X:X>X-X.X(.`.'.'.(.'.(.(. X!.Q.~.P.% % % $ $ % $ % % 3 6.Q.R.Q.I.U.I.Y.I.U.I.I.Y.W.K.4.H.I.W.Y.3.<.Y.J.E.=.> $ 4 < < < < $ 6 5 5 J H.H.G.2.2.2.2.G.G.G.G.2.2.2.2.2.1.>.1.2.2.1.' R <.1.2.<.` T ' <.L T T ' 1.,.T T L R T Q T R T T T T R ' ' R R R R R R R R R R R R R E E R R R R R R R R R R R R ` ` ` ` ` ` ` ` ` ` ` ` ` ` ` ` ",
"E E R R R R R R R E E R E E R R R R R R R R R R R R R R R R R R R R R R R R R R R ` R ` R R ` ` >.` R R ` ' ' ' H.R R ' E E [ G.E T Q [ <.<.1.>.R ' <.3.>.T ' H.1.2.G.G.2.3.2.4.2.2.2.2.2.2.4.4.4.4.2.2.2.2.4.4.1.5.H.H.H.5.J.I.2.W.I.H.4.J.I.P.J.Y.I.I.I.I.I.U.I.I.I.I.I.I.I.I.U.R.U.I.U.!.~./.^.`././.^.`. X^.(.(.(.(.(.'..X-X>X>X;X;X>X>X,X>X>X-X:X1X$XxXPXKXVXCXZXBXCXMXMXCXBXBXBXBXBXBXBXBXBXBXMXMXBXBXBXBXBXmXdXyXyXyXaXyXyXyXyXyXyXuXsXhXmXsXhXmXdXyXdXuXsXuXuXuXuXyXyXpXyXsXmXBXBXnXnXBXBXhXpXyXiXiXiXdXyXyXyXyXyXyXyXyXuXuXyXyXyXyXyXuXyXuXyXyXuXuXuXyXyXyXhXmXmXnXVXNXZXZXBXBXNXBXBXBXBXBXZXZXNXBXBXnXyXdXpXyXpXpXyXyXyXyXyXyXyXyXuXuXyXuXyXyXaXaXyXuXyXyXyXyXyXyXyXyXyXyXyXaXaXaXyXyXaXaXaXaXaXaXaXaXaXaXyXyXyXyXyXyXyXyXyXyXyXyXyXyXyXyXyXyXyXyXyXyXyXyXyXyXyXyXyXuXyXyXyXyXyXyXyXyXyXuXyXyXyXyXsXBXBXBXBXBXNXBXBXNXBXBXBXBXBXBXBXBXBXBXBXBXBXBXBXBXBXCXBXBXBXnXyXrXyXrXyXyXyXyXrXrXyXrXyXyXyXyXpXiXgXBXCXMXBXBXMXMXNXNXNXNXBXBXBXBXNXBXBXFXCXSXFXNXFXJXvXxXzX-X:X<X>X;X;X;X;X>X>X>X;X;X;X-X(.^.(.'.(.(.~.(.~.~.(.R.,.K 6 5 4 1 e 9 < % 9 S ' I.J.Y.Y.I.W.W.W.P.J.R.R.E.K.J.J.Y.J.Y.5.K S 4 $ 1 8 - 3 1 - 5 L ,.-.2.H.G.2.2.2.2.2.2.G.G.2.2.2.2.2.2.1.3.H.2.<.2.4.2.<.' =.2.1.>.1.2.' R T R =.>.=.>.T ' =.>.<.' E T T R ' ,.<.' T T E R R R R R R E R R E E R R R R R R R R R R R R ` ` ` ` ` ` ` ` ` ` ` ` ` ` ` ` ",
"R R R R E R R R R R R R R R R R R R R R R R R R R R R R R R R R R R R R R R R R R R ` ` R R ` ` ` R T R ` ' ' E >.K Q [ 3.<.[ J.>.' Q T ` >.2.[ K T <.H.<.E ' 1.<.1.1.3.3.3.2.H.2.2.2.2.2.2.4.4.4.4.2.2.2.2.2.2.1.J.H.2.2.H.J.I.J.R.J.J.R.J.J.R.P.P.I.U.U.I.I.I.I.I.I.I.I.I.I.I.W.U.I.U.R./././.^.^.T.T.~.(..X^.^.(.(.(.`.XX-X-X;X>X;X;X,X,X;X>X<X:X:X%X+XwXJXKXDXDXBXBXBXBXBXCXBXBXBXBXBXBXBXBXBXMXMXMXBXBXBXBXmXdXyXyXaXyXyXyXyXyXyXyXyXdXnXMXBXMXBXmXyX7XyXyXyXyXyXyXyXyXyXyXyXnXBXBXDXBXBXBXBXhXyX9XrX9X9XrXyXyXyXyXaXyXyXyXyXyXyXyXyXyXyXyXuXuXuXuXuXuXuXuX7XyXmXDXDXDXDXDXDXDXDXDXDXDXCXCXDXBXCXCXBXCXBXnXyXpXyXrXyXyXeXyXyXyXyXyXyXyXyXyXyXaXuXyXuXuXyXaXuXuXuXuXaXaXaXaXaXuXaXfXaXaXaXaXyXyXyXyXaXaXaXyXyXyXyXyXyXyXyXyXyXyXyXyXyXyXyXyXyXyXyXyXyXyXyXyXyXyXyXyXyXyXuXyXyXuXyXyXyXyXiXiXyXyXyXyXyX9XyXBXBXCXCXBXBXZXZXBXMXMXBXBXBXBXBXBXMXBXBXBXBXBXBXBXmXBXBXBXBXnXyX7XrXrXrXyXrXyXyXyXyXqXyXyXyXyXyX7XdXmXBXBXMXBXMXMXNXNXNXNXBXBXBXBXmXBXNXBXNXnXCXNXbXFXFXLXAX%X|.1X;X;X;X;X>X>X>X;X,X>X,X>X.X(.(.^.(.(.~.^.(.(.`.~.-X1.5 5 < % ; & 9 = $ % J Q.I.I.I.U.Q.2.-.K.E.P.Q.K.K.J.3.H.J.K.5.4 % $ * ; * & o % % 6 I P.5.J.2.2.2.2.2.G.2.2.2.2.2.2.2.2.2.2.1.1.3.>.' >.2.2.' ` P >.H.<.>.' ' E ' T T >.1.4.T ' >.,.1.=.R E R R =.,.,.' R R E E R R R R E E R R R E R R R R R R E R E R R R ` ` ` ` ` ` ` ` ` ` ` ` ` ` ` ` ",
"R R R R E E R R R R R R R R R R R R R R R R R R R R R R R R R R R R R R R R R R R R R R R R ` ` [ ' R T R ` ` T ` ' T K [ 3.T E 3.J.<.T K ` 2.>.>.[ >.1.1.1.3.2.2.2.2.2.2.2.2.2.2.2.2.2.2.2.4.4.4.4.2.2.2.2.2.2.H.K.H.1.2.J.Y.Y.J.J.1.J.R.I.I.J.U.I.I.R.R.R.U.I.I.I.I.I.I.I.I.I.W.I.I.W.!.~.~.~.W.^././.~.^. X(.^.(.(.(. X-X>X;X;X>X;X;X,X>X;X;X;X:X2X2X$XxXJXbXFXNXBXBXBXBXBXBXBXBXBXBXBXBXBXBXBXMXMXMXBXBXBXBXmXyXqXyXaXyXyXyXyXyXyXyXyXsXnXBXmXMXDXBXyX7XyXyXyXyXuXyXyXyXyXyX7XgXmXmXmXBXNXmXCXhXyXrXiXiXiXiXyXyXyXyXaXyXaXaXyXyXyXyXyXyXyXyXuXuXuXuXuXuXuXyXrXyXnXCXBXNXBXBXNXNXNXNXNXmXnXnXnXgXnXmXmXBXBXgXyXiXyXyXpXpXpXsXdXdXaXdXaXaXaXaXyXuXaXyXyXyXyXaXyXyXyXuXuXaXaXaXaXuXyXyXyXaXaXaXuXuXyXyXaXaXyXyXyXyXyXyXyXyXyXyXyXyXyXyXyXyXyXyXyXyXyXyXyXyXyXyXyXyXyXyXyXyXyXyXuXpXdXsXsXsXsXsX9XyXyXdXdXyXdXDXBXBXBXBXNXZXZXNXMXMXBXBXBXBXBXBXBXBXBXBXmXmXBXnXmXBXBXBXCXmXsXpXiXiXyXyXyXyXyXyXaXyXaXyXyXdXdX9XiXmXBXMXMXBXMXBXNXNXNXNXBXBXBXBXBXBXBXBXBXVXDXBXDXSXdXHXAX$X+X1X;X;X;X;X>X>X>X>X>X;X;X>X-XXX.X^. X.X^.^.'.`.`.^.-X5.V S Z * 1 & ; ; ; o F !.E.E.J.E.E.A 5 6.).5.' S =.R.P.J.4.2.[.4 $ 4 8 - & 2 - e C 4 ' K.1.1.2.2.2.2.G.G.2.2.2.2.2.2.2.2.3.3.1.2.2.4.3.1.2.<.` H.<.1.J.' T ` T ' J.,.R >.=.T L T E ' ' T Q T =.' ' >.>.R R ' E E R R R R E E R R R R R R R R R R E E E R R R ` ` ` ` ` ` ` ` ` ` ` ` ` ` ` ` ",
"R R R E R R R R R R E R R R R R R R R R R R R R R R R R R R R R R R R R R R R R T R R R ` T ` <.2.<.' R K K T >.H.<.' ` Q Q T Q <.G.<.T ' 2.2.<.G.>.<.G.3.<.<.<.3.3.3.3.2.2.2.2.2.2.2.2.2.2.4.4.1.1.1.1.1.J.P.K.4.R.2.H.2.R.Q.Y.>.5.I.R.R.J.H.R.U.U.U.U.U.U.U.U.I.I.I.I.I.U.R.I.U.I.I.U.R.^.'.~.W.~.`.^.^.(.'.'.(.(.(.(.XX>X,X>X;X,X-X-X<X>X-X,X;X%XzXLXKXSXDXnXBXNXNXNXBXBXBXBXCXBXBXBXBXBXBXBXMXCXZXgXyXiXdXyXyXyXyXyXaXyXyXyXyXyXdXyX7XsXmXsXrXrXrXrXyXyXyXyXuXuXyXuXyXrXpXBXBXBXBXBXmXBXBXsXrXrXrXrXyXyXyXyXyXyXyXyXyXyXyXyXuXyXuXuXyXuXpXuXpXpXrXeXpXgXhXMXCXCXCXZXmXNXDXDXNXZXDXDXnX7X7XyXrXrXeXrXyXpXyXyXyXiXpXyXyXmXDXCXBXDXDXBXnXaXyXaXaXaXaXaXaXaXaXaXyXyXyXyXyXyXyXyXaXaXaXaXaXaXaXaXaXaXuXaXaXaXaXaXyXyXaXaXyXyXyXaXyXdXBXBXBXCXBXCXCXDXnXyXyXyXyXyXiXyXyXyXyXyXyXyX7XyXmXDXCXCXCXBXyX7XsXDXDXBXCXBXBXBXBXBXBXBXBXBXMXMXMXMXMXMXBXBXBXBXnXrX7XnXBXBXCXCXBXmXBXBXBXCXBXyX7XyXrXyXpXrXyXyXyXyXyXyXyXyXpXyXyXyX7XiXBXBXBXZXNXmXBXBXBXmXBXBXBXBXBXBXBXBXhXCXVXFXGX3X4X4X<X1X;X;X>X>X>X;X;X>X>X>X>X-X.X'. X(.(.(.'.`.(.`.~..X>X5.$ & Z & * - ; < < 3 I E.K.K.).S 4 6.1.E.-.% =.Q.<.P.,.$ > < * - 1 - & - & 1 6.K.,.5.,.H.2.2.2.2.2.2.2.2.2.2.2.2.2.2.2.2.2.3.<.1.2.[ T T H.1.>.2.1.P K >.<.<.J.>.R =.P P -.' L >.H.=.T T 1.H.>.T R ' T T R R R R R R R R E R R R R E E E R R R R R R R R ` ` ` ` ` ` ` ` ` ` ` ` ` ` ` ` ",
"R R R E R R R R R R E E R R R R R R R R R R R R R R R R R R R R R R R R R R R R ` ` ` R R T T ' ' ` R T R ` ' ' >.' [ ' W W >.<.<.1.' T ' 1.G.H.3.<.1.G.1.>.<.1.3.3.3.3.2.2.2.2.2.2.2.2.2.2.4.4.4.1.4.4.4.K.P.K.J.J.1.R.J.5.H.Y.H.J.P.I.R.P.J.Y.U.U.U.U.U.U.U.U.U.I.I.I.I.U.U.I.I.R./.!./.^.`.~.!.^. X`.(.`.`.`.^.(. X.X-X>X>X>X;X>X>X>X>X>X;X:X-X+X3XKXSXnXCXMXBXNXNXNXBXBXBXBXBXBXBXBXBXBXBXBXBXCXmXsXyXyXyXyXyXyXyXyXaXyXaXyXyXyXyXrX7XdXmXmXyXyXyXyXyXyXyXyXeXyXyXyXyXrXpXBXBXBXBXBXBXCXBXgXrXrXrXrXyXyXyXyXyXyXyXyXyXyXyXyXyXeXyXuXyXuXuXyXrXtXrXeXuXpXsXhXMXZXZXCXDXDXDXDXBXZXDXDXmXyXyXyX7XrXeX7X7XyXyXyXyXiXiXyXyXnXBXmXBXDXDXBXcXyXyXyXyXyXyXyXyXyXyXyXyXyXyXyXyXaXaXaXaXaXaXaXaXaXaXaXaXaXaXaXaXaXaXaXyXaXaXaXaXaXaXdXyXdXBXBXBXBXBXDXBXCXnXyXrXyX7X7XyX9XrXyX7XrXyXrX7XyXmXBXBXCXDXCXyX7XhXDXDXBXCXBXBXBXBXBXBXBXBXBXBXBXMXMXMXMXBXBXCXCXnXrXyXnXDXCXDXCXCXBXCXBXBXBXMXyX9XyX9XyXiXrXyXyXyXyXyXyXyXyXyXyXyXyXyXsXMXBXBXBXBXmXBXBXBXmXBXBXBXBXBXBXBXBXMXZXmXNXAXSXvX+X|.%X:X>X-XXX;X<X;X;X;X>X>X-X-X-X).(.'.'.'.(.(.`.^.~.(.).-.$ o ; ; ; - * % $ I ).6.E.).Z & -.t._.F o -.!.4.E.5.$ $ * * ; ; ; - - - C 1.5.4.J.1.3.G.2.2.2.2.2.2.2.2.2.2.2.2.2.2.2.4.2.1.1.2.=.R ` J.2.>.<.<.T P <.<.>.2.<.>.,.T T K ' ' >.,.R T R >.<.` L R R T R R R R R R R R R E R R R R E E R E R R R R R E R ` ` ` ` ` ` ` ` ` ` ` ` ` ` ` ` ",
"R R E E R R R R R R R E R R R R R R R R R R R R R R R R R R R R R R R R R R R R ` ' ` T R R R ` T R T K ` <.>.T E E [ >.[ [ <.G.3.G.<.[ <.<.<.G.<.<.1.3.>.' >.1.3.3.3.3.2.2.2.2.4.4.2.2.2.2.4.4.4.4.4.4.2.H.K.J.H.J.H.R.H.2.2.Y.Y.P.J.Y.Q.R.P.J.U.U.U.U.U.U.U.U.U.I.U.I.I.U.W.I.P.Q.^.~./.!.^.~.(.'. X`.`.`.(.(.~.'.XX-X-X;X>X>X>X-X>X>X-X,X;X:X%X+X3XSXSXmXCXMXBXNXNXNXBXBXBXBXBXBXBXBXBXBXBXBXBXMXhXsXyXyXyXyXyXyXyXyXyXyXaXyXdXyXyXdXpXpXsXhXyXyXyXyXyXyXyXyXrXsXhXhXhXsXnXBXBXmXnXhXhXmXnXiXyXyXyXyXyXyXyXyXyXyXyXyXyXyXyXyXyXyXyXyXyXyXyXrXtXsXgXsXsXgXgXhXmXZXhXgXnXnXgXnXnXnXnXnXsXyXyXuXyXdXhXsXsXsXhXhXhXnXnXgXgXNXNXgXnXnXnXnXdXyXyXyXyXyXyXyXyXyXyXyXyXyXyXyXyXyXiXyXdXdXaXaXdXdXdXdXaXaXaXaXaXaXaXaXyXaXaXaXaXaXdXdXsXsXBXBXBXBXNXDXZXDXmXsXsXsXsXsXgXgXhXgXyXrXyXyXrXyXsXhXgXgXnXgXyXyXdXmXnXmXBXBXBXBXBXBXBXBXBXBXBXBXBXBXMXBXBXBXBXCXmXiXyXsXnXgXnXgXnXBXBXBXmXMXBXgXsXpXrXyXyXyXyXyXyXyXyXyXyXyXyXyXyXyXyXdXnXVXmXBXBXBXBXBXBXBXBXBXBXBXBXBXBXMXCXhXMXDXNXFXKX3X$X%X:X1X1X<X>X-X>X;X-X-X>X>X>X>X'.(.'.'.'.'.`.`.^./.!. XR.S % 8 e 1 < 1 1 1 Z I A -.t.^ 7 u G 0 G 7 U 6.1.1.-.< * * - 1 - - * $ U ,.5.4.4.H.H.J.G.2.2.2.2.2.2.2.2.2.2.2.2.2.2.2.2.2.1.2.2.<.>.1.4.1.>.<.3.[ ` 1.1.' >.' =.>.R ' T 1.>.' R L R =.' E T R =.R L ' R R R R R R R R E E R R R R R R E R R R R R E E ` ` ` ` ` ` ` ` ` ` ` ` ` ` ` ` ",
"R R E E R R R R R R R R E R R R R R R R R R R R R R R R R R R R R R R R R R R R T R R T ` >.<.<.R R T P R ' ` T Q K T ' [ [ ' E >.2.1.<.3.>.R ` 1.1.3.3.<.>.<.3.3.3.3.3.2.2.2.2.4.4.4.2.2.2.4.4.4.4.2.2.1.1.2.1.1.R.Y.H.<.I.I.J.J.J.J.I.Q.Q.I.J.U.U.U.U.U.U.U.U.U.I.U.I.I.W./.W.R.!.(.~./.!.^.^.`.`.`.`.`.'. X(.~..X;X>X>X;X>X,X,X>X>X,X;X<X-X1X4X*X0XFXDXMXMXMXBXNXBXNXBXBXBXBXBXBXBXBXBXBXBXBXBXgXiXiXiXyXyXyXyXyXyXyXyXyXaXyXyXyXsXBXBXdXrXrXyXyXyXyXrXyXyXyX7XgXBXCXCXCXCXBXCXnXiXrXrXyXyXyXyXyXyXyXyXyXyXyXyXyXyXyXyXyXyXyXdXyXyXyXyXyXrX7XyXhXMXMXMXMXMXMXCXZXiX8X9X8X8XqX9X7X7XyXyXrXrXyXrXgXBXDXCXBXBXBXBXBXCXCXZXCXnXiXqXyXyXyXyXyXyXyXyXyXyXyXyXyXyXyXyXyXyXyXyXyXyXyXyXyXyXyXyXyXyXyXaXaXaXaXaXaXaXaXyXyXyXaXaXaXdXdXmXmXDXBXBXBXNXDXZXDXCXBXBXBXBXBXCXCXCXMXiX9XyXyXyXrXrXyXrXrXrX9XyXyXyXyXyXdXBXBXCXCXCXCXBXBXBXCXBXBXBXBXMXBXBXBXBXBXnXyX9XyXyXyXyX9XiXBXBXBXBXBXCXBXmXhXyXyXyXyXyXyXyXuXuXuXyXyXyXyXyXyXyXyXyXyXnXmXBXBXBXBXBXBXBXBXBXBXBXBXBXMXMXMXMXDXBXnXSXFXJXUX%X|.|.:X:X-X,X>X;X-X>X;X>X>X;X X~.(.'..X'.^.^.^.^./.U.E.=.% 9 3 < > * * * % % & r X./ g g u ~ / 0 9 F Z 4 $ < - - < < 1 < $ I K.4.1.2.<.G.H.2.2.2.2.2.2.2.2.2.2.2.2.2.2.2.2.3.1.1.1.1.<.<.2.1.2.1.2.J.1.' ' H.<.1.` ' ,.,.4.` =.R L R =.<.2.R T R ,.2.' T ' R R R R R R R R R E R R R R R R E E R R R R E E ` ` ` ` ` ` ` ` ` ` ` ` ` ` ` ` ",
"R R R R R R R R R R E E E E R R R R R R R R R R R R R R R R R R R R R R R R R R T R R T R >.1.<.R R ` ' ` R R ' ' ` ' [ >.>.[ >.' 2.1.<.2.1.[ >.H.2.3.3.2.3.3.2.2.2.3.3.2.2.2.2.4.4.2.2.2.2.4.4.4.1.2.4.2.2.4.2.2.I.J.H.1.W.Y.H.J.P.I.I.P.Y.I.I.U.U.U.U.U.U.U.U.I.I.U.I.U.!.^.!.~.(.(.~.~.(.(. X(.^.(.(.(. X X.X(.XX>X,X,X>X>X,X;X>X>X,X;X<X%XUX3X5XcXFXZXmXmXmXBXCXBXBXBXBXBXBXBXBXBXBXBXBXmXnXnXpXyXyXiXyXyXpXyXyXyXyXyXyXyXaXyXyXsXBXCXsX7X7XyXyXyXyXyXyXyXdX9XsXBXBXBXBXBXmXBXnXyX9XrXyXyXyXyXyXyXyXyXyXyXyXyXyXyXyXyXyXyXyXyXyXrXrXyXyXrXrXrXgXMXMXMXMXMXMXMXMXpX9XrXrX9XiXiXyXyXyXiXiXiXdX9XsXBXCXBXBXBXBXBXBXCXCXZXZXnXiXqXqXqXyXyXiXyXyXyXyXyXyXyXyXyXyXyXyXyXyXyXyXyXyXyXyXyXyXaXaXaXaXaXaXaXaXaXaXaXaXyXyXaXaXyXyXaXdXmXmXDXCXBXBXNXDXBXBXZXZXBXCXDXCXBXBXBXmXiX9XyXyXpXyXyX9XyXyXyXyXdXdXiXyX7XdXmXBXBXBXBXBXBXBXCXDXMXMXBXBXBXBXBXBXBXBXsX7X7XrXyXdXyX9XsXBXBXBXBXBXMXBXBXnXyXyXyX7XyXyXyXuXuXuXuXuXyXyXyXyXyXyXqXyXsXnXMXBXBXBXBXBXBXBXBXBXBXBXBXBXmXDXmXnXBXBXNXFXbX3X4X%X%X%X%X<X>X;X>X;X;X;X;X-X,XXX(.'.`.'.'.~.`.^.(.R.R.-XE.o $ % < 9 3 1 3 9 9 ; 7 X.9.d d / / ;.0 = 9 * * * 9 1 * $ * * $ % K 5.1.5.R.H.H.1.2.2.2.2.2.2.2.2.2.2.2.2.2.2.2.2.2.3.1.<.=.' ' [ 1.4.3.2.H.<.R T [ 2.2.E R >.>.,.P T T T >.,.=.>.R T R ,.2.' T R R R R R R R R R R R R R R R R R R R R R R R R R ` ` ` ` ` ` ` ` ` ` ` ` ` ` ` ` ",
"R R R R R R R R R E E E E E R R R R R R R R R R R R R R R R R R R R R R R R R R ` ` ` ` R ` ' ' T P ` 1.<.R E <.2.2.1.>.>.[ <.H.<.J.<.E <.1.<.H.G.1.>.>.3.G.3.1.2.2.3.3.2.2.2.2.4.4.2.2.2.2.4.4.4.1.4.K.J.J.K.K.P.4.1.I.P.P.1.J.I.I.R.P.2.5.I.W.U.U.U.U.U.U.U.U.I.I.U.I.U.~.'.(.~.^.~./.~.'. X X(.^.^.(.(.(. XXX-X-X>X,X,X>X>X,X-X>X,X;X-X1X|.xXAXAXAXCXNXmXMXBXBXBXBXBXBXBXBXBXMXBXBXBXBXmXgXdXsXyXyXyXiXyXyXyXyXyXyXyXyXyXyXaXmXnXsXsXsXyXyXyXyXyXyXyXyXyXsXnXmXBXBXmXsXsXsXiXsXpXyXyXiXyXyXyXyXyXyXyXyXyXyXyXyXyXyXyXyXyXyXyXyXyXrXyXgXnXhXhXpXhXMXMXhXMXMXgXrXiXgXhXmXmXmXmXZXBXNXNXBXBXBXmXnXmXZXBXBXBXBXBXCXBXBXBXMXZXZXnXnXmXmXnXmXmXmXmXmXmXmXmXmXmXmXmXmXmXmXmXmXmXmXmXmXmXmXmXmXmXmXmXaXaXuXaXaXaXaXaXyXyXaXyXyXyXyXaXdXsXBXBXBXZXNXDXBXNXBXZXBXBXBXBXmXmXBXBXnXhXmXmXMXnXiXyXiXiXyXiXyXyXyXyXyXiXsXsXgXgXgXsXsXgXmXBXMXMXBXBXBXBXBXBXBXCXMXhXnXsXyXyXiX9XiXnXsXsXsXpXnXBXBXmXhXnXsXyXyXyXyXyXuXuXuXuXyXuXyXyXdXaXaXaXdXsXnXMXBXBXMXBXBXBXBXBXBXBXBXBXBXBXMXBXBXCXZXVXbXbXGXPXIXUX%X;X:X;X;X>X>X>X;X-X-X-X-X-X`.~.(.(.`.(.(.~.~.(.E.` 5.C % < 4 1 > * * ; ; ~ / # q o./ ~ 0 7 0 < 9 1 < 3 < 3 I ,.,.,.-.5.1.J.Q.P.5.,.2.2.2.2.2.2.2.2.2.2.2.2.2.2.2.2.H.2.2.1.>.>.>.[ >.<.>.>.1.>.' ' K <.2.' ' >.' T T ' ' T ' ' L T R T T ' ' R T T R R R R R R R R R R R R R R R R R R R R R R R R ` ` ` ` ` ` ` ` ` ` ` ` ` ` ` ` ",
"R R R R R R R R R R R R R R R R R R R R R R R R R R R R R R R R R R R R R R R R ` ` ' >.` R R T ' T ` <.<.` T [ >.<.' R T T ' 3.1.3.E Q [ ' R 1.1.<.' ' <.3.1.1.3.3.3.3.2.2.2.2.4.2.2.2.2.4.4.4.4.1.4.K.K.K.K.K.I.1.1.W.Y.P.<.P.R.I.U.P.5.J.R.I.U.U.U.U.U.U.U.U.I.U.U.I.U.^..X(.I./././.^.(.(.).^.^.^.(.(.)..X-X,X>X>X,X,X,X>X,X,X<X<X;X%X2X+X3XKXKXSXNXBXBXBXBXBXBXBXBXBXMXMXMXMXMXCXBXBXnXiXyXdXyXyXyXaXyXyXyXyXyXyXyXyXyXyXuXDXCXhXrXrXyXyXyXyXyXyXyXyXdXmXBXDXDXDXBXsXyXyX7XrXyXrXyXpXyXrXyXyXyXyXyXuXuXyXyXyXyXyXyXyXyXrXrXrXyXyXpXmXBXBXCXMXMXCXMXhXMXhXtX8X8XgXCXCXCXDXBXFXFXDXDXDXDXDXZXDXDXDXZXZXCXCXCXCXBXBXBXBXCXDXZXDXDXDXDXCXCXCXCXDXDXDXCXDXDXDXDXCXCXCXCXCXCXCXCXCXBXCXCXCXCXCXBXaXaXuXuXaXaXaXaXyXaXdXaXaXyXyXyXyXiXBXBXBXZXNXZXZXNXZXCXBXBXBXBXBXBXBXCXBXCXDXDXCXBXdXyXiXyX9XyX9XyXyXpXdXyXyXyXyXyXyXrXrXyXhXMXMXMXMXMXBXBXBXBXMXCXCXCXCXnXrXrXiX9XyXyX7X7XrX8XhXMXBXBXBXBXmXpXrXrXrXrXyXuXuXuXyXaXyXyXdXdXaXaXyXyXsXmXBXBXBXBXBXBXBXBXBXBXBXBXBXmXBXDXBXnXmXNXmXZXDXGXLXxX%X1X:X;X;X;X>X>X>X>X-X-X,X>X'.~.(.'.'.'.(.'.(.Q./..X-X` $ % * 1 9 1 3 3 ; ; O O = ~ 7 = ; 0 * > 3 * $ 1 $ < -.P.5.P.J.5.>.1.5.4.1.2.2.2.2.2.2.2.2.2.2.2.2.2.2.2.2.2.2.1.2.4.2.2.2.<.[ >.' ' <.<.>.2.>.H.<.>.2.J.>.` T =.>.T T ' T ' R R T T T R R T R R R R R R R R R R R R R R E E R R R R E E R R ` ` ` ` ` ` ` ` ` ` ` ` ` ` ` ` ",
"R R R R R R R R R R R R R R R R R R R R R R R R R R R R R R R R R R R R R R R R R T >.1.>.` R R 2.` T ' [ R K Q R E Q Q ' [ [ 3.3.3.' >.H.>.R <.1.1.[ ' 1.2.3.2.3.3.3.3.2.2.2.2.2.2.2.2.4.4.4.4.4.1.4.K.J.4.4.4.J.J.J.J.5.W.J.Y.I.P.I.I.P.R.R.P.U.U.U.U.U.U.I.U.I.U.U.I.I.~. X(.J.Q.~.~. X X(.).(.(.(.`.(.^. X-X<X,X;X>X,X,X,X<X;XXX:X:X1XxX3XwXKXFXSXnXBXBXBXBXBXBXMXMXMXMXMXMXMXMXCXBXmXgXyX7XyXaXaXaXaXaXyXrXyXyXyXyXyXyXyXuXBXDXnX7X7XyXyXyXyXyXyXrXrXiXmXCXmXmXBXBXnXdXiX9XyXyXyXyXyXrXrXdXyXyXyXuXuXuXyXyXyXyXyXyXyXyXtXrX7XyX9XyXmXBXMXCXMXMXMXMXMXCXMXtX7X7XhXMXhXmXDXNXNXNXBXNXBXZXZXZXZXZXZXNXBXCXBXMXBXBXCXCXBXBXBXmXmXNXBXNXBXNXBXBXBXBXBXBXBXBXBXBXBXBXBXBXBXBXBXBXBXBXBXBXBXBXBXBXiXuXaXuXaXyXaXyXdXdXdXdXyXyXyXyXyXiXBXCXZXCXmXNXBXmXNXZXBXBXBXBXBXNXNXBXBXBXBXmXBXBXdXyXiXdXyXiXyXyXyXdXsXuXyXyXyXyXyXyXyXpXmXCXMXMXMXMXMXMXBXBXBXCXMXmXBXhXiXhXsXyXyXyX7XyXpX9XsXMXBXMXBXCXhXrXrXrXyXyXyXyXyXyXaXdXyXeXaXfXyXyXyXrXpXmXBXBXNXBXBXBXBXBXBXBXBXBXmXCXDXNXVXNXmXMXZXZXmXbXJXxX|.1X;X>X;X;X;X>X>X>X>X-X>X;X`.~.'.'..X(.).(.'..X(.!.~.Q.E.7.Z 1 1 > 3 - ; 7 : = = 7 ; = ; 1 < < > 1 3 S 5 4 1.E.4.J.J.5.J.J.5.2.2.P.2.2.2.2.2.2.2.2.2.2.2.2.2.2.2.2.2.1.3.2.2.2.3.=.<.1.>.=.<.>.>.2.H.2.T Q ,.5.,.' T 2.J.=.' >.T T R ' ' T T ' ' L R R R R R R R R E R R R R E E R R R R E E E R R ` ` ` ` ` ` ` ` ` ` ` ` ` ` ` ` ",
"R R R E E E E R R R R R R R R R ` ` ` ` ` ` ` ` R R R R R R R R R ` ` R ] ' ` R ` ` ' <.>.` R ` ' ` R ' K T <.' >.2.E K [ G.J.<.Q >.G.2.<.3.G.1.' <.H.H.2.1.2.H.4.1.2.4.3.<.2.J.J.2.2.J.5.2.2.1.1.I.P.E.5.P.4.>.J.I.H.2.G.J.P.1.P.5.K.Q.W.I.R.W.P.I.R.R.I.I.R.W.W.Y.I.I.R.Q.Q.).'.'.'.(.R./.(.^..X^.(.(.XX>X>X,X>X,X>X,X<X>X>X<X<X;X<X%X4XvXSXFXSXNXNXBXBXBXBXBXBXCXCXCXCXBXBXBXBXmXnXsXiXiXiXdXyXyXyXyXyXyXyXdXdX7XyXBXmXsXmXsXyXuXuXyXrXyXyXyXyX9XiXnXnXmXBXMXmXsXrXrXyX9X9XyXyXyXyXyXyXyXyXyXyXyXyXyXaXaXaXaXeXuXyXeX7XgX8XrXhXmXyXnXBXCXmXCXnXDXnXCXmXCXCXhXCXhXhXMXmXDXmXCXNXZXDXSXNXSXDXNXZXNXNXZXZXBXBXBXBXBXBXBXBXBXZXZXBXBXBXBXBXBXBXBXBXBXBXBXBXBXBXBXBXBXBXBXBXBXBXBXBXBXBXBXBXBXBXBXBXBXBXBXBXBXBXBXBXBXBXBXZXZXZXZXBXBXBXBXBXBXBXBXBXBXBXBXBXBXBXBXBXBXBXBXBXBXBXBXBXBXBXBXBXBXBXBXdXiXiXiXyXyXyXyXyXyXyXyX7XrXhXCXMXmXmXmXMXMXMXMXMXMXMXmXMXBXBXCXiXnXnXyX7XyXrXyXyXyXyXyXpXmXMXhXmXnXmXMXdX7XuXyXyXyXyXyXyXyXuXuXdXpXyXyXyXyXsXBXMXBXBXBXBXBXBXmXBXBXNXNXNXBXBXMXZXnXNXFXJXxX%X%X:X;X-X:X:X<X;X;X>X>X,X>X-X;X-X'.'.(.`.(.(.^.(.(.!./.)..X-.% < > % < * 8 & 7 7 = 7 8 * < < 3 3 % I !.Q.P.E.5.2.I.5.5.R.P.1.2.2.P.1.I.W.J.5.2.1.2.2.2.2.2.2.G.2.2.2.H.4.2.2.2.H.H.J.2.1.1.' T ' >.4.<.' ' >.` T =.=.=.T T =.T L R 1.H.>.T T T T >.2.<.` R R ` ` ` E E E R R R E E E R R R R R E E E R R R R E E E R R R R R R R R ",
"R R R R E E R R R R R R E R R R ` ` ` ` ` ` ` ` R R R R R R R R ` ` ` R R ` R T T T ` ' ` R R ` ` ` ` >.` ` <.T >.H.>.T ' <.3.[ Q [ 3.3.1.3.1.[ ` >.1.2.2.1.2.H.2.2.2.2.3.1.2.H.Y.J.P.I.E.E.P.P.P.E.K.E.5.P.5.2.I.Y.J.I.Y.2.K.R.P.5.P.Q.R.P.I.I.R.R.R.I.R.E.W.I.P.J.W.~.~..X'.!.'.'.'.-X>XXX X^. X^.`. X-X,X>X,X,X<X>X>X>X>X;X>X<XXX:X%X4XSXFXCXBXBXBXBXBXBXNXNXBXBXBXBXMXMXBXBXMXnXsXpXiXiXyXiXyXyXyXiXyXyXyXyXyXyXyXMXMXBXDXmXeXyXyXeXeXyXyX9XyX9XiXnXmXmXZXmXmXgXyXyXyXyXyXiXyXyXyXyXyXyXyXyXyXyXyXyXyXyXyXyXaXuXyX7X8XyX8XiXbXFXBXDXNXDXmXnXZXDXbXCXmXZXCXCXMXMXMXMXmXmXgXbXNXNXSXSXSXSXSXVXDXNXNXNXZXNXNXZXZXZXBXBXBXBXZXZXBXBXBXBXBXBXBXBXBXBXBXBXBXBXBXBXBXBXBXBXBXBXBXBXBXBXBXBXBXBXBXBXBXBXBXBXBXBXBXBXBXBXBXBXZXZXZXBXBXBXBXBXBXBXBXBXBXBXBXBXBXBXBXBXBXBXBXBXBXBXBXBXBXBXBXBXBXBXBXBXyXyXyXyXyXyXrX9X7X9XyXyXrXyXhXCXCXCXCXCXCXCXCXCXCXCXCXCXCXMXmXZXCXDXBXyX7XyXyXyXrX7XrXyXpXmXCXmXBXBXmXBXdXyXyX7XyXyXyXyXyXyXyXyXyXyXyXyXyXyXnXBXBXBXBXBXBXBXBXMXNXNXNXNXBXBXBXBXBXnXZXSXKXwXB.+X|.:X:X1X-X<X;X;X>X>X,X>X;X>X-X(.(.(.(.(.(.(.(.^./.!.~.!.L % $ $ % < % & * - & ; ; 1 * * $ $ $ % P R.I.J.I.2.1.5.W.J.5.1.H.U.J.1.5.I.R.J.5.2.3.2.2.2.2.2.2.2.2.2.2.H.H.2.2.2.4.H.H.H.2.,.<.1.2.<.>.=.=.,.1.>.R R 2.>.T R ,.=.T ' >.1.' T R ` ` ' <.>.` R ` ` ` ` R R E R R R R R E E R R R R E E R R R R E E R R R R R R R R R R ",
"R R R R R R R R R R E E E E R R ` ` ` ` ` ` ` ` R R R R R R R R ` R ` ` ` R R ` ` ` R T T R R R >.' R ` T >.2.' ' 1.[ ` [ [ >.>.' <.<.>.1.2.1.>.[ >.1.1.1.1.2.2.2.2.2.2.2.2.2.2.R ' ' ` ` ` I P -.=.T ` I 5.P.J.I.5.2.T.W.H.K.Q.P.K.P.W.W.I.I.I.P.I.I.P.I.W.R.P.E.Q.(.4.J K R I I ' I P ' P T P.XX X X X-X,X>X,X>X,X,X>X>X<X<X>X,X-X3X3X3XSXFXmXBXBXBXBXBXBXNXNXMXMXMXMXmXMXBXCXnXsXiXyXyXyXyXyXyXyXyXiXdXiXyXyXdXhXsXhXmXmXmXdXeXyXyXyXyXyXdXdXsXdXgXMXBXMXnXgXhXiX9X9XyXyXyXyXyXyXyXyXyXyXyXyXyXyXyXyXyXyXyXyXfXcXVXKXSXVXbXAXJXHXHXFXsXCXCXmXnXZXnXDXCXCXmXCXhXCXhXZXFXZXHXJXJXJXJXJXJXJXHXHXFXZXNXZXNXNXNXZXBXBXBXBXBXBXZXZXBXBXBXBXBXBXBXBXBXBXBXBXBXBXBXBXBXBXBXBXBXBXBXBXBXBXBXBXBXBXBXBXBXBXBXBXBXBXBXBXBXBXBXBXBXBXZXBXBXBXBXBXBXBXBXBXBXBXBXBXNXNXBXNXBXBXBXBXBXBXBXBXBXBXBXBXBXBXBXBXnXnXgXgXnXnXhXgXyXyXyXyXyXyXdXnXnXnXnXnXnXnXnXnXhXgXmXBXBXBXNXZXCXBXmXyX9XyXrXyXyXyXyXyXyXgXhXgXBXBXMXBXnXsXnXyXyXyXyXyXyXyXyXyXyXyXyXyXyXiXnXBXMXBXBXBXmXBXBXBXNXNXNXNXBXBXBXBXCXNXZXVXSXvX3X3X3X2X:X<X:X,X;X>X>X;X,X>X;X>X-X(.`.`.`.'. X`.(.^.!.(.)..X).E.!.Q.E.E.S - 8 1 & 1 , * < A -.-.,.>.1.R.I.J.P.5.2.5.!.J.1.1.J.W.P.>.5.5.J.H.2.3.4.2.H.2.2.2.2.2.2.2.2.H.4.2.2.2.4.H.1.1.1.2.2.4.H.1.2.4.,.>.>.<.=.` ,.' L R <.=.T T ` ` ` T ` [ >.' [ ' ` R R ` ` R R R R R R R R R R R R R R R R R R R R R R R R R R R E E E E E R ",
"R R R R R R R R R R R E E E R R ` ` ` ` ` ` ` ` R R R R R R R R R R R ` ` R ` [ <.<.' T T ' ' R H.1.` T T ' 1.R [ <.>.<.<.T Q <.2.3.[ ` >.2.G.3.1.3.2.2.2.2.2.2.1.2.G.3.2.H.5.1.% 6 $ % $ $ $ % % % % % 6 1.E.P.P.5.1.H.I.W.P.J.P.P.I.W.W.W.W.W.I.U.R.U.I.P.P.K.!.).-X1.% % $ % o $ % % % % 6 ` :X.X.X XXX>X>X,X>X;X,X;X>X<X<X>X:X2XPXKXAXSXCXmXBXBXBXBXBXBXBXBXMXMXBXMXMXMXBXBXgXdXyXyXyXpXyXyXyXyXyXyXpXiXyXyXhXBXMXdXyXyXrX7XyXyXyXyXyXdXmXBXmXmXmXCXCXMXhXiXsXyX7X7X9X9XyXyXyXyXyXyXyXyXyXyXyXyXyXtXtXyXuXaX0X5X&X3X*X*X3X3X3X*X0XHXVXCXCXCXCXFXNXgXiXmXhXCXmXDXnXDXNXC.V.V.#X#X$X$X$X#X#X=XFXDXZXZXNXNXNXZXBXBXBXBXBXBXBXZXBXBXBXBXBXBXBXBXBXBXBXBXBXBXBXBXBXBXBXBXBXBXBXBXBXBXBXBXBXBXBXBXBXBXBXBXBXBXBXBXBXBXBXBXBXBXBXBXBXBXBXBXBXBXBXBXBXBXBXBXBXNXNXNXBXBXBXBXBXBXBXBXBXBXBXBXBXBXBXBXCXCXBXCXCXCXCXCXyXyXyXyXrX9XyXyXyXyXyXyXyXyXyXrX9X9XsXBXBXBXBXCXMXMXBXnXmXmXpXyXdXyXyXyX9XrXyXyXBXBXBXBXBXBXBXdXyXyXyXyXyXyXyXyXyXyXyXyXyXyXsXmXmXBXBXBXBXBXBXBXNXNXNXNXBXBXBXBXCXZXNXbXDXHXSXJXLX2X_.:X:X,X>X,X>X>X>X,X>X>X-X`.(.`.'. X.X X^.~.!..X).).).).).Q..X(.S o % - * - * * 5 -.Q.).).Q.R.W.I.P.P.P.Y.P.H.5.J.P.J.J.J.H.H.<.1.4.1.3.H.2.2.2.2.2.2.2.2.2.2.H.4.2.2.2.4.H.' Q ' J.2.E ' 2.4.H.<.` =.2.4.1.R ' ` R =.' T L T P T ` ' 1.1.' R R T T R R R R R R R R R R R R R R R R R R R R R R R R R R R R R R E E E E R R ",
"E E R R R R R E R R R E E R R R ` ` ` ` ` ` ` ` R R R R R R R R R R R ` ` T R ' 4.1.' T ` <.>.` ` ` R ` ' >.<.Q E >.>.>.<.[ E 3.2.3.] T ' 3.3.3.2.2.2.2.2.2.2.2.1.2.2.1.2.H.4.1.% % % % $ $ % * * < < * 3 7.6.P.I.I.J.2.J.W.R.K.P.I.R.I.I.T.I.T.I.I.U.W.W.I.Q.).).-.R L < * 1 > 3 3 $ % V J J >.-X.X.X.X-X,X>X,X<X>X<X;X;X<X:X1X_.%XAXLXSXNXBXBXMXMXBXBXBXBXBXBXMXBXCXCXBXBXMXmXsXiXyXyXuXdXyXyXyXyXyXyXyXyXyXyXsXBXBXpXyXyXyXyXyX7XyXyXyXsXmXBXmXMXBXBXCXBXhXsXpXyXrXyXyXrXyXyXyXyXtXtXtXtXyXyXyXyXyXuXtXuXuXcXb.g . X O . .   .   e.SXFXDXgXZXmXFXHXFXFXFXbXDXZXBXnXHXcX@   @ . . . . @     a FXZXNXNXNXNXZXZXBXBXBXBXBXBXBXBXBXBXBXBXBXBXBXBXBXBXBXBXBXBXBXBXBXBXBXBXBXBXBXBXBXBXBXBXBXBXBXBXBXBXBXBXBXBXBXBXBXBXBXBXBXBXBXBXBXBXBXBXBXBXBXBXBXBXBXNXBXBXBXBXBXBXBXBXBXBXBXBXBXBXBXBXBXBXBXBXBXBXBXBXBXBXBXBXyXyXrXrXrXyXyXyXyXyXyXyXyXyXyXyXyXyXhXCXCXBXZXBXZXZXCXCXCXBXyXyXyXyXyXyX7XrXyXyXBXBXBXBXBXBXBXyXyXyXyXyXyXyXyXyXyXyXyXyXyXyXdXsXsXmXBXBXBXBXBXBXNXNXNXNXBXBXBXBXmXBXZXnXSXFXSXFXKX*X_.1X-X,X,X,X>X;X>X,X>X>X-X.X'.'.'..X.X'.^.~.I..X.X(.Q.E.!.).P.5.S $ < - 4 < % $ < I P.E.E.P.R.P.P.P.P.I.I.Y.2.4.P.R.H.<.5.I.I.4.2.H.3.2.5.1.1.1.3.2.G.G.2.3.2.H.4.2.2.2.4.H.T J T H.1.L K >.1.1.,.=.>.4.1.' R 1.4.=.R ` ` R R T T ` ' <.<.` T T T R R R R R R R R R R R R R R R R R R R R R E R R R R R R R R R R R R R R R ",
"E R R R R R E E R R R R E R R R ` ` ` ` ` ` ` ` R R R R R R R R ` R R R R T R ` <.>.` T ` <.<.` K K T ' >.>.<.R K ' [ T <.G.<.G.1.1.' ` <.3.<.<.<.1.1.2.2.2.2.3.3.2.2.2.2.2.4.2.P I I I U 3 * 9 9 1 < < < 9 < A P.I.R.J.H.E.E.!.R.W.W.T.T.W.R.T.I.Y.I.U.R.R.E.Q.E.< o > 1 > > 3 > $ m K 4.!.!.-X X X-X-X>X<X;X<X<X,X<X<X<X<X:XlX3X*XcXKXSXBXBXMXMXMXBXBXBXBXBXBXMXBXCXCXBXmXnXgXpXyXyXyXdXdXuXyXyXyXyXyXyXyXdXsXsXhXnXyXrXyXyXpXyXyXsXmXhXnXmXmXmXmXmXgXgXsXyXrXyXyXrXrXrXtXtXyXyXyXtXyXyXyXyXyXyXyXyXyXyXuXaXcX=X&.. O 8 8 r ; : + B.AXFXHXNXFXHXNXbXcXcXbXwXHXNXNXFXJXKX+   w : : + @ p z i $.FXZXNXNXNXNXZXZXBXBXBXBXBXBXBXBXBXBXBXBXBXBXBXBXBXBXBXBXBXBXBXBXBXBXBXBXBXBXBXBXBXBXBXBXBXBXBXBXBXBXBXBXBXBXBXBXBXBXBXBXBXBXBXBXBXBXBXBXBXBXBXBXBXBXBXNXBXBXBXBXBXBXBXBXBXBXBXBXBXBXBXBXBXBXBXBXBXmXmXmXBXBXBXMXnXhXsXsXsXsXpXyXyXyXyXyXuXuXuXuXyXyXnXBXMXBXCXmXZXmXBXmXBXmXyXiXdXyXyXyXyXyXyXyXsXsXsXBXBXBXBXdXyXyXyXyXyXyXyXyXyXyXyXyXyXyXyXdXiXgXmXBXBXBXBXmXNXNXNXNXBXBXBXBXmXMXCXNXNXNXNXVXSX0XxXxX1X,X<X>X>X;X>X>X>X>X>XXXXX.X'.'.`.`.^.~.Q..XXX(.Q.E.E.Q.E.E.4.5.-.< 5 < 6.E.K.E.Q.I.P.P.R.P.U.R.I.Y.H.5.I.J.5.P.H.1.H.J.P.5.2.2.2.H.H.3.1.1.2.2.2.G.2.2.2.H.4.2.2.2.4.H.>.E =.H.2.>.' ' 4.1.,.>.>.<.=.L =.J.K.>.T ' =.` ' ' ` R ` ' ` T R R R ` ` ` ` ` E E R R R R R E E R R R R R R R E R R R R R E E R R R R E R R R ",
"E E R R R R E R R R R R E E R R ` ` ` ` ` ` ` ` R R R R R R R R ` ` ` R ` ' ' ' ` ` R T R ' ' ` <.>.' >.' R ' E ' <.[ Q >.<.' >.<.2.<.<.G.3.>.[ <.<.1.2.2.2.2.2.2.2.2.2.1.1.2.5.P.K.5.5.-.4 % 1 < * * < < * o A E.P.I.J.K.R.5.,.J.W.W.R.Q.Q.E.R.W.R.I.I.R.P.=.A P > > M C 3 $ $ $ < ,.!.(..X~.`.(. X;X>X,X<X;X<X<X>X<X;X<X;X;XIXLXGXFXFXCXCXMXmXBXBXBXBXBXBXBXBXBXBXBXMXnXsXpXyXyXyXyXyXyXuXyXyXyXyXyXyXyXyXnXBXmXyXyXyX7XyXyXyXyXrXhXCXBXBXBXMXmXBXnXyXyX7X7X7XyXyXyXeXrXrXrXrXtXyXyXyXyXyXyXyXaXfXyXyXrXrXyXaXJX5Xw O o o 1 9 < & D +.B.AXAXGXHX*.@ . .   + wXKXHXAX5X3X: + : : : + w $XKXKXJXDXNXNXNXZXZXBXZXBXZXBXBXBXBXBXBXBXBXBXBXBXBXBXBXBXBXBXBXBXBXBXBXBXBXBXBXBXBXBXBXBXBXBXBXBXBXBXBXBXBXBXBXBXBXBXBXBXBXBXBXBXBXBXBXBXBXBXBXBXBXBXBXBXBXNXNXBXBXBXBXBXBXBXBXBXBXBXBXBXBXBXBXBXBXBXBXBXBXBXBXBXBXBXBXCXCXBXMXMXmXsXrXyXyXyXyXyXyXyXyXyXyXdXsXdXmXDXBXCXMXBXmXCXCXmXCXsXyXyXyXyXyXyXyXyX7XyXMXBXBXBXgXyXyXyXyXyXyXyXyXyXyXyXyXyXyXyXyXyXdXhXmXMXBXBXmXBXNXNXNXBXBXBXBXBXMXBXBXNXBXDXDXSXSXLXPX4X-X<X;X>X;X>X,X;X;X>X>X;X-X.X'..X.X`.(.XX'.`.'.'.(.!.R.I.R.R.).P.$ % % 6.!.Q.I.I.Y.I.I.Q.I.Q.R.R.P.2.J.Q.I.2.5.J.J.Y.2.5.5.1.<.H.J.J.H.J.H.G.2.2.2.G.G.2.4.4.2.2.2.4.H.2.2.4.H.2.4.2.<.4.=.' >.>.<.>.=.>.<.>.' =.<.=.Q >.1.>.R R R T R R ` ` ` R R ` ` E E R R R R E E E E R R R R E E E E R R R R E E R R R R E E R R ",
"R R R R R R R R R R R R R E R R ` ` ` ` ` ` ` ` R R R R R R R R ` ` ` R ' <.1.<.P T R R T T R R 2.1.>.1.>.` >.<.G.>.T T <.>.Q <.<.2.3.<.2.<.E ` <.1.2.H.2.1.1.1.2.1.2.2.1.<.1.J.4.4.5.E.1.5 o < < 1 < , 1 1 % I !.E.K.4.I.Q.P % >.J.P.K.E.E.E.I.P.I.P.Y.Q.E.L % % > 9 > * 4 5 $ 3 5 4..X(.^.~. X.XXX,X,X>X,X;X,X<X>X;X:X<X%X-XPXKXSXDXVXnXBXCXCXBXBXBXBXBXBXBXBXCXBXBXnXsXiXyXrXyXyXyXyXuXyXyXyXyXyXyXyXyXpXmXDXCX7XrXyXrXyXyXyX7X7XdXBXMXBXCXBXMXBXmXyXyXyXyXdXyXuXuXyXyXuXuXyXyXyXyXyXyXyXyXyXdXaXyXrXeXrX9XyXHXKX@X{.8.2 1 1 4 3 &   +.LXLXKXLXz . X +   X vXJXKX@X. w   y & : +   . #XJXKXbXZXNXNXNXZXZXBXZXZXZXBXBXBXBXBXBXBXBXBXBXBXBXBXBXBXBXBXBXBXBXBXBXBXBXBXBXBXBXBXBXBXBXBXBXBXBXBXBXBXBXBXBXBXBXBXBXBXBXBXBXBXBXBXBXBXBXCXCXCXCXCXCXBXBXNXNXNXBXBXBXBXBXBXBXBXBXBXBXBXBXBXBXBXBXBXBXBXBXBXBXBXBXBXMXmXBXBXBXBXMXsX7XyXyXyXyXuXuXyXyXuXuXdXyX7XnXDXmXZXnXnXnXMXMXmXDXsXyX7XyXyXyXyXeXyX7XyXBXBXBXBXnXyXyXyXyXyXyXyXyXyXyXyXyXyXyXyXuXyXdXsXhXmXBXBXBXBXNXBXNXBXBXBXBXBXMXBXCXBXBXBXNXnXVXKXAX+X_.:X;X>X;X>X,X;X;X,X,X,X;X.X'..X.X X`..X~.^.`.(.~.~.Q.W.~.R./.I.6 6 6 ,.Q.Q.P.I.U.W.U.R.P.I.P.I.I.J.Q.I.R.J.J.J.I.W.1.J.Y.H.1.J.Y.J.H.I.J.H.3.3.2.G.G.2.4.H.4.2.2.H.H.2.H.J.2.<.,.2.4.J.=.' 1.1.,.>.>.=.T K ' 4.J.>.K <.H.<.R ` R R >.R R R R T T R R E R R R R R E E E E R R R R E E R E R R R R R R R R R R E E R R ",
"R R R R E E R R R R R R R R R R ` ` ` ` ` ` ` ` ` ` ` ` ` ` ` ` T R ` T T >.1.<.K R R T R ` ` R <.' ` ` ' >.<.>.G.[ E >.G.<.>.3.<.<.<.>.<.3.3.3.2.2.2.2.2.2.4.4.1.1.2.2.2.2.1.<.2.1.I.I.=.m S 5 * 3 * & 1 < < F -.J P E.P.E.E % =.).E.E.Q.E.J % L P.R.P.P.).-.> 3 > 1 1 3 4 5 $ % K..X!.~.~./.`.>X;X;X;X>X,X,X,X;X<X;X<X2X:X%XIXKXDXBXBXBXBXBXBXCXBXBXCXBXBXBXBXBXBXBXnXyXyXdXyXyXuXyXyXaXaXuXaXsXyXyXyXhXnXyXdXsXdXyXyXuXrXeXdXmXBXMXmXMXhXiXpXhXyXsXsXpXyXyXpXyXyXyXyXyXyXyXyXuXuXeXfXaXfXyXyXaXpXrXeXuXsXgXhXnXFXGXLXwX. o Z < 1 1 o } 3XxXKXKX# # # # O X PXLXLX+X. : e e ; O : r.@.3XSXNXDXNXNXNXNXBXBXBXBXZXZXBXBXBXBXBXBXBXBXBXBXBXBXBXBXBXBXBXBXBXBXBXBXBXBXBXBXBXBXBXBXBXBXBXBXBXBXBXBXBXMXBXCXBXBXDXBXBXBXBXnXVXBXBXmXBXmXmXnXBXmXgXDXBXBXBXBXBXBXBXBXBXBXCXCXBXBXBXBXBXBXBXBXBXBXBXBXBXBXBXBXMXMXmXmXBXBXBXBXmXgXdXyXyXnXyXeXuXuXuXyXuXuXyXaXdXsXnXnXgXgXhXmXBXmXmXMXnXgXnXhXyXyXyXeXyXyXyXyXyXyXyXyXBXMXBXiX7XyX7XdXyXuXyXyXyXyXyXyXiXyXyXyXyXsXnXmXBXmXBXZXBXmXmXBXBXBXBXBXBXBXBXBXBXZXFXAX3X3X3X.X,X<X>X;X>X-X>X<X;X,X;X.X'.'.'..X.X~.!.~.~.~.~.W.^..X/.Y.Q.!.I.E.R.R.R.U.I.I.I.I.U.P.P.I.I.J.Y.I.Q.Y.4.J.I.U.Y.2.Q./.H.<.1.3.P.U.2.2.2.2.G.G.2.2.2.2.4.4.4.4.4.4.4.H.1.1.2.1.<.4.H.>.1.<.=.<.,.1.<.' T R 1.4.' ' R ` ' ` ` ' ' ' T R ' >.` ` ` T R R R R R R R R R R E E R R R R R R R R E E E R R R R R E R R R ",
"R R R R E E R R R R R R E E R R ` ` ` ` ` ` ` ` ` ` ` ` ` ` ` ` ` ` ` T K ` >.' <.1.>.` ' 1.1.>.R ` T T R T E 2.<.1.1.1.3.>.>.G.3.3.<.>.>.<.3.3.2.3.2.2.2.2.4.4.2.4.4.4.2.5.5.5.J.1.1.2.P.J.J.J % 1 9 8 9 ; $ 1 * % C [.E.Q.I % A 7.;.E.).E.Z o L E.E.,.J I Z $ 3 1 3 > > > 6 m 5 5.).!.~.~.^.XX>X;X;X;X>X>X,X,X<X<X:X1X1X%X%XPXFXCXBXBXBXBXBXBXBXBXBXBXBXBXBXBXBXBXMXsXyXyXyXyXyXuXyXyXyXyXyXuXyXyXsXnXBXBXdXyXyXyXrXrXyXyXeXyXCXBXmXMXMXnXsXrXyXeXyXyXyXyXeXyXuXuXyXuXuXyXyXyXyXyXyXyXyXyXyXuXeXrXeXtXhXMXCXCXZXFXbXKX*X@ + o 0 1 < o o w . + a X }.@Xg O O r.%X3Xq.: 2 % & : . } KXAXFXDXgXgXBXNXNXNXBXBXBXBXZXZXBXBXBXBXBXBXBXBXBXBXBXBXBXBXBXBXBXBXBXBXBXBXBXBXBXBXBXBXBXBXBXBXBXBXBXBXBXBXBXBXBXBXmXBXBXBXBXBXnXyXyXaXaXyXyXyXyX9XyXyX7XnXBXBXBXBXBXBXNXBXBXBXBXBXBXBXBXBXBXBXBXBXBXBXBXBXBXBXBXBXBXMXMXMXBXBXBXBXBXBXmXmXBXBXaXeXyXyXuXuXyXyXyXyXyXyXyXyXyXpXnXmXMXMXBXCXCXBXBXnXyXyXsXsXyXyXyXyXyXyXyXyXmXnXnXdXdXiX7XyXsXpXuXuXyXyXyXyXyXyXyXyXyXsXmXBXBXmXNXZXBXNXBXBXBXBXBXBXBXBXBXBXBXmXNXFXGXLXIX:X-X>X;X>X,X;X-X-X;X,X>X-XXX.X`..X.X`.`.`.~.`.`.]./.~./.I.I.W.!.^.U.U.U.U.U.I.I.I.I.I.I.U.U.I.I.U./.Y.P.I.H.J.I.J.J.I.2.2.2.2.4.2.2.2.2.2.2.2.G.G.2.2.4.2.4.4.2.4.2.H.2.2.2.<.' >.J.2.2.' R 1.H.4.4.=.' >.1.1.E T R >.>.` ` =.' ' ' ' 1.H.>.` ` ` R R R R R R R R R E E E R R R R R R R R E E R R R R R R E E R R ",
"E R R R R E R R E E R R E E R R ` ` ` ` ` ` ` ` ` ` ` ` ` ` ` ` R ` ` R T R ` T 1.<.' T R >.<.' K ` T R ' P K 2.<.3.1.<.<.<.<.3.<.1.3.<.>.<.3.2.3.3.2.2.2.2.2.2.2.2.2.1.1.2.H.J./.Y.2.>.Y.W.I.V % * < < < , * < > 6 Y E.Q.!.-.* * , % 0 r 0 = * F E.Q.-.6 > , , * 1 3 > 1 6 > =.5.Q.'.`.(.~.~.XX>X;X;X;X>X>X>X,X,X,X1X1X4X%X+XxXDXZXBXBXBXBXBXBXCXCXBXBXBXBXDXDXBXMXmXsXyXyXdXyXyXdXuXuXaXyXyXsXyXdXmXBXDXCXdXrXrXyXyXyXuXpXuXuXCXMXBXMXpXuXpXrXeXrXsXyXyXdXaXsXyXtXtXtXyXyXyXyXuXrXuXuXrXeXeXuXeXrXrXuXmXCXMXmXhXZXZXFXbX3X*Xy 8 ; 8 8 & & . +   g =X5X/ X O o   : & % 8 & r i   p LXFXdXnXMXDXBXBXNXNXBXBXBXBXBXBXBXBXBXBXBXBXBXBXBXBXBXBXBXBXBXBXBXBXBXBXBXBXBXBXBXBXBXBXBXBXBXBXBXBXBXBXBXBXCXBXBXBXmXBXBXBXDXBXVXyXqXyXyXqX9XyXyX9XyX9X7XnXBXBXBXBXBXBXNXNXBXBXBXBXBXBXBXCXBXBXBXBXBXBXBXBXBXBXBXBXBXBXBXBXBXBXBXBXZXZXZXBXCXBXyXyXyXeXuXaXuXuXyXyXyX7X7X7XiXnXBXBXmXZXCXMXMXMXmXdXeX7XyXeXyXyXyXyXyXyXyXyXyXyXyXdXBXnX7XyXyXyXyXyXuXuXyXyXyXyXyXyXyXsXnXMXBXMXMXBXBXBXBXBXBXBXBXBXBXBXBXBXBXMXNXSXSXLXAX%X%X;X;X>X,X>X,X>X>X>X>X;X-X.X(.`.'.`..X'.~.^.`..X/./.].^.U.I.W.W.U.U.U.U.U.I.I.I.U.U.U.U.U.R.U.I.Y.J././.<.>.I.W.1.5.1.5.J.5.2.>.1.2.2.2.2.2.2.H.2.2.2.2.2.2.2.2.2.H.2.2.2.<.=.>.2.1.1.E T 1.4.2.,.T ' >.=.>.E T ' 2.3.' ` [ ' T ` R <.2.' T R ` R R R R R R R R R R R E R R E R R R R R R R R R E E R R E E R R ",
"E R R R R R R R E E R R E R R R ` ` ` ` ` ` ` ` ` ` ` ` ` ` ` ` R R R R T R ' ` ' ` R T K T ` R 1.<.` ` 1.' T [ 3.>.E ` <.G.<.[ ' <.1.3.1.3.3.3.3.3.2.2.2.2.2.2.1.2.2.1.1.1.2.J.J.J.K.>.1.2.H.P ` S - * < , 1 > 9 1 M I I ^ S $ 7 = o = O O O o Z 6.Q.,.5 > , 9 3 9 4 < M > 5 K.-X'.'..X'.(.'.-X>X;X;X;X>X>X>X>X,X;X;X1X4XwX3XAXDXZXBXBXBXBXBXBXBXZXZXZXCXBXBXMXnXgXgXsXyXyXdXdXyXuXaXuXaXuXuXgXdXnXBXnXsXnXyXrXyXuXyXyXpXnXMXmXMXmXMXhXrXeXtXtXuXyXsXyXaXaXqXyXyXrXrXrXrXyXyXyXrX7XyXyXrXrXrXsXsXmXnXMXBXCXMXmXZXCXZXZXFXJXvX@ O & ; r - & o : O 7 g | u + 7 7 7 y 8 e e o &     a SXFXgXZXMXMXBXBXNXNXBXBXBXBXBXBXBXBXBXBXBXBXBXBXBXBXBXBXBXBXBXBXBXBXBXBXBXBXBXBXBXBXBXBXBXBXBXBXBXBXBXBXBXBXBXBXBXBXBXBXBXBXBXBXnXaXyXaXdXaXyXyXyX9XyXyXyXnXBXBXBXBXBXNXNXNXBXBXBXBXBXBXBXBXBXBXBXBXBXBXBXBXBXBXBXBXBXBXBXBXBXBXNXNXNXNXNXBXMXmXdXsXsXyXuXuXuXuXuXuXyXyXyXyXdXnXBXBXBXMXMXmXmXMXMXnXsXsXuXeXyXyXyXyXyXyXyXyXyXyX7XdXBXnX7X7XyXyXyXyXuXuXyXyXpXyXyXyXyXdXsXnXBXMXMXMXBXBXBXBXBXBXBXBXBXBXBXBXBXCXBXnXbXFXvX%X%X<X>X>X>X;X>X;X;X;X>X>X;X.X`.`.(.`..X`.~.~.~.^.^.^. X X/.U.I.J.U.U.U.U.U.U.U.U.U.R.U.I.I.U.I.5.3.4.W./.H.1.J.Y.J.J.1.2.J.J.J.1.2.5.H.H.2.3.2.H.2.2.2.2.2.2.2.2.2.2.2.2.4.4.H.H.4.<.1.<.>.1.1.4.>.T <.>.Q ' >.E ` 1.1.` ` ' R T R K R ' ` R ` ` R R R R R R R R R R R R R R E E E R R R R R R R E R R R R R R R ",
"E E R R R R R R E R R R R E R R ` ` ` ` ` ` ` ` ` ` ` ` ` ` ` ` [ ` T T P ` >.1.R R [ <.` T R ' H.>.R ` 1.H.G.3.3.' Q E <.<.>.>.' <.3.2.3.2.2.2.3.3.2.2.2.2.2.2.2.4.H.4.2.3.2.H.' 3.I.4.1.' 2.J.).I $ < 9 1 9 , 3 > $ < % > > = = u q q q / / = 0 -.-.R m 4 1 3 3 < $ % > % % ,.-X).(.'.'.-X-X>X;X;X;X;X;X>X>X>X,X,X1X$X3XLXKXFXZXZXBXBXBXBXBXBXmXZXZXZXZXnXdXyXyX7XyXpXyXyXuXyXyXyXyXyXyXyXyXsXMXBXDXsX7XyXyXyXyXyXyXrXyXMXDXBXBXmXrX7XtXuXrXeXuXrXyXyXdXaX7XqXyXrXrX7XeXeXqXqX7XyXpX7X8X8X8XgXgXmXCXDXCXCXCXCXCXMXmXiXaXSX0Xa . & o * < 1 1 ; 8 + O : : O - t ; 7 8 y : 7 @.| z %.NXNXnXCXmXmXBXBXBXBXBXBXBXBXBXBXBXBXBXBXBXBXBXBXBXBXBXBXBXBXBXBXBXBXBXBXBXBXBXBXBXBXBXBXBXBXBXBXBXBXBXBXBXBXBXBXBXBXBXBXBXBXdXaXyXyXyXyXaXyXaXyXyX9XiXnXgXmXBXBXBXBXBXBXBXBXBXBXBXBXBXBXBXBXBXBXBXBXBXBXBXBXBXBXBXBXBXBXBXBXZXZXBXBXBXBXBXBXBXBXBXBXmXyXyXyXyXyXyXyXyXyXyXyXyXyXdXnXBXBXMXMXMXBXBXMXBXBXsXrXyXyXyXyXyXyXyXyXyXyX7XdXBXmXyXdXsXpXuXuXuXuXyXyXyXyXyXyXyXaXdXsXBXBXBXBXMXMXmXmXBXBXBXBXBXBXBXBXCXCXMXmXNXFXxXB.+X%XXX;X,X;X>X;X>X-X;X>X;XXX.X.X`..X.X.X.X`.^.^. X]./.T.!.!.Q.Q.U.U.U.U.U.U.I.I.U.R.U.I.I.U.P.5.Y.J.5.P.W.U.H.1.I.P.2.2.J.J.I.H.H.H.J.H.2.2.2.G.2.2.2.2.2.2.2.2.4.2.2.2.4.H.H.4.J.2.H.2.2.H.1.H.1.<.J.<.K ' 1.>.K ` ` T ` ` R ' >.R T T ` <.2.' R R R R R R R R R R R R R R R R E E R R R R R R E E R R R R R R ",
"R E R R E R R R R R R R E E R R ` ` ` ` ` ` ` ` ` ` ` ` ` ` ` ` ` R ' >.[ ' ' ' R R <.4.>.R ` ` 3.<.<.<.<.1.>.E <.>.[ >.>.[ >.G.<.1.3.1.<.1.3.3.3.2.2.2.2.2.2.2.1.2.4.2.2.3.1.3.3.3.I.J.J.=.<.P.R.K o $ 3 * 1 1 3 3 1 9 > 1 1 0 q b.9.g q 9./ O ; 9 3 5 6 4 1 3 > 3 Y K E P J K.-X!..X.X.X>X:X,X>X>X;X;X>X>X>X>X,X:X1X+X*XJXFXVXBXBXBXBXBXBXBXBXmXCXCXZXZXnXyXyX7X7XyXdXdXyXpXyXyXyXyXaXsXaXyXsXBXBXDXsX7XyXyXuXyXyXyXyXyXmXCXBXhXhXeX8XuXuXrXtXeXtXpXyXdXcXbXFXSXSXSXSXVXVXVXVXVXDXBXyXiXpX8XgXsXnXBXCXBXBXCXCXBXmXDXMXdXcXFX5XxXzX..; 8 e S e ; ; 8 : ; r 2 ; & : : + O | AXLXHXVXFXgXgXNXNXDXBXBXBXBXBXBXBXBXBXBXBXBXBXBXBXBXBXBXBXBXBXBXBXBXBXBXBXBXBXBXBXBXBXBXBXBXBXBXBXBXBXBXBXBXBXBXBXBXMXBXBXBXBXBXmXmXyXyXeXyXyXyXyXyXdXyXyXyXgXDXDXDXBXBXBXBXBXBXBXBXBXBXBXBXCXCXCXBXCXBXBXBXBXCXCXDXBXBXBXBXBXBXBXBXBXBXBXBXBXBXBXZXZXDXBXDXmXyXdXyXyXuXyXyXyXyXyXyXyXqXyXnXBXBXMXBXmXBXMXmXBXBXsX7XyXyXyXyXyXyXyXyX9X9X7XdXmXBXBXBXyXyXyXrXyXyXuXuXyXyXyXyXyXaXdXsXnXmXBXBXMXMXmXmXBXBXBXBXBXBXBXBXBXBXMXmXNXSXcX*X3X2X-X;X,X>X,X,X,X;X>X>X>X;X;X-X`. X'. XXX.X`.^.^.^.T.U.~.'.^.~.I.I.I.U.U.U.I.R.I.U.I.I.U.R.I.P.I.R.Y.Y.W.I.4.H.P.J.2.H.J.J.I.2.H.H.J.H.G.2.2.2.2.2.2.2.2.2.4.4.2.2.H.H.2.2.1.' 1.4.H.' >.2.,.<.>.>.J.>.K =.1.' T ' ' R ' ` R >.H.>.` T ` 2.H.[ R R R R R R R R R R R R R R R R E E R R R R R R R R R R E E R R ",
"R R R R E R R R R R R R E R R R ` ` ` ` ` ` ` ` ` ` ` ` ` ` ` ` T T >.H.2.' T K ' ` =.<.' ' ' T J T ' 1.4.1.>.<.<.3.3.<.<.>.<.2.3.3.3.3.1.3.3.1.2.2.2.2.2.4.2.2.1.2.3.2.G.3.3.3.2.1.J.2.I.J.5.P.K.` 5 S A * * > 1 1 , 9 , 9 , = q n.n.( d ( / = = $ % 6 $ 5 3 4 5 I '..X-X>X'.-XXX'.;X;X-X,X-X;X>X>X;X>X>X>X>X>X<X-X2X$X#XAXNXZXBXBXNXBXBXBXBXNXZXDXZXnXmXgXyXpXyXyXyXsXsXpXyXyXuXyXyXsXVXnXnXVXmXsXnXdXyXyXyXpXyXyXdXsXsXmXBXmXuXpXiXtXrXtXtXuXeXpXsXyXnXcX5X=X3X3X3X3X3X3X3X3X*X=X&XV.aXFXsXMXmXmXCXCXZXCXCXZXCXBXDXMXsX7XVXSXKXJX|   . O & - & + : O & r ; & .         g AXJXFXNXZXgXCXZXBXNXBXBXBXBXBXBXBXBXBXBXBXBXBXBXBXBXBXBXBXBXBXBXBXBXBXBXBXBXBXBXBXBXBXBXBXBXBXBXBXBXBXBXBXBXBXBXBXBXMXCXBXmXBXmXsXdXyXyXaXaXaXaXaXaXyX7XyX9XdXCXDXCXBXBXBXBXNXNXBXBXCXBXBXmXmXnXmXmXnXnXnXnXmXmXBXBXMXBXBXBXBXBXBXBXNXNXNXNXNXNXNXNXNXNXmXBXmXnXmXdXyXyXuXuXuXuXyXyXaXyXaXsXhXhXhXgXhXCXBXmXCXCXhXyXyXyXyXyXyXyXyXyXyXyXyXdXiXdXBXBXpXuXrXeXeXyXuXuXyXyXyXyXyXyXaXdXdXVXBXBXMXMXZXZXZXNXNXNXNXNXBXBXnXNXBXCXmXZXHXAXKXxX:X-X>X-X;X;X,X>X,X>X>X>X>X-X X X'.`..X.X`.`.!.^.^./.~.'.'./.I.I.I.U.U.U.R.R.U.I.I.U.U.U.U.U.I.R.R.U.Y.J.J.W.5.5.2.J.J.J.J.<.5.5.H.G.G.G.2.2.2.2.2.2.4.4.4.4.4.2.H.H.2.2.1.' >.1.1.E ` 1.>.<.E R ,.<.' >.>.R [ H.1.' ' ' R =.1.' ` ` R >.<.` R R R R R E R R R R R E R R R R R R R R E E R R R R R R E R R R ",
"R R R R E E R R R R R R R R R R ` ` ` ` ` ` ` ` ` ` ` ` ` ` ` ` ` R =.2.<.` T T 2.>.' ' ' 1.<.K R >.' [ <.E T 3.2.H.1.<.2.J.<.[ >.<.1.3.2.G.2.<.2.2.2.2.2.4.2.2.2.2.2.2.G.H.H.H.1.3.Y.>.I.R.I.I.K.E.5.Q.[.A 3 3 3 3 * 1 , 9 , = q g d q q d q = ; < > m 5 4 5 m % ` ;X.X!.-X.X'.(.~.>X,X,X<X-X<X,X>X>X>X>X>X>X>X:X1XIXAXcXHXNXMXBXNXNXBXBXBXBXBXmXZXhXiXsXiXyXdXsXyXiXsXdXyXyX7X0X7X0XsXBXBXVXCXdX7XeXyXyXpXyXpXdXpXhXMXMXBXBXhXyX7XtXpXrXuXuXeXtXrX7X7XSXqX&..   . X . . . . .   X . @ &XFXnXmXMXhXnXmXmXMXBXhXyXiXdXrXgXeXeXeX8XFX%.a g w a + o O + : : O o u PXxXxXAXwXwXJXVXbXZXZXmXZXnXDXDXBXBXBXBXBXBXBXBXBXBXBXBXBXBXBXBXBXBXBXBXBXBXBXBXBXBXBXBXBXBXBXBXBXBXBXBXBXBXBXBXBXBXBXBXBXBXBXBXBXBXBXmXBXnXyXyXyXyXyXyXaXyXyXyXyXyXdXyXiXBXCXCXBXBXNXNXNXBXBXBXBXmXsXyXyXyXyXyXyXyXyXyXyXyXyXdXMXMXBXBXBXBXBXBXBXZXZXZXBXNXNXNXBXBXNXBXCXDXDXsX7XeXyXyXuXuXyXyXeXyXyXyXyXyXiXrXiXmXBXMXCXBXnXpXyXyXyXyXyXyXyXyX9XyX9XyX7XyXBXmXBXMXsXuXrXrXyXyXyXyXyXyXyXyXyXyX9XsXBXBXMXMXCXCXBXNXNXNXNXNXBXBXBXNXMXCXnXVXFXGXKX3X|.|.,X,X,X>X>X>X,X>X-X>X>XXXXXXX.X X.X X`..X^.^..X/.I.~.XX~.I.I.I.U.U.U.R.U.R.I.I.R.U.P.P.U.I.J.Y.I.Y.I.W.I.2.2.2.Y.J.J.J.>.2.2.2.2.G.G.G.2.4.4.2.2.2.4.4.4.H.2.4.4.2.J.J.1.2.2.2.,.2.H.,.H.,.' 2.J.J.2.' Q ' J.3.R ` ` R ' ' R ` ' T R ' ` R R R R E E R R R E E E R R R R R R R R E E R R R R R R E R R R ",
"R R R R R R R R R R E E E E E E ` ` ` ` ` ` ` ` ` ` R R R R R R ` ` ` ' ' R T R ' ' R T T P T T 3.J.<.T E [ [ >.[ [ 2.2.2.<.T T E <.G.2.2.2.1.2.2.2.4.4.4.4.4.4.4.2.3.1.1.Y.R.I.<.2.1.<.H.Y.P.5.5.Q.P.Q.5.5 % $ > % $ > 1 9 1 7 O = O = = = = = , , < > $ 6 5 % o Y ~.(.~.`.`.`.~. X-X,X<X<X>X>X-X>X<X>X>X,X-X:Xr.%XAXJXFXDXBXCXZXZXZXmXCXCXBXBXCXCXgXyXiXgXsXyXsXnXdXdXnXbXaXaXcXVXVXBXCXCXDXCXNXyX8XdXyXsXiX9XiX7XhXCXDXBXyXiXeXtXiXeXyXuXpXeXtX8XsXyXJXKX&.  : 7 : ; : : o : + .     5XFXmXmXMXMXBXCXCXCXBXhXyXyXyXyXyXyXyXyXyXyXVXDXSXSXcXwXxX%X  O   w   a HXHXHXHXFXFXDXNXNXNXBXBXBXBXBXBXBXBXBXBXBXBXBXBXBXBXBXBXBXBXBXBXBXBXBXBXBXBXBXBXBXBXBXBXBXBXBXBXBXBXBXBXBXBXBXBXBXBXBXBXBXBXBXBXBXBXBXBXBXnXyX7XyXyXyXyXyXyXyXyXyXyXyX7XdXCXBXBXZXBXBXNXBXBXDXDXDXDXmXyXeXyXyXyXyXyXyXyXyXyXyXeXhXmXBXDXBXBXBXBXmXCXCXMXCXCXMXMXBXBXBXBXBXBXmXmXdXhXyX7XyXyXeXyXyXyXyXyXyXyXyXyXgXCXDXBXCXDXnX7XeXyXyXeXuXyXrXyXyXyXyXyXyXdXgXmXBXBXnX7XrXsXrXeXuXyXaXaXaXyXyXyX0XnXBXBXBXCXMXmXBXBXBXBXBXBXBXBXBXBXmXNXNXNXNXSXKXwXt.|.:X>X<X,X>X>X;X;X>X>X>X>X,X,X X(..X.X.X.X X^.~.~.~.~.~.~.Y.Q.I.U.Q.I.I.R.U.U.U.I.I.I.I.I.W.H.3.2.Y.W.I.H.Y.I.W.Y.2.J.Y.P.3.2.,.4.Q.!.J.2.2.4.4.2.1.2.4.4.2.2.2.2.2.2.4.4.>.' >.H.J.1.<.1.2.2.1.4.H.>.` <.R ` T <.4.' T L L T ` ` R T R ' P T T T ` ` R ` R R E E E E E E R R R E R R R R R R E E R R R R ",
"R R R E R R R R R R E E E E E E ` ` ` ` ` ` ` ` ` ` R R R R R R R T T T R R ` ' 1.>.T K R <.<.` G.J.<.' [ <.>.<.T E <.2.2.<.>.>.' <.1.1.2.2.2.2.2.2.4.4.4.4.2.4.4.2.2.2.2.J.P.J.<.H.H.1.H.Y.Y.H.J.Q.K.R.K.L J J A S F 9 * , , , < 1 = , , = , 0 < < < 3 5 6 m V S 7.(.'.~.`.`.'..XXX;X,X1X;X<X<X,X;X>X>X<X;X%X2X3X3XGXFXVXNXmXmXZXZXMXmXBXBXBXmXmXMXnXyXaXsXsXnXNXbXcXbXAXAXAXAXAXSXSXSXSXSXSXSX0XVXcXVXaXyXyXpXsXpXMXmXmXnXyXyXtXrXtXpXaXeXeXrXrX8XnX5X0X3X..O ; & & ; & ; 8 ; . + a a 5XFXmXhXmXhXMXMXMXBXMXsXyXyXyXyXyXyXyXyXyXrXgXMXMXBXmXaXSX3X@ + } xX3XwXNXmXZXZXZXZXNXNXNXNXBXBXBXBXBXBXBXBXBXBXBXBXBXBXBXBXBXBXBXBXBXBXBXBXBXBXBXBXBXBXBXBXBXBXBXBXBXBXBXBXBXBXBXBXBXBXBXBXBXBXBXBXBXBXBXBXBXNXmXnXsXsXyXyXyXyXyXyXyXyXyXyXsXdXnXCXBXZXZXBXBXBXBXBXnXsXnXnXsXyXyXyXyXyXyXyXyXyXyXyXyXeXsXsXnXmXhXnXBXBXmXBXMXmXMXBXMXMXBXBXBXBXBXBXMXmXmXBXsXyXaXuXyXsXuXuXuXpXyXyXyXyXdXnXmXnXnXnXnXsXgXgXyXeXyXyXyXyXyXyXyXyXyXyXyXiXmXmXMXsXiXyXeXuXyXyXaXaXyXyXyXyXqXsXmXNXBXCXBXCXBXBXBXBXBXBXBXBXBXMXmXNXNXNXNXNXFXwX+X2X<X-X>X;X>X>X>X>X>X>X>X>X,X>X X^..X X X.X'.~.~.^.^.~.!.^.(.`.I.I.Q.I.I.U.U.U.U.I.I.I.I.I.W.Y.H.J.I.I.P.2.I.Y.Y.H.2.J.J.1.H.J.1.2.I.I.J.H.4.4.4.H.4.2.2.2.2.2.2.2.2.2.4.4.>.' >.1.2.<.<.1.2.' T <.4.` T <.T R T >.,.T R =.R R R T R ' ' R P ` R T ` ` R ` R R E E E E E E R R R E R R R R R R E E R R R R ",
"R R E E R R R R R R E E E E E E ` ` ` ` ` ` ` ` ` ` R R R R R R R R T P R ' >.[ <.>.` K R 1.1.` >.>.[ ' <.<.>.<.E ' 1.1.<.1.<.G.1.2.1.1.2.4.2.2.2.2.2.2.2.2.2.2.2.3.H.J.J.5.2.1.2.Y.P.2.5.Y.Y.Y.1.I.5.P.Q.E.Q.!.E.!.Q.I < < , * * > * * < , 1 * 1 * $ L E.~.'.-X~.(.-XXX.X.X.XXX>X>X,X<X,X,X,X<X,X;X>X,X<X:X%X3XPXAXFXDXNXZXBXMXZXZXMXmXMXBXMXmXyXsXsXdXdXdXnXFX .g g g p p p i g g g g g i i i g 5XaX8XyXMXmXBXFXZXVX8X7XdXiXiX9XrXrXyXyXyXyXdXqXdX0Xg X + . O 8 * 1 1 * ; : . r.xXvX0XgXgX8X8XrXrXrXyXyXuXyXeXyXyXyXyXyXyXuXuXyX7XuXsXuXdXsXyXHX=X    z LXJXFXnXbXmXNXBXBXNXNXBXBXBXBXBXBXBXBXBXBXBXBXBXBXBXBXBXBXBXBXBXBXBXBXBXBXBXBXBXBXBXBXBXBXBXBXBXBXBXBXBXBXBXBXBXBXBXBXBXBXBXBXBXBXBXBXBXBXNXmXmXmXBXDXyXyXyXyXyXyXyXyX7XuXBXBXBXCXBXCXZXNXNXBXBXmXyX8XeXrXeXrXuXyXyXyXyXyXyXyXyXyXyXeXsXdXdXyXyXdXmXBXBXCXBXMXBXCXBXBXBXBXBXBXBXBXBXBXBXBXsXyXyXyXyXuXyXyXyXyXyXyXyXyXyXyXyXdXyXyXsXBXBXBXdX7XrXyXyXyXyXyXyXyXyXyX7X7XdXsXBXNXnX9X7XsXyXyXyXyXyXyXyXyX7XyXyXdXgXgXnXBXBXBXBXBXBXBXBXBXBXBXMXMXBXNXNXNXNXbXAXLXzX%X;X>X>X>X>X>X,X,X,X,X,X,X X^. X(.'..X.X^.~. X`./.W.!.XX`.P.J.U.I.I.U.U.U.U.I.I.I.I.I.W.I.Y.I.R.I.Y.J.W.I.J.H.J.Y.J.<.I.P.1.,.H.H.2.4.1.2.4.H.H.4.2.1.2.4.2.2.2.2.2.2.1.1.1.2.1.,.2.J.T E E >.H.2.' R T 4.1.' T T ` T 1.,.` P ` 1.1.` T =.[ R R ` R R R R E E E E E E R R E E R R R R R R R E R R E R ",
"R R E R R R R E R R E E E E E E ` ` ` ` ` ` ` ` ` ` R R R R R R R ` ` T ` >.>.` ` <.1.' T ' >.R E [ [ <.H.G.<.3.<.<.>.[ >.1.2.H.2.H.4.1.2.2.2.2.2.2.2.2.2.2.2.2.2.1.J.I.P.4.1.<.Y.Y.J.H.J.J.Y.W.J.W.J.5.P.P.I.P.E.).Q.U $ $ % % * $ < * * * 3 % $ $ % A !.'.(.!.XX.X.X`.'.`.^.XX<X,X,X<X>X>X,X<X>X,X<X:X%X%X+XwXJXVXSXNXnXBXBXmXBXMXMXMXMXBXBXmX9XyXyXpXdXdXNXHXp X       . o o . . o . . o o     wXKX0XuXFXDXBXDXDXFXqXqX9XiXiXNXBXmXgXeXpXiXqX0XKXAXp . + : 8 & 1 1 * 1 & O . w.bXFXFXpXtX8XgXrXeXeXeXeXrXeXeXyXyXyXyXyXyXyXyXyXyXyXyX7X7XyXiXNX=X@ @  .AXVXdXZXZXZXZXDXDXZXBXBXBXBXBXBXBXBXBXBXBXBXBXBXBXBXBXBXBXBXBXBXBXBXBXBXBXBXBXBXBXBXBXBXBXBXBXBXBXBXBXBXBXBXBXBXBXBXBXBXBXBXBXBXBXBXBXBXBXBXmXmXBXDXDXyXyXyXyXyXyXyXyX7XuXBXDXBXDXBXBXZXBXBXZXCXmXyX8XeXrXeXrXuXyXeXuXyXyXyXyXyXyXyXeXsXuXyXyX7XyXnXMXBXBXBXMXCXCXBXBXBXBXBXBXBXBXBXMXBXBXsXyXyXrX7XeXyXyXyXyXyXyXyXyXyXyXyXyXyXyXsXDXBXBXnXyX9XyXyXyXyXyXyXyXyXyXyXyXyXyXnXBXnXyX7XyXyXyXyXeXeXeXrXeXyXyXeXyXyXyXiXmXBXBXBXBXBXBXBXBXBXBXMXMXBXBXBXNXNXFXKXLXUX|.1X<X>X>X>X>X,X,X,X,X>X,X.X.X.X(.'.'.XX`.(.'.(.!./.!.`.^.I.I.U.I.I.U.U.U.U.I.I.I.I.I.Y.I.I.T.I.I.I.W.Y.J.4.3.2.H.4.<.I.Y.1.,.2.2.,.1.1.1.1.2.4.4.4.4.4.4.4.4.2.2.2.2.2.H.H.2.1.2.H.J.' <.1.,.J.J.=.R R 1.2.' R =.=.R J.4.=.T ` 1.1.' ` 1.<.` R ` R T R R E E E E E E R R E R R R R E R R R R R R E E ",
"R R R R R E E E R R E E E E E E ` ` ` ` ` ` ` ` ` ` R R R R R R [ >.' T R [ ' T ` >.1.<.` ` ` P Q E [ <.3.<.<.G.H.<.[ ' <.G.H.<.>.2.H.2.2.1.1.H.2.2.2.2.2.2.2.2.H.2.H.P.H.2.2.2.Y.H.2.J.I.J.J.I.J.I.Y.I.Q.Q.Q.!.K.P.P.=.L I I -.Y < 9 4 4 > M 3 > -.' 1.!.Q.!.~.(.~.^.`.'.`.(.;X,X,X,X,X,X,X,X,X>X,X<X%X4X3X3XAXSXbXNXNXmXBXBXMXBXmXZXCXMXCXCXmXiXyXyXyXiXiXnXFX$.a @ @ + : O ; 9 9 C C C M M e O vXJXcXhXMXhXmXFXSXJXSXNXsXrXgXwX5X8XCXgXsXiXdXwXwX3XH : r O o & * * , 8 = O.&X5XFXdXhXtXiX8X7XuXuXyXyXuXyXyXuXyXyXyXyXyXyXyXyXpXyXyXyXeXyXhXBXDXDXwXqXqXFXNXDXZXZXNXZXBXBXNXNXBXBXBXBXBXBXBXBXBXBXBXBXBXBXBXBXBXBXBXBXBXBXBXBXBXBXBXBXBXBXBXBXBXBXBXBXBXBXBXBXBXBXBXBXBXBXBXBXBXBXBXBXBXBXBXBXBXBXBXNXmXnXnXmXyXyXyXyXyXyXyXyXyXuXBXDXBXCXNXNXNXNXBXBXBXmXhXsXhXsXyXrXyXyXyXaXyXyXyXaXaXyXyXyXaXyXuXuXyXyXdXsXdXsXsXnXBXBXMXBXBXBXmXMXNXBXNXNXBXZXmXgXsXsXsXsXsXsXuXyXyXyXyXyXyXyXyXyXyXyXsXmXsXmXBXnXyXyXyXyXyXyXyXyXyXyXyXyX7X9XiXnXNXnXdX7XyXuXyXyXuXtXtXyXsXuXyXyXdXyXsXBXBXBXBXBXNXZXZXBXBXBXBXMXMXMXBXmXZXmXbXGXxX$X1X<X;X>X>X>X>X>X,X,X>X>XXX-XXX`.`.`.(.(.(.~.^.(.(.(.!.(.~.~./.P.I.U.U.U.U.I.I.I.I.I.I.I.U.I.Y.K.Y.I.J.J.J.H.2.H.J.J.H.H.H.4.H.1.4.J.J.4.2.1.1.4.4.4.4.4.2.2.2.2.2.2.2.2.2.1.1.2.2.2.J.>.>.2.H.>.T 2.4.E R ,.,.' R =.' =.` R R ` ` R ` <.<.` R ` R R R R E E E E E E R R R R R R E E R R R R R R R E ",
"R R R R R R E E R R E E E E E E ` ` ` ` ` ` ` ` ` ` R R R R R R 2.2.>.T T ' >.' [ ` R ` ` >.' K W ' >.>.[ >.<.3.3.3.>.<.G.H.2.' E <.2.1.1.1.1.H.2.2.2.2.2.2.4.4.P.H.H.2.1.1.H.J.J.2.1.Y.W.J.2.J.H.P.J.Y.I.P.Y.I.Q.E.Q.E.Q.!.!.(.-.% $ 1 C * > o A )..X(.!.J.W.`.^.^.'.'..X'.(.-X>X>X,X,X,X,X,X,X<X;X1X%X3XKXFXFXDXNXZXCXBXBXBXCXCXmXZXCXMXCXCXnXgXsXyXyXiXyXdXVXSXxXwX5X4X..O r > > > > > > * * o t.b.5XDXhXiXNXqXC.#XB.5XdXrXNXg X c dXgX8XyXFX| @ & o o ; & 9 1 - 1 - o . v.LXVXFXpXgXtXuXrXyXyXyXeXrXyXyXeXuXyXyXyXyXyXyXyXyXyXyXyXyXyXyXgXCXnXFXFXHXDXBXgXZXmXNXNXNXNXBXBXNXBXBXBXBXBXBXBXBXBXBXBXBXBXBXBXBXBXBXBXBXBXBXBXBXBXBXBXBXBXBXBXBXBXBXBXBXBXBXBXBXBXBXBXBXBXBXBXBXBXBXBXBXBXBXBXBXBXBXBXBXnXdXyX7XyXyXyXyXyXyXyXyXyXyXBXCXBXCXNXNXNXZXBXBXBXMXBXBXBXMXsXrXyXyXyXaXuXyXaXaXaXaXyXyXyXyXyXuXyXyXyXeX7XyXyXhXBXCXBXBXBXBXmXmXNXNXNXNXZXCXBXBXBXCXCXBXyXyXyXeXyXyXuXuXyXyXyXyXyXuXiXyXyXnXBXBXnXsXdXyXyXyXyXyXrXyXyXyXrXrXrXgXBXBXmX7XyXyXyXrXrXrXrXeXyXqXeXyXdXdXsXBXBXBXBXBXBXZXZXBXBXBXBXMXBXBXBXmXZXCXSXJXvX+X%X-X:X>X,X,X>X>X,X>X>X>X;X>X-X`.`.(.(. X(.~.~.'. X(.I.~.^.`.!.P.I.U.U.U.U.I.I.I.I.I.W.W.T.Y.J.5.H.H.I.T.I.Y.Y.J.Y.W.1.2.K.P.J.1.J.W.P.K.H.2.2.4.4.2.4.4.2.2.2.2.2.4.4.2.2.1.2.4.2.1.>.E >.<.1.<.T H.J.R T ' >.' T R K T ` ` R R R T P ' ' T R ` ` ` R R E E E E E E R R E E R R E E R R R R R R R E ",
"R R R R R R R R R R E E E E E E ` ` ` ` ` ` ` ` ` ` R R R R R R 1.1.=.T T ' >.>.` T T T ` 1.<.K 3.G.G.2.<.<.<.<.[ 3.2.H.H.2.2.[ ' <.2.1.2.2.2.2.2.2.2.2.4.4.4.4.J.H.J.4.1.3.H.5.I.J.H.J.P.J.H.Y.I.I.I.P.U.W.W.W.I.Y.P.J.Y.I.K.E.-.$ 5 $ < $ 3 % P ).~.~.~.H.W.`.~.`.'.~.'..X~.XX>X>X>X,X,X,X,X,X<X;X1X+X3XHXFXnXZXmXMXMXmXmXMXMXCXmXCXCXmXMXMXsXgXhXdXdXdXyXyXyX9XiXcXbXvXr.. & 8 9 3 3 1 1 1 1 o + X #XFXbXbXFX#XX     b.cXqXFXO.  g CXMX8XqXFXg   ; 2 9 1 % > < ; & o w + V.SXdXnXMXhXrX7XeXsXuXuXyXyXaXyXyXuXyXyXyXyXyXyXuXuXyXyXyXaXyX9XdXMXnXmXgXnXgXMXmXMXBXNXNXNXBXCXCXCXBXBXBXBXBXBXBXBXBXBXBXBXBXBXBXBXBXBXBXBXBXBXBXBXBXBXBXBXBXBXBXBXBXBXBXBXBXBXBXBXBXBXBXBXBXBXBXBXBXBXBXBXBXBXBXBXBXBXBXBXnXsXyX7XyXyXyXyXyXyXyXyXyXyXBXDXBXBXBXBXBXZXZXBXBXBXBXCXCXCXgXrXyXyXyXyXyXyXyXaXaXaXyXyXyXeXyXyXyXyXyX7XrXyXyXsXMXBXBXBXBXBXmXmXNXBXBXBXBXBXBXBXBXDXDXBXuXyXyXyXyXyXuXdXyXyXuXuXuXyXyXyXyXsXBXBXmXmXnXyXyXyXyXyXyXyXyXyXyXrX9XgXNXBXDXdX0X0X0X0XqXqX7XqXaXaXaXaXcXdXyXsXBXBXBXBXBXZXZXBXBXBXMXMXBXBXBXBXmXDXDXSXwX+X$X1X:X;X,X,X>X>X>X>X>X,X;X,X-X^.(.(. X X(.).).(.(.^.R.!.~.(./.I.U.U.U.U.U.I.I.I.I.I.I.T.I.I.P.J.H.H.I.I.Y.J.Y.J.H.H.H.H.K.K.4.1.J.Q.K.J.4.2.4.4.4.1.4.2.2.2.4.4.4.4.H.H.2.2.2.1.2.2.K E 2.>.1.H.E >.' R ' T R 2.,.R R ' ' R ` >.>.` P R R T R ` R ` R R E E E E E E R R E E R R R R R R E E R R R R ",
"R R R R R R R R R R E E E E E E ` ` ` ` ` ` ` ` ` ` R R R R R R ` ` R P K R ' [ P ` <.' R 1.2.R <.3.G.3.>.>.' Q K <.G.H.2.1.J.H.<.2.2.2.4.H.2.2.4.4.2.2.2.4.4.4.1.5.P.Y.4.2.2.>.W.W.Y.2.2.J.I.W.I.I.J.3.J.R.U.U.W.U.R.I.I.I.J.Q.5.-.E.S $ 3 6.1.5.(.Q.^.~.2.W.`.~.`.`.~.XX>X-X,X,X,X,X,X,X,X<X,X:X1X3X%X*XSXFXmXMXMXMXCXBXMXBXCXCXmXZXCXnXmXmXiXyXsXsXsXsXdXyXrX8XrX8X0XJXwXp O ; ; , , , , ; ; 8 &   v.xXwXAXJX*XO + + *XLXbXJX8.. g SXcXdXAXJX@.O 9 * $ 9 > $ * 8 o 7 3XxXvXVXnXpXsXeXuXuXaXyXeXyXeXeXuXeXeXuXyXyXyXyXyXyXuXuXuXyXdXcXsXdXgXCXZXZXmXCXBXCXMXMXCXBXNXNXBXBXBXBXBXBXBXBXBXBXBXBXBXBXBXBXBXBXBXBXBXBXBXBXBXBXBXBXBXBXBXBXBXBXBXBXBXBXBXBXBXBXBXBXBXBXBXBXBXBXBXBXBXBXBXBXBXBXBXBXBXBXBXBXNXnXdXyXyXyXyXyXyXyXyXyXyXyXBXDXBXBXBXZXZXZXZXBXBXBXBXMXMXMXhXrXyXyXyXyXyXyXyXyXyXyX9X7XyXyXyXuXyXyXyXrXyXyXrXdXnXnXnXmXBXBXMXMXNXBXZXZXZXBXBXNXmXBXBXmXMXmXgXsXuXyXyXuXyXyXyXuXyXeXyXpXyXdXmXBXNXBXmX9X7XyXyXyXyXyXuXuXyXrXrXgXnXNXDXVXSXSXSXFXSXSXSXSXSXSXSXSXVXcXaXyXBXBXBXBXBXBXBXBXBXBXMXMXBXBXBXBXZXNXnXSXKXGXPX3X:X;X,X,X>X>X>X>X>X>X;X,XXX^.(.(.(.).).(. X(.(.'..X'.~.^./.I.R.I.U.U.U.I.I.I.I.I.Y.Y.I.U.W.I.I.Y.W.T.J.Y.W.I.2.<.W.J.4.4.1.,.4.J.4.1.1.1.4.4.4.2.2.2.2.2.4.4.4.4.2.2.2.1.<.>.,.2.,.<.H.1.2.1.Q ' R R >.=.' 1.=.T 2.4.>.K T 1.H.>.R ` R R ` ` R R R R E E E E E E R R R R R R R R R R E E R R R R ",
"R R R R R R R R R R E E E E E E ` ` ` ` ` ` ` ` ` R ` ` ` R R ` K R T R ' T K R ` ` 1.J.1.>.' K ' W T K.G.E K 3.>.G.2.<.H.H.1.2.2.2.2.2.2.2.2.2.H.H.2.2.4.H.2.2.H.3.H.Y.J.2.4.2.2.P.W.I.H.Y.W.W.P.I.I.R.U.U.U.U.I.I.I.I.I.I.I.I.E.).(.P % S .X(.(.Q.Q.~.].].].].`.`.`.(..X>X,X;X:X<X>X,X;X2X,X1X1X4XPXLXAXNXZXCXMXMXMXBXBXBXMXMXBXCXCXCXmXyX7XyXrXsXmXMXMXsXyXyXrXpX7X0XKXKXO.O 7 o 8 ; O ; = ; ; & O O   &.KXLX%X7 O 7 o.t.&.O.y . p cXFX=X&.v.u & < 1 3 < 9 * * 8 . . 5XKX0XaXyXyXyXyXuXuXuXuXyXyXyXyXyXyXyXyXyXyXuXuXuXyXuXaXyXdXVXFXCXBXCXCXBXBXBXBXBXBXMXMXBXBXBXBXBXBXBXBXBXBXBXBXBXBXBXBXBXBXBXBXBXBXBXBXBXBXBXBXBXBXBXBXBXBXBXBXBXBXBXBXBXBXBXBXBXBXBXBXBXBXBXBXBXBXBXBXBXBXBXBXBXBXBXBXBXBXBXBXBXBXBXBXsXyXyXuXyXyXyXyXrXdXiXyXhXBXBXBXBXCXMXmXCXMXmXBXMXMXmXMXBXnXsXnXnXnXnXnXnXnXnXnXyX7XyXdXyX7XyXyX7XyXyXeXeXeXyXyXCXMXBXCXBXBXZXmXBXBXBXBXBXBXBXBXBXBXBXsXyXuXeXuXuXyXyXyXyXuXuXyXyXyX7XyXmXDXBXyXyXyXyXyXyXyXyXyXyXyXyXyXNXcXSXe.e.w.@.q.w.e.e.q.r.b.v.V.e.wXcXqXsXhXCXMXmXMXMXmXBXmXMXZXmXCXFXBXVXDXNXDXGXGXKX4X:X2X<X-X;X>X<XXX-X,X-X>X-X(.'.`..X(..X(.(..X^.^.XX'.R.Y.R.W.I.P.Y.T.I.Y.I.U.Y.I.T.I.I.I.I.I.Y.Y.H.U.W.I.I.Y.J.J.2.Y.4.J.R.J.4.,.>.4.1.,.4.4.2.J.4.4.4.4.2.2.2.2.2.H.H.,.' E =.1.2.1.1.,.2.2.>.<.>.=.4.H.,.>.T L <.J.>.K T <.H.' P P R ` R R ` ` R R E E E E E E R R E R R R R R R R R R R R R R ",
"R R R R R R R R R R E E E E E E ` ` ` ` ` ` ` ` ` ` ` R R R R T >.>.` ' <.<.' >.T T >.1.=.' ' R [ <.' <.[ >.E <.<.<.[ E >.1.<.2.2.2.2.2.2.2.2.2.J.H.H.H.4.2.2.2.U.J.2.2.J.I.U.J.1.5.Y.I.J.J.Y.J.5.K.P.I.I.U.U.U.I.I.I.I.I.I.I.I.I.Q.E.S % 5 ).).(.Q.W.~.^.~.].].~.`.(.^. X;X>X;X:X,X;X>X-X<X-X1X_.@XvXJXAXZXNXmXMXMXBXBXBXBXMXMXCXBXBXCXmXyX7XyX7XyXyXyXdXyX7XrX7XyXyXyXVXKXwXPXw.+ O 7 7 8 - r 9 1 ; : . + } t H = 7 o o + .   O . g KXLX@XX   ; & 9 3 3 * 1 & ; 7 . X 5XSXeXeXyXyXyXyXuXuXuXyXyXyXyXyXyXyXyXyXeXeXyXyXyXyXuXaX7XyXVXCXBXBXBXBXBXBXBXBXBXBXBXBXBXBXBXBXBXBXBXBXBXBXBXBXBXBXBXBXBXBXBXBXBXBXBXBXBXBXBXBXBXBXBXBXBXBXBXBXBXBXBXBXBXBXBXBXBXBXBXBXBXBXBXBXBXBXBXBXBXBXBXBXBXBXBXBXBXBXBXBXBXBXBXBXdXrXyXyXyXyXyXyXyXyXyXyXnXCXCXCXBXCXBXMXCXCXMXCXCXCXCXCXDXCXBXDXDXDXDXDXDXDXDXDXyX7X7XyX7X7XyXyX7XyXyXeXeXeXyXyXBXBXBXBXmXNXBXnXBXBXBXBXBXBXBXBXBXMXnXyXeXyXeXuXuXyXyXyXyXyXuXyXyXyX9XyXmXDXBXdXyXyXyXyXyXyXyXyXyXuXaX7XnXFXaX.   @ X O     . @ . . .   @ 5XFXdXqXiXZXCXCXCXBXCXBXmXZXCXZXNXCXDXNXDXmXCXVXFXKX$Xt.-X<X<X<X-X;X-X>X>X;X>XXX^.`.`.'.).(.).(. X).(.^.(.!.W.R.Q./.!.Y.T.T.I.T.T.I.I.I.I.I.I.W.I.Y.J.J.I.Y.H.2.H.J.P.H.2.2.R.R.2.4.4.4.I.P.4.H.4.2.J.2.4.4.4.2.2.2.2.H.H.H.2.<.>.<.,.L 1.4.T ` K.J.<.4.,.1.,.' R T ' T ' ` ' ' R ` R T ` ' ` T R R T R R E E E E E E R R E E R R R R E E R R R R E E ",
"R R R R E R R R R R E E E E E E ` ` ` ` ` ` ` ` R ` R T R ` ` T 2.<.' >.2.<.T T R T ` ' ` ' <.>.<.G.[ W E G.<.<.G.3.E T >.<.2.H.2.2.2.2.2.2.2.2.4.2.2.2.2.2.2.1.W.P.2.<.2.Y.I.H.H.1.2.Y.Y.J.K.Y.5.K.P.I.R.U.R.U.U.U.U.U.I.I.I.U.R.I.I.L 5 K !./.'.!.~.^.].^.].^.~.`.'.(..X;X,X>X>X<X>X<X:X,X-X2X$X$XcXFXNXDXCXMXBXBXBXBXBXBXMXZXCXBXBXCXMXyX7XdXyXyXyXrXyXyXrXyX8XyXmXBXNXNXcXLX#X+   o = * % , * & % ; & & & . O o u q q q 7 q # # g 3XwXr.w ; 1 < 9 1 - o o o   . X @ =XyX7XrXyXyXuXuXuXuXyXyXyXaXaXaXyXyXyXyXyXyXyXyXyXaXuXuXyXyXnXBXBXBXBXNXBXBXBXBXBXBXBXBXBXBXBXBXBXBXBXBXBXBXBXBXBXBXBXBXBXBXBXBXBXBXBXBXBXBXBXBXBXBXBXBXBXBXBXBXBXBXBXBXBXBXBXBXBXBXBXBXBXBXBXBXBXBXBXBXBXBXBXBXBXBXBXBXBXBXBXBXBXBXBXBXiXyXyXyXyXyXyXyXyXyXrXyXhXMXBXBXMXBXBXMXMXMXMXMXMXCXMXmXBXBXBXCXBXBXBXBXBXBXBXBXiXyXyXyXpXyXyXyX7XrXyXyXyXyXyXyXmXmXBXmXmXCXDXNXBXBXBXBXBXBXBXBXBXBXmXuXaXsXyXyXyXyXyXuXyXyXuXyXyXyXyXyXmXBXBXdXyXyXyXyXyXyXyXyXaXyXuXeXnXDXqXa X @ . 7 y : : O : : 7 O w xXLXSXbXsXnXnXMXBXmXCXnXmXNXZXZXNXNXDXFXCXNXZXbXFXSX*X|.2X1X:XlX<X2XlXlX2X2XlX,X-X>X-X-X-X;X-X-X-X.XXXR.!.(.(.!././.R.Y.U.I.I.T.T.I.I.I.I.I.T.W.I.J.H.Y.I.J.2.2.H.J.I.J.<.1.P.J.2.J.1.K.W.Q.K.4.4.1.H.2.2.4.4.2.2.2.2.H.H.H.4.4.2.1.<.' 1.4.' ' 2.2.H.4.=.=.>.=.' ` >.L T T =.' K T T T ` ` R T ` ` T R R E E E E E E R R R E R R R R E E R R R R R E ",
"R R R R E R R R R R E E E E E E ` ` ` ` ` ` ` ` R ` R T ` >.>.` ` R T ' <.' T T >.` T T R >.2.2.G.G.[ W [ G.3.3.3.3.<.>.<.H.G.H.2.2.2.2.2.2.2.2.1.1.2.2.H.H.H.H.H.J.H.2.2.5.H.4.I.H.4.Y.Y.J.Y.W.P.E.R.R.R.R.I.I.U.U.U.U.U.U.T.U.Q.I.!.E.Q.!.XX^.`.~.~.].].].].].^..XXXXX-X>X,X>X<X>X;X<X;X;X-XzXAXcXSXFXVXNXNXnXBXBXBXBXBXBXZXZXBXBXBXCXmXyXrXhXMXmXdXyXyXyXyXpXdXdXnXnXZXDXqXcX5Xr.q.H & 0 9 1 1 1 1 ; - - ; 8 0 O / b.9.q # #.b.#.# + + O o - - > 3 3 2 O ..$X$X&X&X&XyXsXsXsXyXyXuXyXyXuXyXyXyXaXaXaXyXyXyXyXuXuXyXyXyXyXyXyXyXyXVXBXBXBXBXBXBXBXBXBXBXBXBXBXBXBXBXBXBXBXBXBXBXBXBXBXBXBXBXBXBXBXBXBXBXBXBXBXBXBXBXBXBXBXBXBXBXBXBXBXBXBXBXBXBXBXBXBXBXBXBXBXBXBXBXBXBXBXBXBXBXBXBXBXBXBXBXBXBXBXBXBXBXBXBXBXyXyXyXyXyXyXyXyXyXyXrXyXpXpXdXnXBXBXCXCXCXMXMXMXMXMXgXiXgXBXBXBXNXNXNXmXMXMXMXMXmXBXmXmXBXnXrX7XyX7XrXyXyXyXaXyXyXyXyXyXgXBXBXnXBXBXBXBXBXBXBXBXBXMXBXmXBXBXyXeXyXyXyXuXyXyXyXyXyXyXyXyXsXhXdXyXyXyXyXyXyXyXyXyXuXuXrXyXhXdXNX5XHX*X@   O O 8 & 8 & y : . g p z SXbXNXNXZXDXmXNXnXCXZXNXDXDXNXNXNXCXNXnXNXFXFXAXPXPX2XH ..-._ I ` ` -.-.-.-.-.` ` ` >.=.>.5.R.(.^.~.^.(.~.~./.Y.I.U.I.I.I.I.I.I.I.I.I.I.W.I.Y.J.Y.Y.I.I.Y.Y.K.K.Y.J.4.4.4.Y.Y.,.J.I.P.4.1.4.4.H.2.2.4.2.2.2.4.4.H.2.2.2.H.2.1.<.H.2.4.1.>.E ' J.>.T T <.4.,.` R >.>.R T T ' <.` T T ` R ` <.,.R R R E E E E E E R R R E R R R R E R R R R R R E ",
"R R E E E E R R R R E E E E E E ` ` ` ` ` ` ` ` T ` R R ' <.1.>.R T T T T T ` 1.2.' T P R <.2.2.G.G.[ E 3.G.G.G.>.<.2.<.2.G.2.2.2.2.2.2.2.2.2.2.H.2.H.H.J.J.J.J.<.1.H.Y.J.H.H.Y.I.Y.Y.I.I.H.H.I.Q.Q.W.R.I.I.I.U.U.U.U.U.U.U.R.R.P.2.U.(.;XXX.X(.~././.^.^.^.].^.^.XX>X>X>X,X,X:X>X:X:X>X:X:X%XxXLXFXFXDXnXBXBXBXBXBXBXBXBXZXZXZXBXBXBXBXnXrXyXmXnXnXsXyXyXyXyXiXDXDXCXhXhXhXiX8XbXSXPXw.. O - & o o 8 , * * % ; O O 9.*X}.# # b.@Xz.# . o ; - 3 1 1 3 - O   &.LXHXFXFXNXmXrXrXeXyXyXuXfXfXyXyXyXaXaXaXaXyXyXyXyXyXyXyXeXeXyXyXeXyXyXsXBXBXNXZXBXBXBXCXCXBXBXBXBXBXBXBXBXBXBXBXBXBXBXBXBXBXBXBXBXBXBXBXBXBXBXBXBXBXBXBXBXBXBXBXBXBXBXBXBXBXBXBXBXBXBXBXBXBXBXBXBXBXBXBXBXBXBXBXBXBXBXBXBXBXBXBXBXNXNXBXBXBXBXBXBXyXiXyXyXyXyXyXyXyXyXyXyXyX7XeXsXBXBXCXCXMXMXMXCXBXBXsXyXnXDXDXDXDXDXDXDXDXCXCXCXCXFXCXCXCXmXrX7XyX7X7XyXyXyXyXyXrXrX7XrXgXBXCXmXBXBXBXBXBXBXBXBXBXBXBXBXBXBXyX7XpXyXyXyXyXyXyXyXyXuXuXyXyXyXyX7XyXyXyXyXyXyXyXyXeXpXuXrXpXsXDXBXFX=Xa @ 7 . 8 ; - o 2 ; + O   i LXSXSXbXbXDXNXDXSXFXFXSXFXDXNXNXNXDXFXbXbXNXNXHXKXLX*X. . o % o o o o o o o o o % % % % $ J ,.!.XX(.!.!.!.^.^./.W.T.T.U.I.I.T.W.T.I.I.I.R.W.U.I.J.J.I.W.W.I.J.2.I.W.K.1.4.Y.J.H.4.H.2.,.1.4.4.4.2.2.2.2.4.4.4.4.2.2.2.2.2.2.1.1.1.H.J.>.E >.>.2.>.R R 1.J.>.R L 4.J.<.T K <.Y.=.R T R R >.H.H.=.R R E E E E E E R R R R R R R R R R R R R R R R ",
"R R E E E R R R R R E E E E E E ` ` ` ` ` ` ` ` R R ` R ' <.<.<.R R ` ' R K ` 1.1.>.` R ' >.<.>.<.G.<.E <.G.G.<.<.3.H.G.<.2.2.H.2.2.2.2.2.2.2.2.H.H.2.H.H.H.H.2.4.2.3.J.Y.J.H.J.<.H.I.W.I.J.5.J.R.R.I.I.I.I.U.R.U.U.U.U.U.U.R.R.R.J.I.I.(././.(.~.!.~.^.^.^.`.^.~.XX,X,X>X>X>X-X>X;X:X;X:X:X%XxXKXNXNXBXBXCXCXCXBXBXBXBXZXZXZXZXBXBXMXnXsXrXyXmXsXsXyXeXyXyXyXsXsXnXBXmXhXrXyX9X0XbXcX@.. X o . u . = - * 9 < ; = O o.{.b.q q 9.b.#.q 7 8 2 * & & & o o w @ %.VXnXgXnXmXsXrXpXuXyXyXuXuXyXyXyXyXaXaXaXaXuXuXuXuXuXuXyXeXuXgXnXgXsXsXnXBXBXBXZXZXBXBXCXBXBXBXBXBXBXBXBXBXBXBXBXBXCXBXBXBXBXBXBXBXBXBXBXBXBXBXBXBXBXBXBXBXBXBXBXBXBXBXBXBXBXBXBXBXBXBXBXBXBXBXBXBXBXBXBXBXBXBXBXBXBXBXBXBXBXBXBXBXBXBXBXBXBXNXBXBXnXnXsXyXyXyXyXyXyXyXyXyXyXeXeXsXmXhXhXhXgXhXMXBXCXBXsXyXsXBXBXmXmXmXMXMXmXmXMXmXnXmXmXhXmXmXgXsXsX9X7XyXyXyXyXyXuXyXrXyXhXmXmXBXBXBXBXBXBXBXBXBXBXBXBXmXBXBXdXdXsXyXyXyXyXyXyXyXyXuXuXyXyXyXyXyXyXyXyXyXyXyXyXyXrXrXpXyX7XpXmXyXdXDXqXAX$XO & o 2 ; ; - ; : O p PX0XAXSXVXSXNXFXHXGXAXHXHXFXZXZXFXdXSXFXNXNXbXNXAXLXxXi . o 2 2 ; 2 ; & - - - 4 6 6 4 4 S ` 5.).(. X(.!.~.!././.W.U.U.U.I.I.I.I.W.I.I.I.U.W.W.I.J.H.J.I.Y.J.H.2.K.I.P.1.1.1.,.Y.H.2.1.2.4.4.1.1.2.2.2.2.4.2.2.4.2.H.H.H.2.2.2.4.<.2.H.>.>.1.<.1.>.>.' <.,.` ' >.>.1.>.' T ` 1.` R T T R ' 1.,.` R R E E E E E E R R R R R R R R R R R R R R R R ",
"R R R R R R R R R R E E E E E E ` ` ` ` ` ` ` ` R R R R ` ` ' ' P P ' 1.<.R T ' ' [ <.<.<.>.` R <.G.3.E <.>.<.3.3.G.H.G.2.G.H.H.2.2.2.2.2.2.4.4.H.2.2.2.1.1.1.1.J.H.1.1.J.J.2.1.<.J.Y.J.P.Y.Y.Y.I.I.I.I.I.I.U.U.U.U.U.U.U.U.U.U..X.X`.P.^.!./.(.^.^.`. X^.]. X^.!.XX>X>X-X;X>X;X>X>X>X>X1X:X|.xXFXNXNXBXBXMXmXmXBXBXBXBXZXZXZXZXZXBXhXiXyXyXyXsXuXpXyXyXyXpXsXmXmXBXVXdXsX8XyXyXdXaXcXwXwXcXxXvX3X7 O ; * 9 < * 7 O 7 0 u q q q q 7 = 1 < % & & : 7 O y 4XwXqXFXmXgXhXBXdX7XyX7XyXyXyXyXyXyXyXyXyXaXyXyXyXyXyXyXyXyXyXyXpXMXCXBXBXVXBXCXZXZXZXZXBXBXBXBXBXBXBXBXBXBXBXBXBXBXBXBXCXCXCXBXBXBXBXBXBXBXBXBXBXBXBXBXBXBXBXBXBXBXBXBXBXBXBXBXBXBXBXBXBXBXBXBXBXBXBXBXBXBXBXBXBXBXBXBXBXBXBXBXBXBXBXBXBXZXNXBXNXNXBXBXBXCXmXdXyXyXyXpXyXuXyXyXuXyXeXuXuXrXtXtXrXpXMXBXBXCXmXpXyXyXyXyXyXyXyXrXrXrXrXrXyXrXyXyXiXnXCXCXnXrX7XyXyXyXyXyXeXeX7X7XyXrXyXnXBXBXBXBXBXBXBXBXBXBXBXNXBXBXnXBXmXyXrXyXyXyXyXyXyXuXuXyXyXyXuXuXyXyXyXyXyXyXyXyXyX7XyXdX7X7XyXgXyXDXVXJX&X  7 Z - ; & % & ; O O w + V.GXSXSXSXFX*Xz } =XSXSXNXFX=Xl e.bXdXmXFXSXHXxX$Xi : & - 1 * - - & ; & - -.-X.X.X).).).!.~.!. X)./.~.Q.I./.T.I.U.W.T.U.W.W.W.I.I.I.I.I.I.Y.I.H.2.J.J.J.Y.J.Y.P.I.4.1.4.1.J.4.1.4.P.P.4.1.4.4.4.2.2.2.2.2.2.2.4.H.H.2.2.2.2.H.1.1.2.H.2.>.1.,.1.>.>.=.R <.J.' R ` <.` P ` T T P T R R ` ' T R R E E E E E E R R R R R R R R R R E E R R R R ",
"R R R R R R R R R R E E E E E E ` ` ` ` ` ` ` ` ` R R R T P T R >.` ' 1.<.R K K K [ 4.J.2.[ T T 3.3.2.' >.E >.G.3.3.2.2.2.G.G.1.2.2.2.2.2.2.4.4.H.H.H.H.4.4.2.2.H.J.2.1.J.J.H.2.I.~.I.1.1.Y.I.I.I.I.R.R.U.U.I.U.U.U.U.U.U.U.I.I.~..X'.J.^. X~.!.^.^.`.`.^.^.^.~./..X>X>X-X;X,X,X>X;X>X;X:X%Xt.wXFXZXBXBXBXBXCXCXBXBXBXBXZXZXZXZXDXMXpX7XyXyXyXyXuXdXpXyXpXsXmXBXcXCXmX7XyX8XpXyXyX8XdXNXHXFXcXKXvX+ . + o 8 - - ; & 8 O & = 7 = = ; 1 1 < $ & .   X   X 3XJXFXpXCXhXnXDXsX7XdXuXyXyXyXyXyXyXyXyXyXyXyXyXyXyXyXyXyXyX7X7XyXmXCXCXDXMXBXCXmXmXNXNXBXBXBXBXBXBXBXBXBXBXBXBXBXBXBXBXCXCXCXBXBXBXBXBXCXCXCXCXCXCXCXCXBXBXBXBXBXBXBXBXBXBXBXBXBXBXBXBXBXBXBXBXBXBXBXBXBXBXBXBXBXBXBXBXBXBXBXBXBXBXBXBXBXZXBXBXNXNXNXNXBXDXmXyXyX7X7XyXyXuXyXyXuXuXeX7XyX7XrXrXeXsXBXDXBXDXCXmXsXyXrXyXyXyXyXyXyXyXtXyXyX9XyXrX7XsXCXBXmXyX7XyXrXyXyXrXyXuXuXuXyX7XyXBXBXBXBXBXBXBXBXBXmXmXBXBXBXBXmXDXBXpX7XyXyXyXyXyXuXuXuXyXyXyXuXuXyXyXyXyXyXyXyXyX7XyX7XqXaX7X7XDXMXBX7XJX&X  O o ; ; ; 2 - & 8 O .   @XJXHXAXbXHX#X    @XKXFXAXFXcX  x HXNXbXFXbXJXB.w   : ; * * - - * & - o % 6.<X-X-X.X-X-X'.(.~..X/.Y./.~./.XXW.U./.^.~.~.~.~.R.I.I.I.I.Y.J.H.W.H.2.J.J.P.Q.R.R.I.Q.K.J.!.Q.1.1.1.J.Q.Q.4.1.4.4.4.4.4.4.2.2.2.2.2.2.2.H.2.2.1.2.<.<.,.H.4.' ' 2.K.1.,.>.` >.1.>.T T <.>.R ' R T T ` ` T T R R R R E E E E E E R R R R R R R R R E E E R R R R ",
"R R R R R R R R R R E E E E E E ` ` ` ` ` ` ` ` ` K R >.' ` ` R ` [ ` E ' >.1.E [ ' ' 2.H.E ' Y.[ <.3.3.<.2.3.>.T [ 1.2.2.1.2.H.G.G.G.G.2.2.4.4.H.H.2.2.J.J.J.K.3.3.Y.!.K.' 1.~.R.K.J.K.K.I.R.I.U.R.U.U.U.U.U.U.R.U.U.U.R.R.U.U.~.(.!.Q.(.XX'./.^.~.(. X(.(.XX,X;X;X>X>X>X;X;X>X,X-X>X:X1XxXxXcXNXZXZXZXZXCXMXMXMXCXBXDXBXBXDXnXnXgXsXyXeXeXeXrXhXyXyXyXsXmXCXBXCXCXhX9X7XyXyXiXpXmXmXsXnXsXdXcXwXp   i X O t * e 1 2 - 1 = 0 , * 3 < 3 Z - . y @.| c &.=XNXBXgXnXnXgXsXdXuXyXyXyXyXuXuXuXyXuXuXyXdXdXyXyXdXiXyXyXiXnXmXnXnXBXBXBXBXBXBXBXBXBXBXBXBXBXBXNXNXBXBXBXBXBXBXBXBXBXBXNXNXNXNXNXBXZXBXCXBXBXBXBXBXBXBXBXBXBXBXBXBXBXBXBXBXBXmXmXBXBXBXBXBXBXBXNXNXBXBXBXBXBXBXBXBXBXBXBXBXBXBXNXNXBXBXNXNXBXBXBXBXBXBXBXBXNXmXmXnXdXyXyXyXyXyXyXyXyXuXyXyXyXyXuXsXsXgXsXgXnXhXsXuXyXpXyXyXyXyXuXuXuXuXeXrXyXyXpXdXsXsXsXBXBXsXyXyXuXyXyXyXyXyXyXyXyXyXsXsXsXnXBXBXBXBXBXCXBXBXBXBXDXBXCXsXsXVXuXeXyXyXuXuXuXuXyXyXyXyXeXyXuXuXyXyXyXdX7XyXyXrXyXeX7XrX7X9XNXHX0Xe.@Xi o y o - - 1 ; ; 8 O {.vXwXGXGXJX#X  @ @XLXLXPXJXAX@ %.HXGXGXNXSXLX3X  7 8 ; ; & * 3 2 o e -.-.E.(.-X.X^.`.`.~.^.`.~.^.^.!./.^.XX!.!.R.` 5.4.-.P.R.W.J.W.U.I.J.5.Y.Y.I.R.P.J.1.-.,.P >.E P 4.5.<.4.4.1.4.J.J.H.2.2.2.2.2.2.2.G.2.4.4.2.2.2.2.1.<.2.1.3.1.' ' <.1.3.H.3.<.J.' ' K ' R T T T <.H.<.P ` ` T R R T ` ` R T T ` ` ` R R R R R R R R R R R R R R R R R ",
"R R R R R R R R R R E E E E E E ` ` ` ` ` ` ` ` ` R <.J.2.>.` P E >.' T R >.2.E T T E ' E K T G.3.2.2.3.<.3.1.>.' >.1.2.2.2.2.H.G.G.G.G.2.2.4.4.H.H.2.2.J.K.K.H.1.<.1.J.J.G.H.K.Q.K.J.I.T.Q.W.Y.U.U.U.U.R.R.U.U.U.U.U.U.U.U.U.U.Y.R.!.^.^.~.~. X(.(.(.'.(.).XX,X>X>X,X>X>X;X:X;X,X,X<X-X4XAXSXDXZXMXZXZXZXCXMXMXMXBXBXCXmXsXnXyXuXuXyXyXyXuXuXsXsXiXpXgXhXMXBXMXsXhXpX9X7XrXyX7XsXBXBXmXBXnXdXsXVX=X5XwX} X : & & & 1 8 9 9 1 9 Z e 1 ; & : + | JXJXFXNXBXCXdX9XyXyXyXyXyXyXyXyXyXyXyXuXuXuXuXuXyXyXyXyXyXyXyXyX7XyXnXBXBXBXBXBXBXBXBXBXBXBXBXBXBXBXBXBXNXNXNXBXBXBXBXBXBXBXBXBXCXBXBXDXDXDXDXCXCXMXsXdXdXsXsXsXyXyXyXyXyXpXiXiXyXyXyXdXgXNXBXBXBXBXBXBXNXNXNXBXBXBXBXBXNXBXBXBXBXBXBXBXNXNXNXBXNXNXNXBXBXBXBXBXCXBXBXBXBXnXdXyXrXyXyXuXuXyXyXyXyXyXyXyXyXyXyXyXyXuXdXpXyXyXyXyXyXyXyXyXuXuXuXuXyXyXyXyXyXyXyXyXdXBXDXhX7X7XyXyXyXyXyXyXyXyXyXyXyXyXyXsXmXBXBXBXBXBXBXBXNXBXDXBXDXNXBXBXaXeXuXuXuXuXyXyXyXyXuXuXuXuXyXyXyXuXnXBXmXhXyX7XyXyXeX7XyXnXNXDXFXAXLXw.  y & ; & ; ; 1 ; o 7 O @ 3XKXKX+X. X ~ @.O.+.O.e.. *.KXAXxXB.a O.o.. : & - 1 1 1 ; & o 7.2X,X>X-X>X.X~.^.`.(.'.'.`.`..X(.^.(..X(.(.5.$ 6 < 6 J R.R.Q.Q.' K.'.W.Y.H.5.P.Q.E.R 6 % > $ % 6 T J.2.R.K.4.1.1.1.2.2.2.2.2.2.G.G.G.G.4.4.2.4.4.2.1.1.' >.1.<.' E <.2.G.H.G.<.G.T E ' [ >.<.` K ` <.>.T ` R T R R ` ' <.>.` R R ` R R R R R R R R R R R R R R R R R R ",
"R R R R R R E E R E E E E E E E ` ` ` ` ` ` ` ` T T >.4.1.' R K ' >.' ' ' >.3.' R R <.H.1.>.<.G.2.G.2.1.3.H.H.2.<.<.2.2.2.2.2.2.G.G.G.G.2.2.2.4.2.4.4.4.J.Y.J.1.J.J.5.2.H.Y.J.2.Y.P.W.W.I.I.W.W.U.U.U.U.U.U.U.U.I.U.R.U.U.U.W.Q.I.Q.^.(.~.Q.!..X'.(.(.'.(.(.XX<X,X,X,X,X>X;X;X;X-X;X<X%X3XJXFXVXBXMXMXMXMXMXCXMXBXCXBXDXmXyXyXqXuXyXyXyXyXyXuXuXyXiXgXmXmXMXBXMX7XrXrXrXyXdXsXsXgXBXBXBXBXmXyXyXqXaXKXvXz   . O O : o * * 9 % 1 1 o o &     @ g AXNXNXbXnXNXdXyXyXyXyXyXyXyXuXuXuXuXyXyXuXuXuXyXpXyXyXyXyXyXiXdXyXdXNXDXCXBXBXBXBXBXBXBXBXBXBXBXBXBXBXBXNXNXBXBXBXBXBXBXBXBXBXBXBXBXBXZXCXBXNXBXBXmXsXyXyXyXaXdXdXdXyXyXyXyXyXyXyXyXyXyXnXBXDXDXBXBXBXBXNXNXBXBXBXBXBXBXNXNXBXBXBXBXBXBXNXNXBXBXNXNXBXBXBXBXBXBXBXBXBXCXBXmXsXyXpXyXyXyXyXyXyXyXuXuXuXuXuXuXuXuXyXyXuXuXyXyXyXyXyXyXuXyXuXuXuXuXuXyXyXyXyXrXeX7XiXmXBXsXyXyXuXyXyXyXyXyXyXyXyXyXyXyXyXdXnXBXMXBXBXBXBXBXBXBXZXNXBXBXCXBXuXyXuXuXuXyXyXyXyXyXuXuXuXuXyXeXyXsXBXDXBXMXdX7XeXyXyXyX7XBXNXVXbXAXJXO.  : ; ; & ; - * ; 8 7   O IXLXLX_.O X X . . . . X   v.LXLXLXB.  O o o ; 2 - * * ; o o o _ 2X,X-X>X>XXX^.^.(.`..X.X.X.X.X X!././.!..XP.$ 6 4 C =.E.P.K.!.5.-.,.K.P.P.J.4.4.5.R > 5 4 % m R =.2.=.R.K.H.2.1.,.2.H.4.2.2.2.G.G.G.G.4.4.2.4.H.H.2.1.' <.H.2.>.[ 1.H.T ' >.<.H.T R [ >.<.1.' K T ` T T R R T R R R ' 2.<.' R R R R R R R R R R R R R R R R R R R R R ",
"R R R R R E E E E E E E E E E E ` ` ` ` ` ` ` ` R T R ` R ` ' ' ' R E 1.<.R ' ' ' T <.J.3.>.R K <.2.2.3.1.3.2.G.2.2.2.2.H.H.2.2.G.G.G.G.2.2.4.4.4.2.4.K.J.J.4.1.5.Y.Y.H.H.I.W.I.J.I.W.I.Y.Y.W.W.U.U.U.U.U.U.U.U.U.U.R.U.U.R.!.^.~.`.~.W./.^.^.^.'.'.(.'.(.).XX<X<X,X,X,X>X;X;X;X,X-X%Xr.*XFXFXNXBXMXMXMXMXMXMXMXBXCXBXDXBXyXyXyXuXuXuXyXyXyXyXrX7XyXnXBXMXMXMXmX7X7XrXrXyXgXBXBXnXmXMXBXBXmXyX7XqX0XaXqX#X@X&X*X$X%X7 ; = Z 1 1 Z & o.$XB.B.C.&XDXnXbXiXnXBXsXyXyXyXyXyXuXuXuXuXuXuXyXyXuXuXyXyXdXyXyXyXyXyXiXgXmXmXBXCXBXBXBXBXBXBXBXBXBXBXBXBXBXBXBXBXBXNXBXBXBXBXBXBXBXBXBXBXCXBXBXCXNXgXsXgXhXsXsXpXdXdXdXaXdXdXyXyXyXyXyXyXyXyXyXyXsXnXBXBXBXBXBXBXBXNXBXBXBXBXBXNXNXNXBXBXNXNXBXBXBXBXBXBXBXBXBXBXBXBXBXBXmXNXBXBXCXBXmXnXMXhXyXyXyXyXyXuXeXyXyXyXyXuXuXuXuXuXdXdXpXpXdXdXyXyXyXyXuXuXuXuXyXuXuXyXyXyXyXyXyXyXdXsXmXmXgXyXyXyXyXyXyXyXyXyXyXyXyXdXsXgXgXgXBXBXBXBXBXBXNXNXnXmXBXBXsXgXsXyXpXyXuXyXyXuXuXuXyXyXyXyXyXuXsXmXhXmXsXyXeXyXyXyX7XCXBXDXNXbXHX&.. O O O O O ; ; & ; 8 : y $X3X3XO.O + # 7 7 7 + q O 8.*X3XUXt.O 7 O ; - ; % 1 8 : O :.0.E.;X-X>X>X>X-XXXXX'.(.'..X'.'. X(.!.R.U.I..X).P L V 5 S 5 m J Q.).-.6 $ K.R.P.T 4 < 5 < C < 5 =.P.J.J.1.1.1.J.K.K.4.2.2.4.4.2.2.G.G.G.G.4.4.2.4.H.H.2.2.1.H.J.J.2.3.2.G.>.>.<.<.J.[ ' >.<.[ >.>.` ` R K ` ` ' ' ` R R ` >.' ` T R R ` ` R R R R R R R R R R R R R R R R ",
"R R R R R R R E R R E E E E E E ` ` ` ` ` ` ` ` ' ` R T T ' <.1.E Q K >.[ Q E ' <.T >.2.1.>.R T <.G.2.<.>.` E ' H.2.2.2.H.H.2.2.G.G.G.G.2.2.2.2.H.1.J.I.J.1.1.2.J.J.J.2.2.J.J.J.R.Y.H.H.Y.W.W.I.U.U.U.U.U.U.U.U.R.R.U.U.U.Q.^..X^.~.R.U.~. X`.^..X'.(.'.(.).XX<X,X,X,X>X>X>X>X>X,X-X2X$X5XDXDXBXMXMXMXMXMXMXMXMXBXBXMXCXMXyXyXaXyXyXyXyXyXyXyXyXyXiXmXBXMXMXMXMXrXrXrXrX7XiXmXMXBXBXmXmXBXmXsXyXnXyX7XcXbXKXKXKXJXvX7 . o ; 8 - o   t.KXJXFXDXFXbXnXNXmXmXMXiX9XyXyXyXyXyXyXyXyXuXuXyXyXyXyXyXyXyX7XrXyXyX7XyXsXCXDXCXBXBXNXNXBXBXBXBXBXBXBXBXBXBXBXBXBXBXBXBXBXBXBXBXBXBXBXBXBXCXCXCXBXnXyXyXpXyXyXpXdXdXdXyXyXyXyXyXyXyXpXpXyXyXsXgXnXnXmXBXBXBXBXBXBXBXBXBXBXBXNXNXNXNXBXBXBXNXNXBXBXBXBXBXBXBXBXBXBXBXBXBXBXBXBXBXBXBXBXBXBXCXmXdXyX7XyXyXyXyXyXuXuXyXuXyXuXuXuXuXyXyXyXyXyXyXyXyXyXyXyXyXuXyXyXuXuXuXuXuXyXyXyXyXsXBXBXnXeXyXyXyXyXyXyXyXyXyXyXyXyXyXyXyXyXBXBXBXBXZXNXNXNXNXNXNXBXBXBXnXrXyXyXyXyXuXuXyXyXyXyXyXyXyXyXyXyXsXmXmXdXyX7XyXyXiXmXsXnXNXSXSX*.. .     +   O 8 8 - ; ; o o o + 7 X g #.#.d # g w.q X : O 2 O . : ; ; & 2 ; ; o . o %XlX<X>X-X;X;X>X>X>X>X.X(.`.`.(.`.'. X(.^.~.R..XXXE.P.J 6 5 5 $ 4 I Y -.L < E.Q.E.-.m $ 5 m < 5 =.J.K.Q.P.4.,.,.H.P.P.J.2.2.4.4.2.2.G.G.G.G.4.4.2.H.H.H.H.2.H.4.1.<.2.G.3.>.J.G.<.W <.>.1.H.>.T R <.1.' R T <.>.>.>.' R ` ` ` R T T R ` ` ` R R R R R R R R R R R R R R R R ",
"R R R R R R R R R R E E E E E E ` ` ` ` ` ` ` ` R R R T R ' ' ` ' ` T T T ' 1.<.' T 1.J.J.G.<.J.3.H.2.<.>.' R ' H.2.2.2.H.H.H.2.G.G.G.G.2.2.2.2.J.1.H.P.H.1.2.4.W.J.1.1.H.H.1.<.Y.Y.H.2.J.R.R.I.U.U.U.U.U.U.U.U.W.R.U.I.U.Q.~.'.(./.W.~..X`.^. X.X'.'. X(.).XX,X>X>X>X>X>X>X>X>X:X1XIXAXSXFXnXmXMXMXMXMXMXMXMXMXCXCXnXnXnXyXyXyXyXyXyXyXyXyXyXyXsXgXmXBXMXMXBXMXrXeXrXyXrXpXmXmXBXnXsXsXhXsXuXyXrXrX7XyX7X0X8X0XcX0X@ . + o & : + @ &.AXSXbXgXhXmXnXCXBXmXmXpXyXyXyXyXyXyXuXuXuXuXuXuXyXyXyXuXuXdXdXsXsXsXsXgXnXBXCXBXBXBXBXNXBXBXBXBXBXBXBXBXBXBXBXBXBXBXBXBXBXBXBXBXBXBXBXBXBXsXgXnXhXsXsXsXsXpXpXpXpXiXiXyXyXdXdXyXyXyXyXyXyX9XsXBXDXDXCXCXBXBXBXBXBXBXBXBXBXNXNXNXNXNXNXBXBXNXNXBXBXBXBXBXBXBXBXBXBXBXBXBXBXBXBXBXBXBXBXBXBXBXmXsXdXyXyXyXyXyXyXyXuXyXyXyXuXuXuXuXyXyXyXyXyXyXyXyXyXyXyXyXyXuXuXuXyXyXyXyXyXuXyXyXsXnXmXsXyXyXyXyXyXyXyXyXyXyXyXyXyXyXyXyXyXnXnXmXBXBXNXNXNXZXNXnXNXDXDXnX7XyXrXrXyXyXuXyXyXyXyXyXyXeXyXyXiXmXBXBXnXaXeXeXsXyXpXiXNXFXDXFXwXwXwX3X*X$X+ O & & - 8 8 1 ; o O 7 O #.}.}.d # #.*X/ o = O o & r & ; - & ; o   : : t _.<X-X;X<X>X>X;X>X,X>X.X`..X'.`.`.`. X X(.(..X.X.XR.5.V % % % $ 3 S 4 A 3 % -.Y C M 3 < < < $ $ =.K.4.P.J.1.K.H.H.J.J.1.2.H.4.4.2.2.G.G.G.G.H.4.2.2.H.H.H.2.4.1.[ ` <.G.1.>.<.3.G.T [ >.1.J.E K T >.<.` T ` 1.>.[ ' R P T ` T T R R ` ` ` R R R R R R R R R R R R R R R R R ",
"R R R R R R R R R R E E E E E E ` ` ` ` ` ` ] ` T ` R T R ' ` K <.<.E T T >.J.3.E R <.>.>.>.T >.2.2.>.>.3.3.<.3.2.2.2.2.2.2.H.H.H.G.H.H.2.4.2.2.H.1.2.H.2.J.K.4.I.H.1.H.Y.Y.P.P.2.I.W.Y.Y.I.I.Q.U.U.U.U.U.R.U.U.R.R.U.U.U.W.Q./.'.^.~.(..X^.~..X'.'.'. X(.)..X,X>X>X>X;X;X;X;X;X:X$XPXJXSXNXBXCXMXMXMXMXMXMXMXMXCXBXpXyXuXyXyXyXuXyXyXyXyXyXyXyXBXmXMXBXMXBXMXhXeX7XrXiXyXdXBXBXnXsXyXyXuXyXyXyXeXpXuXhXyXyXyXcXaXqXb.v.+X7 O ~ 3X*X5XSXSXmXnXmXDXmXmXhXpXsXiXyXyXyXyXiXuXuXdXdXyXuXuXuXyXyXyXdXgXmXBXBXBXBXBXCXBXBXBXNXZXBXNXBXBXBXBXBXBXBXBXBXBXBXBXBXBXBXBXBXBXBXBXBXBXBXBXBX7XyXrXrXpXmXnXsXpXpXsXpXdXpXdXsXpXuXyXyXiXiXyXyXyXgXmXBXBXBXBXNXBXBXBXBXBXBXBXBXBXBXBXBXNXNXBXBXBXBXBXBXNXBXNXNXNXBXBXBXBXBXBXBXBXBXBXBXBXNXBXBXBXNXmXnXnXsXiXyX7X9XyXyXyXyXyXyXpXuXuXuXuXuXuXuXyXyXyXyXyXyXyXyXuXuXuXyXyXyXyXyXuXyXyXsXsXyXyXyXyXyXyXyXyXyXyXyXuXuXyXyXyXyXuXuXpXdXsXmXBXNXNXNXNXNXnXmXBXBXnXdXsXiXyXyXyXyXyXyXyXyXyXyXyXyXyXiXhXgXgXnXmXsXyXdXyXiXnXBXNXbXNXFXFXFXbXSXAXw + : & 2 1 - ; 8 y 7 q # / n.n.g # #.b./ O y e : ; 8 ; 8 ; & o o + *XxXxX2X;X;X-X>X-X>X;X;X,X-X X(..X X X X`.(.(.^.^. X(..X!.E.=.-.I R S * 3 9 9 * S Z > % $ $ $ < 5 6.,.K.R.J.4.5.J.W.J.4.H.H.1.1.H.4.2.2.2.G.H.H.H.H.4.2.2.2.4.2.2.2.2.>.E [ 1.2.2.<.3.K.<.G.<.[ >.' E R ' ' T T R ' R ` ' T K T R T R R ` ` ` R R R R R R R R R R R R R R R R R R ",
"R R R R R R R R R R E E E E E E ` ` ` ` ` ` ] ` >.>.' R ' <.>.` G.<.E R R ' 3.<.3.<.<.Q ' <.' 1.3.<.E ] 2.H.3.G.3.2.2.2.2.2.4.H.H.H.H.H.4.4.2.2.4.1.1.1.1.I.R.1.2.J.Y.Y.H.H.I.~.5.I.W.I.W.W.R.I.U.U.U.U.U.U.U.U.U.U.U.U.U.U.I.I.^.(.!.Q.!.^.^.(.'.`.'..X(.^..X>X>X>X,X>X;X;X;X:X_.r.vXHXDXnXBXMXMXMXMXMXMXMXMXMXBXBXyX7XyXyXaXyXyXyXyXyXyXyXyXiXCXMXMXBXMXMXmXpXrX7XrXtX7XyXmXBXMXdXyXyXyXyXyXuXuXuX7XyXeXsX7X7X7XcXcXKXPXg   O.JXHXbXbXdXnXnXZXnXsXmXsX7X7XrXuXyXyXyXyXyXyXyXyXyXuXdXuXyXyXyXsXdXmXBXBXBXBXBXBXBXCXNXnXNXNXmXZXBXBXBXBXBXBXBXBXBXBXBXBXBXBXBXBXBXBXBXBXBXBXBXBXsXpXrXrXsXBXnXuXrXyXuXpXdXpXpXdXyXuXdXsXnXmXMXMXCXCXBXBXBXBXBXBXBXBXBXBXBXBXBXBXBXBXBXBXNXNXBXBXBXBXBXBXNXNXNXBXNXBXBXBXBXBXBXBXmXBXBXBXBXBXBXBXBXBXBXBXmXnXgXgXmXmXmXnXnXsXsXdXuXyXyXyXyXuXuXuXyXyXyXyXyXyXyXyXuXuXuXuXuXuXuXuXuXyXeXyXyXeXeXuXyXyXyXyXyXyXyXyXyXyXyXyXyXyXyXuX7XrXiXnXBXBXNXBXNXNXBXBXBXNXNXBXBXmXdXyXyXyXyXyXyXyXyXyXyXyXyXyX9X7X7XnXDXBXdXyXyXyXyX8XsXFXNXnXZXnX8XdXcXX   O & & & 1 2 - ; ; 7 . q # # # X q q q O ; ; 2 8 - ; ; % & t q.i xXvXIX1X-X<X-X-X,X>X-X;X,X-X(.^.'.`. X.X'.(.(.(.(.P.R..X).~.).-X).).A $ 4 < 4 > < * 1 C M 6 $ V P L P.E.E.5.,.K.,.K.4.1.J.K.4.2.H.4.4.2.2.G.H.H.H.H.H.2.2.2.2.2.2.2.H.<.E ` >.1.J.[ E >.[ H.<.E ' 1.1.[ ` ` ` R T R T ' <.' R R R T T R R R R R R R R R R R R R R R R R R R R R R ",
"R R R R R R R R R R E E E E E E R R T R ' ` T ` 1.2.<.R T ' <.<.T T R <.J.>.T R 1.G.<.T T 2.K.1.T ' H.2.1.J.G.H.2.2.2.2.2.2.4.4.H.H.G.2.2.2.2.H.J.J.K.K.1.=.1.K.5.<.P.R.P.J.2.P.P.P.P.Y.I.R.R.I.R.W.T.T.U.I.R.R.W.W.Y.U.W.W.~.W..X`.U.P.!.(.^.`.'.'.'.XX>X;X-X,X<X>X>X;X:X:X).zXxXwXbXSXnXZXBXBXBXMXMXCXMXMXCXsX9X9XyXyXrXyXyXyXuXyXuXeX7XyX7XiXCXCXBXmXmXmXiX8XuX7XrXrX7XyXMXMXCXhXyXyXyXyXuXuXyXyXyXyXuXuXyXyXdX7X0XbX0X#   c FXbXgXbXNXDXDXDXyXyXyXyXyXyXyXyXyXyXyXyXuXuXyXyXyXyXyXdXnXnXgXmXBXBXBXBXBXBXBXBXNXNXNXNXBXBXBXBXBXBXBXBXBXBXBXBXBXBXBXBXBXBXBXBXDXBXsXyXyXdXdXpXsXyXyXpXsXnXMXhXpXuXpXsXyXyXyXyXyXyXyXsXnXMXBXBXBXBXBXBXBXBXBXBXBXBXBXBXBXBXBXBXBXBXBXBXBXBXBXBXNXNXNXNXNXBXBXBXNXNXBXBXBXBXBXBXBXBXBXBXBXBXBXBXBXBXBXBXBXBXBXBXDXBXBXBXDXBXnXyXyXyXuXuXrXrXyXyXyXyXyXyXyXyXyXyXuXuXuXuXuXuXuXuXuXyXyXuXyXyXuXyXyXyXyXyXyXyXyXyXyXyXyXyXyXyXyXyXyXyXyX9X9XiXnXZXnXmXNXNXmXnXmXZXDXsXyX9XrXyXuXyXyXyXyXuXyXyXyXyXrXyXsXNXBXmXsXsX7XsX9X7XmXDXBXmXMXiXiXVXwXg w w o O ; - 8 8 o & = = = O O O 7 7 = q = = F 3 3 ; 8 ; & o r.LXJXSXAXPX1X-X<X>X:X-X;X;X;X-XXX.X.X.X'.(.(. X.X'.(. XP.W.~.!.Q.Q.Q.E.E.J 6 m < > M * 1 $ % 3 5.E.E.E.P.5.4.J.J.E.Q.,.>.1.J.K.4.1.2.2.1.2.H.H.H.2.2.H.4.4.2.2.2.2.2.2.2.4.G.H.G.2.3.<.3.[ <.3.2.H.' R >.<.` 1.H.` T T T T <.H.[ R ` T >.` T R R R ` R R R R R R R R R R R R R R R R R ",
"R R R R E R R R R R E E E E E E ` ` R R ` R T R <.<.' R T ` ` T ' [ ' >.1.[ Q Q >.<.1.<.<.1.3.<.` ' G.2.<.>.[ 1.2.2.2.2.2.2.4.4.2.2.G.H.H.H.4.4.I.K.K.Y.H.4.J.K.H.2.Y.U.I.I.J.J.J.H.J.J.P.I.R.R.R.T.W.T.U.R.I.R.I.W.W.W.W.W.~.~.W.^.!./.(.'.^.'.`.(.^..X>X;X-X,X,X>X>X>X,X<X%XxXPXAXFXDXnXBXBXBXBXMXMXCXMXMXCXpXrX9XyXyXyXyXaXyXuXyXuXyXiXnXgXnXBXBXBXnXsXpXyX7XrX7XrXpXyXsXMXMXMXsXyXyXyXyXuXyXyXyXyXyXuXuXyXyXyXyXyX0X0X&. .C.ZXmXnXNXNXNXBXBXyXyXyXyXyXyXuXyXyXyXyXyXuXuXyXyXuXuXyXdXmXmXmXBXBXBXBXBXBXBXBXBXBXNXNXNXBXBXBXBXBXBXBXBXBXBXBXBXBXCXBXBXBXCXCXBXDXBXnXyXyXyXyXyXyXrXrXuXuXpXsXtXuXrXuXpXyXsXmXmXmXnXnXmXMXBXBXMXBXBXBXBXBXBXBXBXBXBXBXBXBXBXBXBXBXBXNXNXBXBXBXBXBXBXNXNXBXBXBXBXNXNXBXBXBXBXBXBXBXBXBXBXBXBXBXBXBXBXBXBXBXBXBXBXBXBXNXBXBXBXnXdXyXyXyXyXyXyXuXuXyXyXyXyXyXyXyXyXuXuXuXuXuXuXuXuXuXeXyXyXeXyXuXyXyXyXyXyXyXyXyXyXyXyXyXyXyXyXyXyXyXyXyXyX9XiXnXZXBXZXZXZXNXNXNXBXBXnXnXnXyXyXyXyXyXyXyXuXyXyXyXyXyXyXdXNXDXBXBXmXyXsX9X7XmXCXMXMXCXmXsXdXSX0XKXPX+ : : : : O O ; - - - ; ; 8 ; & = 0 7 , 8 o o &   . O X e.GXSXFXGXPX1X-X<X;X;X;X;X>X>X>X>X>X>X>X X`.`..X.X'.(. X~.^.^.~.Q.I.R.Q.Q.4.4.5.Y < M 1 $ Z -.7.E.P.R.Q.E.K.4.P.E.K.K.J.4.J.P.K.1.1.J.I.J.H.4.H.H.H.G.H.4.4.2.2.2.2.2.2.4.4.2.2.2.1.<.>.3.<.G.3.<.>.E [ Q ` ' 4.J.=.R R ` T ` ' T R ' P R T ` ` R T T T R R R R R R R R R R R R R R R R ",
"R R R R E E R R R R E E E E E E ] ` R ` ` R T R ' ` T T R R T P <.3.>.E E R Q T [ E >.H.1.E T ` 3.<.G.H.<.E E 1.2.2.2.2.2.4.4.4.2.2.H.H.H.H.2.2.I.J.4.4.H.K.K.J.J.5.P.Y.I.Q.I.J.2.5.J.P.I.I.R.R.R.R.T.T.T.T.R.R.I.W.W.~.~.~.~.~.I.~.`.(. X`.^.'.'.`.~..X>X,X>X,X>X>X>X>X>X;X%XxXLXSXFXDXmXBXBXBXBXMXMXCXMXMXCXsXrX7X7XrX7XyXaXyXyXyXuXyXsXBXBXBXmXBXBXnXiXrXrXrXuXeXyXmXmXmXMXmXsXyXyXyXyXyXuXyXyXaXyXyXfXuXyXyX8XyXyX7XBXaXcXNXgXhXmXBXBXBXBXDXyXyXyXyXuXuXfXaXyXyXyXyXyXyXyXyXsXuXyXdXmXBXBXBXBXBXBXBXBXBXBXBXBXBXBXBXBXBXZXZXBXBXBXBXBXBXBXBXBXBXBXBXBXBXBXmXBXMXnXsXpXdXsXsXpXpXsXsXyXyXyXrXyXrXrXrXyXgXBXCXDXCXBXBXCXCXBXmXBXBXBXBXBXBXBXBXBXBXBXBXBXBXBXBXBXBXNXNXNXBXBXBXBXBXBXBXBXBXBXBXBXBXBXBXBXNXBXBXBXBXBXBXBXBXBXBXBXBXBXBXNXNXBXBXBXNXNXBXBXNXnXhXuXuXuXyXyXyXuXuXuXyXyXyXyXyXyXyXyXyXuXuXuXuXuXuXuXyXyXyXyXyXyXyXyXyXyXyXyXyXyXyXyXyXyXyXyXyXyXyXyXyXyXyXyXiXhXBXBXZXCXBXNXBXBXmXnXNXDXBXdX7XrXyXyXyXyXuXyXyXyXyXdXyXyXnXBXBXmXmX7XyX7XrXmXCXMXCXCXDXDXsXbXVXHXwX      O . . + o & 1 2 - - < < 1 9 8 0 7 ; & ..%X{.B.@XB.3XFXNXFXKXKX4X%X;X:X,X<X;X;X>X>X>X,X,X,X'.`.`..X.X X(.(. X X`.~.W.I.I.W.Q.I.Q.P.S % $ > % A E.E.E.K.E.Q.P.I.J.Y.E.5.4.K.Q.K.H.4.J.P.R.I.I.J.2.2.H.H.H.H.4.4.2.2.2.2.2.2.2.2.2.2.3.1.<.>.<.G.H.<.>.E T >.R >.[ <.<.R R >.H.>.' ` ` 1.2.' T R >.<.' R R R R R R R R R R R R R R R R R R R ",
"R R R E E E R R R R E E E E E E R R R ` ` ` ` ` ` T K R ` R R ` <.2.>.T T T E [ 3.E ` 2.1.T K ' H.2.G.H.2.>.>.H.2.2.2.2.2.4.4.4.H.H.H.H.2.2.2.1.J.2.,.,.4.K.P.H.J.J.Y.J.J.I.I.Y.5.J.I.R.W.R.R.I.I.I.T.T.T.T.I.I.W.U.U.~..X.X~.W.~.`.(.~.(.(.(.'.'.'.~.'.>X,X>X>X>X>X>X>X:X:X|.xXJXVXZXZXMXCXCXBXBXMXMXCXMXMXCXsXrX7X7X7X7XyXyXyXyXyXyX7XiXCXCXBXBXBXBXmXpXrXrXyXuXeXyXMXCXBXBXBXdXyXyXuXyXyXuXyXyXyXyXyXaXuXyXyXyXuXuX8XdXyXdXyXiXgXnXBXDXBXBXBXyXyXyXyXuXfXfXaXyXyXyXyXyXyXyXyXpXyXeXyXmXBXBXBXBXBXBXBXBXBXBXBXBXBXBXBXBXBXZXZXBXBXBXBXBXBXBXBXmXBXBXBXBXBXBXmXsXsXsXiXpXhXMXBXmXMXMXmXsXpXuXuXsXpXpXpXpXhXBXBXCXBXBXBXBXZXBXmXBXBXBXBXBXBXBXBXBXBXBXBXBXBXBXBXBXBXNXNXNXBXBXBXBXBXBXBXBXBXBXBXBXBXBXBXBXNXBXBXBXBXBXBXBXBXBXBXBXBXBXBXBXNXBXBXBXBXBXBXBXBXBXMXhXhXpXuXuXyXrXuXuXuXyXyXyXyXyXyXyXyXuXuXuXuXuXuXuXyXyXyXyXyXyXyXyXyXyXyXyXyXyXyXyXyXyXyXyXyXyXyXrXyXyXyXyXiXsXgXgXBXCXNXmXBXZXNXnXBXCXBXiX7X7XyXuXyXyXuXyXyXyXyXdXyXyXnXMXMXmXmXsXdX7X7XpXpXpXMXhXMXMXyXqX9XbX5Xc  .@.B.+X@Xv.O O & ; * - 3 1 1 * o O o . + {.PXJXJXJXSXFXFXnXnXSXPX4X:X2X,X,X-X;X;X>X>X>X>X,X>X(.(.(.'. X X X(.^. X X~.Q.W.W.W.U.I.Y.J.L m J J S L P.R.E.P.Q.Y.J.Y.J.H.J.J.J.4.Q.K.4.4.J.P.I.J.Y.H.2.2.H.H.H.H.4.4.2.2.2.2.2.4.2.2.2.2.G.2.3.1.<.3.>.>.1.>.E [ 1.3.>.` R P ` 1.J.>.R R ' 1.2.` R ` >.<.' R ` ` R R R R R R R R R R R R R R R R ",
"R R R R E R R R R R E E E E E E ` R R R ` ` ` R ` R ` >.>.R R ` >.>.E T [ >.[ <.J.' ` 3.3.>.>.2.H.J.2.3.H.G.G.H.2.2.2.4.2.2.2.2.H.H.H.G.2.H.H.J.H.2.1.1.4.P.R.K.2.5.J.P.J.2.J.I.P.I.R.W.R.R.I.I.I.I.I.I.T.T.T.I.W.W./.~.~.~.~./..X`./.Q.~.`.'.'.(.'.(.(.;X>X-X;X;X>X>X>X,X1X%XxXJXNXZXZXBXDXZXMXMXMXMXCXMXMXCXsXrX7XrXyXyXeXyXyXyXyXyX7XyXBXCXmXBXBXBXmXgXyXrXrX7X8XeXhXCXBXmXBXsXyXyXiXyXyXyXyXyXyXyXyXyXyXyXyXyXeXdXyXpXyXdXdXmXNXBXBXDXmXsXsXyXyXyXyXuXfXfXaXyXyXyXyXyXyXyXyXyXyXyXiXmXBXBXBXBXBXBXBXBXBXBXBXBXBXBXBXNXNXZXZXBXBXBXBXBXBXBXBXBXBXCXCXCXCXBXmXrXrXrXrXyXhXMXBXBXBXBXmXgXsXsXgXMXMXMXMXmXmXBXmXBXmXBXNXBXNXZXNXBXBXBXBXBXBXBXBXBXBXBXBXBXBXBXBXNXNXNXNXNXNXNXBXBXBXBXBXBXBXBXBXBXBXBXBXBXBXBXBXBXBXBXBXBXBXBXBXBXBXBXBXBXBXBXBXBXBXBXBXBXBXBXBXmXmXsXyXpXuXyXuXuXuXuXyXyXyXyXyXyXyXyXyXyXyXuXuXeXyXyXeXyXyXyXyXyXyXyXyXyXyXyXyXyXyXyXyXyXyXyXyXyXyXyXyXyXyXyXyXiXmXCXBXmXBXBXBXNXNXBXmXgXyXyXyXsXyXyXuXyXyXuXyXuXyXyXnXBXBXBXBXDXnX9X8X8X8XiXCXDXCXCXpXtX8XiXgXgXcXcXJXJXJXxX@ O O 0 8 = * * ; 8 & 8.r.q.w.3XJXbXVXSXNXZXZXgXmXFXSX$X_.-X-X<X;X<X<X,X<X>X>X>X>X(.(.(.(.`.'. X(.(..X`./.W.~.~./.J.J.Y.W.R.P.E.K.E.J.E.R.Q.Y.W.H.Y.2.J.J.5.P.P.4.1.J.P.Y.2.1.H.J.J.4.2.2.G.G.G.H.4.4.2.2.2.2.4.4.2.2.2.G.G.2.2.1.G.3.[ [ 2.3.>.>.H.1.` T ' ' ` ' >.T T ` ` ` ` R R T ` ' R T R R R R R R R R R R R R R R R R R R ",
"R R R R E E R R R R E E E E E E ` ` R R T R ` R R T ' 1.<.` R ' [ ' T R 2.H.<.>.>.R R <.3.3.2.3.1.H.<.[ 2.H.G.1.2.2.2.4.2.2.2.2.H.H.G.G.H.J.K.I.H.2.1.4.J.K.P.K.<.H.J.I.J.3.5.P.I.I.R.I.I.I.I.R.I.I.I.I.T.T.T.T.I.W.`.~.I.I.W..X.X^.Q.Q.^..X.X(.'.-XXXXX;X>X;X;X;X>X>X;X,X1X|.xXJXSXZXBXBXCXZXZXMXBXMXCXMXMXCXsXrXrXsXhXdXyXyXuXyXyXdXiXiXBXCXBXBXBXBXmXhXyX7X7XpXpXpXhXCXmXsXgXsXiXyXiXyXyXyXyXyXyXyXyXyXyXyXyXeXrXdXyX7XeXyXaXDXDXBXBXBXnXyX9XyXyXyXyXuXuXuXuXyXyXyXyXyXyXyXyXyXdXsXgXBXBXBXBXBXBXBXBXBXBXBXBXBXBXBXBXNXNXZXZXBXBXBXBXBXBXBXBXBXBXBXmXmXmXmXnXiXpXpXpXsXhXmXmXMXBXmXnXmXnXnXMXMXMXBXCXBXBXBXmXBXBXZXZXZXZXZXZXBXBXBXBXBXBXBXBXBXBXBXBXBXBXBXBXBXNXNXBXNXNXBXBXNXNXBXBXBXBXBXBXBXBXBXBXBXBXBXBXBXBXBXBXBXBXBXBXBXBXBXBXBXBXBXBXBXBXBXBXBXBXBXBXMXmXsXyXpXpXyXpXuXuXuXuXyXyXyXyXyXyXuXuXyXyXuXuXyXyXyXuXsXsXyXyXyXyXyXyXyXyXyXyXyXyXyXyXyXyXyXyXyXyXyXrXrX9XrXrXiXmXCXBXmXmXBXBXNXNXNXBXBXnXdXyXsXyXeXuXuXyXuXyXyXyXyXsXhXnXmXBXBXnXsXiXiX9XiXMXnXmXMXhXhXiX7XrXiXiXyXcXaXAX0Xz @.+ O 7 ; 8 8 8 O w xXLXJXSXSXHXbXbXnXbXnXmXMXCXDXSX3X$X2X|.<X,X>X>X,X<X>X>X>X>X.X.X`.(.(. X X(..X.X(.W.W.^.]./.Y.U.Y.U./.W.Q.R.).I.W.U.W.Y.T.I.W.3.H.U.J.J.P.J.1.4.Y.K.2.,.2.2.H.2.2.2.2.2.G.H.4.4.2.2.2.2.4.4.H.H.2.2.2.3.1.<.G.3.>.<.1.<.3.3.K.1.R K >.2.` P R T ` >.` T T R R T T R T T R T R R R R R R R R R R R R R R R R ",
"R R R R R R R R R R E E E E E E ` R ` R T ' >.' R T R ' [ ` R ` [ >.` T >.G.1.<.' ` ' <.<.<.>.` <.H.[ ' 3.2.G.1.2.2.4.4.4.4.2.2.H.G.G.G.H.H.J.K.K.4.2.J.J.J.J.J.5.I.J.J.P.J.P.J.J.P.I.I.I.I.R.W.W.W.T.T.T.T.T.T.I.T.`.~.W.W.W.`.^.^.^.^.(.'.`.^.'.>X>X-X>X>X>X>X;X>X;X-X,X;X_.xXJXSXDXNXNXCXZXCXMXBXMXCXMXMXCXsX7XyXmXBXnXyXyXuXyXyXmXmXnXBXCXBXBXMXMXmXgXrX7X7XMXBXMXMXCXnXyXyXiXyXyXiXyXyXyXyXyXyXyXyXyXyXyXyXpXpXsXyXyXfXfXdXCXDXNXmXBXnXyXyXyXyXuXyXuXuXuXuXuXyXyXyXyXyXyXyXrXsXmXBXBXBXBXBXBXBXBXBXBXBXNXNXNXNXNXNXNXNXNXNXBXBXBXBXBXNXBXBXBXmXnXdXiXsXgXgXMXMXMXMXMXMXhXsXgXhXgXgXBXBXBXBXMXMXBXBXMXMXBXmXBXBXZXZXZXZXZXZXBXNXBXBXBXBXBXBXBXBXBXBXBXBXBXBXBXBXBXBXBXBXBXBXNXNXBXBXBXBXNXNXNXNXBXBXNXBXBXBXBXBXBXBXBXBXBXBXBXBXBXBXBXBXBXBXBXBXBXBXBXBXBXMXBXMXpXrXpXuXrXuXuXuXuXuXyXyXyXyXyXyXyXyXyXyXuXuXuXuXyXsXBXBXsXyXyXyXyXyXyXyXyXyXyXyXyXyXyXyXyXyXyXyXyXyXyXyXyXyXyXsXmXBXBXBXBXBXNXNXNXBXCXBXnXmXgXyXeXuXyXyXyXuXfXyXyXyXyXyXsXMXBXBXCXCXnX9X8X9XsXgXMXmXMXCXgX9X8XyX9XqXqXqXNXcXJX| . : 8 8 = O   + wXJXHXFXVXdXFXFXDXZXNXmXBXmXbXFXAXPXPX1X1X:X;X;X>X>X>X>X>X;X-X-XXX`.(. X X`..X(.!.!.~.^./.U.~. X/.I.I.Y.I.Y.P.Y.U.Y.T.Y.W.W.W.H.Y.W.P.J.4.P.R.J.4.H.H.J.J.2.K.J.2.2.G.G.H.H.4.4.2.2.2.4.4.4.H.H.2.2.2.3.1.<.>.>.<.G.<.[ 3.<.3.<.` T >.3.` ` ' T T ` ' ' ` T ` R ` ' ` ` ` R R R R R R R R R R R R R R R R R ",
"R R R R R R R R R R E E E E E R ` R ` ` ` <.4.3.>.` K P T P P T >.J.<.K K [ 1.G.G.G.J.J.3.<.' Q >.2.[ >.2.2.G.G.2.2.4.4.4.2.2.2.2.2.G.2.2.2.2.2.R.J.H.K.K.J.H.4.I.Q.5.2.P.I.W.P.1.H.I.Q.Q.R.R.R.W.T.T.T.T.T.T.T.I.J.W./.`..X/.I.^.`..X X(.^.^.~.^.;X>X-X-X;X-X;X;X>X;X-X<X<X+XxXHXSXDXDXDXDXZXZXZXCXBXCXMXMXCXsX8XyXMXDXnXyXeXyXyXyXBXDXmXBXBXNXBXBXBXMXsXrX7XrXhXCXMXMXCXnX9XyXyXrXyXiXyXyXyXyXyXyXyXyXyXyXyXyXyX7X7XyXyXaX0XcXCXDXBXmXBXsXrXyXyXyXuXyXuXuXuXuXuXyXyXyXyXyXyXyX7XnXBXBXBXBXNXBXBXBXBXBXBXBXNXNXBXNXNXNXNXNXNXNXNXNXBXBXBXNXBXBXDXBXsXyXrXpXgXnXCXCXCXCXCXMXsX9XrXyXyXpXMXCXBXBXCXBXBXBXmXBXCXCXmXMXmXmXmXmXNXZXNXNXBXBXBXNXBXBXBXBXBXBXBXBXBXBXBXBXBXBXBXBXBXBXNXNXBXBXBXBXNXNXNXBXBXBXBXBXBXBXBXBXBXBXBXBXBXBXBXBXBXBXBXBXBXBXCXBXBXMXBXBXBXNXCXCXsXrXpXyXeXyXuXyXuXuXyXyXyXyXyXyXyXyXyXyXyXyXyXeX7XyXCXDXdX8XyXyXyXyXyXyXyXyXyXyXyXyXyXyXyXyXyXyXyXyXyXyXyXyXrXrXpXmXBXBXBXBXBXZXBXmXBXNXBXDXsXyXeXuXuXyXyXuXyXyXyXyX7XrXhXCXBXCXCXCXgX9X8XyXiXrXBXCXMXCXgX8XyXiX8XyXiX=X8XFXSX| w g : o u t.q.&.AXSXqXNXBXBXVXNXNXNXNXBXDXmXBXDXSXJXPX%X%X2X<X,X,X,X>X>X;X;X>X>X-X.X`. X X(.).Q.R.(..X~.U.Y.~.XX~.T.T.U.W.Q.I.U.W.Y.W.T.W.I.T.W.W.Y.J.J.1.J.~.I.J.H.4.J.Y.K.Q.J.1.1.G.H.H.H.H.4.2.2.2.2.4.4.2.2.2.2.2.G.2.2.Q T <.K.<.' 1.' K E >.' >.1.' <.J.>.P T 1.Y.3.T T R ' >.' ` ` R R R R R R R R R R R R R R R R R ",
"R R R R E E E R E E R R R R E E R T ` R T ' >.' R T T ` R Q T [ 3.>.` E ' >.>.<.>.<.1.1.1.G.3.E 3.<.1.1.2.2.4.4.2.2.4.4.4.4.4.4.J.1.2.H.4.2.2.1.4.4.H.J.4.J.J.2.K.K.J.P.Y.P.W.Y.J.Y.I.I.I.I.U.U.I.W.W.R.I.I.I.W.(.`.`.~.~.~.~.~.^.~.`.XX'.^.~.~.^.>X;X;XXX>X>X>X,X;X>X:X3XLXKXHXFXVXFXSXDXSXZXVXZXZXDXZXDXmXCXmXrXrXyXuXsXuXyXyXuXeXBXDXmXBXZXNXNXZXBXmXsXyXyXrXmXCXBXBXDXmXiXyXyXyXyXyXyXyXyXyXyXyXyXyXuXyXyXyXyXaXyXeXyXsXcXsXNXDXZXBXCXgXrXyXuXuXyXyXyXyXuXuXyXpXpXyXyX9X9XnXBXNXNXNXNXNXNXNXBXBXBXBXBXBXBXBXBXBXNXNXNXNXNXNXNXZXZXBXBXBXNXnXnXnXnXsXyXyXdXsXmXgXhXhXsXgXhXhXMXMXBXBXBXBXBXBXCXmXBXDXVXVXBXBXBXBXBXBXBXBXCXCXFXNXDXnXCXZXmXCXBXBXBXBXBXBXZXZXBXBXBXBXNXNXNXBXBXBXBXNXNXNXNXNXBXBXBXNXNXNXBXBXBXBXBXBXBXBXBXBXBXBXBXBXBXBXBXBXBXBXBXBXBXBXBXBXmXnXnXmXnXnXnXnXhXmXdX7XyXpXyXyXyXyXyXyXyXyXyXyX7XsXnXnXBXNXnXnXsXsXyXyXuXyXyXeXyXyXuXuXyXyXyXyXyXyXyXyXyXeXrXyXrXuXiXsXhXBXBXBXBXBXBXBXBXBXZXZXgXgXsXyX7XyXpXuXsXyXyXpXeXsXrXhXhXBXCXBXBX8X7XrXrX7XnXCXCXMXpX8XdXyXyXyX7X9XqXqXaXvXLXxX@ . g LXLXKXAXVXBXZXBXBXNXBXNXNXNXBXBXBXmXNXNXHXPX$X1X<X<X,X,X,X,X>X;X>X,X,XXX^.(.(.). X(.~.~.~.~.(.~.W.Q.W.W.W.W.I.I.W.U.U.U.U.U.I.I.I.U.U.W.J.J.W.I.Y.1.H.W.Y.3.J.I.K.<.G.I.I.2.2.J.<.H.H.H.H.H.H.2.2.H.2.2.2.G.G.2.3.>.<.2.H.H.2.<.' <.' <.3.>.T E <.1.` R R ' 1.' T ` R [ ' R ` T ` R R R R R R R R R R R R R R R R ",
"R R R R E E R R E E R R R R E E R T ` ` T R ` T ` R ` <.<.' E ' <.[ ' <.H.H.1.<.R E ' ' [ 3.2.' ' ' >.1.2.4.2.2.2.2.4.4.4.4.2.2.J.4.4.H.4.4.H.2.4.1.4.J.J.K.Y.J.1.1.J.Q.R.J.Y.I.Y.I.U.U.U.U.U.U.W.W.I.I.U.U.R.Q.^.~.(.~.W.!.(.~.~.!.^.'.^.~.~.~.~.XX-X>XXX>X-X;X,X<X<X%X3XKXGXVXNXnXDXVXSXSXHXGXSXSXSXVXBXiXgXrXrXyXyXyXyXyXyXyXuXyXBXDXNXBXZXNXZXZXZXmXdXyX7X7XmXCXBXBXDXmXpXyXyXyXyXyXyXyXyXyXyXyXyXyXuXyXyXyXyXyXeXeXdXBXCXBXNXZXnXsXsXiXyXyXuXuXuXyXyXuXuXuXrXpXyXyXiXyXyXnXBXBXZXZXZXZXZXBXBXBXBXBXMXMXMXMXBXBXBXNXBXNXBXBXmXmXBXBXBXBXVXsXdXsXsXsXsXdXpXiXtXrXrXrXrXsXMXCXMXMXBXBXBXBXBXBXBXBXBXBXBXBXBXBXmXmXmXhXnXnXmXmXNXbXDXnXZXnXmXMXBXBXBXBXZXZXZXZXBXBXBXBXNXBXNXNXBXBXBXBXNXNXBXBXBXBXBXNXNXNXBXBXBXBXBXBXBXBXBXBXBXBXBXBXBXBXBXBXBXBXBXBXBXBXBXBXBXBXNXNXBXNXNXNXDXBXdX7XyXyXyXpXyXyXyXyXyXyXyXyXyXBXBXBXDXDXNXZXBXnXyXyXyXyXuXyXyXyXuXuXyXyXyXyXyXyXyXyXpXyXeXuX7XeXeXrXsXmXmXBXCXBXBXBXBXNXZXZXmXCXMXyX7XyXpXyXyXyXpXpX8XiXrXhXiXmXCXMXmX7XyX7X9X7XmXCXMXMXhXyXyX7X9XyX9XyXdXdXaXbXJX0XX   p LXKXFXNXVXBXBXBXBXNXNXNXNXNXNXNXNXZXNXNXJXAX+X%X<X,X,X,X>X<X>X;X>X;X>XXX^.(.(.). X(.'..X(.W.R.~..XI.I.I.I.I.W.W.W.U.U.U.U.U.U.I.I.W.I.I.J.K.W.W./.J.2.Y.J.J.I.K.<.H.G.I.I.2.1.2.2.H.H.H.H.H.H.2.2.2.2.2.2.G.2.3.1.1.2.H.2.<.3.3.>.G.1.2.2.>.T T E R P ` ` R ` R R ' T ` ` R ` T ` R R R R R R R R R R R R R R R R ",
"R R R R R R R R R R R R R R R R ` R R T T R R T R T ' 1.3.[ R T ` E ` 1.J.1.[ >.[ >.<.<.<.H.J.H.' ' <.1.2.2.2.2.2.2.2.4.2.2.2.2.4.4.J.4.1.2.4.1.1.,.4.K.J.J.J.J.J.J.K.Q.I.2.H.H.I.I.U.R.U.U.U.U.W.I.I.I.R.Q.Q.Q./.U.~.~.I.W.(.~.~./.~.].~.~.`.`.].XX-X;X-X<X<X<X>XlX<X%XUXLXKXHXNXNXFXFXHXKXJXKXJXJXJXHXFXqXyX9XyXyXeXeXeXeXyXyXyXeXBXDXBXZXZXNXZXZXZXmXsXyXrX7XmXBXBXMXBXmXpXyXyXyXyXyXyXyXyXyXuXuXuXuXuXyXyXyXyXyXyXyXdXBXCXBXNXBXsX7XrXyXyXpXuXuXyXyXyXyXuXuXrXyXyXyXsXsXsXnXBXBXZXZXZXZXBXBXBXBXBXBXMXMXMXMXBXBXBXCXBXBXBXBXBXBXBXBXDXDXnXdXyXyXpXsXgXsXpXyXyXrXrXrXrXpXMXCXBXBXBXBXCXBXBXBXMXCXBXmXBXBXBXNXCXCXCXCXDXDXDXDXZXZXFXNXCXmXCXCXBXBXBXBXZXZXNXNXNXNXBXBXBXBXBXBXBXBXBXBXBXBXBXBXBXBXBXBXBXBXBXBXBXBXBXBXBXBXBXBXBXBXBXBXBXBXBXBXBXBXBXBXBXBXBXBXBXBXZXZXBXBXBXBXBXmXyX7XyXyX7XyXyXyXyXyXyXyXyXyXdXBXDXCXDXBXBXDXBXmXyXyXuXyXuXyXyXyXuXyXyXyXyXyXpXrXeXrXuXyXeXrXuXuXrXrXsXhXmXBXCXSXBXZXBXZXZXZXBXDXCXiX9XiXiXyXyXuXrXiXrXpX8X8XiXgXDXMXmXpXhX8X9X9XmXMXmXCXBXBXyXrXyXiXyXiXdXdXsXcXSXcX@.g &.AXAXSXCXBXBXBXmXBXBXBXNXNXNXNXBXZXCXNXNXFXvX@X%X:X;X,X,X>X<X>X;X>X>X,XXX^.`. X(.'.'.'..X'.Q.R.~..XI.R.I.I.I.W.W.I.U.U.U.U.U.U.I.I.W.J.J.Y.Y.Y.K.W.I.4.H.H.J.I.J.<.H.G.K.R.J.1.2.2.H.G.G.G.2.2.2.2.1.2.2.G.2.3.3.<.4.2.H.1.>.1.G.>.2.3.2.3.' T T T T R <.>.R R ` [ <.R R R R ` T T R R R R R R R R R R R R R R R R ",
"R R R R R R R R R R R R R R R R ` T T T ` ' =.=.T T ` <.<.' T T ' ' >.1.3.` T >.>.>.1.2.1.>.>.1.2.2.2.2.2.2.2.2.2.2.2.2.2.2.2.2.1.2.4.1.1.J.J.1.1.1.J.Y.J.2.4.4.R.P.J.H.H.Y.W.P.I.I.U.U.I.I.I.I.W.I.I.I.R.W.!.Q.!./.(.`.~.~.`.^.`.^.].`.].`.XXXXXX>X;X>X;X<X.X).P.Q.6.6.2XPXxXAXSXbXSXFXcX*X3X3X*X3X3X5XwX#X=XVXaXuXyXrXrXrXuXuXyX7XmXDXBXZXZXNXBXZXZXNXmXnXhXgXmXBXMXnXnXgXyXyXyXyXyXyXyXyXyXyXuXuXuXuXyXyXuXyXyXyXuXdXsXmXBXNXBXCXnX9XyXyXyXyXuXuXyXyXyXyXuXyXyXyXrXyXgXnXnXBXNXNXNXNXNXNXNXNXBXBXBXBXMXMXMXBXBXBXBXBXBXBXBXBXCXBXNXNXBXNXnXdXyXpXsXsXsXiXiXiXhXhXhXhXgXhXMXMXBXBXBXBXBXBXBXBXmXDXBXmXBXBXBXDXVXnXnXnXnXnXnXnXVXbXnXgXnXbXCXnXBXBXBXBXNXNXNXNXNXNXBXBXBXBXBXBXBXBXBXBXBXBXBXBXBXBXBXBXBXBXBXBXBXBXBXBXBXBXBXBXBXBXBXBXBXBXBXBXBXBXBXBXBXBXBXBXNXNXBXBXBXBXBXBXBXBXnXnXnXdXyXyXyXyXyXyXyXyXyXyXyXsXnXnXnXnXmXCXBXBXsXnXsXyXyXeXyXyXyXyXyXeXyXyXyXyXyXeXyXyXeXyXrXeX7X7XpXpXBXBXNXNXZXZXSXDXZXBXBXDXBXsXqXqXqXyXyXdX7X7X8XyXrX8XiXsXCXMXmXgXnX8X7X9XgXsXsXBXCXCXrXyXyXyXyXiXiXyXyXcXAXJXSXSXSXJXVXDXDXCXCXMXmXBXBXBXZXNXNXNXBXBXmXZXNXSXGXxXIX3X:X,X,X>X>X>X;X>X>X,XXX~.^.'.'.'..X(.~.~.(.'.(.R.Q.!.~.W.I.W.W.I.U.U.U.U.U.U.I.I.I.Y.Y.W.I.H.3.2.Y.P.I.J.<.2.K.J.<.3.J.I.J.2.H.H.G.G.G.G.2.2.2.2.1.1.2.2.2.3.3.3.2.' >.1.[ <.3.` 1.<.2.2.>.T E ' =.` ' ` T R R ` <.` ` T ` >.' R R R R R R R R R R R R R R R R R ",
"E R R R R R R E R R R R R R R R R R ` ' >.<.<.<.E R ` [ ' T T ' G.H.H.H.G.` T <.' ' <.J.1.T Q [ 2.2.4.4.2.2.2.H.2.2.2.2.2.2.2.4.2.2.1.1.J.R.W.J.4.J.I.I.J.1.H.J.!.I.J.1.1.P.Q.W.I.I.U.U.I.I.I.I.I.R.Q.W.I.Q.~.!.!.).!.!.(.^.~.(.`.].].].(..X-X>X-X>X;X;X;X;X` $ 5 5 $ % 2 u a &.HXbXAXGX#X.   . . @       . %.VXaXuXuXyXrXrXyXuXyXyXmXBXBXDXZXZXNXBXZXZXBXBXBXBXmXBXmXpXyXiXyXyXyXuXyXyXyXyXyXyXyXuXuXuXyXyXuXuX7XyXnXBXBXBXDXBXZXDXmXyXyXiXyXyXuXyXyXyXyXuXyXyXyXyX9XyXmXBXNXZXNXNXNXNXNXNXNXNXBXBXBXBXBXBXBXBXBXBXBXBXBXBXBXBXDXNXnXsXdXaXiXdXpXsXhXhXsXtXtXpXhXnXBXCXCXCXBXBXBXBXBXBXBXBXBXBXBXCXMXMXCXmXDXFXFXFXFXFXFXDXSXSXFXFXDXDXFXDXFXnXNXNXBXBXBXBXNXNXNXNXBXBXBXBXBXBXBXBXBXBXBXBXBXBXNXNXNXBXBXBXBXBXBXBXBXBXBXBXBXBXBXBXBXBXBXBXBXBXBXBXBXBXBXBXBXBXBXBXBXBXBXBXBXBXBXBXDXDXBXyX7X7XyXyXyXyXyXyXyXyXyXyXyXyXiXsXnXBXNXBXBXBXnXyXyXyXyXyXyXyXyXyXyXyXyXyXcXdXaXcXaXaXaXyXdXyXdX7XBXCXNXNXCXDXDXCXCXBXBXDXBXnXsX9X8X9X8XcXdXBXcXsXbXbXcXnXFXmXBXMXBXpX8X8X9X8XyXmXBXmX7X9X9X9X9XyXyXyXyXVXSXFXSXFXSXbXNXDXDXCXCXMXMXBXZXBXNXNXNXNXBXBXmXCXNXSXKXKXLXzX-X,X,X>X>X>X;X;X>X,XXX~.^.`.`.`.'.(.~.~.`.-X`.J.W.(.(.Q.I.I.R.I.U.U.U.U.U.U.U.U.W.W.U.U.I.J.H.2.J.I.W.J.<.G.T.K.3.G.J.H.2.H.H.2.G.G.G.G.2.2.2.2.2.2.2.2.G.G.H.G.2.T E <.>.<.<.' 2.<.2.H.<.E =.1.H.` T P ` <.' R ` R ` T ' J.2.' R R R R R R R R R R R R R R R R ",
"E R R R R R E E R R R R R R R R R ` ' >.3.1.>.' E T T E T Q T [ J.J.2.2.G.' Q ' >.>.1.J.J.>.' 3.' >.1.H.H.4.H.H.2.2.2.2.2.2.4.4.J.4.2.2.H.P.P.4.1.J.P.K.4.4.K.K.W.Y.I.J.2.2.K.Q.I.U.W.W.R.I.I.R.I.R.Q.Q.I.Q.~.Q.^.(./.R.(.^.!.`.^.^.^.~.~..X-X;X;X;X-X-X,X,XU o $ o % & o   @ e.LXGXJXLX3X+ + y : O + X   X %.cXqXyXyXyXrXrXrXuXsXiXmXNXNXZXNXZXNXBXBXBXBXBXBXBXBXBXmXyX9XyXyXyXyXuXyXyXyXyXyXyXyXuXuXuXyXyXuXdXyXyXmXCXBXBXBXmXNXZXgXyXyXyXyXuXuXyXyXyXyXyXyXyXyXyXrXyXmXCXZXZXBXBXBXBXBXBXBXBXBXBXBXBXBXBXBXBXBXBXBXBXBXBXBXBXDXNXcXaXyXyXyXsXuXgXMXnXsXiXuXsXhXnXMXMXCXCXBXDXBXBXBXMXMXBXBXBXBXCXmXMXMXmXFXAXFXKXFXKXKXKXKXKXKXFXFXFXFXbXHXFXNXNXBXBXBXBXNXNXBXBXBXBXNXNXBXBXBXBXBXBXBXBXNXNXNXNXNXBXBXBXBXBXBXBXBXBXBXBXBXBXBXBXBXBXBXBXBXBXBXBXBXBXBXBXBXBXBXBXBXBXBXBXBXBXmXBXBXBXnXyXyXyXyXyXyXyXyXyXyXyXuXyX7XrXyXsXmXCXBXCXBXBXnX7XyXpXyXyXyXyXyXyXyXaXFXcXSXSXSXSXSXSXAXSXAXcXFXaXBXBXBXBXCXCXDXCXCXNXCXCXNXBXBXiX7XdXbXbX0XSXSXSXKXKXKXHXFXbXFXDXMXhX7X7X9X8X9XBXBXmXsXgXdXyXyXyXyXyXyXsXnXnXnXbXNXVXNXCXBXmXBXCXBXMXBXZXNXNXNXNXBXBXBXBXBXDXSXGXJX3X%X,X<X>X>X>X>X;X;X,XXX`.`.`.`.`.(..X.X(.~.`.'.W.R.~.~.Q.I.I.R.R.U.U.U.U.U.U.U.U.U.W.Y.4.2.J.T.I.Y.Y.J.J.J.I.T.<.J.K.J.<.,.2.H.2.2.2.2.2.2.2.2.2.G.2.3.3.G.G.G.2.H.>.=.1.2.2.2.1.<.' >.<.>.' >.1.J.' T T >.H.<.' R R ' T ' H.2.' R R R R R R R R R R R R R R R R ",
"E E R R R R E E E E R R R R E R ` ` ` ' <.[ R R T Q T ' E T T ' <.1.' ' >.E Q ' 1.<.>.[ 1.3.1.2.E =.1.2.4.2.2.H.2.4.2.2.2.4.4.4.J.4.2.2.1.1.2.,.4.H.J.2.1.K.R.K.2.3.I.I.J.Y.Y.W.I.I.W.W.R.R.T.T.R.I.T.R.I.!.~.R.(.'.).^..X X(..X(.^.^.~.~..X;X>X>X-X-X-X;X2XQ.6.0.Z 2 r ; : : q.xXwXwXxX+X+ 2 : : + $XwX3X=X5XVXqXyXyXrXrXrXrXpXMXnXBXNXNXZXNXZXZXZXZXZXBXBXBXBXBXBXmXiX9XyXpXyXyXyXyXyXyXyXyXyXyXuXuXuXyXyXiXdXnXsXmXBXNXNXNXsXsXgXiXrXyXyXyXsXyXyXyXyXyXyXyXyXyXyXyXyXmXCXZXZXBXBXBXBXBXBXBXBXBXBXBXBXBXBXBXBXBXBXBXBXNXNXNXNXFXVXcXdXaXaXaXcXuXsXhXhXsXpXgXmXnXBXMXhXMXMXBXCXBXBXBXMXMXMXBXBXBXBXmXMXmXBXFX0Xe.e.e.r.b.v.B.B.r.B.B.b.e.e.0XFXSXNXBXBXBXNXNXNXBXBXBXBXNXNXNXBXNXNXBXBXBXBXNXNXBXNXBXBXBXBXBXBXBXBXBXBXBXBXBXBXBXBXBXBXBXBXBXBXBXBXBXBXBXBXBXBXBXBXBXBXBXBXBXBXBXBXBXBXBXMXMXBXyXyXyXyXyXyXyXyXuXyXyXyXyXdXnXBXBXBXBXCXnX7XyXyXyXyXyXyXyXyXpXcXV.g g | g z z g z O.z &.cXcXVXDXBXBXCXSXDXCXCXSXDXDXNXBXCXmXpXnXcXV.@ # a a w a + w a p =XNXmXhX9XrXyX8XyXCXCXBXCXDXmXiXyXiXyXyXsX7XyXiXCXCXZXNXZXmXdXyXmXCXCXMXMXBXNXNXNXNXBXBXCXmXBXDXDXGXJX3X%X1X<X>X>X>X>X>X;X,X-XXX-X.X].`.`.`..X(.R.R.~..XR.R.R.R.I.I.I.R.U.U.U.U.U.U.U.U.I.U.H.2.2.H.W.W.I.J.2.Y.I.I.I.>.K.K.J.H.H.H.2.2.2.2.2.2.2.2.2.2.H.2.3.3.H.G.<.>.<.2.2.1.G.H.2.3.>.' ` E E <.,.' ' T ` ` ' >.' ` >.` ' R R >.' ` R R R R R R R R R R R R R R R R ",
"R R R R R R R R E E E R R R E E ` ` P T ` R Q R E T E >.<.[ E E ' <.' T ' E ` G.H.2.` K ' 2.2.<.<.1.2.H.2.2.2.H.4.4.2.2.2.4.4.4.4.1.2.4.1.,.4.J.K.K.H.1.4.R.Q.J.1.H.Q.I.P.W.I.J.Y.Y.I.I.I.I.I.I.Q.I.I.I.I.~.~.I.R.R.~.(.).).~.!.(.(.`.~.~..X>X,X-X-X,X>X-X<X:XlXzX..o - ; y . o .     + @   y + + X 5XLXAXFXcX7XyXyXyXyXrXrXuXsXDXBXZXNXNXBXNXZXZXZXZXZXBXBXBXBXBXCXBXsXyXiXdXyXyXyXyXyXyXyXyXyXyXuXuXuXyXyXyXdXDXnXnXBXBXBXBXnX7XyXyXyXsXuXyXsXyXyXyXyXyXuXyXyXyXyXrXrXnXCXBXBXNXNXNXNXNXNXNXBXBXBXBXBXBXBXBXSXSXSXSXSXSXSXSXSXSXbXcXcXcXcXcXdXdXdXpXyXuXsXMXBXBXDXMXMXMXMXMXCXDXBXMXMXMXMXBXBXBXBXmXmXnXFXKX3X                  . .     @ =XHXSXNXBXBXBXBXNXNXBXBXBXBXNXNXBXBXNXNXBXBXBXBXNXNXBXBXBXBXBXBXBXBXBXBXBXBXBXBXBXBXBXBXBXBXBXBXBXBXBXBXBXBXBXBXBXBXBXBXBXBXBXBXBXBXBXBXBXBXBXDXDXmXyXyXyXyXyXyXyXyXyXyXyXyXyXyXsXBXBXBXBXDXmX9X7XyXyXyXyXyXyXyXdXcXB.@   X   . . .   O   a vXFXbXbXBXBXCXDXDXDXSXSXFXHXFXNXCXMXdXcXJX$XX   O . O . . X   X =XFXCXgX8X9XyX8XyXBXCXBXCXDXnXyXyXyXyXyXdX7XpXyXCXCXZXZXBXhX9X7XsXCXCXmXZXBXNXNXNXNXBXBXBXmXBXDXNXVXHX3X%X1X<X,X>X>X>X>X;X,X>X,X,XXX~.`.'.(.(.~.I.P.!.XXQ.I.Y.I.R.R.I.I.U.U.U.U.U.U.U.U.U.W.I.I.Y.H.Y.Y.U.H.2.I.I.G.J.G.G.G.J.I.R.J.1.1.2.2.2.2.2.2.2.2.G.2.<.G.H.G.>.W K 2.H.<.1.1.[ ' H.2.>.T E 2.2.Q K R 2.3.' ` R ` <.R ` R T R T ` R R R R R R R R R R R R R R R R ",
"R R R R R R R R E E E R R R R E R ` ` ' ' ' E T E K E 3.<.>.>.' [ >.R ' <.` ' 2.Y.1.E R [ 3.H.2.2.2.2.2.4.4.4.4.H.H.4.4.4.4.4.4.1.1.4.4.1.,.H.P.R.2.H.Q.P.1.2.H.Y.H.U.J.J.P.Q.R.R.R.!.I.Y.R.Y.R.I.T.I.Y.J.R.(.).5.E.'.-X;X-X-X-X>X.X(.).!..X>X;X;X;X>X>X>X>X>X:X2XD o . & o r & : : : + + y o : . @ *XAXqXaX0XyXyXrXeXyXrX7XrXgXBXBXBXBXBXBXZXZXZXNXBXZXNXBXDXBXBXBXmXdXiXdXiXyXyXyXyXyXyXyXyXuXuXuXuXuXuXrXyXsXmXBXCXBXBXCXCXmXyXyXyXyXyXyXyXyXyXuXuXyXrXyXyXyX9XyXiXsXnXBXCXCXBXBXBXBXBXBXBXBXMXCXmXBXFXbXHXFXJXKXJXJXJXKXLXJXLXJXJXJXJXJXKXFXVXVXcXyXrXBXgXBXBXNXMXgXCXCXnXZXNXnXCXMXMXCXMXBXBXDXsXDXHXbXKXxX. t : w w : ; 8 8 . 7 @ . @ =XFXSXCXCXBXBXBXBXBXBXBXBXBXNXNXNXBXNXNXBXBXBXNXNXNXBXBXBXNXNXNXBXBXBXBXBXBXBXBXBXBXBXBXBXBXBXBXBXBXBXBXBXBXBXBXBXBXBXBXBXBXBXBXBXBXBXBXBXBXBXBXBXBXyXdXyXyXyXuXyXyXyXuXuXyXyXyXdXBXBXBXDXBXnXnXnXiXyXyXyXyXyXyXyXcXV.a   X . w y & & u o } PXLXSXFXSXbXHXAXSXFXHXFXVXbXwXHXNXnXDXAXLX3X+ + r & y ; + + + @ =XFXCXmX9XrXyX7XyXBXCXBXNXDXmXyXyXyXyXyXyXiXrXiXmXMXMXhXBXmX7X8XmXDXBXmXZXZXNXNXNXNXBXBXBXCXBXBXBXDXSXwXr.4X|.;X<X,X;X;X,X>X>X,X>XXX(.`.`.(.(.~.~.`.(.!.W.Q.Q.I.P.R.Q.I.U.U.U.U.U.U.U.U.R.R.R.R.U.Y.4.1.<.P.T.W.G.3.T.I.G.G.I.!.I.H.2.1.2.2.2.H.H.G.2.2.J.H.H.K.<.<.G.[ >.2.K.2.3.1.` >.J.<.2.` K <.<.K T R <.2.>.R T T T R >.' T R ` T ` R R R ` ` R T R R R R R R R R ",
"R R R R R R R R E E R R R R R E R R R R E ' ' ` >.T ' 3.<.[ >.[ ` 2.' E <.' E >.2.<.>.<.<.<.1.2.2.2.2.2.4.4.4.4.H.H.4.4.4.4.4.4.2.4.J.K.J.1.1.H.J.2.J.R.I.J.J.J./.Y.I.I.!.P.J.5.5.5.5.=.1.R.P.K.I.I.I.W.I.I.!.Q.Q.!.P.1.5.5.,.,.=.P..X.X!.(.>X>X>X>X>X;X-X;X;X;X1X1X3XUX2X7 O 8 ; 8 y y y w : $XKXwXcXcX8XqX7X7XyXyXyXyXyXyXpXnXBXBXBXBXBXBXZXZXZXNXZXCXBXZXDXZXsXsXiXyXyXyXyXyXyXyXyXyXyXyXyXyXuXuXuXyXyXyXyXgXmXBXBXBXmXmXnXsXyXyXyXyXyXyXyXyXyXuXuXyXyXyXyXyX9XiXnXmXBXBXBXBXBXBXBXBXBXBXBXBXCXBXBXBXNXSXFXV.g c  . .@.O.O.} | | } g g g g p a V.aXcXsXCXmXCXCXZXCXmXmXCXBXDXDXZXZXhXhXMXmXBXNXDXbXDX5Xg p u o - o 2 ; 8 e y : y 3XPXxX0XFXHXCXCXCXBXBXBXBXBXBXBXBXBXNXNXNXBXBXNXBXBXBXBXNXNXBXBXBXBXNXNXBXBXBXBXBXBXBXBXBXBXBXBXBXBXBXBXBXBXBXBXBXBXBXBXBXBXBXMXBXBXBXBXBXBXBXBXBXBXBXBXBXBXBXBXnXyXyXyXyXyXyXuXyXyXyXyXyXnXyXsXNXBXBXBXmXsX7XyX9X9XyXyXyXdXcX3X&Xv.w . O e - e & y q. .@.AXSXSXFX .c =XFXHX%.@ z AXFXNXVX3X+ y . O & o ; & O +XAX0XAXbXyXrXiXyXyX7XiXCXZXNXZXFXmXyXyXyXyXdXyXyXrXiXmXMXMXmXMXmX7X8XVXDXBXBXZXZXNXNXNXNXBXBXBXBXMXCXBXCXDXcXxXIX1X:X;X;X>X<X>X>X;X>X>X.X~.^.`.'.'.'.(.(.~.W.R.~.'.~.I.I.R.I.U.U.U.U.U.U.U.U.U.I.I.I.I.Y.J.H.4.Y.I.I.J.2.K.G.K.G.G.H.H.J.K.J.2.2.2.H.H.H.G.G.E K Q 2.2.1.H.1.,.1.2.2.1.' Q [ H.1.1.R T 2.H.1.T T ' ' ` R ` ` 1.R T ` R R ` ` =.' R R R R R T R R R R R R R R ",
"E R R R R R R R R R R R R R R R R E E T E ' [ ' >.T E [ ' E ' ' [ J.<.[ 3.' T R E [ 3.J.G.1.1.H.2.2.2.2.2.4.4.4.H.H.H.4.H.H.4.4.4.H.K.R.Y.4.1.1.1.K.P.J.J.J.2.1.I.I.Q.R.5.m % 6 6 6 $ % K E.!.P.K.I.R.W.P.J.Q.Q.).Q.K % % $ % % % I )..XQ.).>X,X>X,X>X;X;X>X;X;X%XIXLXLXxX+   2 2 - &   .     wXJXFXbXqXyXdXpXuXyXyXyXyXyXgXmXmXBXBXBXBXBXBXBXBXZXBXZXCXZXZXDXBXyXyXyXyXyXyXyXyXyXuXyXyXyXyXyXyXyXuXyXyXyXpXsXmXBXmXBXCXBXsXyXuXyXyXyXyXyXyXuXuXuXuXyXyXyXuXyXyX7XsXBXCXCXBXBXNXBXBXBXBXBXBXBXBXCXmXCXDXVXFXSXx   @ X   .   o . o o o . .       . 3XJXFXNXCXmXZXNXnXZXZXZXFXZXNXNXnXZXZXDXDXNXBXbXFXFXJXvX+   o ; < * 1 * 3 & o   . xXLXJXFXNXnXBXBXBXBXCXBXBXBXBXNXBXBXNXBXBXBXBXBXBXBXBXBXNXBXBXBXBXBXNXBXBXBXBXBXBXBXBXBXBXBXBXBXBXBXBXBXBXBXBXBXBXBXBXBXBXBXBXBXMXMXBXBXBXMXBXBXBXBXBXBXBXBXDXDXnXyXyXyXyXyXuXuXyXyXpXyXyXyX7XyXmXDXDXDXBXnX7XyXyX9XyXyXyXyXaXVXSX5XO.+ . r - * ; & O   + PXLXJXKX  . 5XJXJX$.  a KXHXSXGXUX  & ; 8 ; 8 O O   b.JXFXVXqX7XdXsXpXyX7XiXCXBXNXZXDXnXyXyXyXyXaXyXyX9XiXhXmXhXMXMXmX7X7XVXFXCXBXBXZXNXNXNXNXBXBXBXmXMXCXBXNXDXSXLXLX2X:X,X;X;X>X;X;X;X>X>X.X^.^.`.`.`.`.~.~.~.Q.W.~..X`.R.I.R.I.U.U.U.U.U.U.R.R.I.I.I.I.I.I.I.I.U.I.J.J.J.J.J.>.W.K.2.<.2.K.I.J.2.2.2.H.H.H.H.H.J m J 1.J.1.H.1.1.2.2.2.2.<.` 1.1.2.2.' >.1.2.2.R R ` T K R ' ' Y.' T R R ` ' ` >.' R T T R R R R R R R R R R R ",
"E R R R R R R R R R R R R R R R T ` ` R E [ [ ` >.E T T T ' [ E E ' ' 2.H.' E [ T >.H.J.H.2.2.J.2.2.2.2.H.4.4.4.H.H.H.H.H.H.H.4.4.4.J.Y.K.4.1.1.>.K.K.4.J.K.J.J.J.Y.~.!.2.6 % $ 4 V 5 % V -.6.J.J.P.=.' 5.Q.(.Q.E.Q.L 6 4 m M K m -.)..X(..X>X>X-X>X>X>X,X:X-X%X+XxXPXKXxX} } ... . H } +.z p =XSXDXsX9XrX7XrXeXrXyXyXyXyXmXBXmXBXBXBXBXBXBXBXBXZXBXBXBXBXBXZXZXsXdXyXyXyXyXpXyXyXyXyXyXyXyXyXyXyXyXyXyXdXgXnXBXBXmXBXDXBXyX7XyXyXyXyXyXyXyXuXuXuXuXyXyXyXyXyXyX7XsXBXCXBXBXZXCXBXBXBXBXBXBXBXBXCXhXCXDXCXFXFXb.@ p w p ~ O O y 8 y 8 7 7 7 7 7 . 3XKXVXbXnXMXZXNXNXZXDXbXZXNXNXFXNXZXBXNXNXBXZXFXFX5XxXxX~ & y - 1 > $ * 8 o 7 i p 5XGXVXDXmXmXBXBXBXBXBXBXBXBXNXNXBXBXBXBXBXBXBXBXBXBXBXBXBXBXBXBXBXBXBXBXBXBXBXBXBXBXBXBXBXBXBXBXBXBXBXBXBXBXBXBXBXBXBXBXBXBXMXMXMXMXBXBXMXMXBXBXBXBXBXBXBXBXBXBXmXsXdXpXyXuXyXyXyXuXyXyXyXyXyXdXnXNXNXmXmXnXdXgXdXyXyXyXyX7X8XyXdXqX3Xv.+ O 8 8 D 8 8 + w 3X3XwXLXp X 5XvXcXg   z LXJXxX3X$XO o & & o O 7 +Xe.#X0X8XyX7XeXyXpXyXyX7XdXCXZXBXBXDXNXsXsXaXeXyXuXyX9XyXiXtXiXMXBXnX7X8XcXCXBXBXBXBXBXNXNXNXBXBXCXmXMXCXmXnXZXSXFXPX4X:X<X,X;X-X>X>X>X>X>X-X X.X(.(.`.`.~.~.~.W.~.!.~.!.R.R.R.I.U.U.U.U.U.U.U.U.U.U.I.I.I.I.I.I.Q.P.2.2.K.Y.J.<.W.K.G.2.H.K.J.2.2.2.2.2.G.H.H.4.T K R =.R ' 1.,.,.H.H.<.1.G.3.G.>.<.2.3.1.<.>.E R ` ' ' T T ` ` ' R R T ` 1.H.>.=.' R T T R R R R R R R R R R R ",
"R R R R R R R R R R R R R R R R R E E T T ` ` E <.>.' T ' 3.3.[ T Q ' J.1.E ' ' [ H.J.2.2.G.2.2.4.4.4.4.H.G.H.H.2.2.H.H.H.4.4.4.4.2.2.H.4.1.2.J.K.J.J.I.R.J.K.W.W.J.I.R.I.-.1.-.% 5 3 6 $ $ Y 5.E.E.5 % ,..X).7.% m < $ < < C ' Q.!. X-X;X<X,X>X;X>X;X>X;X-X%X%Xr.3XGXJXHXxXKX3Xo w xXLXKXJXxXSXFXDXyX9XyXrXhXuXrXyXyX7XyXmXCXnXBXBXBXBXBXBXBXBXBXBXBXBXBXCXDXDXdXdXyXyXyXyXyXyXyXyXyXyXyXyXyXyXyXyXyXyXsXmXmXZXNXNXBXDXDXpXeXuXyXyXyXyXyXuXuXuXuXuXuXuXuXyXrXrX7XsXBXBXNXNXZXDXNXNXBXBXBXBXBXBXBXmXBXBXDXDXHXqXAXSXAXLXxXi O y 8 8 8 ; ; ; ; :   *XLXKXDXBXCXnXbXHXHXHXSXFXNXDXbXVXDXFXSXNXDXDXFXAX .@ u O o % % * * * 2 : : 4XPXcXJXHXSXmXmXCXBXNXBXBXBXBXBXBXNXBXBXBXBXBXBXBXBXBXBXBXBXBXBXBXNXNXNXBXBXBXBXBXBXBXBXBXBXBXBXBXBXBXBXBXBXBXBXBXBXBXBXBXBXBXBXBXBXBXBXMXBXBXBXBXBXBXBXBXNXBXNXNXNXBXBXBXBXgXyXyXyXyXyXpXyXyXyXyXyXyXyXyXiXiXdXsXBXBXgXyXyXyXyXrXtXrX8XdXSX5Xp   O & ; = 7 7 o 7   } IX~   w g #.w . } PXLX#X@   : % ; : : O p KXFXaXyX7XyXyXyX7XyX7XyX7XsXDXDXDXBXDXDXBXBXnXyXyXyXrXrXrX9X8XyXBXDXmX7X8XaXNXBXNXBXBXBXBXNXNXBXBXCXBXBXMXmXmXmXmXSXPX$X%X,X>X;X>X>X>X>X;X;X;X-X;X'.'.`.`.(.`.`.`.'.!.R.R.I.R.R.R.U.U.U.U.R.U.U.U.U.U.U.U.I.P.P.Y.Y.Y.J.J.J.J.K.I.H.3.<.H.J.H.1.1.3.3.2.2.2.G.2.4.J.J.1.J 6 A 1.4.,.H.1.E [ <.<.1.' T >.3.>.>.>.K T R >.2.>.T T ` P P T T R 1.2.' ` R R R R R R R R R R R R R R R ",
"R R R R R R R R R R R R R R E E ` E T T T T T R 3.<.[ W [ J.H.[ T E <.J.<.' <.[ 1.J.3.' <.2.2.2.4.4.4.4.H.H.H.H.4.H.H.H.H.4.4.4.4.1.1.2.1.1.4.K.!.1.1.Q.Q.1.2.Q.~.J.J.P.I.P.!.-.6 4 5 5 < % C 7.).).C $ 5.-X-X6.o 5 3 4 5 5 -.E.-X(.).-X<X<X>X,X>X>X-X:X;X%X1X3X*XwXSXNXVXSXJX#X  . wXJXSXFXFXCXBXBXyXiXyX7XsXeXyXyXyXeXrXmXCXnXBXBXBXBXBXBXBXBXBXBXBXBXCXDXDXDXdXyXyXyXyXyXyXyXyXyXyXyXyXyXyXyXyXyXyXiXnXBXBXBXNXZXBXBXBXsXeXuXyXyXyXyXyXuXuXuXuXuXuXuXyXrXyXyX9XsXBXCXZXBXBXZXNXNXBXBXBXBXBXBXmXDXBXnXDXNXFXDXNXVXbXLXwX+ . . & ; ; - - - - : o 3XLXSXFXDXZXmXSXFX=X*XwXHXDXSXFXHXSXSXHXHXDXNXFXLX@.  & & 3 - ; & < - & .   5XJXHXFXSXnXnXZXCXBXNXBXBXBXBXBXBXNXNXBXBXBXBXBXBXBXBXBXBXBXBXBXBXNXNXNXNXBXBXBXBXBXBXBXBXBXBXBXBXBXBXBXBXBXBXBXBXBXBXBXBXBXBXBXBXBXBXBXBXBXBXBXBXBXBXBXBXNXNXBXBXBXCXCXDXBXnXyXyXdXyXyXpXyXyXyXyXyXyX7X7X9XyXdXnXDXBXsXrX7X7XyXuXtXrX8X8XsXqXb.r.~ : 8 8 ; 8 ; O o ..zX8.7 q g 9.7 o ..PXLX3X+ : - ; & O + . p KXqX7XyXyXrXyXaXyXyX7XyXyXsXCXZXDXNXDXDXDXDXVXeXyXyXrXrXrX9X8XyXCXCXmX9X8XyXmXBXBXBXBXBXBXNXNXBXBXBXBXCXmXmXCXZXmXSXFX$X%X;X;X;X,X>X>X;X-X;X;X;X,X'.`.'.`.(.'..X`.'.!.Q.Q.R.I.R.Q.U.U.U.U.U.U.U.U.I.I.U.I.P.Y.J.J.<.J.W.T.J.G.J.W.J.G.G.J.J.1.<.2.2.2.2.2.2.2.2.2.2.K.5.m % A 1.6.2.H.<.>.>.E ` >.>.T E >.T ' 2.T T T >.J.1.R T ` [ T T ` R ` ` T T R R R R R R R R R R R R R R R ",
"R R R R R R R R R E E R R R R E ` R E [ [ E T E >.[ E W [ <.<.' K ' <.H.2.[ <.J.G.3.' R >.<.<.H.2.2.4.4.4.4.4.4.4.4.H.H.4.4.2.4.4.4.J.J.H.1.1.4.P.>.,.P.K.4.K.P.J.K.P.I.R.5.R.-.5 9 - - 4 * 1 Z F -.1 < U -.7.I $ < 5 5 % V Q..X(././.XX<X,X;X,X,X>X;X:X1X%X3XPXKXSXFXbXNXVXHX=X .$.cXFXNXNXNXBXbXNXaX9XqX7XsXsXyXyXyXyXrXmXCXmXBXBXBXBXBXBXBXBXBXBXBXBXBXBXnXmXdXyXyXyXpXyXyXpXyXyXyXyXyXyXyXyXyXiXiXsXmXCXBXNXNXZXnXsXsXuXyXuXyXuXyXyXuXuXuXuXuXyXyXyXrXrXpXnXgXmXBXBXBXZXBXNXNXNXBXBXBXBXBXBXBXCXDXmXBXnXBXgXgXgXqXcX5X&.w.| o & - ; 1 1 2 : . ..w.w.0XFXSXFXHXbXz X *.GXFXSXVXwX%. .3XSXSXFXAXLXt.o 9 < < % 1 % ; o : } g =XVXbXNXDXDXNXBXnXBXBXBXBXBXBXBXBXBXBXBXBXBXBXNXNXBXBXBXBXNXNXBXNXBXBXBXBXBXBXBXBXBXBXBXBXBXBXBXBXBXBXBXBXBXBXBXBXBXBXBXBXBXBXBXBXBXMXBXBXBXBXBXBXBXBXBXBXNXNXNXNXBXBXBXZXBXnXsXgXnXpXyXyXyXyXyXyXyXyXyXyXyXyXiXnXnXnXsXdXdXyXyXuXtXrXtXrXrXVXqXLX@X+ : 8 & 8 ; e & - H ; 7 # g g ; o H $X4Xq.o - & : . o + . p qX0XqXpXiX9XrXyXeXyXyXyXyXiXnXnXnXBXBXNXBXDXcX7XyXrXrXrXrXrX7XyXmXgXhXgXdXgXmXBXBXBXBXBXBXNXNXNXBXBXMXCXMXZXCXmXZXNXGX$X%X,X;X-X>X>X>X;X-X;X;X;X,X(.~.(.(.~.`.`.~.~.Q.!.(.~.R.R.R.U.U.U.U.U.U.U.U.I.I.U.U.I.P.Y.P.5.Y.W.I.J.2.3.I.T.I.J.H.H.2.H.I.H.H.H.G.G.G.2.4.>.4.5.J $ S I K =.H.1.1.1.[ >.<.<.<.>.>.E =.4.=.` T ' <.>.R R ` ` R ' >.` ` ' ` R R ` ` R R R R R R R R R R R R ",
"R R R R R R R R E E E R R R R E R R [ G.G.>.E W E E W E ' E E E E 1.<.2.G.K K 2.J.<.T T [ ' ' 2.2.2.2.2.4.4.4.4.4.4.H.4.4.4.4.4.1.H.P.R.K.1.,.1.J.2.J.H.<.Y.W.>.H.I.Y.P.R.J.E.7.$ S 3 - 5 * < 1 % 1 $ 1 < o $ o 5 - 6 < o S (.(. X~.^.-X<X<X;X<X>X,X,X1X%X%X3XLXSXNXDXnXDXgXDXFXHXVXHXZXDXZXmXBXNXDXdX7XaXdXyXrXuXyXyXyXyXmXCXmXBXBXBXBXBXBXBXBXBXCXBXBXNXgXyXyXaXyXyXyXyXrXrXyXyXyXyXyXyXyXyXyXrXiXiXsXBXCXZXmXmXCXgX7XrXyXeXyXuXyXyXyXyXuXuXuXuXyXyXyX7XrXsXCXDXDXBXMXNXZXZXBXNXBXBXBXBXBXBXBXDXnXDXDXmXiXnX7X7XsX7XdXVXVXJX*XO & ; ; < < - - ; O   @ wXLXbXSXHXKXg   &.KXKXbXJX3XX   #XKXSXSXLXLX:.o 9 $ 1 4 3 & y o O.LXFXFXFXnXNXZXbXDXDXBXBXBXBXBXBXBXBXBXBXBXBXBXNXNXNXNXBXBXBXBXNXNXNXNXBXBXBXBXBXBXBXBXBXBXBXBXBXBXBXBXBXBXBXBXBXBXBXBXBXBXBXBXBXBXBXBXBXBXBXBXBXBXBXBXBXBXBXBXBXNXNXNXBXBXBXBXCXCXCXFXBXdXyXyXyXyXyX9XyXyXyXyXdXyX7XyX7XyXgXBXMXsXyXuXtX7XpXiX8XsXqXKX5X. . 7 & r & 8 8 & o % u O = o 8 % - % . = o 8 : : + q.3X3X=XbXaX9X7XrXrXyXuXuXyXyXpXyX9XiXqXqXDXDXNXNXBXsX9XyXrXrX7X9XyX9X7XyX8XsXBXCXCXBXNXNXBXBXBXBXBXNXNXBXBXBXDXBXNXNXgXZXZXFX$X%X;X;X-X,X>X,X>X:X>X>X;X>X`.(.(.`.`.`.(.!.R.I.!..X.X~.R.P.U.U.U.U.U.U.U.U.I.U.R.R.U.I.U.R./.I.J.2.H.J.<.J.I.I.J.<.2.J.I.W.J.J.J.G.G.G.4.H.J.4.4.J $ 5 < % L 2.2.2.H.G.H.1.[ H.2.2.1.1.H.1.<.` R ` R R R T K >.Y.2.` ` >.` ` ' ' ' R R R R R R R R R R R R ",
"R R R R R R R R ` ` ` ` ` ` ` ` E T [ H.2.>.E T 3.>.R ` ' T ` ' ' G.K.1.>.1.2.1.H.3.1.<.>.>.<.1.4.4.4.4.4.4.4.4.2.4.H.2.1.1.1.1.1.2.K.R.Y.2.1.2.J.I.J.J.I.J.2.I.W.Y.Y.T.R.W.I.5.5 4 6 % $ $ $ 3 M 3 > 3 * 4 4 4 6 $ 6 6 % J '.(. XXX(..X,X,X;X:X,X-X;X1X<X%X3XKXSXNXNXmXmXNXNXNXVXVXNXNXnXNXBXmXBXmXyX7XyXyXyXyXyXyXyXyXiXnXBXBXmXDXBXsXnXCXCXmXMXCXMXmXBXnXyXyXyXyXyXyXyXyXyXyXyXyXyXyXyXyXyXyX7XhXMXmXZXZXmXMXMXCXtXiXeXrXyX7X7XyXdXsXyXuXuXeXyXuXyX7XtXrXhXMXmXCXCXmXMXMXmXMXBXBXBXBXBXBXBXBXBXNXZXCXnXsXdXyXyXiXrXyXuXyXnX&X. O & - % 2 2 ; : 7 O + PXLXKXLXLXAX}   | AXJXKXLX5Xa   #XKXKXxXPXPX:.o 3 * 3 - - % 8   O.JXSXZXNXBXBXBXBXBXBXBXBXBXBXBXBXBXBXBXBXBXBXBXBXBXBXBXBXBXBXBXBXBXBXBXBXBXBXBXBXBXBXNXNXNXBXBXBXBXNXBXBXBXBXBXBXBXBXBXmXCXCXNXBXCXBXBXBXBXnXDXmXZXBXnXcXHXbXNXBXmXNXDXmXCXBXBXBXBXmXDXmXyX9XyXyXyXrX7XrXiXyXyXiXiXyXpXyXyXhXMXnXuXyXrXyXtXtXtXrXyXnXSX5Xp i w O 8 o ; 8 8 r 8 & ; 0 ; 1 * 1 1 ; 8 - % .   @ &XJXKXFXyX7XrXyXyXyXyXyXyXyXyXyXyXaXyXyXsXDXDXBXZXNXiX9XyXrX8XyXyX7XyXyX9X9XhXMXZXDXZXnXBXBXBXBXBXBXmXmXmXBXBXSXSXNXNXmXmXDXcXV.q.%X).,X;X-X-X>X;X>X>X>X>X).'.'.(.(.'.`.`./.I.Q..XXX/.I.W.U.I.U.R.I.I.I.I.I.I.I.I.I.I.I.I.W.W.W.1.J.T.3.J./.J.1.H.J.2.2.I.J.H.2.2.2.2.G.G.G.1.J.,.5 4 1 > T J.1.2.1.4.1.1.>.H.1.1.G.G.3.T K <.J.R P ' T ` R >.>.[ ' R T ' ` ` R R R ` ` R R R R R R R R R ",
"R R R R R R R R ` ` ` ` ` ` ` ` ' T E [ ' E R T ' ' ' <.>.T [ G.` <.<.' [ 3.1.' [ <.3.2.2.2.2.G.4.4.4.4.4.4.4.4.2.4.H.H.4.4.4.4.J.H.H.H.4.1.1.5.P.H.J.I.Y.3.1.I.W.I.I.T.I.I.U.I.J.5.2.4.,.Y 4 C 4 C 3 M 9 C 4 C 4 5.).!.P.R..X/..X;X-X-X<X<X<X<X<X<X<X<X1X+X3XJXNXNXNXNXNXNXBXBXmXmXBXBXNXBXBXVXsXsXrX7XyXyXyXyXyXpXgXnXgXmXZXCXmXBXhX9XiXmXmXmXMXCXBXBXCXnXyXyXyXyXyXyXyXyXyXyXyXyXyXyXyXyXyXyX8XsXCXCXZXmXmXMXnXCX9X7X7XrXrXpXdXdXiXyXtXpXsXsXnXyXdXdXgXyXnXZXBXmXBXCXCXMXMXCXBXBXBXBXBXBXBXBXBXNXDXCXgXyXyXyXyXpXyXyXyXrXsX&X  O O 8 1 2 - - 2 2 : o o.H ~ } ~ } + O @ | z g | g     +XLXPXe.  y & % 3 - 3 - 3 - y   &.HXZXhXBXBXBXBXBXBXBXBXBXBXBXBXBXBXBXBXBXBXBXBXBXBXBXBXBXBXBXBXBXBXBXBXBXBXBXBXBXBXNXNXNXNXBXBXBXBXNXNXBXBXBXBXBXBXBXBXBXBXBXBXBXBXmXmXBXZXNXCXnXZXDXDXFXVXbXFXDXDXNXmXBXmXmXBXBXBXDXnXmXnXbXsXiXyXiXyXrXiXyXrXyXyXyXuXyXeXsXBXMXsXyXyXpXpXpXpXpXpXdXcXSXxXKXv.O 7 ; y y y y 8 * * 1 < & * ; ; 8 e ; y $X#X#XxXKXSXBX7X8X7XeXyXyXyXyXyXyXyXyXyXaXyXyXsXDXCXNXZXZXnXgXnXpX7XyXyXyXyXyXyX7XnXMXmXZXNXVXZXBXBXBXBXBXBXZXZXBXBXCXCXCXBXCXCXZXFX0XwXxX%X-X.X-X-X>X;X>X>X>X>X-X;X-X'.`.`.`.`..X.X(.~./.~.!.W.U.U.I.U.I.I.I.I.I.I.I.I.I.I.I.I.J.J.Y.2.Y.W.3.2.K.H.J.W.Q.2.>.1.3.3.3.2.2.2.1.1.J.H.K.,.m Z 4 > T K.4.1.=.>.' =.H.J.>.E ' >.<.E ` T >.R R <.>.1.P ` ` ' ' ` ` >.2.<.' ` ` R ` ` R R R R R R R R ",
"R R R R R R R R ` ` ` ` ` ` ` ` E T T T T ` >.>.Q T ' 2.<.T ' 3.<.<.' T [ G.3.' R >.H.J.J.H.H.J.2.4.4.4.4.4.H.H.2.H.H.H.4.4.H.J.R.K.H.1.2.H.H.J.I.J.K.R.K.H.K.I.Y.I.W.W.Y.Y.U.T.W./.R.Q.E.R m 4 o 1 3 4 * $ % 3 < ).;XXX-X.X`.^..X,X>X>X<X;X<X<X,X,X<X-X%X+X3XFXNXNXNXNXNXNXBXBXBXBXBXBXNXCXBXVX7XyXyXyXyXyXyXyXyXsXBXCXBXBXCXBXBXBXsX7X9XhXMXCXMXMXMXBXCXhX9XrXyXyXyXyXyXyXyXyXyXyXyXyXyXyXyXyXyXnXBXmXhXNXDXFXDXHXbXcXdXpX7XuXeXrXtXtXpXrXrXrXyX8XnXVXFXVXDXFXFXNXnXnXmXMXCXMXBXBXBXBXBXBXBXBXBXBXDXBXgXyXyXuXyXyXyXyXyX7XsX=X  w   o - 1 3 1 - & ; ; & . O . . o : y X   X X X   X + @XLXLXq.  & 8 e 3 1 * % & o O   O.SXSXnXBXBXBXBXBXBXBXBXBXBXBXBXBXBXBXBXBXBXBXBXBXBXBXBXBXBXBXBXBXBXBXBXBXBXBXBXBXBXBXBXBXBXBXBXBXBXNXNXBXBXBXBXBXBXBXBXCXBXmXBXBXBXBXBXNXSXNXNXgXNXgXgXNXNXZXDXsXNXCXZXmXBXBXBXCXnXNXnXNXSXSXVXVXbXdX9XyXiXrXrXyXyXrXyXuX7XuXBXBXgXyXyXyXyXyXyXyXyXyXyX8XbXLXr.  . O .   . o O ; - * ; 8 8 & . O O . + KXLXKXFXSXbXNX7X7X7XrXyXyXuXyXyXyXyXyXyXyXyXyXdXCXBXNXZXDXBXZXDXnX7XeXyXyXyXyX9X7XnXBXnXNXZXZXCXBXBXCXBXNXBXZXZXmXNXBXBXBXBXMXMXmXFXSXJXPX%X%X;X-X;X;X>X>X>X>X>X>X<X;X'.`.`.`.`.'.-XXXR.U.^.`./.U.U.U.U.I.I.I.I.U.U.I.I.I.I.I.I.H.1.J.J.I.W.H.H.2.3.J.Q.R.4.1.J.3.2.H.J.J.J.H.4.H.4.J.,.C Z 4 > P K.2.1.E E T >.H.4.` Q R <.H.<.Q J ' ' ` 2.5.H.T R R ` =.' ' >.J.2.>.` R R ` ` R R R R R R R R ",
"R R R R R R R R ` ` ` ` ` ` ` ` E ` E T R [ <.<.Q T E 1.<.E E T H.2.>.T ' 3.2.>.' >.2.J.3.>.<.3.2.4.4.4.H.H.H.H.H.H.H.H.4.4.4.H.I.K.H.1.H.J.J.H.I.Y.J.H.K.W.W.J.H.J.I.T.I.I.I.I.Y.U.U.P.P.1.T K C C 5 5 > S Y ` =.).).!.`.~.~. XXX,X>X>X,X-X>X>X,X;X:X1XzX3X0XDXNXBXBXBXBXBXBXBXBXBXBXBXNXCXBXsX7XyXyXyXyXyXyXyX9XdXBXDXBXBXBXmXmXMXsX7XrXmXCXCXMXMXMXCXCXgX9XyXyXyXyXyXyXyXyXyXyXyXyXyXyXyXyXyXyXhXBXnXNXFXHXxXKXKXSXvX0XcXsXrXsXrXrXeXiX7XtXsXyXaXbX5X0XvXKXKXcXFXFXBXBXBXBXmXBXBXBXBXBXBXBXBXBXnXmXnXsXyXyXdXyXyXpXrXyXeXsX5XwXxX .+ 8 8 4 < 9 3 * 8 & ; y 8 8 r ; y u g q q d q q O } $X4X} : : e ; * 1 o e : O a @ *.AXDXDXBXBXBXBXBXBXBXBXBXBXBXBXBXBXBXBXBXBXBXBXBXBXBXBXBXBXBXBXBXBXBXBXBXBXBXBXBXBXBXBXBXBXBXBXBXBXBXBXBXBXBXBXBXBXBXBXBXBXBXCXBXBXFXFXHXHXHXHXFXHXFXFXmXZXgXFXFXDXNXnXCXFXCXgXCXgXFXHXHXJXKXKXHXSXbXNXyXyXrXrXyXyXrXyXuXeXuXnXnXgXsXdXsXgXgXsXdXdXiXaXaX0XcX#X|  .| g | | y O ; 2 - ; ; o O w } | } } KXJXKXSXVXnXBXiXsXpXuXyXuXuXyXyXyXyXyXyXyXyXyXdXDXBXBXZXZXBXZXDXMXeXeXyXyXyX7X7X7XmXDXBXBXCXZXNXNXBXFXCXCXBXBXmXZXZXBXBXBXBXMXMXMXZXgXFXAX%X%X<X-X;X;X>X;X;X>X>X>X<X-X(.`. X`.`.R.^.'.~./.~.~.W.U.U.U.U.U.U.I.I.U.U.I.I.I.I.I.I.J.2.Y.I.K.Y.J.I.K.G.H.P.J.1.4.J.G.H.H.H.J.5.4.1.4.J.J.1.Z C 3 $ L J.2.2.>.<.>.4.,.1.' ' >.2.J.<.` <.Y.>.K R R R ` R R ` ' ` ` ' 1.>.' R R ` ` ` R R R R R R R R ",
"R R R R R R R R ` ` ` ` ` ` ` ` <.1.>.R T E ` ` ' [ ' >.' ' ' K <.3.<.E E >.3.3.<.>.<.3.[ T R <.4.4.H.H.4.4.4.4.H.H.H.H.2.2.2.2.4.2.2.2.J.J.H.1.Y.T.J.<.K.T.Y.J.J.J.K.I.T.T.U.Y.I.U.I.Y.R.E.R.P.'.R $ 6 C E.-X-X-X-X'.(.`.^.^.^.-X<X>X>X,X>X>X>X<X;X:X2XPXKXSXFXBXBXBXBXBXBXBXBXBXBXBXBXBXDXBXnXyXyXaXaXyXyXyXyXyXyXNXDXBXBXBXnXiXpXyX7XrXmXCXMXBXCXBXMXBXsXyXyXyXyXyXyXyXyXyXyXyXyXyXyXyXyXyXyX7XgXCXnXbXNX&Xp p p i w p =XcX8XrX8XrXrXnXyXpXyXdXSX5X@ . + w a p 5XSXbXnXnXmXDXMXBXBXBXBXBXBXBXBXnXyXyXyXyXyXyXyXyXsXyXyXyXsX9XSXKXz   o O & 1 % 8 1 9 , 1 * ; = r . q {.}.q # #.b.w.# X O o . + 7 e ; 3 e & %XPXvXvXwXcXHXVXnXBXBXBXBXBXBXBXBXBXBXBXBXBXBXBXBXBXBXBXBXBXBXBXBXBXBXBXBXBXBXBXBXNXNXBXBXBXBXBXBXBXBXBXBXBXBXBXBXBXBXBXBXBXBXBXBXmXBXBXBXNXCXDXaX5X3X3X=X=X=X&XqXFXbXSXdX0XHXSXHXFX0XFXDXBXbXFX&XO.&.&.&.&.&.#XNXiXrXrXiXyXyXyXyXyXyXuXuXuXnXBXBXBXDXBXnXdXyXyXyXsX8XcXcXbXSXKXLXKXKX+X+ O 8 - & 7 O O.xXPXKXKXAXbXVXVXCXCXNXBXhXMXhXyXrXyXyXyXyXyXaXyXyXyXyXyXdXDXBXBXCXBXBXBXBXBXeXeXyXrXyXyXyX7XVXFXCXCXZXnXsXnXNXDXDXDXDXZXmXZXZXBXBXBXBXBXMXMXMXgXFXAX+X%X:X-X;X>X>X>X>X>X>X;X,XXX^.`. X].].I.I.~.XX.XW.P.U.U.T.T.T.U.U.U.U.I.I.I.I.I.I.I.I.P.J.I.I.3.1.J.W.J.3.2.J.J.4.4.4.>.>.' L K L K J =.1.1.,.C C 3 < T K.4.H.H.H.2.Y.<.,.>.<.<.1.2.` R 1.H.' R R T ` ` T T ` ` T P T ` R R R ` ` R R R R R R R R R R ",
"R R R R R R R R ` ` ` ` ` ` ` ` 2.G.<.E T T E ` >.3.<.' R >.G.' R >.1.>.[ <.3.2.3.<.1.2.>.E ' G.4.4.H.H.4.4.4.4.H.H.H.H.2.2.2.2.1.2.4.J.K.J.G.3.I.W.K.J.I.J.2.T.I.I.K.Y.T.W.T.U.T.Y.P.I.R.I.E.!.'.P % $ 5 P.-X(.XX'..X X^.`..X~.-X<X>X;X,X>X>X;X,X;X-X2XKXJXNXZXBXBXBXBXBXBXBXBXmXmXBXBXBXCXBXmXeXeXyXyXeXyXyXyXyXyXnXDXNXCXDXnX7XyXyX7XrXmXCXmXMXBXmXsXsXyX7XyXyXyXyXyXyXyXyXyXyXyXyXyXyXyXyXyX8XsXCXmXZXHX*X  . . O . + 5XHXbXrXrXMXyXsXdXBXyXbXJXvX7   O :   . 5XHXSXDXBXnXNXMXMXBXBXBXBXBXBXDXmXyX7XyXyXyXyXyXeXsXrXpXyXdXsXqXbX&.p p O   o & o % < < 1 $ 9 = 0 . u *X&Xq X #.&Xb.# 7 7 O y 7 y ; - 8 &   3XLXKXHXDXDXDXnXBXBXBXBXBXBXBXBXBXBXBXBXBXBXBXBXBXBXBXBXBXBXBXBXBXBXBXBXBXBXBXBXBXNXNXBXBXBXBXBXNXBXBXBXBXBXBXBXBXBXBXBXBXBXBXBXBXBXBXNXBXBXCXmX=X    X   @ X   *.HXSXHXc @ cXSXKXB.a =XFXVXFXJXO.  O X       *.HXdX9XrXiXyXyXyXyXrXyXuXeXeXnXDXDXBXCXBXnXdXaXyX7XyX7XyXaXqXqXdXSXAXJXB.  . & o + .   | xXFXcXcXdXcXqXbXBXCXBXBXCXBXsXyXrXyXyXyXdXyXaXyXyXyXyXyXdXCXBXCXDXZXZXCXBXhX7XrXrXeXrXyXyXyXVXDXSXDXZXbXqXiXnXNXSXSXSXNXnXnXmXmXBXBXBXBXMXMXCXmXFXAX+X%X:X-X;X;X>X>X>X>X>X>X,XXX^.`..X^.].~.W.~.-X.XI.J.U.U.T.T.T.U.U.U.U.U.U.U.U.U.U.U.U.I.I.W.I.H.2.K./.H.<.1.J.5.J.K.4.>.=.P J V C m 3 ,.6.1.,.Z C 4 < T P.2.H.2.1.=.2.2.2.1.2.<.<.2.` >.<.>.<.H.>.K K ` T ` >.' T R ` ` R R ` ` ` R T R R R R R R R R ",
"R R R R R R R R ` ` ` ` ` ` ` ` >.<.[ E E E ' >.' >.>.` T [ J.<.E ' >.>.<.G.G.1.[ <.G.H.2.1.2.J.G.G.G.G.2.2.2.2.2.5.H.H.G.G.G.G.J.H.H.J.H.H.H.Y.K.I.T.R.T.J.J.W.I.T.I.I.T.T.U.T.T.I.I.U.U.I.I.W.'.R.J.P.4.(.-X'.'..X.X(.^. X`.^.XX<X>X-X>X>X>X;X,X<X:X4XPXFXnXmXBXBXBXBXBXBXBXBXNXnXBXBXBXVXnXsXyXeXyXyXeXyXyXyXyXyXNXDXNXBXFXnXyXyXyXrXrXmXCXmXmXBXsX7XeXeXeXyXyXyXyXyXyXyXyXyXyXyXyXyXyXyXyXyXtXgXMXhXnXHX=X  u r t = + O.q.b.dXdXyX*.x C.bXAX3X*X*Xu 7 - & O X 5XFXbXBXZXmXnXBXBXBXBXBXBXBXBXDXBXyXyXuXuXyXuXuXeXsXeXpXyXyXsXnXFXcXGXKXvXvXAXIX~ y 8 ; - * 1 9 0 O q 9.o.q q o.9./ O = 8 - ; & & & 2 r :   3XHXVXVXmXNXNXmXDXBXBXBXBXBXBXBXBXBXBXBXBXBXBXBXBXNXBXBXBXBXBXBXBXBXBXBXBXBXBXNXBXNXBXBXBXBXNXNXNXBXBXBXBXNXNXBXBXBXBXBXBXBXBXBXBXBXBXmXCXBXBXBX=X  + @   O + O %XLXGXHXz X AXLXLXw.  =XJXHXAXPXr.O : + @ @ @ &.FXdX9X9XyXyXyXyXyXyXyXuXrXyXsXMXmXCXDXDXNXBXBXnXyXyXdXyX9X9X8XyXNXbXHX3Xe.r.i   p +XB.=XAXSXqXdXsXqX7XsXmXBXCXBXCXBXsX9XyXyXyXyXdXyXaXyXyXyXyXyXdXCXBXCXDXBXCXDXCXhXyXpXyX7X7XrXyXyXdXVXSXDXFXSXbXbXVXSXSXSXSXSXNXNXNXNXNXBXBXBXMXmXCXNXHXAX+X%X:X-X;X;X>X>X>X>X>X,X<XXX~.`. X].]..X X`.`.~./.Q.~.U.U.U.U.U.U.U.U.U.U.U.U.I.U.U.U.P.I.Y.Y.I.Y.J.I.Y.H.K.P.5.4.5.,.,.>.' K J A A Z 1.6.7.-.S Z 4 $ P K.2.2.<.' Q >.H.2.1.1.=.>.H.1.' T T <.J.2.>.' R R >.1.[ R ' >.>.=.' ` ` ` R R R R R R R R R R ",
"R R R R R R R R ` ` ` ` ` ` ` ] Q R R T E R E >.Q T T E T ' 3.' >.' T R <.J.2.>.K [ 2.2.2.H.H.3.G.G.G.G.2.2.2.2.2.5.H.H.J.J.J.J.I.J.2.2.1.<.H.W.2.H.I.T.I.I.I.J.G.T.W.W.T.Y.Y.T.I.W.W.U.Y.U.W.I.~.`..X-X(.XX'.W.(.XX`.~.XX.X/. XXX<X,X;X>X>X,X>X-X<X-X4XPXFXmXCXBXBXBXBXBXBXBXBXZXmXBXBXnXyX9XqXaXyXyXaXyXyXyX9XyXyXBXDXNXBXFXNXyXyXyX7XrXmXCXmXMXCXhX7X7XyXyXuXyXyXyXyXyXyXyXyXyXyXyXyXyXyXyXyX7XsXDXZXmXFX*X  . O ; ; : o   | SXSXxXp . g cXJX@.  : o r ; u O.a 8XFXNXNXmXZXCXBXBXBXBXBXBXBXBXmXnXyX7XuXyXrXyXsXrXsXeXpXrX7XsXnXDXSXHXFXKXJXKXLX    O O & 8 * , = = = O O = = = X ; ; 8 ; 1 1 8 8 8 8 & O X *XHXSXbXZXCXZXMXMXBXBXBXBXBXBXBXBXBXBXBXBXBXBXBXBXBXBXBXBXBXBXBXBXBXBXBXBXBXBXNXNXNXNXBXBXBXBXNXNXBXBXBXNXNXNXNXNXBXBXBXBXBXBXBXBXBXBXBXDXNXBXFXqX&X#XO.: 2 : . +XLXvXKX5Xw.B.{.3XO.X 3XJXKXq.i H & ; : } b.B.*XHXiX8X7XyXyXyXyXyXuXyXyXyXyXyXyX7XBXCXCXDXDXFXcX8XyXsXyXyXrX8XrXCXnXFXbXJXLXq.X q.KXJXFXdXsXyXrXyXiXyXnXgXmXDXBXmXBXsXyXyXdXyXyXyXyXaXyXyXyXyXyXpXDXBXCXCXNXZXDXBXCXmXBXhXrXrXrXyX9XyXcXNXFXHXJXKXHXHXJXJXKXKXKXFXHXHXHXFXFXCXBXBXmXZXnXHXAX+X%X-X:X:X;X>X>X>X>X>X,X<XXX/.`. X]..X XXX.XW.R.`.XX'.U.U.I.U.I.U.U.U.I.U.I.U.U.U.U.U.1.5.1.2.W.W.2.1.2.5.Q.!.P.K.5.=.J K J S C Z C 4 4 Z 4 S 3 C 4 $ L K.H.H.1.' Q 1.H.2.<.>.R ` 5.1.1.>.' R T ' 2.3.P T >.1.' T ` >.1.>.' R R R R R R R R R R R R R ",
"R R R R R R R R ` R R R ` ` R T ` E K T R <.J.' T R R Q E 2.H.>.1.' ' 1.J.H.3.<.2.3.G.G.2.H.G.1.4.2.1.1.4.4.4.4.H.H.H.H.J.J.J.J.I.I.J.4.<.<.Y.J.2.I.I.2.2.T.W.J.H.K.I.T.T.I.T.T.U.T.U.T.T.U.U.~.W.~.~.(.'..X'.~.'.`..X.X]. X.X^.XX>X>X>X>X>X,X,X>X<X%X4XKXFXBXmXBXBXBXBXBXBXNXNXNXmXmXDXmXqXeXyXeXaXyXeXqXaXaX7XyXyXDXBXBXNXBXBXyXyXnXMXnXMXCXMXMXDXmX7XeXyXeXyXyXyXyXyXyXyXyXyXyXyXyXyXyXyXuXyXrXnXBXnXDXDX&Xp p 7 . u ; ; ; o.JXLXAXz   @.AXLXq.O 2 e 8 o o.LXSXSXSXNXNXmXmXmXMXZXZXmXmXBXNXdXyXyXyXyXuXyXyXyXyXuXrXeXyXpXsXnXnXNXBXSXSXSXSXSXqXe.w.r.w O 8 & ; 1 0 % 7 7 ; 7 , 0 * , 1 8 * o o o o . . q.B.5XFXDXNXBXDXBXBXBXBXBXBXBXBXBXBXBXBXBXBXBXBXBXBXBXBXBXBXBXBXBXBXBXBXNXNXBXBXBXBXBXBXBXBXBXBXBXBXBXBXNXBXBXBXBXBXBXBXBXBXBXBXBXBXBXBXBXBXBXBXBXBXNXJXKXr.  & 2 - + + + PXLX3X.   o + O 4XLXLX8.. ; ; r . r.KXKXHXZXgXgXiXrXyXyXrXpXyXyXyXyXyXyXyXyXDXBXBXDXFXBXsX9XpX7XyXyXrX7XtXMXmXnXcXSXAX| X @.FXNXnXgXpXpXrXrXiXrXyXgXBXBXBXBXDXsXqXyXyXyXaXaXyXyXyXyXyXyXyXyXCXDXDXDXBXBXBXZXmXMXBXnXyXyXiXyX7XsX0XFXJXxXLXPXPXPXPXPXPXKXAXAXAXxXvXxXxXHXgXDXmXZXNXSXAXe.%X%X:X<X:X;X;X;X<X;X<X>X(. X^.XX`. X.X.X'.~.P.^.'..X^.Y.Y.Q.P.5.I.R.R.R.Q.R.R.R.P.P.P.H.1.2.I.Y.H.5.5.J.E.1.J.,.R I J C L L C C C 3 < < < 5 3 C 9 $ J K.H.4.J.2.4.H.1.E 1.H.>.2.5.2.2.J.1.K J <.J.' T T ` ' ` T ` >.>.=.' R R E R R R E E E R R R R ",
"R R R R R R R R ] R R R ` ` ` ` >.<.' E R ' <.' T E >.' E ' ' T 3.>.[ >.>.>.>.1.J.3.' E E >.3.2.2.2.2.2.4.4.4.4.2.2.2.2.2.H.H.H.K.J.1.2.H.J.J.<.J.T.T.J.J.T.W.Y.K.I.T.T.T.I.U.T.T.T.I.I.T.U.W.].~.~.(.'.'.'.'..XXX.X.X X`..X.X^.-X>X,X>X>X>X;X,X:X<X+X$XKXSXBXCXBXBXBXBXBXBXNXNXBXNXNXDXVXyXyXyXyXaXaXqXeXaXdXyXyXyXDXDXBXsXdXdXyXyXmXBXmXBXCXMXMXCXnX7XeXyXyXuXyXyXyXyXyXyXyXyXyXyXuXyXyXyXyXyX7XmXDXnXnXFXFXcXvX5Xw : 8 e * H O.O.8.w   w q.r.H o ; 8 r + O.LXSXNXNXNXNXmXMXMXMXmXBXNXBXDXNXdXyXyXyXyXyXyXyXyXrXyXrXyXsXnXmXBXmXmXZXZXDXNXZXNXHXSXJXxXz     . o o r 0 8 9 9 1 0 0 9 2 2 o o H ~ i i g } &X3XAXFXDXBXCXDXBXBXBXBXBXBXBXBXBXBXBXBXBXBXBXBXBXBXBXBXBXBXBXBXBXBXBXBXBXNXNXBXBXBXBXBXBXBXBXNXBXBXBXNXNXBXBXBXBXNXBXBXBXBXBXBXBXBXBXBXBXBXBXBXBXBXNX0XGXB.. r r - 8 . + PXLX$X. : 8 o : $XIXIXt.& r 8 ;   e.KXNXbXNXNXCXgXrXyXyXyXyXyXyXyXyXyXyXyXyXCXBXBXCXFXFXBXBXmXyXyXyXrX8XrXhXhXmXZXFXJX5X*X0XDXmXnXgXiXiXeXrXiXrXyXsXnXmXNXBXCXVXdXdXaXyXyXyXyXyXyXyXyXyXyXyXdXgXnXnXmXBXBXmXmXmXBXnXyXyXyXyXiXiX9XVX&X@ a + + + : O O + O O     @ X  .SXDXnXmXCXDXZXFXxXIXxX|.;X;X;X<X;X:X-X-X>X>X>X(.(.~..X~.).(.-X-X;X-X-X.X!.!.).Q.E.!.!.I.5.P.R.P.5.P.P.5.P.P.P.Y.H.5.Y.I.>.-.I P 4 4 I E.5.6.R M A F C I A C 4 4 S C $ P P.2.1.J.1.H.H.<.Q ` 3.2.=.` >.1.>.>.' ` ` ' R R T R ` R T R ` =.E T T R R R R R E E R R R R E ",
"R R R R R R R R ` R R R ` ` ` ` <.G.<.' R T [ <.Q ' 3.2.[ R R R H.G.1.>.` ' >.2.2.1.[ ` ' <.3.2.1.1.4.4.4.4.4.H.4.4.4.4.2.2.4.H.H.4.2.J.K.K.J.1.J.I.I.Y.Y.Y.I.I.I.T.T.T.T.I.T.T.I.U.I.I.I.U.W.~.~.~.~.~.~.(.'.(.XX.X.X.X.X.X.X^.-X,X,X>X>X>X>X>X;X1X_.$XFXFXBXBXBXBXBXBXBXBXNXNXNXZXBXCXVXyXyXyXyXaXyXyXyXsXmXVXyXyXDXBXBXyX9XyXyXdXBXCXBXBXDXBXBXCXnX7XeXyXyXuXyXyXyXyXyXyXyXyXyXyXuXuXyXyXyXyX7XnXFXFXNXNXVXdXHXGX+   7 8 & 8 o   o o O . o O & - D ; &   | JXSXNXNXNXmXmXMXmXMXmXBXBXBXDXVXyXyXyXyXyXuXyXyXyXyXyXrXyXhXMXBXCXMXZXZXDXCXBXNXNXNXbXHXFX*Xv.@X+Xt.+ : 7 0 8 8 3 , 0 0 : : . y xXLXKXKXJXSXHXNXDXDXZXBXCXCXBXBXBXBXBXBXBXBXBXBXBXBXBXBXBXBXBXBXBXNXNXBXBXBXBXBXBXBXBXNXBXBXBXBXBXBXBXBXBXNXNXBXBXNXBXBXBXBXNXNXNXBXBXBXBXBXBXBXBXBXBXBXBXBXBXBXBXNXHX@X  : & % r : O _.+X... 8 ; & o : + : o o 1 r 7   w.JXNXbXNXZXCXhX9X7XyXyXrXyXyXyXyXyXyXyXyXCXZXDXDXDXDXDXDXDXyXyXyXrX8X8XpXiXgXNXnXCXFXHXFXNXnXhXgXiXyX7XyXiXyXyXiXdXsXnXCXBXVXBXVXsXyXyXyXyXyXyXyXyXyXyXyX9XyXyXsXnXBXBXmXmXZXZXnXyXyXyXyX7X8XiXFX#X    O o o & % o % o o & : O   | JXHXdXZXhXmXZXFXFXLXLX%X1X;X-X:X:X<X<X<X<X,X,X(.).^.(..XE.,.5.1.1.-.-.` I P K J K J A 4 5 6 4 $ 6 ,.E.5.I.Q.R.P.2.5.I.~.4.>.-.' 6 $ -.Q.K.6.A < I 6.,.6.-.-.U 3 4 9 $ J 5.1.=.=.R ,.H.2.<.<.2.H.>.` 2.' K R 2.1.T K T ` R T R ` ` R R ' R T T R R R T R R R R R R E E ",
"R R R R R R R R R R R R R R R R [ <.' E ' ` [ G.T ' 3.3.>.' >.[ 2.G.3.>.' >.1.2.>.1.3.2.G.G.2.2.1.1.4.4.4.4.4.H.2.4.H.H.H.4.4.4.>.4.K.K.4.1.J.I.J.J.Y.I.I.J.Y.I.T.T.T.T.T.T.T.T.I.I.U.U.I.I.Y.I.~.].~.W.!.'.'.!.'.'..XXX.X.X X(.;X,X,X>X>X>X>X;X|.2X%X*XSXFXBXMXBXBXBXBXBXBXNXNXNXZXNXBXmXyXyXyXyXyXyXeXyXsXVXBXdXdXBXBXBX9XyXsXyXiXNXDXBXCXCXmXBXBXnXyXeXyXyXyXyXyXyXyXyXyXyXyXyXyXuXuXyXyXuXdXdXgXnXBXZXCXnX8XdXcXa @ + . & o y y r ; r ; & & % 2 ; & } } e.FXSXNXNXmXmXmXmXmXMXmXBXBXNXNXnXyXyXyXyXyXyXyXyXyXuXyXyXiXnXMXBXBXZXCXZXZXCXBXNXNXDXbXbXSXKXJXJXKXvXw   . : ; ; 8 , 0 0 . : . + xXKXSXSXFXNXFXhXmXZXZXBXBXBXBXBXBXBXBXBXBXBXBXBXBXBXBXBXBXBXBXBXBXNXNXBXBXBXBXBXBXBXBXBXBXBXBXBXBXBXBXBXNXNXNXBXBXNXNXBXBXBXNXNXNXBXBXBXBXBXBXBXBXBXBXBXBXBXBXBXBXmXFXV.@ O + : o : . o . o o - % 9 - * o o ; r 8 & o.i V.FXNXNXCXmXmXhXiXyXyXyXyXyXyXyXyXyXyXyXyXZXZXDXDXBXBXBXDXFXyX7XyXrX8X8XiXhXgXmXnXcXNXFXnXnXhXhXgXsXyX8XyXyXyXyXyXyXyXVXFXBXCXFXBXdX7XeXyXyXyXyXyXyXyXyXyXyXyXyXdXsXmXBXMXZXZXZXnXyXyXaXyXhXpXnXNX#Xp i w : 8 9 4 4 9 9 3 - 1 8 O O.xXbXHXZXhXhXDXmXFXKXIX$X1X2X<X;X:X<X,X.X.X-X-X).~.(.!.'.` % % % % o % $ $ % % % % % % o % o o o % 1.R.P.Y.I.I.P.J.H.J.K.J.,.-.7.4 $ I E.6.,.S < I 6.1.1.4.P.` 5 4 9 $ K K.5.=.' R <.1.1.H.J.>.` =.>.5.R K R 1.1.` T ' ` R T ` >.>.' R R R ' ' R R R R R R R R R R E E ",
"R R R R R R R R R R R R R R T T T R T R >.>.E >.T ' [ ` E >.1.[ E ' ' >.<.3.3.<.>.2.G.2.G.G.2.H.1.1.4.4.4.4.4.H.2.2.2.2.2.4.J.K.,.4.P.K.4.4.J.Q.J.H.J.I.I.Y.Y.I.U.U.U.U.U.U.T.W.I.U.W.T.I.I.Y.Y.~.~.^.^.^.(.(.(.(.'..X.X.X'..X.X>X,X<X<X>X>X>X:X2XPXPXGXFXBXBXCXBXBXBXBXBXZXZXZXNXZXnXnXcXyXyXyXyXyXyX7XrX7X9XdXBXBXDXCXBX9XyXiX9XyXmXDXBXBXZXnXsXgXsXyXyXyXyXeXyXyXyXyXyXyXyXyXyXyXyXyXyXyXsXmXDXDXCXnXnXBXmXyXdXbXV.#Xr.@.+X..o 2 e & ; - r H D y   + 5XJXSXHXNXNXNXmXMXMXMXMXMXmXBXBXcXdXdXiXyXyXyXyXyXyXyXyXyXyXyXsXmXBXCXZXZXCXCXBXCXBXBXBXNXZXDXDXVXbXbXSXSXr.r.} 7 y 8 8 - 8 8 + $XwX*XHXFXZXnXNXnXZXmXDXmXMXBXBXBXBXCXBXBXBXBXBXBXBXBXBXBXBXBXBXBXBXBXBXNXNXZXZXZXZXNXNXNXNXZXZXZXZXNXNXBXNXNXNXNXBXBXBXBXBXBXBXBXBXBXBXBXBXBXBXBXBXBXBXBXBXBXBXBXBXBXBXNXFXSXwXxXAXxXu : : 2 : 8 ; - * > $ 9 e r 8 7 . O.PXLXKXHXVXZXZXZXmXmXmXnXiXyXyXyXyXyXyXyXyXyXyXZXZXZXZXZXCXDXBXDX7X7XrX7X7XrXsXmXnXmXNXgXmXmXnXmXhXhXhXhXiX8XyXyXyXyXyXqXyXVXFXBXBXDXBXyX7XrXuXyXyXyXyXyXyXyXyXyXyXyXyXyXsXBXCXZXZXCXnXyXyXaXyX7X9XdXVXAXAXLX3Xo 8 < < , > < * 4 * - & + a p cXZXDXCXZXgXSXKX#X+ y ).<X<X<XlX).S -.-X,X).R.(.Q.>X1.% $ < < * < > < < < 5 < $ $ 3 -.` T ' -.R.P.I.P.J.J.J.P.J.2.2.5.A m J 5 % I K.1.6.R A =.5.1.1.1.5.J $ 9 C * Y 5.1.=.,.1.J.1.1.2.J.' K ' 1.3.[ >.=.' [ <.1.1.R T T ` <.2.<.R T =.,.>.' T T R R R R R R R R R ",
"R R R R R R R R R R ` R R R T T Q K T ` >.>.Q K T E R Q T 1.H.<.K Q E >.3.H.2.1.<.H.G.3.G.2.1.4.5.6.1.1.1.4.4.4.H.2.2.2.4.J.P.P.J.J.J.K.R.E.Y.R.P.P.K.Y.I.I.I.U.I.I.I.I.U.T.W.W.W.T.I.I.Y.W.W.W.W.W.~..X`.W.!..X'.'.'.'..X.X-X>X,X>X,X<X>X,X,X:X%XPXKXSXNXmXMXCXBXBXBXBXBXZXZXZXmXCXnXiXdXyXyXyXyXuXyXyXyX7X7XdXDXCXDXBXCXyXiXiX9XyXnXCXNXBXBXnX7XyXyXrXrXyXyXyXyXyXyXyXyXyXyXyXyXyXyXyXyXyXgXBXnXNXCXBXBXCXmXyXyXaXqXKXvXvXLX@XO ; 2 ; r - 2 t O ~ p | 0XHXDXNXNXNXNXmXMXMXMXMXBXBXBXBXdX9XyXiXyXyXyXyXyXyXyXyX7X7XyXsXnXBXDXZXBXBXBXBXBXBXBXBXnXZXCXDXDXVXVXFXSXSXLX@.  o & 2 8 : .   3XJXSXNXnXZXZXFXCXMXmXmXmXZXCXBXBXBXBXBXBXBXBXBXBXBXBXBXBXBXBXBXBXBXBXBXNXNXZXZXNXNXNXNXNXNXZXZXZXZXNXNXNXNXNXNXNXNXBXBXBXBXBXBXBXBXBXBXBXBXBXBXBXBXBXBXBXBXBXBXBXBXBXBXVXVXHXFXFXJXvX      : & 8 - - - 4 $ % o o o O   p vXLXSXAXbXDXZXDXmXBXCXmXiXrXrXyXyXyXyXyXyXyXyXDXDXDXZXBXZXDXDXBX9XyXiX7X7XtXsXpXmXnXnXsXmXnXnXmXmXmXmXMXpX8XyXyXyXyXyX7XqXnXDXBXBXBXMXpXrXyXyXyXyXyXyXyXyXyXyXyXyXyXyX9XgXDXDXBXZXCXmXyXyXdXyXyXiXyX8XbXJXJXB.  : & * 9 , 1 1 * o * 1 &   a LXHXFXFXZXNXSXKXr.  O %XlX<X<XlXQ.o S .X<X(.!.'.E.!.-.$ < 1 1 > > < 1 3 3 1 $ $ $ < 5.Q.E.Q.Q.Q.P.I.Y.J.J.J.Y.J.2.E.J.6 o $ % % I E.1.5.,.T >.5.J.1.2.1.V % < 1 * A 5.6.5.4.1.J.H.H.<.3.<.[ >.<.<.1.H.>.K T 1.2.<.K T T R >.3.<.R T =.,.,.=.T T E R R R R R R R R ",
"R R R R R R R R R ` ` R R R ` ' ` T ' ` ` [ R T Q R ` E ` <.2.<.E ` >.1.1.<.1.G.1.2.<.>.G.H.1.1.5.6.1.,.,.4.4.4.H.H.4.H.J.5.4.,.,.-.>.>.4.5.1.5.W.R.P.5.J.I.W.R.U.U.U.U.U.U.T.T.W.I.I.I.I.W.].~.I.I.!.'.(.Q.!.'.'.'.(..X-X;X>X<X,X>X,X,X>X<X<X:X%XAXSXNXmXCXMXmXBXBXBXBXBXNXZXZXmXDXgXqXyXyXyXyXyXuXyXyXpXrX9XnXBXBXmXgXmXyXiXiX9XaXmXCXNXBXBXnX7X7XyXyX9XyXyXyXyXyXyXyXyXyXyXyXyXyXyXuXyXeXgXCXDXCXZXZXBXCXnX7XdX0X0XaX0XqXSX@X  O O o & o o . 7 3XJXAXFXnXNXZXBXBXBXBXBXMXBXBXBXBXBXBXsXyXyXiXyXyXyXyXyXyXyXyXiXyXsXnXnXNXCXBXMXBXBXBXBXBXBXBXCXMXgXgXDXDXNXVXCXFXJX| X y O & . : y + *XFXBXmXmXBXnXNXBXmXCXMXmXBXCXBXBXBXZXBXBXBXBXBXBXBXBXBXBXBXBXBXBXBXBXBXBXNXNXZXNXNXNXNXNXNXNXZXZXNXNXNXBXBXBXBXNXNXBXBXBXBXNXNXNXBXBXBXBXBXBXBXBXBXBXBXBXBXBXBXBXBXBXBXDXNXZXNXbXDXSX&.w.8.o.. - ; - & % - ; & t.3X3X3X#XHXKXSXFXNXCXhXCXmXBXCXmXgXsXiXyXyXyXyXyXyXyXyXNXZXDXDXZXNXBXZXDXsXmXnX7X7XuXpXsXNXnXmXsXBXnXnXmXmXmXmXZXgX8XyXyXyXyXyX7X7XsXCXmXmXBXMXhXsXuXeXuXuXyXyXyXyXyXyXyXyXyXiXyXsXBXmXBXBXBXmXyXyXdXaXdXaXyX8XdXSXSX#Xp | O o < * - ; 8 - 9 3 ; o + *X*X=XHXFXFXAXJX@X@ ; -X<XXX(.>X5.o S .X>X(.).(.,.A A % * * * 1 < * * < $ % 5 S S J 1.Q.R.I.I.R.Q.Y.Y.P.P.J.P.J.2.R.5.S 4 3 4 C Y 5.-.1.1.' =.<.1.3.2.5.L m M * * K 7.1.P.K.>.1.2.H.>.>.3.2.>.R >.2.4.[ P R >.=.' K T T T ` <.>.T T =.>.>.' T T R R E R R R R R R ",
"R R R R R R R R ` ` ` R R ` >.<.>.E >.E Q [ <.<.T E >.>.' ` ' ' <.<.2.2.[ R ' 2.2.<.Q K >.2.4.5.E.6.7.,.,.4.4.2.,.2.4.J.J.,.P J S J K J J J S ` !.W.P.1.2.I.W.I.U.U.T.U.U.U.T.I.I.Y.I.T.I.~.].~.I.W.~.!.(..X'.~.'.'.'.-X<X<X,X<X,X>X,X,X>X,X<X:X%XPXSXZXnXZXMXCXBXBXBXBXNXNXNXNXNXDXsX9XyXyXyXyXyXyX7X7XyX7X7XsXBXBXsX9XiX7XiXiXqXdXNXDXNXBXZXnXyXyXyXyXyXyXyXyXyXyXyXyXyXyXyXyXyXrXuXuXyXeXsXBXNXmXNXCXCXCXMXsXaX7XdXyXqXqXdX=Xv.$Xr.w O w O.@.p wXHXbXNXhXCXnXNXNXNXBXBXBXBXBXBXmXBXCXnXyXyXiXyXyXyXyXyXyXyXpXBXMXCXCXNXBXZXNXMXBXBXBXBXBXBXBXhXCXDXBXBXBXBXDXDXaXHX0XKXvXi   O +XLXxXSXNXmXCXCXDXNXBXDXBXDXBXmXCXDXBXNXBXBXBXBXBXBXBXBXBXBXBXBXBXBXBXBXBXBXBXBXNXNXNXNXNXNXNXNXNXNXNXZXNXNXNXBXBXBXBXNXNXBXBXBXBXNXNXNXBXBXBXBXBXBXBXBXBXBXBXBXBXBXBXBXBXBXBXBXBXnXCXDXgXFXSXKXLXxX+ w w & & o 7 O . &XJXHXFXFXHXdXnXFXnXmXZXmXmXBXBXBXBXDXBXyXyXyXyXyXyXyXyX9XiXNXDXZXNXBXCXFXBXFXBXrX7XtXiXsXgXsXBXnXBXnXnXmXmXmXmXCXgX8XyXyXyXyXyX7X7XdXBXhXhXMXMXMXhXpX7XyXyXyXyXyXyXyXyXyXrXyXyX9XyXyX7XBXBXCXmXyXyXsXaXaX7XyXdXbXVXHXbXJXAXO.o ; & * & - - 3 % & e o :   g KXSXSXvXKX+X  : %X-X).E.!.I o S -X;X).Q.).I o 1 $ < * * < > < < 1 $ 6 P E.E.(.R.R.P.P.I.P.I.Y.Y.I.U.I.I.P.2.4.J.1.E.1.P.6.I > 6 I 6.2.5.H.2.H.<.4.2.5.,.9 1 < 6 $ P K.1.1.>.H.3.<.3.J.>.Q 3.4.1.' ' <.>.` ` R ` ` P R >.' T R E E E R R R R E E E E R R R R ",
"E R R R E E E E R R R T R ' >.>.T K R ' T ' G.3.' E [ G.1.E T ' 2.2.2.3.<.=.>.2.2.1.<.>.,.4.5.4.0.0.7.-.,.,.,.J.5.4.4.1.6.-.S m S J S m S S A ` Q.K.R.I.J.W.I.I.I.I.T.I.T.T.T.T.W.W.U.I./.(.~.P.~.`.`.~.`.`.].`.~.`.^.'.>X<X,X<X>X,X,X,X<X<X;X-X%XGXSXbXZXMXZXmXBXBXBXBXNXZXZXNXDXBXnXdXyXyXyXyXyXyXyX7XyXyX7XsXCXBXyX7XyXyX9XyXqXqXbXDXmXZXCXnX9XyXyXaXyXyXyXyXyXyXyXyXyXyXyXyXeXuXyXyXyXeXsXMXmXmXmXCXDXDXnXrXyXyXyXyXyXyXyXqXGXLXvX@   z JXKXSXSXNXmXNXNXBXZXZXZXNXBXBXNXmXZXmXZXBXmXmXgXyXrXrXyXyX7XyXyX7XsXBXMXMXMXBXBXZXBXBXBXBXBXBXBXBXBXBXBXBXBXBXBXBXBXNXnXNXSXJXKXw     #XJXKXVXZXCXmXBXZXZXBXBXBXBXBXBXBXBXBXBXBXBXBXBXBXBXBXBXBXBXBXBXBXBXBXBXZXBXBXNXNXBXBXBXBXNXNXNXNXNXNXBXBXBXBXNXNXNXNXBXBXBXBXBXBXBXBXBXBXBXBXBXBXBXBXBXBXBXBXBXBXBXBXBXBXBXBXBXBXCXBXBXBXCXCXNXJX3X+   . . :   +   X V.SXSXZXZXZXBXBXBXBXBXBXBXBXBXBXBXBXNXNX7XyXyX7XyXyXyXyXsXbXBXDXZXCXDXZXZXBXDXnX8X8XyXpXiXgXnXnXnXmXmXmXnXmXMXmXCXnXNXdX7XyXdXeXiX6XpXnXuXMXhXhXhXMXrXsXrXrXuXyXsXeXyXyXyXyXyXyXyXyXyXqXnXBXFXmX9XyXaXyXyXaXyX7XsXDXBXNXFXAXa   + . 8 - 2 * * - & 8 % ;   +.KXLXJXLXLX$X. + 8 8 < < 1 8 o 2 1X1X:X!.^ Z $ 8 - * 1 - < * * 1 3 $ I E.1.Q.I.I.I.I.I.I.I.I.I.T.T.Y.J.J.Y.Y.2.1.P.E.1.4.4.P % 6 K 1.5.1.1.2.3.1.3.>.1.` < 4 3 % o -.5.1.` K 2.<.2.J.G.1.3.3.' ' <.4.3.[ T J >.] T R R R T T ` R R R R R R R R R R R R R R R ",
"E R R R E E E E R E E R E ' ' ' T R ' R Q E [ E Q ' <.[ T E 1.J.1.>.' [ <.1.1.1.H.H.4.4.1.4.4.5.6.0.7.-.,.,.=.2.4.,.=.T ' ` Y I I E P I R Z m ` 5.1.I.W.Y.I.I.W.T.T.T.T.W.T.T.T.I.W.R.I.U./.!./.W.~.~.].].].].^.].`.^.'.>X,X>X,X,X,X,X>X>X>X;X1X$XPXFXbXZXZXZXmXBXBXBXBXNXZXZXmXnXsXdXaXyXyXyXyXyXyXyX7XyXyX7XiXCXCXsX7XaXyXyXgXbXdXNXDXmXNXCXnX9XyXyXyXyXyXyXyXyXyXyXyXyXyXyXyXeXuXyXyXyXeXgXBXCXZXCXCXBXMXgXyXyXyXyXyXyXyXyXqXcXAX=XX . z cXFXBXBXNXmXBXBXBXZXZXZXNXNXBXBXmXZXmXZXnXsXdXiXyXyXyXyXyXyXyXyXrXnXBXMXMXmXBXBXZXNXBXBXBXBXBXBXBXBXBXBXBXBXBXBXBXBXDXBXBXNXSXcXp X @ V.AXDXNXBXMXCXZXZXZXBXBXBXBXBXBXBXBXBXBXBXBXBXBXBXBXBXBXBXBXBXBXBXBXBXZXZXZXZXNXNXBXBXBXBXNXNXBXNXNXBXBXBXBXNXNXNXNXNXBXBXBXBXNXNXBXBXBXBXBXBXBXBXBXBXBXBXBXBXBXBXBXBXBXBXBXBXBXBXCXCXCXCXCXCXVXFXbX&XB.v.}   O.3X3X*XqXFXnXmXZXZXBXBXBXBXBXBXBXBXBXBXBXNXNXNXyXsXdX9XyXyXrXyXmXmXZXDXNXBXZXZXBXZXDXmX8X8XrX9XiXiXgXnXnXnXmXmXBXVXVXVXFXVXVXAXVX5X9X8X7X8XuX6X8XhXgXhXMXCX7X8XyX7XeX7XyXeXsXpXyXyXyXyXyXyXaXyXVXBXDXNXbXVXVXdXyXyXaX9XgXCXMXmXVXFXV.@Xr.O O o % % ; 2 & r 9 9 & i 4X*X$X4X3Xt.X X O O O = O o & 8 _.0.Q.7.e $ - < * 1 1 * * * < $ % % =..XI.Y.T.T.T.I.I.I.I.I.W.T.T.I.J.H.J.I.Y.<.4.R.J.1.1.-.P T -.5.5.1.1.1.3.1.3.>.6.` < 2 2 $ % -.K.5.1.<.1.3.3.1.1.2.H.H.R ` <.>.T P ] ' K K K R ' >.=.' R ' >.>.' R R R R R R R R R R R ",
"E R R R E E E E R E ` E R E E T E E ' ' E E R R ` <.G.[ K Q ' ` H.>.R ' 3.J.H.2.4.1.1.4.5.4.4.6.6.E.6.-.,.,.=.>.=.' T J K K K =.4.1.,.5.1.C 5 =.P.5.I.W.Y.Y.Y.I.T.T.I.I.W.R.T.T.I.W.W.I.Y.I.!..XI.I./.].`.`.].~.`.`.^.'.>X,X>X>X,X,X,X,X,X,X;X:X%XAXKXVXmXnXmXnXBXBXBXBXNXBXBXNXyXyXyXyXyXyXyXyXyXyXyX7XyXiXyXsXBXCXdX7X9X9XyXnXZXVXZXZXnXNXDXmXyXyXyXyXyXyXyXyXyXyXyXyXyXyXyXyXeXuXyXyXyXeXhXBXBXZXCXmXdXyXuXyXyXyXyXyXyXyXyXyXqXSXcX=X5X0XFXVXBXMXMXMXBXBXMXMXZXmXBXBXCXBXBXmXCXZXnXyXyXyXyXyXyXyXyXyXyXyX9XnXBXBXMXmXBXZXZXNXBXBXBXBXBXBXBXBXBXBXBXBXBXBXBXBXmXBXBXNXSXJXqXAX0XSXHXSXNXmXhXBXBXZXBXBXBXBXBXBXBXBXBXBXBXBXBXBXBXBXBXBXBXBXBXBXBXBXBXBXZXZXNXNXNXNXBXBXBXBXNXNXBXBXBXBXBXBXNXNXZXZXNXNXBXBXNXNXNXNXBXBXBXBXBXBXBXBXBXBXBXBXBXBXBXBXBXBXBXBXBXBXCXCXCXCXCXCXBXBXBXbXFXJXLXLX4X  B.KXJXFXFXDXbXZXZXZXBXBXBXBXBXBXBXBXBXBXBXBXNXNXnXBXsXyXyXyXeX7XBXBXZXCXBXBXDXCXZXZXDXZXiX9XyX9XiXiXgXnXnXnXnXmXcXVXcX5X0XcXvXcXcXAXHX7X8X8X8X8X8XMXhXhXDXFXcXqX0XqXnXyXsXyXyXrXyXyXyXyXaXaXaXaXBXCXDXBXBXDXBXdXyXdXdXyXsXBXmXmXiXFXbXJX5X+ O 7 & - ; 3 % 1 1 - % . 7 O . o : . q g g # # g g g = % < o $ % * 1 1 * % < < < 4 < > 5 Z 4 ' ~.R.I.T.T.U.I.I.I.I.I.W.I.Y.I.J.1.H.I.J.1.2.J.H.2.5.P.E.K.5.5.4.1.4.2.2.3.2.1.4.` < 4 3 - % =.4.2.2.J.3.4.<.' >.2.2.4.T [ 1.>.T T >.2.K T T R >.1.>.' T =.1.1.>.R R R R R R R R R R R ",
"E R R R E E E E E ` ` R T T T K ' T T >.<.T K ' ' T ` >.' ' ' E J.1.[ >.1.H.H.2.1.' ' ,.5.5.4.1.6.6.1.-.,.,.>.,.E =.,.=.' P K ' K.5.1.K.1.4 6 -.E.5.H.Y.I.I.W.W.T.T.I.I.R.R.T.U.W.W.U.I.Y.P.!..XT.I./.`.`.].].^.].`.^.(.;X>X:X,X<X<X,X<X<X<X1X%X$XAXJXSXBXNXBXDXBXBXBXBXNXBXBXVXyXyXyXaXyXyXyXyXyXyXyX7XiXnXnXBXBXBXpX8X7X7XrXnXFXZXCXZXnXBXBXmXyXyXyXyXyXyXyXyXyXyXyXyXyXyXyXyXeXuXyXyXyXrXmXCXMXBXCXnX9X7XyXyXyXyXyXyXyXyXyXyX7XdXqXVXDXFXBXnXMXMXMXBXBXBXMXMXMXmXBXBXCXDXBXmXDXDXVXaXyXyXyXyXaXyXaXyXyX7X7XgXCXBXmXNXNXZXZXNXBXBXBXBXBXBXBXBXBXBXBXBXBXBXBXBXnXCXBXCXbXDXDXHXHXFXNXVXDXCXmXBXBXBXBXBXBXBXBXBXBXBXBXBXBXBXBXBXBXBXBXBXBXBXBXBXBXBXBXBXNXZXNXNXBXNXBXBXBXBXBXBXBXBXBXBXBXBXNXNXZXZXZXNXBXBXBXNXNXNXBXBXBXBXBXBXBXBXBXBXBXBXBXBXBXBXBXBXBXBXBXBXCXCXCXCXCXCXBXBXDXnXNXVXbXGX#XX V.cXHXbXNXCXmXZXZXZXBXBXBXBXBXBXBXBXBXBXBXBXNXNXBXDXhXrXyXyX7X7XBXBXZXDXZXZXDXDXDXCXCXZXgXsXpXyXiXsXnXnXnXnXVXnXVXFX5Xz a g } | q.wXxX=XcX8X6X7X6XhXMXDXNXSXKXSXSXKXFXaXVXgXeXuXyXyXyXyXaXaXaXyXNXBXCXCXDXDXNXyXdXyXiXyXsXBXMXBXnXDXNXJX&X    O   & o 3 1 1 9 9 S ; 7 : 8 ; 8 O / b.w.q # g z.#.O ; 1 % < % < < < 1 * * 1 4 1 * % Y ).).R.W.Y.I.T.U.U.U.I.I.I.I.U.I.Y.I.Y.H.J.I.J.Q.I.1.>.1.2.J.E.5.4.4.1.4.H.5.2.3.2.1.5.=.5 4 2 - % =.5.1.3.H.H.J.>.` 3.3.<.3.' =.>.` T ] >.<.' =.` P ` >.=.T T ' >.<.=.R T R R R R R R R R R ",
"E R R R E E E E E ` E T T E ` ` ` T T [ <.T K ' 3.E ' 3.>.' ' ' 2.2.1.<.>.<.1.2.1.' R >.4.4.4.4.E.E.1.=.=.=.' =.,.5.E.K.J.,.T =.5.5.6.K.1.4 < -.Q.5.2.Y.Y.J.J.Y.I.I.I.I.U.U.U.U.W.U.U.W.Q.W.W.!.W.W.~.^.~.~.^.].^.(.~.'.;X>X;X<X;X>X-X;X-X-X2X4X$XvXSXVXVXnXNXCXBXNXBXBXNXBXBXmXyXyXyXaXyXyXyXyXyXrXyX7XpXMXBXCXBXBXpX7XrXrXrXmXDXZXZXBXmXBXBXmXrXyXyXyXyXyXaXaXyXyXyXyXyXyXyXyXyXuXyXuXrXyXnXDXBXBXCXmXyX9XyXyXyXyXyXyXyXyXyXyXyXyX7XcX8XaXBXFXMXMXMXMXMXMXMXMXmXNXBXZXBXDXBXnXmXVXcXaXaXyXyXyXaXyXaXyXyXyXyXnXCXZXBXNXNXZXZXNXBXBXBXBXBXBXBXBXBXBXBXBXBXBXBXBXBXBXmXDXZXDXDXbXVXZXNXZXZXmXhXMXBXBXBXBXBXBXBXBXBXBXBXBXBXBXBXBXBXBXBXBXBXBXBXBXNXNXNXNXNXNXNXNXBXBXBXBXBXBXBXBXBXBXBXBXBXBXBXNXZXZXNXNXBXBXBXBXBXBXBXBXBXBXBXBXBXNXNXNXNXNXNXNXBXBXBXBXBXBXBXBXBXBXCXCXCXCXBXBXmXBXZXNXSXHXFX0XqXDXZXgXZXCXmXMXBXBXBXBXBXBXBXBXBXBXBXBXBXBXBXBXDXDXsX7XrXrXeXrXmXhXMXCXZXZXZXZXCXCXZXNXmXmXgXiXyXdXnXnXnXnXVXVXbXHXcX .w X   X   p w | xXaXyX8X8XMXFXbX*.a w + + a a p =XnXeXsXuXtXyXyXyXyXyXyXdXsXsXnXCXDXmXyXdXyXdXsXnXCXMXCXZXNXbXFX=X$.&.q.8.t.: ; 9 * * 1 < * ; : r 8 8 = ~ w.w.q X g #.#.= , 1 1 0 * 8 * $ 9 1 * 1 * % 9 $ A Q.'.Q.I.Y.U.U.U.U.I.I.I.I.I.I.U.U.I.U.U.I.Y.4.Q.I.1.2.5.1.1.1.,.4.5.4.4.H.2.2.1.5.1.5.=.5 4 3 - % -.K.5.2.3.H.J.1.<.2.<.' 3.2.1.[ ` ' ' ' ' 1.>.P S K ' ' R T R ' ' ` R R ` R R R R R R R R ",
"E E R R E E E E E E R T E [ <.<.T R E E ' >.>.' T E 2.J.' E >.>.<.2.2.1.>.>.1.H.2.1.,.1.2.1.4.5.K.5.7.=.-.,.,.1.>.2.4.1.1.>.T =.4.P.J.K.4.m 5 =.Q.I.P.Q.I.3.1.J.I.I.I.I.U.U.U.U.R.I.U.~.`.~.U.Y./.~.~.W./.~.^.`.^.^.^..X>X>X:X<X>X<X<X<X-X1XxXIXxXKXKXSXFXDXnXmXBXNXBXBXNXBXBXmXyXyXyXyXyXyXaXaXyXyXyX7XuXBXBXMXnXhXrX8XrX9X9XhXMXMXMXMXmXBXBXmXyXyXyXyXyXyXaXaXyXyXyXyXyXyXyXyXyXyXyXuXrXrXnXCXBXmXCXmXyXrXpXyXyXyXyXyXyXyXyXyX8X9XyXBX7XsXMXMXMXMXMXMXMXMXMXMXNXmXZXZXBXCXBXsXeXaXaXyXaXyXyXyXaXyXaXyXiXnXnXBXZXZXBXBXNXZXZXBXBXBXBXBXBXBXBXBXBXBXBXBXBXBXBXBXCXBXhXBXNXZXDXnXZXDXZXmXBXCXCXFXBXBXBXBXBXBXBXBXBXBXBXBXBXBXBXBXBXBXBXBXBXBXBXBXNXNXNXNXNXNXNXNXBXBXBXBXBXBXBXBXBXBXBXBXBXBXBXNXZXZXNXNXBXBXBXBXBXBXBXBXBXBXBXBXBXBXNXNXBXNXNXNXBXBXBXBXBXBXBXBXBXBXBXCXCXBXBXBXBXCXnXnXDXVXNXFXFXFXZXmXCXCXMXMXBXBXBXBXBXBXBXBXCXBXBXBXBXBXBXBXCXCXsX7XrXtXrXrXtXrXgXBXCXCXCXCXZXCXZXBXBXBXgXsXeXaXsXnXVXVXmXVXbXSXKXvXvX+X+ y 7 +   w O. .5X8X=XaXKXSX|   : + : X .   =XFXeX7XuXtXyXrXyXyXyXyXyXyX7XdXCXFXmXyXiX9XgXmXMXCXMXmXBXZXbXFXDXNXJXKXLXAXy o 2 1 9 3 3 3 ; = ; * * O q g g 7 O q g q 0 1 $ * * * 9 < * 9 1 < 4 $ C ).(.!.(.~.Y.P.Y.W.U.U.U.I.I.I.I.I.P.I.I.Y.I.I.I.J.1.5.2.2.R.R.2.1.,.2.K.P.J.4.2.1.1.1.2.1.5.=.5 9 4 - % -.P.5.<.[ >.2.4.2.3.` ] 2.>.<.<.1.1.' K K 5.1.P V K ` ' ` ` R R R R ` ' ' R R R R R R R R ",
"E R R R E E E E R E E R ` >.<.1.T R ' E E 2.J.>.T ' J.J.E Q R Q 1.1.<.>.>.3.H.H.G.G.H.4.2.2.2.4.E.E.6.,.-.=.' ' >.=.=.E >.>.R =.4.K.4.4.1.V < =.E.P.J.W.I.1.H.I.I.I.I.I.U.U.U.U.U.I.U./.^.~.R.Y.~.'./.I./.^.~.`.^.`.(.XX>X>X-X,X<X<X<X<X1X2XPXLXPXLXJXKXJXFXDXFXNXNXBXBXmXBXBXmXyXyXyXyXyXyXyXyXfXyXyX7XyXMXMXhXrXtXeX8XrX8X7XhXZXmXmXmXmXZXCXmX9XrXyXyXyXyXyXyXyXyXyXyXyXyXyXyXyXyXyXyX7XrXMXCXMXmXCXmXrX9XyX7XyXyXyXyXyXyXyXyXsXtXrXyXyXmXCXMXMXMXMXMXMXMXBXBXBXmXBXCXmXBXBXpX7XyXaXqXaXyXyXeXyXyXyX9XiXCXCXBXZXBXBXBXBXBXBXBXBXBXBXBXBXBXBXBXBXBXBXBXBXBXBXBXmXBXCXDXZXmXZXmXmXmXnXmXCXCXmXhXBXBXBXBXBXBXBXBXBXBXBXBXBXBXBXBXBXBXBXBXBXBXBXBXBXBXBXBXNXNXZXZXBXBXBXBXBXBXBXNXNXNXBXBXBXBXBXBXZXNXNXNXBXBXBXBXBXBXBXBXBXBXBXBXBXBXBXBXBXBXBXBXBXBXBXBXZXZXZXBXNXNXBXBXBXBXBXBXCXCXnXZXFXZXNXDXNXnXnXMXMXmXMXCXBXBXBXBXBXBXBXBXCXBXBXBXNXNXBXBXBXBXsX9XyXuXrXrXrX7XiXMXCXCXDXDXZXCXBXnXBXmXgXgXyXdXnXVXVXVXVXVXFXbXAXSXLX$X. O ; % & :   X 3XHXSXHXLXPXO.o t 8 8 + + @ &XSXyXsXuXtXrXrXrXyXyXyXiXyXrXiXBXDXmXiXsXyXhXmXMXCXmXmXCXCXhXnXNXNXFXSXLXxX+ . 7 o ; 3 1 3 = ; ; - 3 2 O O O O ; 7 = = = , < 1 1 * % o % % % % $ % S -X.X(.'.~.U.U.I.T.U.U.U.I.I.I.I.I.Y.I.I.Y.J.H.J.Y.I.J.2.J.R.Y.1.1.4.H.K.K.5.4.4.2.1.<.3.<.5.=.3 C 9 < % -.K.2.>.' <.2.H.2.[ ` [ 3.Q ` =.1.<.P S J 1.,.L J L ' ` ` R R R R R ` R R R R R R R R R R ",
"E R R R E E E E E E E T R ' [ >.' T E E T >.2.[ T K ` <.' [ 2.<.2.>.R T >.G.G.<.G.G.2.2.4.5.1.>.I ` ` =.,.1.1.1.H.2.,.,.J.K.1.2.5.4.=.=.=.m < -.!.I.4.I.Y.<.1.J.I.I.I.I.U.U.U.U.W.U.U.U.R.Q.W.R.^.XXW.J.~..X^.`.`. X(.XX,X;X-X;X.X-X.X-X(.%XlXUX3XxXxXxXxXxXcXSXNXNXBXBXMXMXMXmXyXyXdXdXyXyXyXyXfXyXuX7XyXCXBXhX8XrXrXrXtX9X9XmXZXZXmXmXmXZXZXNX9X9XyXyXyXyXyXyXyXyXyXyXyXyXyXyXyXyXyXyX7X9XmXBXCXMXDXBXyX9XdXyXyXyXyXyXyXyXyXyX7XtXuX7XsXmXMXMXMXMXMXmXmXMXMXZXBXmXCXCXmXBXMXyXyXuXyXfXyXyXyXyXyXyXiX7XiXCXCXmXZXZXBXBXBXBXZXBXBXBXBXBXBXBXBXBXBXBXBXBXBXBXBXBXDXBXBXmXmXmXZXCXBXCXCXZXBXMXBXDXBXBXBXBXBXBXBXBXBXBXBXBXBXBXBXBXBXBXBXBXBXBXBXBXBXBXBXBXNXZXZXZXNXBXBXBXBXBXBXNXNXNXNXBXBXBXBXBXZXNXNXNXBXBXBXBXBXBXBXBXBXBXBXBXBXBXBXBXBXBXBXBXBXBXBXBXZXZXBXBXZXNXBXBXBXBXBXBXmXCXCXBXmXmXDXmXDXZXMXCXMXmXMXMXBXBXBXBXZXZXBXBXCXCXBXBXBXNXBXBXBXBXsX9XyXuXrXrXgXtXgXMXCXZXCXZXDXDXNXgXnXnXgXmXcXVXVXVXmXVXnXbXVXSXFXAXLX$X. O : - 8 : + X O.e.e.v.r.%Xu o D ; & ~ +XB.5XBXeXpXuXyXyXyXyXyXyXyXyXpXiXsXBXDXBXmXmXpXgXmXhXMXMXZXnXCXmXZXDXmXNXNXSXKX@X*X+X: & 8 2 8 ; 8 2 - ; ; : = = - , * = ; 1 9 < * * < 1 U A Z S A J S I -X(.`.'./.U.U.I.I.U.U.U.U.I.I.U.I.W.T.T.U.J.3.5.R.W.U.J.J.5.2.5.Y.4.2.4.1.2.4.J.H.1.<.3.<.5.-.4 C 4 < $ -.P.5.2.2.J.J.J.3.>.<.G.1.<.>.>.1.>.R T >.T T J S T ' R R T R R ` ` R T T R R R R R R R R ",
"E E E E E E E E T ` E R E E T T <.3.[ T T T T ' 1.E E Q ` 2.1.1.2.>.T R <.2.2.J.1.G.2.2.1.2.2.P % % I 1.-.4.2.2.2.2.H.2.H.R.I.I.I.,.5 6 m m 5 ' !.Y.H.J.I.W.W.Y.I.I.I.I.U.U.U.U.W.U.I.P.P.U.~.XX/.!. X.X^.`..X^. X^.(.-X<X,X% o % o o o % o o . o o o . O   i JXSXnXZXmXpXMXCXsXiX7XyXiXiXyXyXyXdXyXsXyXyXMXMXgX8XtX8X8XyX9X8XaXNXNXNXnXbXbXbXbX8XqX0XqXdX9X7XyXyXyXyXyXyXyXyXyXrXyXyXyX8X7XBXDXCXMXCXmXyXrXrXyXyXyXyXyXyXyXyXyXpX7XpXyX9XsXmXBXZXZXMXMXmXmXBXBXCXgXnXMXZXCXMXtXeXyXeXuXyXeXyXyXyXyXsX7XmXMXDXBXDXNXmXnXDXmXCXmXBXBXBXBXBXBXBXBXBXBXBXBXBXBXBXBXBXBXBXBXBXBXBXBXBXBXBXBXBXBXBXBXBXBXBXZXZXBXBXBXBXBXBXBXBXBXBXBXBXBXBXBXBXBXBXBXBXBXBXBXNXNXZXZXNXNXBXBXBXBXBXNXBXBXBXBXBXBXNXBXNXNXNXNXBXBXBXBXBXBXBXBXBXBXBXBXBXBXBXBXNXNXBXBXBXBXBXBXBXBXBXBXNXNXNXNXNXBXBXCXBXBXBXBXBXCXCXCXCXCXCXCXBXBXBXBXBXBXBXBXZXBXBXBXZXZXZXZXZXZXZXZXCXBXBXDXBXpXeXrXhXMXMXhXMXhXhXnXBXnXgXyXdXiXyXNXBXNXVXmXVXVXVXnXNXSXSXSXSXSXAXAXy o 2 & : o o   .   o . & : O w   | KXLXVXaX8XpXyXyXyXyXyXyXyXyXpXsXyXdXCXCXmXBXCXgX9X9XgXZXZXmXZXZXZXZXZXZXZXSXSXHXFXLXxXO + 7 & t : O & 2 8 % 8 : = ; 1 1 1 9 1 * * % 3 % 6.<X-X-X-X-X-X-X-X.X.X/.W. X~.I.R.I.I.I.U.U.U.U.R.R.I.W.U.I.I.R.U.I.1.I.P.5.2.1.2.I.J.Y.2.H.1.1.R.H.1.2.1.1.J.=.4 9 4 < $ -.P.5.1.G.J.' ` 2.J.[ T [ 1.J.' S P 5.5.-.P K S V L ,.1.' K ' >.>.=.R T ' R R R R R R R R ",
"E E E E E E E E E ' ` R E E E ' [ [ ' [ [ E Q E 1.E R E ' <.[ >.<.<.[ >.3.<.>.<.3.G.2.5.1.4.5.T $ $ ` 1.,.4.1.1.4.2.2.1.H.R.K.K.1.>.m 5 5 m 5 L !.Y.J.Y.Y.J.Y.Y.I.I.I.I.U.U.U.U.R.R.R.I.U.R./.!./.!.^.^.~.^. X^.(.(. X;X>X.X6 % o o - o * < 3 8 - 2 8 2 ; o ..LXHXFXnXmXCXMXhXgX8X7XiXiXyXdXsXyXdXqXyXyXsXDXCXpX8XrXrXsXNXVXSXKXJXJXHXHXHXHXHXHXHXHXKXKXNXbXNXyXyXyXyXyXyXyXyXyXrXyXyXpXyXiXBXCXCXmXBXnXrXyXyXyXyXyXyXyXyXyXyXyXyXyXmXBXnXBXBXNXZXZXNXZXmXmXZXZXCXBXCXCXmXmXMXpXuXsXyXeX7X7XyXdXyXrXiX9XmXBXCXnXNXVXDXBXDXmXCXCXBXBXBXBXBXBXBXBXBXBXBXBXBXBXBXBXBXBXBXBXBXBXBXBXBXBXBXBXBXBXBXBXBXBXZXZXBXBXBXBXBXBXBXBXBXBXBXBXBXBXBXBXBXBXBXBXBXBXBXBXNXNXZXZXNXNXBXBXBXBXNXNXNXNXBXBXBXBXNXNXZXNXNXNXBXBXBXBXBXBXBXBXBXBXBXBXBXBXBXBXNXNXBXBXBXBXBXBXBXBXBXBXZXZXZXZXBXBXBXBXCXDXCXCXCXCXCXCXCXCXCXCXBXBXBXBXBXBXBXBXBXBXBXBXNXNXBXNXNXNXNXNXBXBXBXCXBXpX8XrXhXMXmXMXCXMXmXCXmXnXgXiXiXiXyXBXBXBXNXNXNXNXNXNXBXDXDXDXSXSXSXFXp   .   ; - 8 2 & y H : : +   .   g wXcXcXnXyXyXyXyXyXaXaXyXyXyXyXpX9XiXCXCXmXMXCXhXtXiXhXZXZXmXZXZXZXBXZXZXZXZXNXFXSXFX5X@ .   . o . : + . o % 8 = ; ; * ; 1 $ % % < % $ % -.).).(.(.(.(.(.(.(..XW.U.^.~.I.U.I.I.I.U.U.U.U.R.R.I.R.U.I.I.U.I.P.5.J.2.1.P.P.5.5.2.J.2.K.J.1.K.2.2.2.1.1.K.-.m C 4 < $ >.P.H.3.G.G.>.' 1.H.>.R ' 1.3.' P ' ,.-.=.J L K S K ,.<.L T ' ' ' =.' T R R R R R R R R R ",
"E E E E E E E E ` ' ` T T T E ' R T ' 1.<.E T T [ R [ 3.1.>.E E >.3.G.2.3.[ ' [ 1.2.2.4.2.2.5.T 6 6 ' 4.>.1.,.,.>.R T T >.4.1.,.H.P.,.-.=.,.=.J.Q.Y.I.W.Y.3.2.Y.I.I.U.U.U.U.U.U.R.U.R.!.~./.I.P.!.^./.W.~.^.^. X^.(.(.,X<X<XE.E.E._.0.4 1 9 e 1 3 1 4 3 2 & y _.e.bXNXnXMXhXhXhXMXDXmXdX9XyXsXyXcXcXcX0XqXBXCXhX8X8X8XqX=X&. .&.@.@.@.O.O.&.&.&.@.&.w.w.#.V.VXqXyXyXyXyXyXyXyXyXrXyXyXnXmXnXCXBXBXmXBXgX7XyXyXeXyXyXyXyXyXyXyXyXqXyXBXDXCXDXNXnXZXZXZXZXZXZXBXBXBXmXmXZXnXZXNXqX8X7XyXrXyXyXyXMXmXpXsXyXcXNXFXFXSXVXDXNXDXMXBXBXBXBXBXBXBXBXBXBXBXBXBXBXBXBXBXBXBXBXBXBXBXBXBXBXCXBXBXBXBXBXBXBXBXBXBXBXBXBXBXBXBXBXBXBXBXBXBXBXBXBXBXBXBXBXBXBXBXBXNXNXNXNXNXZXNXBXBXBXBXBXNXNXNXNXNXBXBXBXBXNXZXZXNXNXBXBXBXBXBXBXBXBXBXBXBXBXBXBXBXBXNXBXBXBXBXBXBXBXBXBXBXBXZXZXNXNXNXBXBXBXNXNXBXBXBXZXZXZXBXBXCXBXCXCXCXBXBXBXCXBXZXBXBXBXCXCXZXZXDXDXZXZXBXNXBXBXBXpX7XrXsXpXgXMXDXCXZXFXnXnXnXiXdXaXyXBXBXBXBXBXNXBXBXBXBXBXBXNXNXNXNXSXV.e.r.w O - 1 Z Y 2 ; O t.xXAXAXxXwXbXaXaXnXBXBXyXyXyXyXyXyXyXyXyXyX7XyXCXCXMXBXCXmXgXgXmXZXZXmXMXZXBXBXDXDXZXZXDXFXZXDXFX3XxXxXxX3X3XxX+X: + 8 : & & ; - - 2 4 % A (..X-X!..X X(.(.^.^.(.(.(.^..X/.W.~./.I.R.U.I.I.U.U.U.I.U.U.U.R.I.I.I.Y.P.H.I.P.4.5.E.Q.5.,.2.H.1.K.5.1.J.2.4.4.2.1.J.-.M C 9 < $ >.K.2.1.2.` <.2.1.<.[ <.H.3.<.=.=.' J S P P K J J K T ' =.>.=.' =.,.,.' T R R R R R R R R ",
"E E E E E E E E E ` E R R T T ' T K ' 1.>.' ' E Q T 3.K.1.` T Q <.1.G.2.1.<.<.<.<.3.1.2.1.2.2.T 6 6 -.4.-.1.,.,.>.T P Q >.H.1.1.H.W.P.Q.R.R.J.R.R.J.Y./.I.3.3.Y.I.U.U.U.U.U.U.U.R.P.R.`.'.Q.P.P.^.`.~./.^. X^..X X X^.>X>X<X<X<X<X2X:XS % * 3 < C 1 1 1 2 & o +   xXJXBXpXhXCXhX8XnXbXVXNXdXdXdX8XNXFXNXcXDXnXpX8X9XaXSX&XX .   . . .   . . . . O   X . . &.FXVXyXyXyXyXyXyXyXyXrXrXyXmXCXBXCXNXCXmXCXnX7XyXyXeXyXyXyXyXyXyXyXyXyXqXmXCXBXZXNXVXZXZXZXZXZXMXBXBXCXmXnXDXSXHXFXaXbXyXdX8XyXyX7XnXsXcXVXFXFXHXFXSXHXDXDXgXBXMXCXmXBXBXBXBXBXBXBXBXBXBXBXBXBXBXBXBXBXBXBXBXBXBXBXBXCXBXBXBXBXBXBXBXBXBXBXBXBXBXBXBXBXBXBXBXBXBXBXBXBXBXBXBXBXBXBXBXBXNXNXNXNXNXNXNXBXBXBXBXBXBXNXNXNXNXNXBXBXBXBXNXZXZXNXNXNXBXBXBXBXBXBXBXBXBXBXBXBXBXBXBXBXBXBXBXBXBXZXZXZXBXBXBXNXNXNXNXBXBXBXBXNXNXNXBXBXBXBXBXZXBXCXCXCXCXCXCXBXCXCXBXBXBXBXBXBXBXZXZXBXBXZXZXBXBXBXBXMXpX8X8XrX8XrXmXCXCXBXDXmXnXnXsXdXaXaXBXBXZXBXBXCXBXBXZXBXNXmXmXnXnXnXnXFXHXvXa   & & S 8 o O . r.KXJXFXJXSXaX8XyXmXFXDXyXyXyXyXyXyXyXyXyXyXyXpXBXBXmXCXMXmXnXmXmXZXZXmXZXZXBXBXDXDXDXZXZXZXZXNXHXSXJXLXJXHXJXLX+X@     & 2 ; 2 e - o - o U 2X2X<X<X<X-XXX.X(.(. X X X`. X`.^.~.R.U./.Q.I.U.U.U.I.I.U.U.U.U.I.I.P.J.5.2.5.5.4.4.I.R.P.K.5.J.1.4.1.1.J.5.2.3.1.1.4.-.C C C < 6 ,.K.2.3.2.` 3.2.<.>.>.1.J.` ' =.1.` m m ` 5.' S m V J T ' R R T R =.=.R L R R R R R R R R ",
"E E E E E E E E R E E ' ' E T E E T E ' ' <.<.E T R >.<.' ` ' T >.[ <.3.2.2.2.2.1.3.1.2.1.2.4.T 6 $ -.1.,.4.,.,.,.T P T ,.K.J.J.1.2.,.J.4.4.>.4.K.2.J.W.U.4.4.Y.U.U.U.U.U.U.U.R.U.I.R././.W.R./.^. X^.~. X.X`..X.X.X(.>X>X-X;X-X-X:X<X6.Z % 1 Z 8 3 2 : & : & : + 3XcXFXnXhXMXtXyXFXqX8XNXbXaXdXcXHXcXwXcXHXBXiX8XiXqXSX*X7 O 7 2 2 8 8 8 2 ; : 7 . 7 p # e.VXqXyXyXyXyXyXyXyXyXyXrX7XnXDXCXCXBXCXmXDXmX7XeXyXyXyXyXyXyXyXyXyXyXyXyXmXCXBXZXZXZXNXNXNXmXMXMXBXBXmXBXFXHX0XcXAXvXxX5XcX8X7X9X7XnXFXSXwXvXAXKXKXKXvXSXHXDXCXZXBXmXBXBXBXBXBXBXBXBXBXBXBXBXBXBXBXBXZXZXBXBXBXBXBXBXBXBXBXBXBXBXBXBXZXZXZXBXBXBXBXBXBXBXBXBXBXBXBXBXBXBXBXBXBXBXBXBXBXBXBXNXNXNXNXNXBXBXBXBXBXBXBXBXBXBXBXBXBXBXBXBXZXZXZXZXNXNXNXBXBXBXBXBXBXBXBXBXBXBXBXBXBXBXBXBXBXBXBXBXBXBXBXBXBXBXZXZXZXZXBXBXDXDXDXZXZXZXBXBXZXBXCXSXDXCXCXCXCXBXBXMXBXBXBXBXZXZXDXDXSXZXZXDXZXZXBXBXmXpX7X7X9X8XyXMXDXCXBXCXNXnXnXsXdXdXaXNXBXBXZXZXBXBXBXBXBXZXZXZXMXMXmXmX9XNXbX*.w.t.: & . ..wXxXcXSXbXbXDXSXaXdXcXnXMXgXyXyXyXyXyXyXyXyXyXyXyXdXhXgXhXCXMXMXmXmXBXBXNXNXBXBXBXBXDXDXZXZXNXNXDXNXFXCXVXVXbXgXNXSX&X .O.p o 2 ; % $ 1 1 4 o K <X<X-X<X<X-X;X.X(.(. X`.].^. X X X/.R.!.~.R.I.U.U.U.I.I.I.I.I.I.I.I.P.K.5.4.P.I.K.5.5.K.P.E.H.Y.4.,.,.4.J.5.2.3.3.1.4.=.Z S C < 6 ,.K.2.2.2.H.1.[ <.4.2.[ ` <.<.1.2.' V 4 K -.I J 5 V ` [ K L Q R R R R R R R R R R R R R R ",
"E E E E E E E E R E ` >.1.[ R R >.' T Q ` 3.1.E 2.[ E E T >.H.<.` T ' 2.G.3.3.3.2.G.2.2.1.4.5.` 6 6 -.4.,.4.4.4.-.P P T >.J.J.K.H.2.>.2.,.5.4.P.J.3.H.U.U.Y.Y.I.U.U.U.U.U.U.R.R.P.R.R.Y.Y.W.^.!.^.(.(.^.`. X`.`.(.`.(.>X,X;X,X-X<X-X2X2X.XY * 4 1 - : : O & ; ; O X a wXDXmXmXpXiXVX$.p =XcXdXaXcX0Xc a b.DXDXhX8XiXB.q.| o : ; ; ; 1 1 ; - - & O 7 @XvXwX0XBXdXyXyXyXyXyXyXyXyXyXyX7XgXCXZXZXBXCXhXCXmX7X7XyXyXyXyXyXyXyXyXyXyXyX7XmXCXZXZXNXZXNXNXNXMXMXBXBXBXBXBXFXwXp X + + @ z 0XyXyX7X8XVXSX5Xa a w p p p a b.VXNXNXmXBXCXBXBXBXBXBXBXBXBXBXBXBXBXBXBXBXBXZXZXBXBXBXBXBXBXBXBXBXBXBXBXBXBXZXZXBXBXBXBXBXBXBXBXBXBXBXBXBXBXBXBXBXBXBXBXBXBXBXBXBXBXZXNXNXNXBXBXBXBXBXBXBXBXBXBXBXBXBXBXBXBXZXZXNXNXNXNXNXNXBXBXBXBXBXBXBXBXBXBXBXBXBXBXBXBXBXBXBXBXBXBXBXBXBXBXBXBXNXNXVXVXVXNXNXNXNXZXZXZXZXZXCXSXDXDXCXCXBXCXMXMXMXBXZXZXDXDXDXDXZXZXZXBXVXNXmXNXBXnXgXhXyXrXsXBXDXCXDXDXBXnXnXsXaXdXyXnXnXmXBXZXBXNXNXNXmXNXZXZXCXBXBXZXiXqXZXSXJX5X+     O.AXJXFXNXbXZXDXDX9X9X7XyXsXsXyXyXyXyXyXyXyXyXyXyXyXyXiXyXpXCXMXMXBXBXBXmXNXNXBXBXBXBXZXZXZXZXFXZXDXNXNXCXBXCXDXZXmXFXFXKXKX$XO O - 2 ; - 2 Z S 6.<X2X<X<X;X-X>XXX(.^.`.^.^.^. X^.~.R./.(./.P.U.U.U.U.I.I.I.I.Y.Y.I.R.R.P.J.5.Q.E.P.4.,.1.5.K.H.Y.J.1.2.5.J.5.2.3.2.2.5.-.S F C < 6 ,.K.G.G.G.H.1.>.3.H.<.T K Y.J.1.>.' S 6 5 6 4 V S T 1.>.T T R =.=.R R ' ' R R R R R R R R ",
"E E E E E E E E E E ` <.G.<.E T >.<.[ E ` [ ' ' H.[ E [ ' <.Y.2.' T [ J.3.` ' 1.2.H.2.2.1.5.5.` 6 6 -.4.,.5.4.1.,.R T T -.5.J.R.2.G.,.1.,.P.E.Q.J.5.J.Y.Y.I.U.I.U.U.U.U.U.R.R.R.I.R.W.U.U./.!.!.~.^.`.`.^.]. X`.`.^.(.-X>X>X;X,X,X-X;X2X2X7.* - 3 - & ; ; ; ; * r   @ 0XFXCXhXsXsXVXa   =XKXcXqXFXbXp   @.SXnXiX8XdXz . O o ; & ; ; ; ; - - & &   + =XJXBXsXrXrXyXyXyXyXyXyXyXyXyXyX7XhXCXBXZXCXBXiXnXnX7XeXyXyXyXyXyXyXyXyXyXyXrX7XhXCXZXMXmXNXNXNXBXBXMXBXBXBXBXBXHXcXp   O O   p AXSXdX7X8XaXKXxXX @ + O O .   *.FXHXDXZXNXNXBXBXBXBXBXBXBXBXBXBXBXBXBXBXBXBXBXBXZXZXZXZXBXBXBXBXBXZXBXBXBXBXBXZXBXBXBXBXBXBXBXBXBXBXBXBXBXBXBXBXBXBXBXBXBXBXBXBXBXBXZXZXNXNXBXBXBXBXNXNXBXBXBXBXNXNXBXBXBXBXNXNXNXNXBXNXBXBXBXBXBXBXBXBXBXBXBXBXBXBXBXBXBXBXBXBXBXBXBXBXBXBXNXNXNXBXNXNXNXNXVXNXNXNXNXZXZXZXZXDXDXDXCXCXCXBXBXBXMXMXMXBXZXDXNXNXNXNXNXNXNXNXVXNXNXNXCXCXBXCXiXyXdXnXnXNXDXDXBXsXsXdXyXdXyXsXyXsXmXBXBXBXBXBXmXmXNXNXmXNXBXZXZX9XiXbXDX0Xb.@X3X3XSXbXbXZXZXNXDXCXpXyX7XuX9XyXyXyXyXyXyXyXaXaXyXyXyXyXyXrXsXCXMXMXBXmXNXBXZXZXBXBXBXBXZXZXZXSXSXSXDXFXDXDXCXCXMXmXiXNXbXSXSXB.  O o o ; o o Z 2X<X<X:X-X,X<XlX<XXX^.^.'.`.`.'.`.!.!.!.~.~.P.I.I.R.U.U.I.I.I.I.I.P.E.R.I.J.1.1.,.>.-.=.=.,.5.K.J.H.4.4.5.4.2.Y.2.1.2.2.4.-.F U C < 6 ,.J.G.J.G.<.2.2.1.<.[ ' <.<.<.=.' =.J 5 $ $ < J ' =.R T T T T R ` T T R R R R R R R R R R ",
"E E E E E E E E E R E <.G.<.E T ' 2.2.<.` K Q >.[ R ' G.<.' G.<.<.' 1.K.>.K T 2.2.H.2.2.1.2.4.R 6 6 R 4.,.4.,.,.-.R R T =.1.5.R.>.3.,.,.' J.K.J.P.P.Y.H.4.I.W.U.U.U.U.U.R.R.R.R.R.P.R.'.'./.U./.~.~..X.X~.^..X(..X`..X-X<X,X;X,X;X<X<X-X<X6.; e - & & 2 2 * , 1 % + | xX0XnXBXgXbXHXp . wXLXvXSXKXKXz   q.KXSXnXdXHX|   r - 3 % ; ; - - & & : + |  .=X0X7XgXeXiXyXyXyXyXyXyXyXyXyXyXrXnXDXNXZXDXMX7XpXgXeXyXyXyXyXyXyXyXyXyXyXyXyXeXmXCXMXZXZXCXNXBXBXBXBXBXBXBXDXsXFXSX| p p + 7 a &X@X&X8XqXAXJXvXO 7 u 7 u p a V.HXSXbXNXZXNXBXBXBXBXBXBXBXBXBXBXBXBXBXBXBXBXBXBXBXZXZXZXBXBXBXZXZXBXBXBXBXBXBXBXBXBXBXBXBXBXBXBXBXBXBXBXBXBXBXBXBXBXBXBXBXBXBXBXBXBXZXZXNXNXBXBXNXNXNXNXBXBXBXBXBXNXBXBXBXBXNXNXNXNXBXBXBXBXBXBXBXBXBXBXBXBXBXBXBXBXBXBXBXBXBXBXBXBXBXBXBXBXNXCXDXFXFXFXHXHXHXHXHXFXFXDXZXNXSXSXDXSXSXCXCXBXBXMXMXMXBXBXFXFXHXHXHXHXJXHXHXHXFXFXDXCXCXMXmXMXrX7XyXyXyXsXBXBXBXsXdXyXyXaXyXyX7XyXnXBXBXBXBXBXZXZXBXmXnXmXBXBXnXbXDXgXdXCXcXFXHXbXFXgXgXCXZXmXBXMXrXrXrXhX7XyXyXyXyXyXyXaXaXaXdXyXyXyXyXyXhXDXZXZXmXmXNXZXZXCXBXBXBXBXZXZXSXSXNXSXSXNXNXBXBXMXmXDXCXFXbXNXHXwX#XxXt.. ; D D 0.lX<X-X;X<X<X-X>X<XXX^.^.`.`.`.'.(.R.^.(.).R.J.!.I.U.U.U.I.I.I.I.Q.E.E.E.K.1.=.' ' =.-.,.,.5.E.E.P.2.1.5.J.1.1.I.1.>.1.2.1.-.A U C > $ ,.J.H.J.G.2.J.H.>.' >.1.J.' >.,.,.-.K 5 $ $ S I ` P L T ' >.` ` ' R ` ' T R R R R R R R R ",
"E E E E E E E E E R ` ` T E ' R T E ' T Q 1.1.K T ` <.1.<.' R T 2.J.1.1.1.1.2.1.1.2.2.2.2.H.2.=.$ Z M 5 m 5 m ,.4.,.T P =.1.1.4.H.2.2.2.H.J.H.I.I.J.J.I.I.T.W.W.U.U.U.U.U.U.U.U.Q.I.Q.'.^.Q.W.!. X^.^. X X X`. X X^.XX>X>X>X;X<X,X>X>X<X%X2XLX3Xo & % % 8 * 4 * - o 2   p vXcXdXAXKXi X p w y w w 7 7   @.LXSX5Xg g + & & 1 1 - 1 * 1 - ; 7   v.JXAXaXyXiXtXrXtXyXyXyXyXyXyXyXyXrXyXyXBXCXnXZXZXBXeX7X7X7XaXyXeXuX7XuXyX7XyX7XyXyX9XMXCXMXMXZXZXBXBXBXBXBXMXBXBXFXNXBXCXSXJX3X. 7 : . . i 3XwX5XUX_.7 7 u O +XLXKXHXDXNXZXBXNXDXBXBXBXBXBXCXBXBXCXBXZXDXZXNXNXZXBXBXBXBXBXBXMXMXZXCXZXBXCXCXNXZXmXBXBXNXNXZXZXNXBXBXBXBXBXBXBXBXBXBXBXBXBXBXBXBXBXBXBXBXBXBXBXBXNXNXNXBXBXBXBXNXNXNXBXBXBXBXNXNXNXNXZXZXZXZXZXNXZXZXZXZXBXZXBXBXBXBXBXZXBXBXBXBXBXBXBXBXBXBXBXBXVXDXFX=XwXwX=X3X*X3X3X=X#XKXVXSXFXVXFXSXHXSXVXBXMXDXgXCXnXFX=X#X3X3X3X3X3X5X3X5XwX=XHXNXhXCXMXBXsX9XyXyXyXsXBXDXDXsXyXyXdXiXyXdXyX9XnXCXBXBXBXBXBXBXBXBXBXBXZXZXZXZXBXnXyXyXyXqXyX7XyXyXgXDXZXNXZXCXyX7XyXyXyXyXyXyXyXyXuXuXuXuXpXyXyXyXyXyXgXCXBXNXNXNXNXNXNXNXZXDXCXZXmXDXbXDXVXCXnXDXNXDXCXMXMXZXCXZXZXZXSXFXHXLX#X  o 1XIX2X<X,X<X,X,X,X,X,X,X.X(.'.'.(.(.(.'.(./.U.!.(.~.W.I.W.U.I.U.I.P.I.I =.=.R -.E.4.E.K.1.E.K.Q.E.J.5.5.2.5.J.5.1.1.2.>.1.1.-.4.-.S A C * $ ,.K.H.1.' 1.H.1.' ' ' =.2.=.4.L 6 5 6 5 ` ,.1.' K T ' T R 1.R ` T ` ` P ` T E T T T R T T ",
"E E E E E E E E E R E R T R ` E W W W T ' 2.1.T R E ' ' T T T R 1.<.T ` <.1.2.1.3.2.2.2.2.H.4.>.< 3 5 4 m 5 J 5.,.,.R P =.4.5.J.1.4.P.H.5.J.H.I.W.Y.Y.I.Y.I.W.W.U.U.U.U.U.U.U.U.R.P.U./.Q.W.!.~.`.^.^.]. X X(. X X^.XX>X>X,X;X,X<X,X>X<X%X4XPX5X  O y * * * 4 < ; & : o i PXKXKXJXLXg . X X O o O O O   q.LXLX5X. & % 9 , * * 1 1 - ; O . + .  .SXcXyXrXtXrXrXyXyXyXyXyXyXyXyXyXdXrX8XsXDXCXDXCXBXyXeXaXaXyXeXsXyX7XuXpXyXpXyXyXyXyXMXCXmXMXZXZXBXBXBXBXBXBXMXBXBXnXCXBXbXFX3XX   O D ^ ..q.8.q.H y o . X . e.KXSXFXBXNXCXBXBXDXBXBXBXBXBXBXBXBXBXNXNXBXZXNXZXDXBXBXBXBXBXZXZXZXnXmXmXmXCXCXCXDXBXCXZXBXZXDXDXBXBXBXBXBXBXBXBXBXBXBXBXBXBXBXBXBXBXBXBXBXBXBXBXBXNXNXNXNXBXBXBXBXNXNXBXBXBXBXNXBXNXNXZXZXZXZXNXNXNXNXZXZXZXZXNXNXBXBXZXZXBXBXBXBXBXBXBXBXBXBXZXZXVXHXwXX       . . .     @ xXJXFXbXAXJXFXFXFXHXFXnXDXyXnXNXHXe.      o     O       a bXFXCXZXmXDXsXyXyXyXyXsXBXBXBXgXyXyXyXyXyXyXyX9XnXCXBXBXBXBXBXBXBXBXBXBXZXZXNXNXBXgXyXyXyXyXyXyXyXyXgXDXZXnXmXMXrX9XyXrXrXrXuXuXuXuXuXuXuXuXuXyXyXyXyXyXgXCXZXZXZXZXZXZXZXZXNXBXBXCXZXFXDXFXFXFXZXDXNXZXmXMXMXZXZXBXmXmXNXZXFXGXB.@ + _.2X<X,X,X,X,X,X,X,X,X,XXX(.'.'.(.(.(.'.~.I.Y./.`.~.R.I.U.U.U.R.I.I.Q.,.I A J R ).).).Q.E.).P.E.K.4.5.5.Y.P.P.5.2.2.2.1.4.1.,.6.-.S Y M * $ ,.K.4.1.[ >.2.1.<.3.>.` ' 4.K.L < m 4 5 K I ,.=.T =.>.R R ,.=.' T ` ' ` T E E E W T R T R ",
"E E E E E E E E ' E E R T R ' ' W W Q Q E >.=.=.' >.' R T T ' ,.1.<.` >.H.H.5.2.3.3.2.2.3.H.H.,.,.I A m 6 6 C P R R Q L ' 4.J.5.=.H.I.5.1.H.H.Y.Y.J.Y.I.I.I.T.T.U.U.U.U.U.U.R.R.R.U.U.U.U.~.'. X X^.^.]. X X X X X(.-X>X>X,X>X<X<X<X>X<X%X4XPXxXw   : & - ; * % ; - - & y $X*X#X3X3Xp q g # # q # q 7 O o.5XxX4XO * - 9 = , ; ; - & 7 O + w.O.b.cXyX7X9XrXrXyXuXyXyXyXyXyXyXyXyXdXuXyXmXDXZXmXCXMXyX7XeXyXyXeXuXsXrXrXrX8X7XyXiX7X9XmXBXmXCXZXBXBXBXBXBXBXBXBXBXMXmXBXMXgXDXqX*.O.y : : o : O y : y O.O.O.@.&XKXSXCXBXBXCXZXBXBXBXBXBXBXBXCXCXCXCXBXBXZXZXZXZXZXZXZXZXZXZXZXZXZXZXDXCXZXBXBXmXNXBXBXBXBXBXCXBXBXBXBXBXBXBXMXMXBXBXBXBXBXBXBXBXBXBXBXBXBXNXNXBXBXBXNXBXBXBXBXBXBXBXBXBXBXBXBXBXBXNXNXNXZXNXNXNXNXNXNXNXNXZXNXNXNXBXBXZXZXBXBXZXZXZXBXBXBXBXBXZXZXnXFX=X@ + a + 2 y : y + + 3XvXcXJXFXwX*.#XJXJXV.&XHXHXHXSXLX+X. 7 2 y : 7 + . w a c VXFXCXBXmXFXsXyXyXyXyXdXmXmXmXmXnXdXyXyXyXyXyX9XnXCXBXBXBXBXBXBXBXBXBXBXBXBXBXZXCXnXyXyXuXyXyXyXyXyXsXDXBXnXZXmXrX9XiXyXyXyXuXuXyXyXyXyXyXyXyXyXyXyXyXyXnXDXZXZXZXZXZXZXZXZXDXDXBXCXnXCXVXVXbXbXbXCXVXNXgXCXMXMXBXNXmXmXNXNXVXHXAXxXxXxX2X<X,X,X,X,X,X,X,X>X,XXX(.'.'.(.`.(.!.!.R.I.Q.!.W.U.U.I.U.W.I.1.1.P.-.K L L I [.6.6.5.5.E.P.P.,.-.5.5.5.5.1.1.H.P.2.4.5.1.-.1.-.S Y 9 * $ ,.J.4.2.<.3.2.1.,.2.>.` ' ` 4.L < 3 4 m ` L -.' K T R L L =.=.' P T <.=.T E E W Q E E E =.",
"E E E E E E E E ` R R E E E E E >.<.[ T E E ' H.' >.>.=.>.,.2.J.` >.1.H.H.>.` R 2.3.2.2.3.5.H.2.E.5.E S m V S J J J J J E 5.J.1.>.J.R.2.2.Y.P.I.2.H.I.W.W.T.T.I.U.U.U.U.U.U.U.U.R.W.W.I.U.^..X`..X].^.].`.`.(. X X X;X>X>X,X>X>X;X<X>X,X-X4XLXPX*X@ O : 7 7 & y ; ; - - o + . . + +   b.&Xg # ( n.n.g X . + O . 2 1 3 3 = 0 & O O O + . i AXKXbXaXrX9XrXtXrXyXuXyXyXyXyXyXyXyXyX7XyXyXnXDXNXmXFXMXuXuXuXeXyXyXeXeXrX7XrX7X8XyXqXqX9XVXBXmXZXCXCXBXBXBXBXBXBXBXBXCXhXMXMXpXsXSXqXKXq.    + u O O O | vXLXJXJXFXHXCXDXCXBXBXBXmXmXBXBXBXBXBXBXBXBXBXBXZXCXCXCXZXmXZXZXZXNXZXZXZXZXZXZXZXZXDXDXDXDXBXBXBXBXBXBXBXBXBXBXBXBXBXMXMXMXBXBXBXBXBXBXBXBXBXBXBXBXNXNXNXNXBXBXBXBXBXBXBXBXBXBXBXBXBXBXBXBXNXNXNXNXNXNXNXNXNXNXNXNXNXNXNXNXBXBXBXBXBXBXZXZXZXBXBXBXBXBXBXZXDXFXDX0XAXr.: w 8 * r 8 o 7 a &.KXJX#X  +.LXAX  X xXLXwX .q.~ o e & ; y y O i xXKXcXHXZXmXCXZXDXsXyXyXyXyXyXnXnXnXBXBXgXyXyXyXyXyX9XnXCXBXBXBXBXBXBXBXBXBXBXBXBXCXDXDXnXyXyXpXyXyXyXyX9XgXDXZXNXDXmX9X7XrXrXyXyXuXyXyXyXyXyXyXyXyXyXyXyXyXyXnXDXBXBXZXZXZXZXZXZXZXBXVXDXVXFXFXSXSXSXDXFXSXFXgXZXZXBXBXBXNXNXZXZXbXFXFXJXLXxX-X<X,X,X,X,X,X>X>X>X,X.X(.'.'.`.`.`.I.^.(.~.W.I.I.U.U.I.U.U.2.K S J J A I J Z I U I K J I 5.E.-.-.P.E.5.4.1.1.J.P.4.J.5.1.,.,.-.S U 9 * $ ,.J.H.H.<.G.H.4.2.1.=.' >.T ,.K < 5 5 m =.-.4.=.K L ' =.=.T E R P ` 1.>.` R R W W E R T ' ",
"E E E E E E E E T T T E ' R T T >.H.<.W E E ' 2.E =.' ' ,.4.J.J.T >.2.H.2.' T T 2.3.2.2.3.2.J.4.J.K.>.T P J S J M C A J E J.K.,.J.Y.Y.2.J.Q.U.I.2.J.I.T.W.T.I.I.U.U.U.U.R.U.U.U.I.R.W.U.U.~.^.Q..X`.]. X X`.(. X(. X;X>X>X,X>X>X;X<X>X>X%X4XJXJX=XX       . o O ; ; ; Z 7 = ; 7 O . + &X5Xg X g n.n.g O 7 ; : 8 - * 4 9 1 7 o & . X     a vXJXVXyXrXrXrXrXrXyXuXyXyXyXyXyXyXyXyXdXyX7XsXDXDXNXFXsX7XyXsXeXeXuXeX7XnXdXNXFXNXSXAXSXcXDXFXZXmXBXZXBXBXBXBXBXBXBXBXMXMXMXBXyX8XaXcXcXe.g | } y . O   i AXJXAXFXNXbXDXCXCXBXBXBXZXMXZXZXZXZXZXZXBXBXmXmXmXMXZXZXZXmXZXZXBXCXDXZXZXZXCXNXmXNXBXBXNXnXBXZXBXBXBXNXBXZXBXBXBXBXBXBXBXBXBXBXBXBXBXBXBXBXBXBXNXNXBXBXBXBXBXBXBXBXBXBXBXBXBXBXBXBXBXBXNXBXBXBXBXBXBXBXBXBXBXBXBXNXNXNXBXBXBXBXBXBXBXBXZXZXBXBXBXBXBXBXBXBXNXnXDXHXJXO.  o : & 3 ; ; o   r.PXLX3XX } PXvXp . PXLX3X.   o & 1 - 2 & O   a wXJXDXFXZXBXDXZXZXsXyXyXiXyXyXsXsXgXDXDXnXyXyXyXyXyX9XnXCXBXBXBXBXBXBXBXBXBXBXBXBXBXZXBXnXyXyXyXyXyXiXdXyXnXDXBXCXZXnX9X9XyX7XyXyXyXyXyXyXyXyXyXyXyXyXyXyXyXyXnXDXBXBXBXBXZXZXZXZXNXNXSXHXSXFXLXJXLXKXFXSXSXJXNXZXZXBXBXBXNXZXZXCXFXDXnXVXKX3X%XlX,X,X,X>X,X>X>X>X,X.X(.'.`.(.(.(.W.^.(.^.~.Q.I.U.R.I.I.I.>.J 4 V L Y L S A A Z Y A A A 6.Q.6.5.E.E.5.K.I.J.5.J.4.J.J.4.-.-.I S U 4 * $ ,.J.H.J.G.2.H.J.J.4.>.=.-.5.6.J 5 4 5 5 P 1.1.' K R >.1.1.T T P P ' -.>.' T R W T E L S J ",
"E E E E E E E E R E E >.<.' T T W =.E E >.' T T <.1.=.R =.,.,.1.<.1.1.<.1.2.1.1.2.3.2.2.2.4.H.5.4.J.J.5.,.S < A M M C J =.J.K.2.J.J.H.1.H.U.Y.I.Y.I.Y.J.Y.I.I.W.U.U.U.U.U.U.U.U.U.U.W.!.!.~.!.R.`.^.^.`. X`.(.(.(. X>X>X>X,X>X>X>X>X>X;X%X4XKXFXwX*.e.w.e.B.q.O : 8 ; 8 7 7 0 0 7 8 7 @.9.g # g #.z.g O ; & & ; 1 * 4 9 ; O O +X@X@X@XB.B.cXcXyX9XrXrXrXrXrXeXeXrXyXyXyXyXyXyXyXyX8XqXbXSXNXbXNXFXyX8XeXeXeXsXeXyXbX&XC.#XV.#X@XV.C.wXFXZXnXBXmXBXBXBXBXBXBXBXBXmXMXhXsXyX7XqX8XbXqXAX0X| . w $X3X3XJXFXdXDXFXCXBXNXBXBXNXBXCXZXmXmXmXmXmXmXmXmXCXDXCXZXmXBXBXBXZXBXBXCXCXDXDXZXDXZXDXDXSXDXDXNXNXNXNXNXnXnXNXZXBXBXBXBXBXBXBXBXBXBXBXBXBXBXBXBXBXBXBXNXBXBXBXBXBXBXBXBXBXBXBXBXBXBXNXNXBXBXBXBXBXBXNXBXBXBXBXBXBXBXNXNXNXBXBXBXBXBXZXZXBXBXBXBXBXBXBXBXBXBXBXBXNXZXZXbXFX=X#X3X7 : D ; D y o :.IXvX+XO O ~ g . p xXPX2Xw 7 e r $ e y O | @X&XAXbXbXBXZXCXZXZXDXsXyXyXiXyXyXsXsXsXBXDXsX9XyXyXyXyX9XnXCXBXBXBXBXBXBXBXBXBXBXBXBXNXNXBXmXnXnXsXyXyXyXyXyXsXnXsXBXZXmXhXnXgXyXyXyXyXyXyXyXyXyXyXyXyXyXyXyXyXyXnXDXCXBXCXDXDXDXSXSXDXDXSXKX=XB.@X+XB.b.b.e.&XKXFXCXZXBXmXmXmXNXZXZXnXZXnXFXJXUX%X,X,X,X,X>X>X>X>X>X,X.X(.'.'.(.`.`..X~.U.R.`.'./.I.U.P.I.R.K.1.1.4.C J ,.,.6.R 4 S I -.S U -.-.-.I U K 1.E.K.1.4.J.5.J.4.T L K C Z 3 $ $ ,.J.H.J.J.J.G.1.>.,.1.,.-.-.-.A 5 4 1 C -.T ' R T ' ' R R T T L T ` ` ` T T R Q T R S 6 5 ",
"E E E E E E E E ` ' ' <.2.>.E E E W E <.G.>.T T 3.J.<.R ` ' >.1.3.3.<.E >.H.G.J.2.3.G.H.G.2.H.H.H.H.J.K.4.T S A M M S J E 4.I.K.5.1.1.1.H.H.2.I.I.I.J.2.J.Y.I.W.U.U.U.U.U.U.U.U.W.I.W.^.(.~.!./.~.!.~.`. X X(.(.(..X>X,X>X,X>X;X,X;X,X;X%X4XKXSXHXSXHXHXJXLXwXO : 7 ; ; 7 0 0 , $ 1 O O o O = = X # O O * - 1 9 1 ; < * ; o 7 PXLXHXJXJXbXVX8XyXrXrXrXrXrXrXrXeXtXtXyXyXyXyXyXyXFXbXSXHXJXJXJXJXSXDXcXyXeXyXuX7XcX0Xg   X   X   X   e.VXNXnXBXBXBXBXMXMXBXBXNXBXmXBXuX7XfXdXaXqX7X9XSX0X .g V.JXJXFXHXDXZXNXCXnXBXNXBXZXNXBXZXNXFXFXFXFXHXFXFXFXNXDXFXDXZXZXCXZXBXBXBXCXDXSXCXDXVXSXFXKXSXSXHXHXHXHXFXFXFXDXFXFXBXBXBXBXBXBXBXBXBXBXBXBXBXBXBXBXBXBXNXNXBXBXBXBXBXBXBXBXBXBXBXBXBXBXBXBXBXBXBXBXBXBXBXBXBXBXBXBXBXBXBXBXNXNXBXBXBXBXBXZXBXBXBXBXBXBXBXBXZXZXBXBXnXZXZXgXHXSXJXKX@.+ y ; ; 8 o ; o = 7 G t.{.{./ . G y u o ; $ $ e r +   v.JXKXHXFXFXBXBXZXNXZXFXdXyXyXyXyXyXsXsXnXBXBXsXyXyXyX9XyX9XnXCXBXBXBXBXBXBXBXBXBXBXZXZXZXBXBXBXBXCXmXyXyXyXyXyXyXyXyXmXCXZXBXDXBXiXiXyXyXyXyXyXyXyXyXyXaXyXaXyXyXyXnXDXBXBXBXBXDXDXZXSXNXDXSXAX&.  X           | AXFXSXFXDXBXNXmXZXZXZXZXZXnXDXFX3X%X<X,X,X,X,X>X>X>X>X,X.X(.'.'.(.`.`.XX~.I.U.`.'.Q.P.P.P.I.U.R.!.).).% 5 K.(.(.-.4 4 U ,.4 * $ * < $ $ < I P.5.1.5.J.5.K.4.L A S 4 1 < % $ ,.J.4.H.H.K.H.>.R ' ,.4.,.K I A 3 3 1 S 1.L T -.1.<.R K L P R L P I P ' T T R T E E V 6 < ",
"E E E E E E E E E E E >.1.[ T T W Q W <.3.E K T ' 2.>.R R ' <.J.2.G.2.` ' H.2.G.2.2.H.J.G.2.H.H.J.H.2.2.2.K.1.L M M A J T ,.I.R.2.1.H.J.H.2.1.Q.Y.I.J.2.J.I.T.W.U.U.U.U.U.U.U.U.U.J.I.~.(.!./.~.W.W./.^. X X(. X(..X,X,X>X,X>X;X;X-X>X>X%X4XJXVXnXNXVXVXAXGX5X  O & : : 7 ; , 0 1 9 ; 8 ; 8 * = 7 = ; 8 9 9 1 ; ; 7 ; O : .   xXHXNXbXFXbXsX8XiXyXtXrXrXrXuXyXeXyXtXyXyXyXyXyXyX=XB.e.w.q.e.w.&.e.cXFXaX7X7XyXaXKXPX| . w : 7 .     e.FXDXnXCXBXBXBXMXBXBXBXNXNXBXBXyX7XaXqXeXyXdX8X8XdXcXHXFXSXVXSXbXnXFXnXCXCXBXBXZXCXNXNXNXbX0X0XxXxXxXxX0X0X0XcXSXDXDXDXDXZXZXZXCXDXDXSXFXDXCXFXKXAXwX3X3X3X3X3X3X3X3X=X=X8XNXBXBXBXBXBXBXBXBXBXBXBXBXBXBXBXBXBXNXNXBXBXBXBXBXBXBXBXBXBXBXBXBXBXBXBXBXBXBXBXBXBXNXNXBXBXBXBXBXBXBXBXBXBXBXBXBXBXBXZXBXBXBXBXBXBXBXBXZXZXZXBXBXNXDXbXDXdXFXSXxXX   o o 3 9 4 & = 7 r ;.t.t.q 7 u o ; & e 5 3 o .   @ #XJXVXNXBXDXmXZXDXNXNXDXdX9XyXyXyXyXsXsXmXBXBXsXyXyXyXyXyX9XnXCXBXBXBXBXBXBXBXBXBXBXZXZXCXBXBXCXDXDXnX7XyXyXyXyXdXyXyXDXZXZXBXDXmXyXyXyXyXyXyXyXyXyXyXyXaXyXaXaXyXyXnXCXBXBXNXNXNXNXNXNXbXFXJXJX*.  X @ + @ X    .LXLXKXHXFXFXZXZXZXZXZXDXNXmXFXFX3X%X<X,X,X,X,X>X>X>X>X,X.X(.'.'.(.`.`.`.^././.~.!.I.P.I.I.I.P.P.Q.Q.K.m 5 5.).Q.P 6 $ U 6.e < % $ 4 3 9 3 I P.P.5.5.1.K.E.K.L S A 4 < $ % % >.5.2.H.H.1.2.1.=.' ,.4.,.,.7.Y 3 4 3 4 J J P >.2.<.T K R L R L P P P -.T T R T ' =.S 6 5 ",
"E E E E E E E E ' T R ` R T R T <.>.E Q T ' [ T ' E 1.1.<.<.>.<.1.<.<.G.J.3.<.J.2.2.G.G.G.H.H.H.J.2.4.5.4.5.,.A M M C K =.4.J.J.4.H.J.J.Y.Y.Y.I.I.I.I.I.I.I.U.T.R.U.U.U.U.U.U.U.R./.`.`.~.!.~./.^.~.~.^.`..X X(.(..X,X,X>X,X>X>X,X;X,X,X%X4XKXNXBXBXBXVXVXFX=X    o   . + 7 r < 1 1 e - % ; - - 3 % 3 $ - * & : O . 7 . | 5XxXvXSXNXnXBXNXyXyXyXrXrXrXrXyXyXyXyXyXrXyXyXyXrXyXcX5X.   X   +     X e.e.&XbXqX=X@ w i y o 7 t O O.*X=XwXSXDXZXCXmXBXBXMXMXBXBXNXNXmXMXyX7XyXyXyXyXyXyXyX9XyXyXdXnXnXNXBXCXBXBXMXBXMXDXmXCXmXBXDX*XX @ O O O o + @   b.JXbXbXVXHXdXNXFXCXHXbXqXHXVXFXFXJXvXo   + .     +       X b.DXDXNXBXBXBXBXBXBXBXBXBXBXBXBXBXBXBXBXBXBXBXBXBXBXBXBXBXBXBXBXBXBXBXBXBXBXBXBXBXBXNXNXNXBXBXBXBXBXBXBXBXBXBXBXBXZXBXBXBXBXZXZXZXZXZXBXBXBXBXBXBXBXBXBXBXBXNXSXSXcXB.v.4Xo.& Z C 8 r r 8 7 ; = ; 7 t D & e e 6 % q.4X3X*X0XSXVXNXBXBXBXBXBXZXZXZXdXyXyXyX9XyXsXnXnXBXBXsXyXyXdXyXsX7XgXCXmXBXBXBXBXBXZXBXBXBXZXZXNXBXBXBXBXCXnX9XyXyXyX9XdXyXyXCXCXBXZXDXmXyX7XyXyXyXyXyXyXyXyXyXyXyXyXyXyXyXyXyX9XNXDXDXsX8X9XdXbXFXFXAXqX*X3XwXxXxX%.i w.#X3X#X&.&XFXZXmXZXZXZXNXDXnXZXFXUX%X<X,X,X>X>X>X>X>X>X>XXX'.'.'.~.(.`.(.^.`.'.W.Y.!.I.~.I.P.J.2.5 % A !.R.R.5.E.2.=.,.=.P I A Y A F S 4 < -.Q.1.5.-.4.4.P K m $ 3 < % S ,.I -.1.H.H.J.2.5.5.>.2.1.1.J C C 3 5 4 1 5 I E.>.R ` ' <.<.R L R =.-.L S 4 m L ` L T =.J 6 5 ",
"E E E E E E E E ` T T R Q Q T T <.3.>.E R <.<.R ' >.H.2.1.J.H.2.` >.>.3.2.' ` 1.2.2.G.G.G.H.H.H.J.G.H.4.4.5.,.L 3 m M J E 4.K.J.<.Y.U.J.J.I.W.Y.H.J.I.W.W.W.U.I.U.U.U.U.U.U.U.U.R.U.Q./.W.Q.~.~.].^.^.^.'..X X(.(..X,X,X>X,X,X,X<X;X,X,X%X4XKXNXBXMXBXNXmXFXcX*.*X4X*X3Xq.O o ; 8 < - 1 2 2 1 - < % 6 % 2 & O u 3X#X$Xb.*XKXAXHXNXNXnXCXBXpXrXrXrXrXrXyXyXyXyXyXyXyXyXuXtXrXyXdX=Xp g w . D D t O w   z cXSX3X  . . o - : O . v.JXSXSXFXNXNXCXBXMXBXMXMXBXBXNXNXmXMXrX9XyXtXyXrXyXyXyX9XyXyXiXnXmXMXCXCXBXBXBXBXMXCXmXCXmXNXDX=X. & : ; ; % - y   +XLXLXHXAX0Xx p 3XJXSXc a wXFXNXSXLXLX2 o 2 1 D - O   g #X*XqXFXCXBXBXBXBXBXBXBXBXBXBXBXBXBXBXBXBXBXBXBXBXNXBXBXBXBXBXBXBXBXBXBXBXBXBXBXBXBXBXBXNXBXBXBXBXBXBXBXBXBXBXBXBXBXBXZXBXBXBXBXZXZXZXZXZXBXBXBXBXZXZXBXBXBXBXBXBXNXNXHXVXJXLX{.O * * & & 2 r 9 9 0 8 Z 1 2 o & - < o vXJXJXVXDXFXNXmXBXBXBXBXBXBXZXZXdX9XyXyX7XyXgXnXmXBXDXnXyXyXyX7XyX7XmXDXBXBXBXBXBXBXZXBXBXBXBXBXDXBXCXCXCXDXmX9XyXyXyXyXdXyXyXDXCXZXCXDXmXyX9XyXyXyXyXyXyXyXyXyXyXyXyXyXyXyXyXyX9XNXDXDXsX8X9XdXFX*Xa a =XFXJXKXLXLXGXxXr.a @     &.FXFXZXZXCXSXSXDXnXZXKXUX%X<X,X,X,X,X>X>X>X>X>XXX'.'.`.(.`.`.~.`..X.XW.J.Q.~.^.U.P.P.5.5 % J E.P.R.P.~.R.P.Q.=.P I I -.F F A 4 < S I I 5.5.E.4.J m 6 % < > % I K.,.4.2.5.2.H.<.1.5.4.5.>.,.K 4 4 3 5 4 5 5 T ,.' ` R ` 1.1.T P =.6.1.I C < 6 L ' T T =.J 6 5 ",
"E E E E E E E E E R ` ' E T T T [ [ [ ' E [ >.R E ` ' R ` 2.1.' E >.3.G.2.' E 1.G.G.G.G.G.H.H.H.G.G.H.2.1.5.4.-.5 C C S R 1.J.J.' Y.W.2.1.P.W.I.1.H.I.W.W.W.I.I.U.U.U.U.U.U.U.U.Q.U.U./././.!.~.`.`.`.`.'. X X X(..X,X,X>X,X,X,X<X;X,X,X%X4XHXNXMXMXZXZXmXDXFXcXJXKXGXGX&Xp + O t r - & * & ; 2 - - 2 o o . O ~ LXvXcXwXcXHXVXDXNXBXnXBXBXiXyXyXyXyXyXyXyXyXyXyXyXyXuXuXtXrXyXdXcXwXAXr.+ y & o 2 : . O.vXPX3X+ u : 8 ; o + @ &.JXSXSXDXVXnXCXCXMXMXBXBXBXBXBXBXNXBXyX7XtXtXrXrXrXyXyXyXyXyXpXnXmXMXCXBXBXBXBXBXMXMXhXCXNXNXDXwX  y : ; F A e 8 : +XIXwXPXLXxXa   $XLXAXa   wXHXHXwXxXxXZ 3 M 9 - o O O &.AXHXDXDXBXBXBXBXBXBXBXBXBXBXBXBXBXBXBXBXBXBXBXBXBXNXNXBXBXBXBXBXBXBXBXBXBXBXBXBXBXBXBXBXBXBXBXBXBXBXBXBXBXBXBXBXBXBXBXZXZXBXBXBXBXBXBXZXBXBXBXBXBXZXZXBXBXNXNXBXNXNXNXnXbXFXAXe.@ o o 8 o - e < < 9 1 1 o : : .   .   xXVXNXbXNXCXMXCXMXBXBXBXBXBXZXZXsXyXyXyX7XyXgXnXmXBXBXnXyX7XyX9X7X8XmXDXBXBXBXBXBXBXBXBXBXBXBXBXCXBXBXBXZXDXnX9XyXyXyXyXdXyXyXBXDXBXZXDXmXyXrXyXyXyXyXyXyXyXyXyXyXyXyXyXyXyXyXyX9XmXDXFXsX8XyXdXFX=XX   *XHXJXcXwX=XKXLX#X    p @ e.VXNXnXZXDXZXSXFXVXSXKX3X%X<X,X,X,X,X>X>X>X>X>XXX'.'.`.(.`.`.^.`.~.^.~.I.W.~.~.R.P.P.P.5 % U Q.P./.U.!.U.R.Q.' P I -.-.9 * - 9 9 9 9 U E.E.Q.1.Y C 3 < 9 4 $ L P.1.5.2.2.2.H.` ' 2.5.5.' -.L 5 4 4 1 4 5 5 E J R <.' T ' >.R L ' ,.-.U 9 3 m P ' T R =.J > 4 ",
"E E E E E E E E E ' <.3.<.' E R ' Q E <.<.' ' >.J.<.` K R 2.H.>.' 3.J.J.J.<.>.H.G.G.G.G.G.G.G.H.H.H.H.G.1.4.4.-.A J A J ' 1.4.K.3.Y.I.H.1.J.W.R.Y.Y.Y.Y.Y.I.I.T.U.U.U.U.U.U.U.U.Q.U.W.^.(.!.W.W.`.'..X.X`.`. X X(..X,X,X>X,X,X,X<X;X,X,X%X4XKXNXmXMXZXZXmXNXFXFXSXDXDXHXHXKXAX3X  7 O & 8 * : : & - 2 O o.{.+X&XAX0XcXqXbXDXgXBXBXBXsXiXpXrXrXuXyXyXyXyXyXyXyXyXuXuXuXuXrXrXyXyXdXSXLXw.  O 2 D ; ; O + p w i o & & y O i wXvXcXSXNXNXDXBXNXCXBXMXMXBXBXBXBXBXBXNXBXyX7XtXtXtXrXrXyXyXyXyXyXpXmXmXMXMXCXBXBXBXBXMXMXmXCXNXNXDXcXxXxX:.. & C Z 1 o 2 y : 3XLXAXa   ~ O.8.X @ xXKXbXc @ H o m 3 1 & ..$X$X3XFXDXbXBXBXBXBXBXBXBXBXBXBXBXBXBXBXBXBXBXBXBXBXBXNXNXNXBXBXBXBXBXBXBXBXBXBXBXBXBXBXBXBXBXBXBXBXBXBXBXBXBXBXBXBXBXBXBXBXBXBXBXBXBXBXBXBXBXBXBXBXBXBXBXBXMXmXNXNXNXNXNXNXDXmXZXHXAXxXvXvXxXq.e e 9 C C - 2 : $XIXxXxXAXvXSXSXZXZXmXmXmXMXMXBXBXBXBXBXBXBXsXyXyXyX9XyXnXnXnXsXsXsXyX7XyXyXyX9XnXBXmXBXBXBXBXBXBXBXBXBXBXBXBXBXNXBXZXDXnX9XiXyXyXyXpXyXyXBXDXZXZXCXmXyXyXpXyXyXyXyXyXyXyXyXyXyXyXyXyXyXyXyX9XmXDXFXnX7XyXdXSX3Xa X =XFXAX=Xa . #XKX#XX y 3XKXFXHXFXDXZXZXVXSXFXVXSXKX3X%X<X,X,X,X,X>X>X>X>X>XXX`.'.`.(.`.(..X^.I.U..X`.~.!.!.R.5.J.K.6 $ -.!.P.R.P.R.P.R.R.5.3.5.P.E.Y < 3 Z C 9 < 1 A Z Z U A A M < 3 3 % J K.,.2.2.2.2.H.` ' 2.4.4.=.>.L 5 4 9 3 4 5 4 =.T ' <.>.R ` ' ' m m S C 3 < 5 m I ' T T =.A > 4 ",
"E E E E E E E E E [ <.3.<.[ E ` T Q W <.>.' ` [ J.<.T T R [ 1.<.>.G.G.3.J.G.3.J.H.G.G.G.G.G.G.G.2.G.J.H.2.4.1.>.E T J K ,.4.4.R.U.J.Y.I.P.J.Y.I.W.I.J.J.Y.I.W.W.U.U.U.U.U.U.U.U.U.I.W.(.`.!.U.U.`.'..X.X`.(.(. X(..X,X,X>X,X>X,X<X;X,X,X%X4XKXNXBXZXZXmXZXmXNXDXBXDXmXNXNXFXKX5Xw.$Xi o ; o : O y o     @XLXLXSX0X8XdXyXnXFXmXMXCXBXyX7XrX7XyXuXyXyXyXyXyXyXyXyXuXuXuXyXrXrXyXyX8XcXSXB.p p + : & & 7 & o   2 : y + +   @ wXJXbXFXDXDXZXNXmXBXBXMXMXBXBXBXBXBXBXBXBXyX7XyXrXrXrXrXyXyXyXyXrXpXBXMXMXBXBXBXBXBXBXMXmXMXCXmXNXZXNXFXGXe.w : & e e e - o O 3XLXPXi o + . O . w xXLXLX .  ; < I r r . r.LXJXSXFXmXBXBXBXBXBXBXBXBXCXBXBXBXBXBXBXBXBXBXBXBXBXBXBXBXBXBXBXBXBXBXBXBXBXBXBXBXBXBXBXBXBXBXBXBXBXBXBXBXBXBXBXBXBXBXBXBXBXBXBXBXBXBXBXBXBXBXBXBXBXBXBXBXBXMXMXMXNXBXBXNXNXmXnXhXNXDXFXJXJXLXt.. o 2 - o &   O 3XJXJXDXHXFXDXnXNXZXmXhXmXMXMXBXBXBXBXBXBXBXgXyXyXyXyXyXnXsXmXdXyXyXyXyXyXyXsXyXsXsXgXBXBXBXBXBXBXBXBXBXZXZXCXBXCXCXDXDXnX8XyXyXyXyXpXyXyXBXDXBXBXDXmXyXyXdXuXyXyXyXuXuXuXuXyXyXyXyXyXyXyXyX7XmXBXDXgX7XyXdXHX=X.   =XLXJX*X    3XLX*X  X vXJXSXFXNXDXmXZXZXNXDXNXSXKX3X|.,X;X;X>X>X>X>X>X>X>XXX.X`.`.`.'.(.`.^.U.I.`.XX!.W.!.U.5.J.5.$ 6 -.-X!.Q.P.!.P.R.U.!.U.I.P.P.S % 6 5 - C 9 1 < * $ 4 A F 9 > < 5 % L P.1.2.2.H.3.3.1.2.5.1.4.,.4.L 5 4 9 4 9 5 4 =.K.<.' ' ' ] ` ` 5 5 5 3 1 < < < T ' T T ' S > 3 ",
"E E E E E E E E E ` ' ' ' ` E ' W ] ' E T ] ' T 1.>.' <.>.' 2.J.3.G.<.>.G.J.G.J.H.H.J.G.G.G.G.G.2.G.H.G.4.2.2.>.2.E S K 4.5.1.Q.P.<.2.W.W.J.J.J.I.Y.Y.Y.I.W.W.T.U.U.U.U.U.U.U.U.U.R.Q.~.^.~./.~.`.`.'.'.`.(.(. X(..X,X,X>X,X>X,X<X>X,X>X%X4XKXNXZXZXNXnXZXDXNXBXBXMXmXDXNX0XcXcXbXvXi   & o 7 7 : . @ @ b.cXVXaX7XrXyX7XdXDXMXmXBXDXyX7XyXrXyXyXyXyXyXyXyXyXyXyXyXuXyXyXrXyXrXrXnXNXHXbX0X*Xi + w . : 8 t D t : 2 o |  .| wXSXDXNXNXNXNXmXmXMXMXBXMXBXBXBXBXBXBXBXBXyX7XyXrXrXrXrXyXrXyXyXrXdXBXBXBXBXBXBXMXBXMXMXMXZXZXBXZXMXZXmXFXcXvX$X7 ; 8 2 2 e & :._.t.+ O o.9.o.= o t.|.+Xi O 2 > C o 7 @ b.FXFXVXZXmXCXMXBXBXBXBXBXBXCXBXBXBXBXBXBXBXBXBXBXBXBXBXBXBXBXBXBXBXBXBXBXBXBXBXBXBXBXBXBXBXBXBXBXBXBXBXBXBXBXBXBXBXBXBXBXBXBXBXBXBXBXBXBXBXBXBXBXBXBXBXBXBXBXBXMXBXNXBXBXNXNXZXCXCXZXNXVXVXSXAXv.i ..o.o o t.@. .5XSXNXnXBXNXDXNXBXZXZXmXMXCXMXBXBXBXBXBXBXBXnXyXyXiXyXyXsXdXnXyX9X9X7X7X7X7XrX8X7X7XyXBXBXBXBXBXBXBXBXZXZXZXBXBXCXZXBXZXgX8XyX7XyXyXyXyXyXBXDXBXBXCXmXyXyXuXuXuXyXyXuXuXuXuXyXyXyXyXyXyXyXyX7XnXBXDXgX7XyXdXNXwXw.w.wXxXxXB.X X wXKX#X  @ vXFXNXFXDXDXnXDXDXBXDXnXZXKX3X%X,X>X>X>X>X>X>X>X>X>X-X.X'.`.`.'.^.!.`.`.~.~.~.I.W.~.Q.J.P.5.$ < I 6.7.-.-.R.P.R.I.R.I.I.J.R.1.,.6.4 3 F A 9 1 e 9 M F F 9 < 4 4 % L P.1.2.2.H.3.3.5.5.4.` ,.4.J.L 5 4 9 4 9 5 5 ' =.R E >.[ T T R J C 4 3 3 4 M C T ' T T R S > 3 ",
"E E E E E E E E E E T T ` R R ' 3.G.<.W Q >.3.' Q Q R <.[ T >.<.H.H.>.[ G.K.J.J.H.H.J.G.G.G.G.G.4.4.4.G.H.4.2.,.4.=.m S 1.5.,.K.2.>.2.I.I.Y.Y.J.H.J.I.W.W.W.W.I.U.U.U.U.U.U.U.U.R.!.!.Q././.~..X`.`.'.'.'.'.'..X(..X,X,X>X,X,X,X<X>X,X>X%X4XKXSXZXNXZXmXZXDXNXZXDXDXnXFXBX8X8XdXyXaXB.$X+X: 7 : O } 3X5XwXVXmXmX8XtXtX7XdXDXZXNXNXDXdX7XuXyXyXyXyXyXyXyXyXyXyXyXyXyXyXyXrXuXyXeXhXnXDXNXHXJX0XxXr.: : O ; Z e ; : + 3XLXcXCXdXhXmXBXCXCXCXCXmXmXBXBXBXBXBXBXBXBXMXBXyXeXyXyXyXrXyXyXyXyXyX9XdXBXBXBXBXBXMXMXMXZXMXMXCXMXBXZXhXCXgXbXSXLX$Xo & 2 1 4 Z o & o : O # b.&X{.u o & o o O - 4 m M O r.&XwXSXSXnXCXmXMXMXBXBXBXBXBXBXCXBXBXBXBXBXBXBXBXBXBXNXBXNXNXBXBXBXBXMXMXBXMXBXBXBXBXBXBXBXBXBXBXBXBXBXBXBXBXBXBXBXBXBXBXBXBXBXBXZXBXBXBXBXBXZXZXBXBXBXBXZXZXBXBXBXBXBXBXNXNXZXZXmXNXNXmXBXBXBXSXHXFXAXLXxX+ + AXLXvXHXDXmXmXmXZXNXBXBXBXBXZXBXZXBXZXBXBXBXBXBXBXnXyXyXiXyXyXdXyXyXyXyXyXyXiXdXyXyX9XyX9XdXCXCXBXBXBXBXBXBXBXZXZXNXBXZXZXBXDXNXdXgXyXdXyXyXeXeXnXDXBXBXBXnXyXeXuXuXuXuXuXuXuXyXuXyXyXyXyXyXyXyXyXrXmXBXDXhX7XyXyX8XNXJXKX#X@ X   + . wXFX3XB.*XHXFXZXFXVXNXVXDXNXBXCXmXZXFX3X%X,X>X;X>X>X>X>X,X,X>X-X.X'.`.`.'.^.W./.`.`.~.R.J.~.'.Q.P.Q.K.< $ 9 % % % 4 K.P.R.R.I.I.U.5.Y.P.!.Q.3 9 C $ < 4 F F Z A M 3 < < 5 % J P.1.3.3.4.3.3.2.2.>.P =.4.K.L 5 4 4 1 4 < < I K R ' ` ] ] ` ` J C < $ * 1 C A R ' T R T C 6 3 ",
"E E E E E E E E R E T R ' ` E ' K.G.>.T Q [ 2.3.` ] ` 2.4.<.3.3.H.H.>.[ 3.J.H.G.H.H.H.G.G.G.G.2.H.4.2.2.H.H.2.2.H.=.m m ,.4.=.1.J.H.P.Y.J.I.W.J.2.Y.W.W.W.I.I.I.U.R.R.U.U.U.U.U.R.~.!.U.I.U./..X`.`.`.'.'. X'..X(..X,X,X>X,X,X,X<X>X>X,X%X4XKXSXmXNXFXNXmXZXnXBXbXFXNXVXNXaXuXeX7XsX0XLX5XX O 7 + &.JXHXbXZXMXsX8XeXeX7XdXDXDXVXBXDXdX7XyXyXyXyXyXyXyXyXyXyXyXyXyXyXyXyXyXuXuXeXpXCXFXgXBXFXdXJX|   O O : ; o o   X =XJXbXDXnXCXBXCXMXmXmXBXZXCXBXBXBXBXBXBXBXBXMXMXyX7XyXyXyXyXyXyXyXyXyXqXdXCXDXZXBXBXMXCXMXZXMXMXCXBXBXZXhXZXDXgXbXJXB.. : o & o ; & D % e 0 q / / / = = Z * ; 8 1 * $ o . *XJXNXDXBXBXDXBXBXBXBXBXBXBXBXBXBXBXBXBXBXBXBXBXBXBXBXNXNXNXBXBXBXBXBXBXMXMXMXBXBXBXBXBXBXBXBXBXZXBXBXBXBXBXBXBXBXBXBXBXBXBXBXBXBXZXZXBXBXBXBXBXBXBXBXBXZXZXZXZXZXBXCXBXBXBXZXBXBXZXNXBXDXDXDXBXBXNXCXSXJXxX    AXHXAXDXsXmXCXbXDXNXDXCXNXZXZXNXmXBXBXBXBXBXBXBXBXgXyXyXiXyXyXyXyX7XyXnXVXVXSXSXSXFXFXFXNXNXDXBXmXBXBXBXBXBXZXZXZXNXBXFXFXFXHXJXFXKXSXSXVXcXaXyXnXDXBXBXBXnXyX7XuXyXyXyXyXyXyXyXyXyXyXyXyXyXyXyXyXrXnXBXDXnX7XyXyX8XqXFXLX#X  7 w +   vXJXbXFXHXNXZXbXNXNXDXVXCXmXBXCXnXZXFX3X%X;X;X;X;X>X>X>X>X>X>X-XXX'.(.`.'.^.~.Y.~..X.XQ.J.!..XQ.I.!.P.6 % % - < % C E.E.P.H.I.T.W.3.4.Y./.5.-.6.I % * 9 F Z Z A M M 3 $ 6 % J P.5.5.1.3.3.2.2.,.=.P =.4.P.T 5 4 4 5 3 6 6 L H.4.' J Q 1.2.' V 4 5 < < < 4 Z ' ' T R T C 6 3 ",
"R R R R ` ` E E ` >.<.[ ' ' ' E [ E ' Q K [ <.H.K ] <.2.3.1.<.[ Q >.J.J.2.>.<.2.H.H.H.H.H.G.G.G.G.H.G.G.G.G.2.,.J.' A S P 1.5.,.5.Y.W.J.2.I.I.I.J.Y.R.R.R.R.Q.Q.U.U.U.U.U.U.U.U.I.I.R.~.(.^.^.'.XX`./.W.~.`..X(.^..X>X<X,X,X,X,X>X,X,X<X%X3XHXSXNXNXNXCXCXCXBXBXBXBXBXDXmXyXeXyXuXyXaXSX3X@   . g 0XHXNXnXDXDXyX7XrXrX7XsXBXNXBXCXDXdX7XyXyXyXyXyXyXyXyXyXyXyXyXyXyXyXyXyXyXeXeXdXDXCXBXBXnXmXCX0X*XwXw.O O i $X&X&X5X8X9XmXCXNXmXmXMXBXBXBXZXZXBXZXBXBXBXBXBXBXBXNXyXyXaXyXyXeXyXpXyXyXuXyXaXCXBXBXBXBXBXBXBXBXBXBXBXBXBXBXBXMXmXZXZXVXcXwXwXxXq.  y y ; 9 - 8 ; = 7 0 $ < 3 1 ; 8 ; O ..8.&.wXSXBXBXBXBXBXBXBXBXBXBXBXBXBXBXBXBXBXBXBXBXBXBXBXBXBXBXBXBXBXBXBXBXNXNXBXBXBXBXBXBXBXBXnXFXNXNXVXbXFXVXNXFXVXNXDXmXDXCXnXDXnXBXCXNXNXDXVXDXSXNXNXVXNXNXbXNXZXNXbXNXBXNXCXBXmXCXmXBXBXBXBXBXBXBXBXNXCXNXFX0X$. .cXCXBXBXBXNXNXNXNXBXBXBXBXBXBXBXBXBXBXBXBXBXBXBXBXnXaXyXdXaXyXyXyXyX7XCX=Xz &.O.@.O.w.q.| 5XFXmXDXDXNXVXDXhXmXZXZXFXNXSXKXq.z O.y p g g z cXdXeXDXDXmXBXBXBX7X9XyX7XsXyXyXuXhXrXyXyXuXuXyXyXyXaXyX7XnXZXDXnX9XyXyXqXaXSXJX@X@ w + +   AXGXFXFXbXCXCXCXCXZXZXBXBXBXMXmXNXFXGX3X+X+X-X;X>X,X,X,X,X>X:XXXXX X^.`.~.`.`..X/.I.^.XX'.R.P.P./.Q.P.5.1.-.- < % 5 E.R.P.P.Y.R.U.P.I.R.R.R.1.,.K 6 $ M Z S Z Z Z 3 > 3 ,.-.5.4.4.2.2.2.3.2.<.1.1.J.=.K T J 5 $ M -.J L K T 1.>.R K K >.1.T =.L P R C < 4 9 A A S S S 4 4 C ",
"R R R R ` ` E E [ <.3.>.' ' ' E Q [ J.<.E >.>.' ' ' >.3.3.3.<.3.R <.H.G.>.E ' 1.H.H.H.H.H.G.G.G.2.G.G.G.H.G.2.1.K.=.C m P 4.I.R.<.2.I.Y.H.J.J.Y.I.P.J.I.R.R.I.I.U.U.U.U.U.U.U.U.U.P.R.`..X!.W.~.'.`.~.~.^.`.'.(.^..X;X,X,X;X>X<X;X,X;X1X+X*XSXZXNXNXBXCXCXCXBXBXBXBXBXDXmXrXeXyXyXyX0XcXqXB.B.V.C.0XNXCXBXBXCXdX7XyXyX7XsXCXBXBXCXDXdX7XuXyXyXyXyXyXyXyXyXyXyXyXyXyXyXyXyXyXeXeXgXDXCXCXCXmXmXNXFXSXJX*XX   O.LXSXcXsXrXrXmXBXnXNXmXBXBXBXBXBXZXBXBXBXBXBXBXBXNXBXNXyX9XyXyXyXyXeXyXeXeXyX7XyXBXBXBXBXBXBXBXBXBXBXBXBXBXBXBXBXBXBXZXCXDXDXSXFXJX&.  .   o ; e F Z 8 < 9 3 S 1 ; O o . O $XJXKXJXCXBXBXBXBXBXBXBXBXBXBXBXBXBXBXBXBXBXBXBXBXBXBXBXBXBXBXBXBXBXBXBXZXZXNXNXBXBXBXBXDXDXBXcXNXSXHXFXSXFXFXHXHXFXDXmXBXmXnXVXFXBXBXgXZXZXDXFXSXSXFXHXHXHXHXHXHXHXHXFXDXDXBXBXBXNXCXBXBXBXBXBXBXBXBXBXNXNXVXNXFXDXDXDXBXBXBXBXBXBXBXBXBXBXBXBXBXBXBXBXBXBXBXBXBXBXBXBXnXaXyXdXaXyXyXyXrXsXCXV.. X . +   O . O 3XJXnXmXdXHXFXFXBXDXDXZXsXNXJXLX}   o o O .   p SXBXeXmXCXmXDXBXcX8XdXsXVXcXqXeX8XtXuXsXyXyXuXuXyXaXaXaX9XnXZXDXnX9XyXyX8XdXFXJXV.  + : @ . PXJXHXSXSXDXmXmXNXNXBXCXCXCXCXZXZXFXSXwX3X3X%X-X;X>X>X;X;X:X:X.X.X^.(..X'.`.`.'.~./.^..X^./.5.P.R.R.R.Q.Q.P.5 5 % 4 R.R.P.I.J.2.J.!.~.I.4.4.E.E.=.6 % C S S M Z Z 4 1 C K.6.5.5.4.4.2.2.2.3.1.4.4.K.E m m 5 4 4 A =.T 1.2.J.=.K T 1.>.T ` >.=.' 4.4.A > 1 M 1 3 1 1 3 3 3 C ",
"R R R R R R E E ` >.>.' E ' ' E T <.Y.3.] ' ` T 3.<.[ ' >.3.2.3.<.<.1.3.1.>.>.G.H.H.H.H.H.G.G.G.2.G.G.G.G.2.1.,.5.E C m I 1.5.I.1.2.I.I.Y.Y.P.W.Q.P.J.I.Q.W.R.I.U.R.U.U.U.U.U.U.U.I.W.(.`.~.!.~.`.`.`.`.'.`.'.'.(.XX;X>X,X;X,X<X<X:X%X1X+X*XSXDXNXNXBXCXCXCXBXBXBXBXBXDXmXrXeXyXyXaX0XqXVXaXSXSX0X0XcXFXBXmXDXsX7XyXyX7XsXCXBXBXCXDXdXeXuXyXyXyXyXyXyXyXyXyXyXyXyXyXyXyXyXyXeXeXsXBXmXBXCXMXmXBXnX0XAXV.@ . c 0XcX0XyX7XrXBXDXDXBXCXBXBXBXBXBXBXZXBXBXBXNXNXNXmXCXBXyXqXyXyXyXyXyXyXyXuXuX7XyXBXBXBXBXBXBXBXBXBXBXBXBXBXBXBXBXBXBXBXmXZXDXSXSXFX*.p p i u o ; e 3 e < 1 * 1 o 7 O O . @ @XKXSXbXBXBXBXBXBXBXBXBXBXBXBXBXBXBXBXBXBXBXBXBXBXBXBXBXBXBXBXBXBXBXBXBXMXZXBXBXBXBXBXBXBXBXDXFXKXAXKXSXKXKXKXKXcXSXHXZXDXmXCXZXbXiXDXFXDXDXbXSXDXHXSXcXGXAXvXAXvXvXvXcXVXDXBXmXBXBXBXBXBXBXBXBXBXBXBXBXFXFXFXCXcXDXFXbXBXBXBXBXBXBXBXBXBXBXBXBXBXBXBXBXBXBXBXBXBXBXBXBXnXaXaXdXaXyXyXyX9XsXNX&Xg } + + y y & y wXJXdXFXHXHX8XbXFX0X=XbXHXSXPXPX:.O ; e o 7 @ z SXnXiXMXCXMXDXDXnXyXDXaXSXcXcXCXyXrXeXeXyXuXuXuXyXyXaXaX9XnXCXDXnX9XyXyX8XiXDXFXC.. @     + IXLXJXSXHXNXFXFXDXDXFXDXZXZXBXZXmXZXFXGXAXPX:X;X>X>X>X;X;X:X<X:X:XXX`.`.~.~.(.(.(.^.(.~./.!.Q.Q.Q.I.I.E.R.5.o % % 5 6.P.P./.J.1.5.!.~.J.2.5.!.R.' 6 6 M C F Z Z Z 3 , C [.K.5.5.4.4.2.2.2.2.H.J.J.I.=.m m m < 5 A ` ' 4.,.2.>.R ' -.R T T T T T ,.,.A 1 3 3 < 1 1 * < 5 3 e ",
"R R R R R R E E T E ' T T ' [ [ ' ] ' ' R T Q Q 3.2.[ K T 2.J.<.J.1.>.3.J.G.<.2.H.H.H.H.H.H.H.H.H.G.G.G.G.2.4.4.,.I 4 4 I ,.1.5.Y.Y.Y.J.P.I.W.~.I.I.I.I.R.Q.R.I.U.U.U.U.U.U.U.R./.~.~.!./.(.'.~.`.`..X.X`.`.'.XX-X-X>X,X,X,X,X<X;X:X1XIXxXvXFXnXNXNXBXBXBXBXBXBXBXBXBXDXmXrXeXyXyXaXeX7XbXcXSXcXaXaXnXFXNXNXDXpX7XyXyX7XsXCXBXBXCXDXdXeXuXyXyXyXyXyXyXyXyXyXyXyXyXyXyXyXyXyXyXyXyXdXiXmXCXBXZXZXDX8XaX0X5XwXwXbXqXqXaXyXyXmXMXNXCXDXCXBXBXBXZXBXBXBXBXBXBXBXBXBXCXmXyXyXyXqXyXeXyXyXyXyXyX8XtXCXMXBXBXBXBXBXBXBXBXBXBXBXBXBXBXBXBXBXmXmXBXNXnXNXFXFXKXLX3X7 o & o 8 r r & O O r.PXPXvX0XAXHXSXDXBXBXBXBXBXBXBXBXBXBXBXBXBXBXBXBXBXBXBXBXBXBXBXBXBXBXBXBXBXBXBXBXMXZXMXBXBXBXBXBXDXnXBXFX=Xp p g i p i p a e.bXNXgXdXFXDXVXVXHXbXSXHXNXFXSXSXb.@ a + + w + + a @ qXBXBXNXDXBXBXBXBXBXBXBXBXBXBXBXBXVXVXCXDXNXNXDXBXBXBXBXBXBXBXBXBXBXBXBXBXBXBXBXBXBXBXBXBXBXBXBXnXiXyXdXaXyXyXyXyXyXsXqX0XvXw.7 7 y 2 % ..z  .bXFX=Xa C.VX .X V.JXv.p O.y 8 8 7 y 4X3X=XbX8X8XMXCXmXBXDXdX7XdXV.#.#.&XSXdXyXuXrXyXuXuXuXyXuXaXaX9XbXBXDXnX9XyXyX7XgXDXFX0X3XxXr.o O :.t.| e.AXSXNXNXNXNXSXNXVXnXNXZXNXbXNXGXGXLX:X;X,X,X;X-X-X-X.XXX;X-X'.`.`..X^.~.^.`.~.R.U.~.~.Q.I.P.I.R.I.P.5.E.P.5.!.P.P.R.I.P.I.I.J.J.I.!.J.,.1.1.4.I 3 9 Z C M 1 $ 4 5.5.5.5.4.4.4.2.2.2.1.1.>.>.L 5 S S < 5 I 1.,.-.L ` P.4.' K J R ' K >.R R E I I Y 1 3 9 M 3 3 C 4 4 ",
"R R R R R R E E ' [ ' R T ' [ >.E K K T R R E R <.1.' Q E 3.J.1.1.<.<.2.G.>.' <.H.H.H.H.H.H.H.H.H.G.G.H.H.2.4.J.5.R 4 4 K -.=.1.I.I.J.1.H.Y.I.W.2.Y.W.I.Y.I.R.I.U.U.R.R.U.U.U.U.`.'.`.~.W.~.(./.`..X.X.X X(. X;X>X,X,X,X,X,X,X,X;X:X1XPXLXHXFXnXZXBXBXBXBXBXBXBXBXBXBXDXmXyXeXyXyXyXaXqXdX7X9X7X0XaXBXDXNXBXDXiX7XyXyX7XsXCXBXBXBXDXdXeXuXyXyXyXyXyXyXyXyXyXyXyXyXyXyXyXyXyXyXyX7XeX7XnXCXBXCXCXBX7XyXsXbXNXaXqX0XqXyXeXyXBXCXDXCXCXBXBXBXMXmXmXNXNXNXZXBXBXZXZXCXMXpXiXyXqXyXqXyX7X7XqX7X8XrXMXBXBXBXBXBXBXBXBXBXBXBXBXBXBXBXBXBXDXBXBXBXNXmXZXVXFXSXKX*X@ X O 7 o o o + . @ B.LXKXJXFXSXSXbXDXBXBXBXBXBXBXBXBXBXBXBXBXBXBXBXBXBXNXBXBXBXBXBXBXBXBXBXBXBXBXBXMXMXMXMXBXBXBXBXBXMXmXZXFX*X.   + : o O .   @.AXJXHXHXHXcXKXJXAX&.%.GXSXJXJXLX@X  + O : : . O @   8XBXBXBXDXBXBXBXBXBXBXBXBXBXBXBXFXDXNXNXFXDXVXDXBXBXBXBXBXBXBXBXBXBXBXBXBXBXBXBXBXBXBXBXBXBXBXBXnXdXaXaXyXaXaXyXsXyX7XaXSXKX| . + ; F < &   | LXLX3X. &.KX@.. 3XLXq.  : & 8 &   w xXJXcXyX6X8XgXCXmXnXCXyX8X0X#.  X w.VXsXrXuXuXtXyXuXuXyXuXaXaXqXnXBXDXnXyXyXrX9XiXZXZXSXJXLXr.  . o +   w AXJXHXHXHXHXHXHXHXFXFXFXFXFXHXJXJXLX2X2X<X<X<X<X<X<X,X<X,X;X.X~.~.~.^.~.^.`.!.I.U.~.(.W.P.I.W.R.R.Q.Q.!.).R.!.P.P.R.W.W.R.Y.3.Y.Q./.2.' 2.R.).,.> 4 M M N 3 > m [.J.5.5.4.4.4.2.2.2.1.1.T L C 5 C m 5 3 -.4.,.=.K R I.<.T ' R T ' 1.1.>.R P E ,.I > < < 9 4 4 Z 4 4 ",
"R R R R R R R R <.<.>.E T E ' E ' ' E E E >.H.H.<.' ` >.<.<.<.3.T >.G.G.>.T ` H.G.G.G.H.H.H.H.H.H.2.2.4.,.' T E -.Y M C K -.=.=.J.W.J.2.J.J.Y.P.1.Y.Q.R.Y.I.R.I.U.U.U.U.U.U.U.U.^./.~.`.~.~.~.!.`..X.X`.'.(. X>X,X,X,X,X,X,X;X;X<X:X%XAXGXSXDXCXBXBXBXBXBXBXBXBXBXBXBXDXmXyXyXyXuXeXdXyXdX7X7XyXqXaXVXDXZXCXBXdX7XyXyX7XsXCXBXBXBXCXdXeXuXyXyXyXyXyXyXyXyXyXyXyXyXyXyXyXyXyXyXyXyXeX7XmXDXBXCXCXmXyXyXrX8X7X9X7XaXyXeX7XyXBXmXhXBXBXBXBXMXmXmXmXmXNXNXNXNXBXMXMXBXBXhXhXiXyXdXyXdXaXaXaXaXyXsXmXBXBXBXBXBXBXBXBXBXBXBXBXBXBXBXBXBXDXBXBXBXnXnXmXmXDXVXFXKX5XxXxXxXD O i 3XxX3XSXSXbXVXVXBXDXNXBXBXBXBXBXBXBXBXBXBXBXBXBXBXBXBXBXNXNXBXBXBXBXBXBXBXBXBXBXBXBXBXMXMXMXBXBXBXBXBXBXZXZXnXDXwX .i . y r t y : ..@X#XAXSXwX@.V.KXxXp p JXLXAX+X*Xq.7 7 ; 8 & O } r.@.dXCXCXBXBXNXBXCXBXBXBXBXBXBXBXBXnXNXCXBXVXnXNXBXBXBXBXZXBXBXBXBXBXBXBXBXBXBXBXBXBXBXBXBXBXBXBXBXnXsXpXaXaXaXaXyXyXyXeXaXaXcX@.+ i o 3 9 Z 8 | 3XxX3Xw z 3Xq.+ {.UX:.: t o r D w O.wXbXqX7X8XrXsXBXBXmXFXsX8XvX@.p 7 v.KXcX8XrXtXtXtXuXuXyXuXaXaXyXnXBXDXnXyXyXrX9X9XZXDXNXFXAXe.+ p o i y O.vXAXAXGXAXAXAXAXAXAXAXAXGXAXAXPXPXPX1X<X<X<X>X;X>X>X>X>X).~.-XXX`.(.`.~.^.`./.U.Q.~.(.!.R.R.W.I.P.E.E.P.E.P.R.U.R.R.R.Y.I.R.I.Y.J.2.I.3.2.>.1.` < M 9 9 M 3 $ m [.J.J.H.H.4.4.4.2.2.H.J.=.P S m S 4 6 5 ,.-.=.>.>.<.' T =.4.,.Q E G.T ' =.T P R K 3 3 * 4 1 4 S 4 5 ",
"R R R R R R R R ' [ ' R Q T Q Q 1.3.<.>.' ' H.J.[ R ' H.G.' ' <.' <.<.1.<.<.1.J.G.G.G.H.H.H.H.H.H.G.H.H.=.J C m > > 9 A I ,.6.1.1.R.Y.I.I.5.H.J.P.Y.I.I.R.R.R.R.U.U.U.U.U.U.U.U.U.Y.Q.'.`.^.`.(.`..X'.`..X(. X>X,X,X>X,X,X,X,X:X;X:X%XPXKXSXNXCXBXBXZXZXNXBXNXBXBXBXNXDXBXyXyXuXaXeXsXeXuXrXyXsXyXyXVXDXZXDXBXsX7XyXyX7XsXCXMXBXBXDXdXeXuXyXyXyXyXyXyXyXyXyXyXyXyXyXyXyXyXyXyXyXyXrX9XMXDXBXCXCXCXsXrXrX9X7XyXeXyXeXyXrXhXDXMXmXBXBXBXBXBXBXBXZXSXSXSXNXNXNXmXmXBXCXMXmXsXpXNXNXNXNXSXSXSXNXNXNXBXBXBXBXBXBXBXBXBXBXBXBXBXBXBXBXMXBXBXBXBXBXBXDXDXNXbXVXFXFXHXJXLXp   w JXJXSXSXSXNXZXBXBXDXBXBXBXBXBXBXBXBXBXBXBXBXBXBXBXBXBXBXNXBXBXBXBXNXBXBXBXBXBXBXBXBXBXBXBXBXBXBXBXBXBXBXmXCXnXDXJXAXwXp O 8 9 8 ; o + @ PXLX*X.   w.q.  g LXKX3X  O o o 3 2 8 O w *XLXFXNXDXBXBXBXBXDXBXBXBXBXBXBXBXBXBXDXNXNXDXDXFXDXBXBXBXZXZXBXBXBXBXBXBXBXBXBXBXBXBXBXBXBXBXBXBXBXBXnXsXdXaXaXaXaXyX7XyXsXnXaXSX5XwXxX~ 8 9 r ; O o O w O + | } o : & o & r 7 $XPXPXcXSXyXyX7XyX7XsXCXDXmXFXiX8XvX@.w + w.SXcXqXuXsXrXtXuXuXyXuXaXaXyXmXBXCXnXyXyX7XpXyXBXNXnXNXFXqXAXIXt w & O u + O O O O O O O O + O + O O O & o - - $ $ $ $ $ > $ 5 % m E..X^.(.`.~.(.(.~.~.~.W.W.W.W.I.R.R.R.E.R.J.Q.P.W.W.W.U.I.5.Y./.W.Y.4.>.J.P.R.1.1.=.< 4 M 9 Z 3 $ 5 K.4.J.J.J.H.H.2.2.2.1.4.' T J 5 M 4 5 < 1.1.-.4.J.4.T R -.1.,.R T ' T ' >.=.T I R I J 5 3 5 4 Z 3 3 ",
"R R R R R R R R Q R ` R T E T Q 1.<.>.J.<.Q R R T T >.J.G.' T E Y.1.E ' H.I.H.1.G.G.G.H.H.H.H.H.2.G.J.K.,.L M 3 > < Z U K -.K.5.>.Y.Y.W.I.<.1.Y.W.J.2.P.W.R.Y.I.U.U.U.U.U.U.U.U.Y.Y./.(.^..XXX^.^..X`.'..X(.(.>X,X,X>X,X<X,X,X,X<X:X+XAXFXNXNXDXZXBXZXZXNXNXBXBXBXBXmXDXBXyXyXyXyX7XsX7XuXuXyXeXyXyXBXDXmXDXDXiX7XyXyX7XsXCXMXBXBXDXdXeXuXyXyXyXyXyXyXyXyXyXyXyXyXyXyXyXyXyXyXyXyX7X7XMXDXBXZXCXMXyX8XtXyX7XyXyXyXyXyX7XiXMXmXZXDXFXFXFXDXFXFXFXFXFXFXDXDXZXBXBXZXCXZXZXnXgXDXFXFXHXHXJXHXHXFXNXBXBXBXBXBXBXBXBXBXBXBXBXBXBXBXBXMXBXMXMXBXBXBXBXDXnXDXnXNXnXnXSXSX@ X a SXDXSXNXNXnXBXBXBXBXBXCXBXBXBXBXBXBXBXBXBXBXBXBXBXBXBXBXNXBXBXBXNXNXBXBXBXBXBXBXBXBXBXBXBXBXBXBXBXBXBXBXnXDXNXVXSXJXSX+ . ; 2 8 Z ; ; y LXLX3X+ w {.w.X O.LXLXPXO % 1 4 - - &   . #XHXNXDXBXnXBXBXBXDXmXBXBXBXBXBXBXBXBXnXBXBXNXNXNXNXZXBXBXZXZXZXBXBXBXBXBXBXBXBXBXBXBXBXBXBXBXBXBXBXBXnXsXdXaXyXaXaXyXsXyXyXyX5XcXaXKXAXw   O & 8 u y ; & y D t H : o % o o     $XLXFXSXsX9XsX7XeX7XBXBXCXgXCXsX8XvX@.7 + r.LXFXcXyXeXyXyXyXuXyXuXyXyXyXmXBXCXhXrXrXeX7XyXBXCXDXnXZXNXHXKX+ . w : +   7 8 8 ; * = & O o o o o % = $ $ * * $ $ $ $ * > $ 1 % C '.>X'.(.(.~.(.(.~.^.~.I.I.~.~.I.I.Q.E.I.Q.P.~.I.U.U.W.U.Y.5.I.W.I.P.P.J.3.J.W.1.,.R 6 m M M Z 3 $ m E.J.J.J.H.H.H.4.2.2.4.5.=.' J 5 m M 3 % ,.5.1.,.,.=.H.' P -.4.>.E ` >.` ' =.E P ' ,.R 4 3 5 3 S 4 e ",
"E ' R T R ' E Q ' =.E T Q E <.[ R E ' ' E [ >.T K ' ' H.J.>.2.3.2.1.>.>.1.3.3.H.G.G.H.H.H.H.H.H.<.J.4.R.5.4 $ 4 3 1 Y U I =.=.4.P.Y.1.5.K.J.I.Y.J.P.I.R.R.R.I.I.U.U.U.U.U.U.U.U.Q.W.~.`.`.`..X`.`.`..X`..X'.(.>X,X,X,X,X,X,X,X,X<X:X%XAXFXBXBXBXBXBXNXZXZXZXBXBXmXBXZXCXmXyX7XaXsXfXsXsXuXyXuXuXyXsXmXDXBXBXDXsXeXyXyX7XgXDXBXBXBXCXdXrXuXyXyXyXyXyXyXyXyXyXyXyXyXyXyXyXyXyXyXyXyXyX9XnXDXBXZXCXMXmXpX7XeXyXyXyXyXrXyX9XiXZXZXmXbXHXcXFXLXAXLXPXKX0XcXJXVXNXFXnXFXnXDXdXSXFXwXcXwXwX0XwXwXwXwXFXNXBXBXBXBXBXBXBXBXBXBXBXBXBXBXBXBXMXBXBXBXBXBXBXBXBXBXBXBXBXBXNXcX*XC.=XVXDXNXmXBXBXBXBXBXBXBXBXBXBXBXBXBXBXBXBXBXBXBXBXBXBXBXBXNXNXBXBXBXBXBXBXBXBXBXBXBXBXBXBXBXBXBXBXBXBXZXZXZXBXDXNXSXFXbX3X#X+ O 8 8 e ; ; %X2Xt.O w $X{.@ ~ _._.:.r o $ < Z o O.$X#X0XDXDXBXBXBXBXBXBXBXBXBXBXBXBXBXBXBXBXZXZXBXBXBXBXZXBXBXBXBXBXBXBXBXBXBXBXBXBXBXBXBXBXBXBXBXBXBXBXBXBXmXBXnXyXyXaXyXyXyXyXuXyXyXaXaXaX0X&.| r.%X+   o o & e o o O & : . H O.+.@.=XFXNXnXsXdXyXyXeXqXmXCXmXhXDXsX0XAXq.u u O.5X&X5XCX8X7XiXpXrXuXuXyXpXyXhXCXMXmXrXgXiXtXyXBXDXBXDXgXqXSX5Xg + i i } ~ 8 8 9 9 9 9 9 8 ; 1 1 1 1 3 3 3 1 9 1 1 1 * , 1 , 3 $ C 1.E.4.'.(.(.`.I./.~.~.W.W./.W.I.R.R.R.Q.U.U.U.U.U.U.U.U.I.U.Y.3.4.I.W.I.' R.R.>.4.` < 4 9 M M 1 $ 5 K.5.4.4.4.4.5.5.5.5.4.2.-.R J m C 4 > 5 -.K.,.' R R P.1.T ' 4.>.R ' R [ 2.>.R ' T T L 4 3 4 4 Z Z S ",
"T R T T T E E Q E ' T T E >.G.>.T T T Q E 3.3.E K K >.2.>.>.1.H.<.1.<.1.G.2.1.2.G.G.H.H.H.H.H.H.H.Y.>.1.,.m < M 3 9 I R T =.=.J.P.Y.2.1.J.Y.W.J.5.P.I.R.R.I.I.R.U.U.U.U.U.U.U.U.`.~.~./.W.~.'.`.`.`..X`..X'.(.>X,X,X,X,X,X>X,X,X<X:X%XAXFXBXBXBXBXSXNXZXNXBXBXBXmXMXBXBXmXyXqXaXyXeXaXaXyXuXuXuXyXsXNXDXBXBXDXsXeXyXyX7XgXDXBXBXBXCXdXrXuXyXyXyXyXyXyXyXyXyXyXyXyXyXyXyXyXyXyXyXyXyX9XnXDXBXZXCXDXMXgXyXyXyXyXyXyXrXyX9XiXZXZXNXFXSXc X + X : . @ X z 0XFXFXFXFXZXVXHXSXJXcXz   @   . . X X x SXNXBXBXBXBXBXBXBXBXBXBXBXBXBXBXBXBXBXBXBXBXBXBXBXBXBXBXBXBXBXBXBXFXSXVXSXDXnXnXNXBXBXBXBXBXBXBXBXBXBXBXBXBXBXBXBXBXBXBXBXBXBXBXBXNXNXNXBXBXBXBXBXBXBXBXBXBXBXBXBXBXBXBXBXCXMXZXBXNXNXDXDXNXDXDXAXJX3XO.: O 2 - e o : & o 7 ..~ O   O o & & % 2 % o O $XKXSXFXBXnXBXBXBXBXBXBXBXBXBXBXBXBXBXBXBXBXZXZXBXBXBXBXZXBXBXBXBXBXBXBXZXZXBXBXBXBXBXBXBXBXBXBXBXBXBXBXBXBXmXBXnXyXyXaXuXyXyXyXuXuXyXyXaXaXDXcXSXKXLX*X$X4X} o o y y : O   + 3XLXLXHXHXFXnXnXsXsXyXyX7X7XVXDXBXMXCXiXaXSXO.X 7 7 g # b.VXyX7XiXdXyXyXuXyXrX9XsXCXMXMXyXsXrX7X9XBXDXNXmXhXiXnXFXbXKXLXKXLXvX: ; ; 1 1 ; ; ; ; ; ; ; 1 1 0 0 - 1 < 1 1 , 1 1 > 9 * > $ % $ K..X(.`.I./.~.~.W.I.W.W.I.W.R.R.Q.U.U.U.U.U.U.U.U.I.I.I.Y.J.J.J.J.R.I.5.2.P.` < 4 9 M m 3 6 5 K.5.4.4.4.4.H.H.5.5.4.2.-.' J 4 M 4 5 5 -.K.,.' =.1.J.<.' =.>.` T E ' ] >.E T R T P L 4 3 3 4 C e e ",
"T T R T T T R T T E T T E >.G.<.T T Q K E 2.2.' E J >.2.1.H.>.E 1.G.2.2.H.G.2.G.G.G.G.H.H.H.H.H.H.2.J C S * $ 1 4 C R E T =.>.P.J.Y.J.2.2.Y.W.J.5.P.R.W.I.I.I.R.U.U.U.U.U.U.U.U..X`.~.Q.R.~.'.`.`.`. X`..X(.(.>X,X,X,X,X,X,X<X<X<X:X%XAXFXBXBXBXBXSXNXNXNXBXBXBXBXmXBXBXmXyXqXdXaXaXaXaXyXaXaXyXyXgXBXDXBXZXDXsXeXyXyX7XsXDXBXBXBXCXdXrXuXyXyXyXyXyXyXyXyXyXyXyXyXyXyXyXyXyXyXyXrXyX9XmXDXBXZXCXDXBXsXaXyXaXyXyXyXrXyX9XiXZXZXNXSXbXz   + w 7 o @   p AXJXAX0XHXNXFXHXAXLXLX8.. O X X       c FXNXBXBXZXBXBXBXBXBXBXZXZXBXBXBXBXBXBXBXBXBXZXZXMXMXMXBXBXBXBXBXBXnXNXFXDXBXNXBXDXBXBXBXBXBXBXBXBXBXBXBXBXBXBXBXBXBXBXBXBXBXBXBXBXNXNXBXBXBXBXBXBXBXBXBXBXBXBXBXBXBXBXBXMXMXMXZXBXBXVXCXDXVXVXDXFXSXbXe.X   O o o ; t 9 S 8 o : 7 D - o - o o :   . @ #XFXFXDXBXBXBXBXBXBXBXBXBXBXBXBXBXBXBXBXBXBXZXBXBXBXBXBXZXZXBXBXBXBXBXBXZXZXBXBXBXBXBXBXBXBXBXBXBXBXBXBXBXBXmXCXnXyXyXdXyXyXyXyXyXuXyXyXyXaX7XdXVXcXSXvXKXLX*Xw . +   O y w   $XGXSXFXDXgXyXnXsXaXyXyX7X7XnXFXBXCXCXyXdXAXw.X ~ p 7 X @XJXcX7XyXpXpXyXuXpXrXrXpXCXBXBXgXgXyXgXpXBXFXnXdXnXiX8XbXSXJXLXJXKX5X              .         . . . o % o o % % $ 1 $ , 1 < M < % < Q.-X(.'.P.W.!.~.~.J.I.T.I.U.U.I.R.U.U.U.U.U.U.U.U.I.Y.I.W.I.2.1.5.~.5.=.1.P.` 1 4 9 9 4 5 $ 5 K.H.4.4.5.H.H.H.5.5.2.4.,.=.J 4 M 4 5 < -.P.>.T >.K.2.>.,.,.' ` >.' ' T ' ` L R R P L 4 3 3 4 9 4 4 ",
"R R R R T T T R T E T T Q T >.[ Q T R T T ' <.<.1.Q ' 1.H.H.' T H.H.<.>.<.2.G.J.G.G.G.G.H.H.H.H.K.4.m $ < $ < 9 4 m P T R <.1.I.H.J.Y.K.H.H.Y.I.P.I.R.R.I.I.I.R.U.U.U.U.U.U.U.U./.Q.~.~.~.~.~.!.`.`.'.`. X(.(.>X,X,X,X,X,X,X<X<X<X:X%XPXFXCXBXBXBXNXNXNXNXBXBXBXBXmXBXCXmXyX9XcXVXVXcXaXaXaXaXyXyXhXBXDXBXZXDXsXeXyXyX7XsXCXMXBXBXCXdXrXuXyXyXyXyXyXyXyXyXyXyXyXyXyXyXyXeXyXyXyXyXrX9XmXDXBXZXCXZXgXyXyXyXaXaXyXyXrXyX9XiXZXZXNXDXHXe.X + w : y y . i AXJX*.p =XSXJXcX&.O.r.u + O O.#X#XV.B.&XFXNXBXZXZXBXBXBXBXBXBXZXBXBXBXBXBXBXBXBXBXBXZXZXMXMXMXBXBXBXBXCXBXCXNXVXnXNXBXNXnXBXBXBXBXBXBXBXBXBXBXBXBXBXBXBXBXBXBXBXBXBXBXBXBXBXNXBXBXBXBXBXBXBXBXBXBXBXBXBXBXBXBXMXMXMXMXZXBXFXNXCXFXNXnXBXNXNXFXqX*X*X3X4X_.& r 4 M 4 - r 8 e & 2 D : :.xXxXxX3XcXFXBXBXMXBXBXBXBXBXBXBXBXBXBXBXBXBXBXBXBXBXBXBXBXBXBXBXZXBXZXBXBXBXBXZXZXZXBXBXBXBXBXBXBXBXBXBXBXBXBXBXBXBXBXCXmXiXyXdXaXyXyXyXyXyXyXyXyXyXuXaXyX5XaXaXcXdXJXwXwXv.O | xXxXwXbXSXNXNXDXCXsXdXyXyXyXyXrX7XmXDXmXMXCXdX9XVX=X3XxX8.p # @XKX0XaXyXyXdXuXuXsXyXrXiXBXnXnXcXcX0X8X8XnXNXVX7XyX7XdXdXbXNXbXSXFX0XB.B.B.B.V.V.@X@XB.B.B.B.+X+X+X{.;.-.-.1.F 1 9 3 9 1 % 3 1 * 3 6.4.5.(.Q.~./.W.W.I.W.W.T.R.R.I.R.U.U.U.U.U.U.U.U.Y.Y.I.W.I.5.2.J.K.6.,.,.5.` 4 4 3 9 4 < $ 5 J.5.5.5.5.H.H.H.5.5.4.5.,.-.Y 4 9 4 < < ,.K.=.R >.H.,.=.1.1.` >.H.<.T T <.1.R R ' R P m 5 3 3 4 4 4 ",
"E T T R T Q T E >.' T T Q Q E Q R ' ' E T Q T ' 1.1.' <.<.Q ' J.H.2.' T ' 1.G.G.2.2.G.G.G.H.H.H.K.J.V $ 1 < 4 Z M V P T >.H.1.J.J.2.J.I.Y.J.J.I.R.R.I.I.I.R.R.R.U.U.U.U.U.U.U.U.P.Y.W.`.^./.W.U.(.(.'.`. X(.(.>X,X,X,X,X<X<X1X<X<X:X%XPXFXCXBXBXBXNXNXNXBXBXBXBXBXBXBXCXmXyXyXnXFXCXcXaXyXaXaXyXrXhXCXCXZXZXDXsXeXuXuX7XsXCXMXMXBXBXdXrXyXyXyXyXyXyXyXyXyXyXyXyXyXyXyXyXeXyXaXsXdXyX9XmXDXBXCXCXmXiX9XyXyXyXaXyXyXyXyX9XiXZXCXNXNXFX=X| O.i   2 O   +.LXLX| X &XLXLXxXw   + . +   B.JXJXcXVXNXDXBXBXZXZXBXBXBXBXBXBXZXBXZXBXBXBXCXCXBXBXBXZXZXZXMXMXBXBXBXBXCXBXBXBXBXBXBXCXFXDXBXBXBXBXBXBXBXBXBXBXBXBXBXBXBXBXBXBXBXBXBXBXBXBXBXBXBXBXBXBXBXBXBXBXBXBXBXBXBXBXBXMXMXMXMXMXBXBXBXBXCXCXDXDXBXmXhXZXFXHXJXLXLX3X  % < 5 C S < o & o O .   | AXJXJXFXDXZXmXCXMXMXBXBXBXBXBXBXBXBXBXBXBXBXBXBXBXBXBXZXBXBXBXBXBXBXBXBXBXBXBXBXBXBXBXBXBXBXBXBXBXBXBXBXBXBXBXBXBXBXNXCXnXiXyXdXyXyXyXyXyXyXyXyXyXyXuXsXcXyXnXsXgXnXFXFXJX*X  g JXJXHXNXZXDXmXMXmXyXpXyXyXyXyXyX9XmXDXNXmXCXgX9XdXcXKXJX@.X X v.KXcXbXdXqXdXdXyXsXyXrXdXCXSXSXAXKXbXcXcXFXBXDXyXyXdX7XdXNXFXCXFXHXFXHXHXHXHXHXHXJXJXJXJXJXJXLXLXLXLX2X<XlXlX1.$ % % $ * * 9 4 < * S 6 J (.(.`.~.I.J.].`.~.W.W.W.R.R.U.T.U.U.U.U.U.U.Y.Y.P.I.I.I.P.P.1.E.6.1.E.^ 1 9 4 9 4 1 $ 5 K.J.H.H.H.H.5.5.5.5.4.5.,.=.J 4 M 4 < < -.6.-.1.<.=.>.' >.>.R ,.H.>.T T >.1.' R =.T T m 5 5 3 9 9 M ",
"L K K Q T L Q E 2.>.Q T W W W J 1.<.' E T K K K <.J.' >.>.K ' H.3.2.<.` >.G.H.2.2.2.2.G.G.G.G.H.1.J.S 6 4 < 1 M C A =.<.2.Y.3.2.I.<.2.I.I.Y.J.J.Q.R.I.I.R.R.R.I.U.U.U.U.U.U.U.U.W.U./.(.^.!./.W.`.(. X`..X(.(.>X,X,X,X,X<X<X1X1X1X:X%XPXKXSXBXBXNXNXZXZXBXBXBXBXCXBXBXCXmXyXyXmXFXCXdXyXyXyXaXaX9XnXCXCXBXZXCXdXeXuXuX7XsXCXMXMXBXBXdXrXyXyXyXyXyXyXyXyXyXyXyXyXyXuXyXyXeXyXsXnXnXyX7XmXDXBXCXCXZXiX9XyXyXyXyXyXuXyXyX9XiXZXCXmXZXFXHXcXKX3X: : t : O.IXIX| + #XAXPXUXH & : o } p #XbXqX5XiXCXnXBXZXZXZXZXBXBXBXBXBXZXBXZXBXBXBXBXCXBXBXBXBXBXBXBXBXBXBXBXBXBXBXBXBXDXDXBXnXVXBXBXBXBXBXBXBXBXBXBXBXBXBXBXBXBXBXBXBXBXBXBXBXBXBXBXBXBXBXBXBXBXBXBXBXBXBXBXBXBXBXBXBXBXBXBXBXBXBXNXBXDXBXBXCXDXBXMXgXmXDXcXAXKX3Xw t I $ $ 3 % ......+.+.z B.GXVXbXVXZXZXmXMXCXBXBXBXBXBXBXBXBXBXBXBXBXBXBXBXBXBXBXZXBXBXBXBXBXBXBXBXBXBXBXBXBXBXBXBXBXBXBXBXBXBXBXBXBXBXBXBXBXBXNXCXnXiXyXaXyXyXyXyXyXyXyXyXyXyXyXyXdX7X9X9XiXZXnXgXDX=Xp %.bXbXnXnXCXCXCXCXgXiXdXyXyXyXyX7X7XnXDXZXBXCXgXiX9XdX8XVX| + w $XJXSXaXnXyXaXaXeXpXyX7XsXFXHXSX5XxXwXwX0XHXFXZX9X8XyXqXdXDXDXBXnXnXNXVXVXVXVXVXVXVXNXNXNXSXSXSXSXSXPX%X.X:X:X7.4 4 9 4 1 % 1 < < * < % S '.'.~.~.T.I.].`.~.W.W.U.I.U.U.U.U.U.U.U.U.U.I.I.P.Y.I.W.Q.P.,.E.7.7.E.I < C 9 9 4 1 $ 5 K.J.4.4.H.H.5.5.5.5.5.4.-.' A 4 M 4 3 > -.4.,.P.1.T ,.>.=.' =.,.<.` T ` R R T R =.T E m 5 3 3 M C Z ",
"m m V L T Q Q T 1.>.T E ' E >.Q >.<.` K T E T L ' =.Q K ' <.>.E >.G.G.<.1.J.J.2.2.2.2.2.G.G.G.G.4.K.S > 9 1 9 Z C L H.J.G.J.3.J.I.<.2.Y.J.J.J.P.I.I.I.I.R.R.R.I.U.U.U.U.U.U.U.U.(.(.^./.W.^.'.(.'.`. X'..X X(.>X,X,X,X,X1X1X;X1X1X:X%XPXKXSXBXNXNXZXNXZXBXBXBXBXBXNXNXCXmXyXyXmXDXBXdX9XyXyXyXyX7XnXCXCXBXBXBXdXeXuXuX7XgXCXMXBXBXBXdXeXuXyXyXyXyXyXyXyXyXyXyXyXuXyXyXeXeXuXnXBXBXyX7XmXDXBXCXZXZXqX7XiXyXeXyXyXaXyXdX9XiXCXCXMXMXgXBXVXLX3XO O 2 o O D y o   7   o : . : u O.PXAXSXDXhXrXgXCXCXBXZXCXZXZXBXBXBXBXBXBXBXBXBXBXBXZXBXBXBXBXBXBXBXBXBXBXBXBXBXBXBXBXMXMXBXBXBXBXBXBXBXBXBXNXNXNXNXBXBXBXBXBXBXBXBXBXBXBXBXBXBXBXBXBXBXBXBXBXBXBXBXBXBXBXBXBXBXBXBXBXBXBXBXBXBXBXBXBXBXBXBXBXBXBXBXFXDXDXZXnXDXFXSXGXLXPX..- 2 & zXLXLXKXHXSXSXFXbXnXDXDXDXmXnXCXBXBXBXBXBXBXBXBXBXBXBXBXBXBXBXBXBXBXZXZXZXBXBXBXBXBXBXBXBXBXBXBXBXBXBXBXBXBXBXBXBXBXBXBXBXBXBXBXBXNXZXnXiXyXiXyXyXyXyXuXuXuXuXuXuXyXpXsXdXdXdXyXmXDXNXDXFXcXVXFXNXBXDXCXnXBXCXsXpXpXyXyXyXyX9X7XnXDXmXBXCXiXpX7X9XyXSX#.p u w.*XV.=XnXcXyXyXyXpXyXeXcXcXAX#X+ a @ @ z AXFXZXsXyXdXdXdXBXBXBXDXBXCXBXBXNXNXNXmXmXZXNXZXNXZXCXSXCXKX%X-X:X<X<X<XlX<X1X6.* - * 1 3 9 $ K .X!.W.!.~.~.T./.W.I.I.I.P.I.U.U.U.U.U.U.U.U.U.U.I.P.Y.P.P.K.,.6.-.-.7.F < 9 1 3 1 < $ 5 K.5.4.4.4.4.5.5.5.5.5.2.-.P Z 4 M 3 4 < ,.5.=.4.<.' 1.4.=.R 1.1.' R T >.R L P R =.E E m 5 3 3 M M Z ",
"6 $ 5 J T Q Q T ' ' ' >.' E <.<.K E Q J Q 1.2.1.K J J m K I.H.' R 3.H.<.<.2.G.3.G.2.2.2.G.G.G.G.J.K.m % 1 < 4 A C P P.J.3.G.G.W.J.1.J.Y.3.H.J.I.J.P.I.R.R.R.R.U.U.U.U.U.U.U.U.U.(.'.~.P.Y.^.XX'.'.'..X'..X X(.>X,X,X,X,X,X;X;X1X1X:X%XPXKXSXBXBXNXZXNXNXNXBXBXBXCXNXmXBXnX9X9XVXFXBXsXyXdXiXyXyX7XmXCXCXNXBXBXiXeXyXuX7XsXCXMXMXBXBXdXeXuXyXyXyXyXyXyXyXyXyXyXyXyXyXyXeXeXdXnXDXBXyX7XmXDXBXCXZXZX9X7XiXyXeXuXyXuXyXaX9XiXCXCXMXDXhXFXSXJX3X  O . o o o o t 8 o ; O : o .   g LXFXNXgXMXCXMXmXCXZXZXZXZXZXZXNXZXBXBXBXZXBXBXBXBXZXZXBXSXSXSXSXSXSXSXNXBXBXBXBXBXCXCXBXmXBXBXBXBXBXBXBXBXBXNXNXNXBXBXBXBXBXBXBXBXBXBXBXBXBXBXBXBXNXBXBXBXBXBXBXBXBXBXBXBXBXBXBXBXBXBXBXBXBXBXBXBXCXBXMXBXDXDXBXBXhXCXBXnXFXZXgXFXSXJXLXw   O   wXKXSXdXZXCXgXNXZXBXBXgXBXBXNXDXNXBXBXBXBXBXBXBXBXBXBXBXBXBXBXBXBXZXZXZXZXZXBXBXZXZXZXZXZXZXBXCXCXBXBXBXBXBXBXBXBXBXBXBXBXBXBXBXBXNXZXnXiXyXyXyXyXyXyXuXuXuXuXuXuXsXrXyXyXaXyXyXFXmXCXnXBXHXDXnXmXBXmXCXBXBXDXnXpXyXrXyXyXyXyXqXVXFXsXBXFXrXyXrXtXsXcXp X O 7 g a V.cXVXaXyXyXsXyXaXSXJXLX3XX @ @   p KXHXgX9X7XdXqXyXDXCXnXBXNXnXBXBXNXmXmXmXmXmXmXmXmXNXBXZXZXGX|.:X1X<X,X<X<X-X2X7.o - < * * > % J .X!.R.`.`.~.Y.T.T.T.W.W.U.W.U.U.U.U.U.U.U.U.U.R.R.U.P.J.4.4.6.5.-.I I e 1 3 - < < $ % 6 5.1.4.4.4.4.4.5.5.5.5.1.T K C 3 9 3 3 3 K.E.T R ' ,.1.J.' P 4.1.T R P 4.-.T T T =.>.E m 4 5 3 M 9 M ",
"5 , 5 m J m K T Q <.3.E T ' >.=.>.=.L V K 1.<.>.K V m m K <.>.T <.>.>.3.G.3.2.2.1.2.G.H.G.G.G.G.H.J.' ,.I $ 3 A M J K.J.>.I.I.[ J.I.I.3.>.Y.W.J.H.J.I.W.R.U.R.W.U.U.I.I.I.I.U.U././.U.U.!.'. X(.'.'.'.'..X(..X;X,X,X,X,X,X,X<X<X1X1X%XPXFXBXNXBXBXBXDXNXbXbXVXVXVXDXsXCXmXqX8XNXFXFXdX9XiXiXdXdXyXgXDXCXDXdXyX9X7X7XdX8XyXFXMXMXMXCXpX7XyXyXyXyXyXyXyXyXyXyXyXyXyXuXyXyX7XyXmXBXBXrX9XmXDXBXBXBXBXyXrXyXeXuXyXyXyXyXyX7XdXBXBXBXmXZXZXZXDX0X*X3X3X3X3X+ ; ; 1 3 2 7 + ~ @. .#XSXmXgXCXZXgXnXbXbXbXVXbXgXZXDXbXZXnXDXnXZXnXFXBXZXFXVXFXFXAXAXKXSXHXSXNXbXDXBXDXBXBXBXBXBXBXBXBXBXBXBXBXBXBXBXBXBXBXBXBXBXBXBXBXBXBXBXBXBXBXBXBXBXBXBXBXBXBXBXBXBXBXBXBXBXBXBXBXBXBXNXNXNXBXBXBXBXBXBXBXBXBXBXBXBXBXZXNXNXZXCXZXnXSXSXAX3X#XV.#XwXFXnXZXCXZXMXmXDXBXBXBXBXMXBXBXBXBXBXMXMXNXBXBXBXZXZXBXBXBXZXZXZXCXBXZXnXmXCXNXZXNXNXNXNXNXNXSXSXNXNXFXSXVXBXNXBXBXmXBXCXBXNXBXBXNXDXNXiXyXyXuXyXyXyXyXyXyXyXuXuXyXuXuXuXuXyXpXBXBXBXBXBXBXBXZXmXNXBXBXNXBXBXnXiXdXyXyXyXyXyX7XmXDXmXBXBXsX7XrXrXdX8X#X&X3X8.G 7 | SXbXaXcX8XVXcXvX$X4X$X{.w + v. .b.bXFXFX7XyXnX9XsXBXCXZXNXZXZXBXBXBXNXNXNXBXBXZXZXBXNXNXCXCXKX%X:X1X;X;X<X,X-X;X7.6 Z % * * 1 % J '.~./.W.W./.!.U.I.U.U.U.T.U.U.U.U.U.U.U.U.R.I.J.K.R.R.4.2.I.5.5.-.S F S 1 1 C < < S A L K.J.1.4.5.5.2.2.2.2.4.1.5.,.C 4 C 9 < C 1.4.' ' E >.K.,.1.-.T R ' >.=.' T T L T ,.=.E m 5 m 5 4 M Z ",
"< > $ $ 5 6 J K ' >.' Q K T ` R 4.4.' m S <.2.<.J J V m m V J J <.' ' <.2.2.3.>.3.2.G.G.G.G.H.H.4.P.1.P.-.< 3 Z m C 5.K.<.J.J.2.Y.Y.Y.Y.5.Y.Y.Y.I.I.I.I.I.Y.I.I.W.W.U.I.U.U.U.U.Y.I.W.(. X^.~.^.'.'.`.'..X`..X;X,X,X,X,X<X,X<X<X1X1X%XGXFXBXmXBXBXNXFXHXSXSXKXKXSXKXNXCXgX9XdXSXFXFXiX9XiXyXyXyX8XmXDXnXnXyXcXdXbXaXaXaXnXBXCXMXMXCXpX7XyXrXyXyXyXyXyXyXyXyXyXyXyXuXyXyX9XyXmXBXhX9X9XhXCXBXBXCXMXyXrXyXyXuXyXyXyXyXyXeXpXBXBXBXBXNXNXNXFXDXVXHXKXLXvX  O t D ; : + . q.KXJXFXDXmXmXmXmXDXFXHXFXSXSXHXHXSXNXbXFXZXDXnXFXNXCXgXCXVXFXFXJXJXJXKXKXFXHXHXNXNXnXBXmXBXBXBXBXBXBXBXBXBXBXBXBXBXBXBXBXBXBXBXBXBXBXBXBXBXBXBXBXBXBXBXBXBXBXBXBXBXBXBXBXBXBXBXBXBXBXBXBXNXBXNXNXBXBXBXBXBXBXBXBXBXBXBXBXBXZXCXCXZXZXCXFXDXFXHXFXSXSXSXHXNXMXCXhXhXMXmXBXBXBXMXMXMXBXBXBXBXMXMXMXNXBXBXBXZXZXBXBXBXZXZXZXmXZXCXZXmXmXDXFXSXSXSXDXFXFXSXFXFXFXFXSXDXFXDXDXDXmXBXBXBXBXBXBXNXCXNXdXyXuXuXyXyXyXyXyXyXyXuXuXyXuXuXyXuXrXiXBXBXBXMXMXMXMXZXZXNXNXBXNXBXBXnXiXdXyXyXyXyXyXeXmXCXmXBXBXsXrXyXyX7XsXdXFXKXr.7 O q.KXSXcXVXdXdX&Xr.+ . o w . a xXJXbXFXSXCXqXaXyXyXsXBXZXZXNXZXNXBXBXNXNXNXNXBXBXZXZXNXNXNXCXCXKX%X:X1X;X;X<X,X-X<X!.` 7.e < * 9 % K .X~.W.W./.]. X/.U.U.U.T.T.U.U.U.U.U.U.U.R.R.5.2.K.Q.Q.J.4.K.6.5.-.Z F Z < < * o < [.(.K.K.4.4.4.4.4.2.2.2.2.J.4.K.1.A 5 4 5 C < U -.1.Y.G.3.<.' >.=.R ' =.,.,.R T E T E 4.=.E m m 4 5 m M C ",
"> > 5 6 6 6 L Q <.' T Q T R E R ,.2.' m m K J J m m m V J J J K T T 1.H.>.[ 3.3.3.2.G.G.H.2.H.H.1.Y.5.E.,.> < 4 4 4 ,.P.1.4.J.Y.I.3.3.I.I.J.J.Y.Y.Y.Y.Y.I.U.W.W.I.I.I.I.I.I.I.I.U.U.Q.~.~././.~.`.'.`.'. X`. X-X,X,X,X,X<X<X<X<X1X1X%XGXFXNXmXBXHXbXAXJXKXKXKXPXKXvXVXFXhX9X9XdXFXDXsXrXpXiXpXyX8XhXBXCXFXbXAXcXAXSXSXKXVXcXHXMXBXCXpX7XyXrXyXyXyXyXyXyXyXyXyXyXyXuXyXyX9XyXmXBXnXrXrXnXBXBXBXCXMXyXrXyXyXuXyXyXyXyXyX7XpXBXBXBXBXmXNXmXZXZXNXFXbXJXwXp ~ + . : X w a &.cXFXnXhXhXCXgXFXFX5X5XwXxXwX0X5X0XHXSXdXbXFXNXHXFXFXVXFXJXJXB.| | | O.O.O.#XFXFXFXDXDXCXBXBXBXBXBXBXBXBXBXBXBXBXBXBXBXBXBXBXBXBXBXBXBXBXBXBXBXBXBXBXBXBXBXBXBXBXBXBXBXBXBXBXBXBXBXBXBXBXBXBXBXBXBXBXBXBXBXBXBXBXBXBXBXBXBXNXNXNXNXBXnXnXbXbXVXVXSXSXNXbXmXZXmXgXMXDXmXBXBXMXMXMXMXBXBXBXZXZXBXBXBXBXBXBXZXBXBXBXBXBXBXBXnXZXNXCXZXFXHXGXHXKXHXHXHXHXHXKXKXKXJXKXJXJXKXHXFXSXNXBXNXBXZXmXNXCXmXiXyXuXuXyXyXyXyXyXuXuXuXuXyXuXuXuXuXrXiXBXBXBXBXNXBXBXBXBXNXBXBXBXBXBXmXiXdXyXyXyXyXyXeXmXCXmXBXBXsX9XyXyXyXnXgXFXSX@.O 7 w.xX3X3XbXcX&XX w O + . + . # =XFXcXDXNXFXdXcXdXyXnXBXZXBXNXmXNXBXBXBXBXNXBXBXBXZXZXBXBXNXCXCXFX%X:X<X;X;X,X>X-X;XQ.7.6.3 % % < % U  X(.^././.^.^./.W.W.U.U.U.I.U.U.U.U.U.U.U.U.J.5.P.R.R.P.5.5.1.6.^ C Z Z 1 * Z F Y 1.J.>.2.,.4.2.1.1.G.G.G.2.J.2.J.4.L m 4 4 4 $ L 1.,.J.J.2.E T =.' R E E >.>.L K Q K T =.T E C m 5 5 C C C ",
"J J P 5 6 5 T T T Q L Q T T ' T V m S m V J V S [ E E [ ' Q K K J Q H.J.' ' 1.H.3.2.G.2.2.2.H.H.3.J.4.E.-.$ > 4 5 4 ,.P.2.J.J.Y.J.3.2.Y.I.J.J.J.I.I.Y.Y.Y.I.I.I.U.U.U.U.U.R.R.R.R.U.I.P.U.(..X`.`.'.`.'. X(. X-X,X,X,X,X<X<X<X<X1X1X%XGXFXZXNXCXcXx @ a @ X @ X + . x bXNXqX9XnXFXCXiX9XtXrXyXrXtXhXnXBXqX*.&.e.| @.|  .c *.SXnXNXCXpX7XyXrXyXyXyXyXyXyXyXyXyXyXyXyXyXyX7XyXmXBXBXgXgXMXCXBXBXBXBXyXrXyXyXuXyXyXyXyXyX7XpXBXBXBXBXmXZXBXmXNXNXbXNXGXAXAXvX+ @ 3X5XKXFXSXDXnXmXDXmXCXdXHX=X@   @     @   @.SXJXHXSXFX=XV.#XSXHXSXvXAXO.O O + + .   &.FXFXNXBXmXBXBXBXBXBXBXBXBXBXBXBXBXBXBXBXBXBXBXBXBXBXBXBXBXBXBXBXBXBXBXBXBXBXBXBXBXBXBXBXBXBXBXBXBXBXBXBXBXBXBXBXBXBXBXBXBXBXBXBXBXBXBXBXBXBXCXZXDXNXDXFXDXSXFXZXZXNXnXNXDXZXCXmXNXnXNXZXmXBXBXBXMXMXMXBXBXBXZXZXBXBXCXCXCXBXBXBXBXBXBXBXBXBXDXZXmXZXbXSX0X .@.O.O.O.O.@.@.O.O.&.&.O.@.c  .V.HXCXNXBXBXZXZXmXNXCXmXiXyXuXuXyXuXyXyXyXuXuXuXuXyXuXuXuXyXrXiXBXBXBXBXNXBXBXBXBXNXBXBXBXBXBXmXdXdXyXyXyXyXyXeXmXCXmXBXBXsXyXyXyXyXyX8XbXSX@.7 o.7 p   z xXLX=XX @ +XIX3X3X=X&X0XVXgXFXDXVX8X7XdXdXmXBXZXBXNXmXNXBXBXBXBXBXBXBXBXZXZXBXBXNXBXCXFX%X:X;X,X;X>X>X-X,X!.7.6.2 * * 1 $ 5 U ` R.^./.W.Y.U.^.].W.Y.U.T.U.U.U.U.U.U.U.U.R.R.I.J.5.P.U.K.7.6.^ 9 C Z < % -.Q.E.5.4.1.P.K.2.2.1.2.H.G.3.<.>.=.1.5.=.J A J < 5 ,.K.>.<.3.<.R ` 1.<.' R T E >.>.E T T R E P =.C 4 4 4 9 4 M ",
"' ' ' 5 % 6 P ' J P T R T T ,.=.5 6 m m m V m J G.G.J.J.<.T Q E K K >.<.>.G.2.<.3.2.2.2.2.2.G.H.4.J.4.E.-.$ 3 C 5 C 4.J.1.I.Y.J.2.J.K.H.J.I.I.J.Y.Y.I.I.W.R.I.I.I.I.I.I.I.E.R.R.R.I.I.I.I.!.^.Q.`.'.`..X X(. X-X,X,X,X,X<X<X<X<X1X1X%XGXFXNXNXDXHXz     . . + X 7   z JXHX8X5XhXFXCXpXrXrXyXdXyX8XCXHXJXvXg i 8.u w X .   c FXFXNXCXpX7XyXyXyXyXyXyXyXyXyXyXyXyXyXyXyXyX9XyXmXCXCXBXmXCXDXBXBXBXMXyXrXyXeXuXyXyXyXyXyXeXpXBXBXBXBXBXBXBXmXZXDXZXDXbXSXJXAX    xXFXHXFXNXmXnXmXgXmXDXbXHX*XX     . + w . p w.w.5XJXGX@.  a vXJX3X@ } 7 y u 7 7 w X w.FXDXNXCXBXCXBXBXBXBXBXBXBXBXBXBXBXBXBXBXBXBXBXBXBXBXBXBXBXBXBXBXBXBXBXBXBXBXBXBXBXBXBXBXBXBXBXBXBXBXBXBXBXBXBXBXBXBXBXBXBXBXZXBXBXBXBXBXZXBXZXNXDXSXAXbXbXSXVXVXVXNXgXgXNXVXbXbXNXNXbXNXBXDXBXBXBXBXBXBXBXBXZXZXZXBXCXCXCXBXBXZXZXZXZXBXBXBXVXgXNXFXFXJXwX                    . .       @ B.HXSXSXCXNXZXZXZXNXCXmXiXyXuXuXyXyXyXyXyXuXuXuXuXyXuXuXuXyXyXpXBXBXBXNXNXZXZXBXBXNXBXBXBXBXBXmXdXdXyXyXyXyXyXeXmXCXmXBXCXsXyXyXyXrXyXyXBXSX@.  a i +   @.PXLX4X.   %XLXKXFXJXSXbXbXbXNXBXnX8XyXsXgXmXBXBXNXNXNXNXBXBXBXBXBXBXBXBXZXZXBXBXBXBXCXFX%X:X;X,X;X;X;X-X>XE.-.7.- - 1 < < o % A .X,X XU.J.T.`..X/.U.T.!.U.U.U.U.U.U.U.U.Q.!.R.4.3.R.!.P.4.6.-.M C Z 1 % -.[.4.5.I.2.2.2.G.2.2.H.H.H.1.>.Q T -.4.,.T J Y 1 3 -.4.,.2.G.E R >.J.2.=.` T ` =.H.2.E ' =.T T ,.A M M 4 < $ 1 ",
"T R ' m 5 5 J P C J L E T T 1.>.m m J J K Q K J G.<.<.<.' K J K T K E E >.J.3.>.3.2.2.2.2.2.2.H.2.J.4.E.-.6 3 M 3 S 4.J.1.I.Y.2.2.R.I.2.H.W.W.J.Y.Y.I.P.P.P.K.K.I.P.E.E.E.E.E.E.Q.E.!.(.~.!.`..X`.'.'..X X(.(.XX,X,X,X,X<X<X<X<X<X1X%XGXFXNXNXDXbX%.p O.&.@.~ . 7   | PXKX0X8XZXDXCXdXyXyXyXsXaXcXSXwXvXxX8.8.t...u | O.%.C.VXgXmXCXpX7XyXyXyXyXyXyXyXyXyXyXyXyXyXyXyXyX9XyXMXCXCXCXMXBXCXBXBXCXMXyXrXyXyXuXyXyXyXyXyXeXpXBXBXBXBXBXBXBXmXmXZXnXNXFXVXNX0Xx x wXHXNXbXnXnXCXCXmXmXDXNXDX5XB.B.e.~ O y y w O . $XLXKX|   p KXLX*X  O 8 u : 7 i B.v.=XFXBXZXCXMXnXBXBXBXBXBXBXBXBXBXBXBXBXBXBXBXBXBXBXBXBXBXBXBXBXBXBXBXBXBXBXBXBXBXBXBXBXBXBXBXBXBXBXBXBXBXBXBXBXBXNXBXBXBXBXBXBXBXBXBXBXBXBXZXZXCXbXFXHXJXJXJXJXJXJXHXHXFXFXHXFXFXFXJXHXJXHXSXVXBXBXBXBXBXBXBXBXZXZXZXZXBXCXCXCXBXZXZXZXZXZXBXBXFXNXFXSXcXLXxX7 8 8 y y y w w w : : + . p a a V.FXSXSXSXNXZXZXZXNXCXmXiXyXuXuXyXyXyXyXyXuXuXuXuXyXuXyXyXyXyXpXBXBXBXNXNXBXZXBXBXNXBXBXBXBXCXmXdXdXyXyXyXyXyXeXmXCXmXBXDXsXyXyXyXdXpXyXsXcXb.z @.q.p + @.3XUX{.w O t.AXAXqXqXaXaXnXbXNXDXNX9X7XyXnXBXBXBXNXNXZXZXBXBXBXBXBXBXBXBXZXZXBXBXBXBXCXFX%X:X;X,X;X;X;X:X;X!.6.6.- % - * 9 - < Y !.R.P.!.W.T./.~.W.U.T.T.U.U.U.U.U.U.U.U.I.U.R.P.5.R.!.E.1.6.^ C Z Z 1 % 7.E.1.5.P.2.G.J.G.G.H.H.H.2.<.>.R =.,.,.,.=.K A 4 3 J =.-.1.<.Q Q ' 1.>.' ` T [ R 1.,.T E ' L T T C m m 3 > $ 1 ",
"R R =.K L C 6 < 6 5 m P T P ,.T 6 5 T 1.2.2.<.<.E Q K Q E ' ' ' K R >.T ` 2.<.4.1.2.2.2.3.2.2.4.2.5.2.E.=.$ < 3 5 m ,.K.4.H.2.H.H.I.P.2.J.W.I.J.P.P.E.R.Q.Q.).'.).).(.).).).).).).).'.XX~.Q.~.~.(.'.'. X X(.(.XX,X,X,X,X,X,X,X<X<X;X%XPXFXNXNXZXHXVXSXLXLXLX5Xp 7 : o.*XwXcXqXiXZXmXdXqXaXaXcXqXxX3Xp w O.u ..~ ~ } xXAXSXFXFXCXmXCXpX7XyXyXyXyXyXyXyXyXyXyXyXyXyXyXyXyX9XyXMXCXMXCXCXMXCXBXBXCXBXyXrXyXyXyXyXyXyXyXyXeXpXBXBXBXnXBXBXCXDXBXCXBXnXFXDXNXFXFXSXDXnXnXCXDXMXnXMXCXmXZXZXDXSXFXHXJX3X+ : w 7 7 O {.xX3X} @ i 3XxX%X8 8 u 7 y $X5XJXFXFXFXnXMXMXDXCXBXBXBXBXBXBXBXBXBXBXBXBXBXBXBXBXBXBXBXBXBXBXBXBXBXBXBXBXBXBXBXBXBXBXBXBXBXBXBXBXBXBXBXBXBXBXBXBXNXNXBXBXBXBXNXBXBXZXZXBXBXBXBXBXSXFXHXxX0XAXvXvXvXAXvXvXAXvXvXvXAXAXvXvXvX0X0XHXZXBXBXBXBXBXBXZXZXZXZXZXZXZXZXZXBXBXZXZXZXZXZXZXCXNXVXV.z | H . - - - - - - - & & ; + y 3XGXxXHXDXSXCXDXCXBXZXBXNXCXmXiXyXuXuXyXyXyXyXyXuXyXuXuXyXuXyXyXyXyXiXBXBXBXBXBXBXBXBXBXNXBXBXBXBXCXmXdXdXyXyXyXyXyXeXmXCXmXBXDXcXyXaXyXpXyXyX9XVXcXAXLXPX@.O + O : 7 : o q.PXKXdX8XyXVXNXCXZXDXnX7XiXmXmXMXBXNXNXNXZXZXBXBXBXZXZXZXBXBXZXZXBXBXBXBXCXFX%X:X:X,X;X;X>X-X,X-X.X-XZ < 9 8 8 3 - $ 5 % J (.^.R.I.I.U.U.U.Y.U.U.U.U.U.U.U.U.Y.4.P.R.U.P.I.P.I ^ F M Z Z < % I P.K.J.J.2.J.J.G.G.G.H.G.2.1.1.2.4.=.P R -.L S 3 3 A E ' R E >.' >.<.E ` ' ` >.>.=.=.E T E R R m 5 5 < 1 3 < 4 ",
"` R R K ' J % % $ $ 3 -.1.=.4.E m 5 T 4.<.T Q ' <.<.>.' E ` <.H.R ' <.T ' 4.<.J.1.2.2.3.3.2.2.4.H.J.2.E.-.6 3 3 4 5 >.P.H.1.>.Y.J.J.2.2.Y.I.J.5.P.J.,.T S m m M C C S S S S S S A K ,.P.E.~.(.U.(.'.'. X X(.(.XX,X,X,X,X,X,X,X,X,X;X%XPXFXNXNXZXNXDXHXAXcXJX=X  o O o O  .0XFXNXFXFXAXAXAXSXSXAXxXwX~ w ~ O y + X a vXcXqXBXhXhXmXCXpX7XyXyXyXyXyXyXyXyXyXyXyXyXyXyXyXyXrXyXMXCXMXCXCXBXBXBXBXCXBXyXrXyXrXyXyXyXyXyXyX7XpXBXBXBXBXDXmXBXCXmXBXCXNXBXNXnXnXDXDXZXBXBXBXBXBXMXmXCXBXnXBXNXDXSXbXJX*X  O + o u O : . 7 . O . O + + : 8 7   p KXFXDXBXMXmXmXDXMXDXmXBXBXBXBXBXBXBXBXBXBXBXBXBXBXBXBXBXBXBXBXBXBXBXBXBXBXBXBXBXBXBXBXBXBXBXBXBXBXBXBXBXBXBXBXBXBXBXBXNXNXNXBXBXBXNXNXZXZXZXBXBXBXBXZXVXHXcXx   @ @ X O + @ @ + @ @ @ X @ O O X   z SXZXZXBXBXBXBXBXBXZXZXZXZXZXZXZXBXCXCXBXZXZXZXZXZXmXDXFXe.    o 2 1 5 1 1 1 1 - ; & &     3XJXSXNXNXNXDXFXCXNXBXZXNXCXmXpXyXuXuXyXyXyXyXyXyXyXuXuXyXuXyXyXyXyXiXBXBXBXBXBXBXBXBXBXNXBXBXBXBXCXmXdXdXyXyXyXyXyXeXmXCXNXBXCXcXyXaXyXyXyXsXyXdXaXcXxXKXi . H 0 & r D o {.LXHXgXiXdXyXiXnXmXFXmX7X9XsXmXMXBXNXNXNXZXZXBXBXBXZXZXZXBXBXZXZXBXBXBXBXCXFX%X:X;X,X;X;X-X-XXX.X-X:XC $ 4 3 ; ; 1 - 5 o V (. XW.Y.I.U.W.T.I.U.U.U.U.U.U.U.U.Y.>.5.!.R.5.5.0.4 C 9 4 Z Z 1 % -.P.J.J.J.3.J.H.G.G.H.2.2.2.4.5.5.5.I m C L L A < 3 A =.,.R ' J.J.G.<.E ' <.' <.4.L R E K P R R $ > 3 > > 4 3 4 ",
"T ` ` ' ' P A A 4 $ 5 Y L K K C m J =.>.K Q >.E K.<.3.3.J T R.H.T ` ' ' >.1.1.<.2.<.1.2.2.1.2.H.J.5.5.E.-.< < 3 5 m ,.P.H.2.<.J.Y.J.H.W.P.,.J.Q.Q.4.m $ > 5 3 $ * $ $ $ $ % $ * > S U K ` .X(.!.`. X X X.X X(..X.X>X<X,X;X,X,X>X<X;X$XAXHXNXZXZXDXbXbXNXFXSXwXb.3X8.. O O.AXbXVXNXJXwX=XxX5XxXwX4Xq.} p w.+Xr.B.w.V.5XaXsXBXCXMXmXZXpX7XrXeXyXyXyXyXyXyXyXyXyXyXyXuXyXyX9XyXMXCXCXCXCXCXBXBXBXBXBX9XrXyXyXyXyXyXyXyXyXrXiXBXBXMXBXBXBXBXBXBXBXBXBXBXBXBXBXBXBXBXBXBXBXBXBXBXBXBXBXBXBXBXBXBXBXSXV.g w i i : 7 7 y : ; y & 8 : 7 ..O y w  .0XNXBXBXBXBXBXBXBXMXMXBXBXBXBXBXBXBXBXBXBXBXBXBXBXBXBXBXBXBXBXBXBXBXBXBXBXBXBXBXBXBXBXBXBXBXBXBXBXBXBXBXBXBXBXBXBXBXBXNXNXBXBXBXBXNXNXZXZXBXBXBXBXZXZXNXFXSXg         . O o o o O O . o + o . O   #XFXFXnXFXZXmXCXCXBXnXDXDXNXDXDXNXZXNXSXDXNXCXDXnXDXZXNXHXB.. w ; & 4 1 % 3 - - 2 - & w &.e.0XHXbXNXZXBXBXCXCXCXCXBXBXNXBXyXuXyXuXuXuXyXyXyXuXuXuXuXyXaXyXuXpXyXdXCXBXBXNXNXNXNXNXNXBXBXBXBXBXBXnXsXsXyXyXyXyXyXyXmXBXNXNXFXVXyXaXyXyXyXyXiXiXyXaXcXPXg : H 8 8 S D o v.KXFXiXyX7XVXCXZXZXDXmXrXyXiXsXsXBXNXZXCXNXZXNXNXNXBXBXBXNXNXBXBXBXBXNXBXCXKX%X:X;X;X>X>X>X:X;X X(.-X1 3 9 8 1 8 ; 2 < % S (.Q.U.U.T.U.U.T.T.U.U.U.U.U.I.I.I.P.5.U.P.R.3.-.7.S C Z Z Z M 5 % E E.4.4.P.2.K.2.H.H.H.J.4.1.H.K.5.,.P m J A I A 5 3 A -.=.=.=.,.J.>.' R >.J.<.T ' R =.-.R L I R > < 1 > > M A Y ",
"T ` T T ' ' ' -.3 $ $ < 6 $ $ % L T 2.,.K R G.1.T ' >.G.' T <.' <.>.' ` >.2.H.2.2.1.3.2.4.2.2.2.H.5.4.E.-.< < 4 6 4 ,.5.,.1.<.I.H.2.<.J.R.5.5.5.4.,.J Z A A J S Z Z Z Z Z M Z S Z I I K =..X(. X'..X'.'..X(.(..X X;X<X,X>X,X,X,X<X:X%XAXHXNXZXZXmXmXCXZXSXFXHXSXLX%XO o O.AXvXcXJXAX@.@ p + p p w i ~ w +XKXJXSXSXcXbXyX7XnXMXmXmXZXpX7XyXeXyXyXyXyXyXyXyXyXyXyXyXuXyXyX9XyXMXCXCXCXCXCXBXBXBXBXnX7X9XyX9XyXyXyXyXyXyXrXiXBXBXBXBXBXBXBXBXBXBXBXBXBXBXBXBXBXBXBXBXBXBXBXBXBXBXBXBXBXBXBXBXBXBXCXJXGXKXLXAXq.w u y 8 ; D r t 8 7 7 y 3XJXSXFXMXMXMXBXBXBXBXBXBXMXBXBXBXBXBXBXBXBXBXBXBXBXBXBXBXBXBXBXBXBXBXBXBXBXBXBXBXBXBXBXBXBXBXBXBXBXBXBXBXBXBXBXBXBXBXBXBXBXNXNXBXBXBXBXNXNXZXBXBXBXBXZXZXZXNXSXFX5XwXwX3X+.+ 2 ; 2 8 ; 7 8 : ; 8 r o 7 AXJXNXgXmXZXZXCXnXNXHXSXDXZXnXmXNXDXHXSXFXDXnXmXNXDXNXNXJX+X  : ; 1 o 1 1 2 - e ; O   @.AXKXHXDXiXDXBXBXBXBXCXCXCXBXBXNXBXyXuXyXuXuXyXyXyXyXuXuXuXuXyXuXyXyXdXyXdXBXBXBXNXNXBXBXNXNXBXBXBXBXBXBXmXsXsXyXyXyXyXyXyXmXBXNXNXFXVXyXaXyXyXyXyXyXyXyXyXaXAXp o G F S e 2   v.JXHXgXyX8XcXCXZXZXDXnX9XyXyXpXsXmXNXBXZXmXZXNXBXBXBXBXBXNXBXBXBXBXBXNXBXCXKX%X:X;X>X>X>X>X:X;X X X-X5 3 9 8 1 8 ; 1 1 % S (.!.U.U.U.U.U.T.U.U.U.U.U.U.I.I.I.I.I./.5.I.E.P.5.Z C Z Z Z C 3 % -.E.1.5.P.1.J.H.J.4.H.4.4.4.1.,.=.4.T m J K L C m 5 Y -.-.=.,.1.L T >.` R 1.1.1.Q =.5.5.T 4 5 4 < < 1 * 6 M L I ",
"R ` T T R ' =.-.C C 5 $ $ $ $ 5 T R ,.>.L R 1.<.[ <.W ' 3.' K K 4.<.` R =.1.4.2.2.2.1.1.4.J.H.2.H.4.4.E.-.$ < C > C ,.5.4.H.3.J.2.2.>.H.R.E.E.K.R I A Z C 4 m 4 1 3 9 9 9 9 9 M C Y U P 1..X)..X X.X X X X(.(. X(.-X<X,X>X,X,X,X,X:X$XAXHXNXZXZXCXCXDXZXbXNXDXFXLX$Xo + q.LXLXLXLXPXt.7 } H ....D ..| w v.SXSXqXaX7XyX7XyXDXDXBXmXZXpX7XrXeXyXyXyXyXyXyXyXyXyXyXyXuXyXyX9XyXMXCXCXCXCXCXBXBXBXBXnXyXiXyX7XyXyXyXyXyXyXrXiXBXBXBXBXBXBXBXBXBXBXBXBXBXBXBXBXBXBXBXBXZXBXBXZXZXBXBXBXBXBXBXBXBXBXBXSXFXHXJXKX&.  X . : o r t & . o . @ =XJXDXMXhXMXMXBXBXBXBXBXBXMXBXBXBXBXBXBXBXBXBXBXBXBXBXBXBXBXBXBXBXBXBXBXBXBXBXBXBXBXBXBXBXBXBXBXBXBXBXBXBXBXBXBXBXBXBXBXBXBXBXNXBXBXBXBXBXBXZXBXBXBXBXBXBXZXDXVXSXFXHXJXKX&.  O & ; 8 & & ; - % - y o w PXKXFXFXNXmXCXZXhXDXNX8XNXFXZXmXDXFXSXwXAXHXDXZXFXNXHXFXKX#X+ ; & ; - 2 - O o :   y @ e.HXHXFXNXnXDXBXBXBXBXBXBXBXBXBXNXBXyXuXyXuXuXyXyXyXyXuXuXuXuXyXuXyXyXdXyXdXCXBXBXZXZXZXZXZXZXBXBXBXBXBXBXmXsXsXyXyXyXyXyXyXmXBXNXNXFXnXqXaXyXuXyXyXyXyXyXyXaXKXp o u r - % w . r.AXDXsXyXyXNXDXZXZXDXnX9XyXyXyXiXmXmXNXZXmXZXNXBXBXBXBXBXBXBXBXBXBXBXNXBXCXKX%X:X;X>X>X>X>X>X>X.X X-X5 3 9 8 3 8 ; 1 < % S (.^.W.U.U.U.T.W.U.U.U.U.U.U.I.I.I.U.U.R.2.P.E.E.6.C M Z S Z C 3 % -.P.4.K.I.4.K.J.K.K.J.5.K.K.4.-.6.E.-.5 J K L A < 6 S R I R 1.4.L ' 1.=.L P T T T -.E.E.-.5 > 1 > $ > , 6 M T T ",
"R R R R R T T I -.,.L 5 < 3 5 C E L ' >.E T E T >.<.Q T 2.>.K E 1.,.' ' >.,.1.2.4.2.1.1.2.4.4.H.H.4.4.E.-.$ < A -.-.1.2.H.Y.2.<.1.Y.J.P.5.=.R -.S Z 9 9 M M Z J F F F F F F Y U A A Y U -.6.=.P..X X X X X(.(. X).-X<X,X>X,X<X,X,X:X%XAXHXNXZXMXmXnXNXDXDXDXDXSXJX+Xo & H %X{.+X+X%Xo.7 } ~ H H ~ i ~ O.5XHXSXbXyXyXyX7XyXBXBXnXmXZXpX7XyXeXyXyXyXyXyXyXyXyXyXyXyXuXyXyX9XyXMXCXBXBXBXBXBXBXBXBXCXnXmXsX7XyXyXyXyXyXyX7XiXBXBXBXBXBXBXBXBXBXBXBXBXBXBXBXBXBXBXBXBXZXBXBXBXBXBXBXBXBXBXBXBXBXBXBXmXNXcXcXFX3Xe.r.w.r.7 y u O i r.3X#X0XNXgXMXCXDXMXBXBXBXBXBXBXBXBXBXBXBXBXBXBXBXBXBXBXBXBXBXBXBXBXBXBXBXBXBXBXBXBXBXBXBXBXBXBXBXBXBXBXBXBXBXBXBXBXBXBXBXBXBXBXBXBXBXBXBXBXBXBXBXBXBXBXBXBXBXBXBXZXNXZXZXbXbXKX*X  w o o ; ; 1 1 - 9 - 1 ;   } g AXFXZXZXCXCXnXDXa @ C.DXbXNXFXFXp @ e.AXVXNXHXbXe.&.q.~ o ; * ; 2 & & 7 : + @ 3XxXdXHXNXBXFXBXVXBXBXBXBXBXBXBXBXZXBXBXyXuXyXuXuXyXyXyXyXuXuXuXuXyXaXyXyXyXyXdXDXBXBXZXZXZXZXZXZXBXBXBXBXBXBXmXsXsXyXyXyXyXyXyXmXBXNXNXFXnXqXaXyXuXyXyXyXyXyXyXaXSXp O G 8 * H 4X+X5XFXDXsXyXyXVXDXCXZXDXmX9XyXyXyXyXmXmXNXZXmXZXNXNXBXBXBXBXBXBXNXBXBXBXNXNXCXKX%X:X;X;X>X>X>X>X>X.X.X-X5 3 9 8 8 8 - < - % S .X`.W.U.U.U.U.W.U.U.U.U.U.U.I.I.I.I.5.P.5.E.7.....C M Z S Z M 3 % -.E.5.5.P.5.4.E ,.,.,.-.,.,.-.K 6 C 5 5 J K L J 4 5 Z S 4 3 Z A ,.,.2.1.,.,.' T T R =.,.L 1 > 4 < $ 3 J J L =.E ",
"R R ' ' ' ' R T -.1.I $ 6 5 $ 5 >.L L >.>.' T K Q [ >.<.<.R K ' 4.,.' =.1.1.1.4.1.2.2.4.J.2.1.J.H.2.1.E.-.$ < L K.1.,.' 1.I.Y.J.` H.Y.P.,.5 $ > 3 3 4 3 3 4 C I 6.7.-.-.-.,.-.-.U I I ` ` I A 5.XX X X X X X X X).-X<X,X>X,X<X,X<X:X%XAXHXNXZXMXDXCXDXFXDXNXNXSXJX@XO & o ; . O o O O . . O : 7 : O } @XKXJXAXVXaXyXaX7XaXCXFXBXmXZXpX7XyXeXyXyXyXyXyXyXyXyXyXyXyXuXyXyX9XyXMXCXBXBXBXBXBXBXBXBXDXBXCXnX9XyXyXyXyXyXyX7XiXMXBXBXBXBXBXBXBXBXMXMXBXBXBXBXBXBXBXBXBXBXBXBXBXBXBXBXBXBXBXBXBXBXBXBXFXFXFXSXHXFXHXKXLXPXi . X X e.LXHXDXFXZXhXMXhXhXMXBXBXBXBXBXBXBXBXBXBXBXBXBXBXBXBXBXBXBXBXBXBXBXBXBXBXBXBXBXBXBXBXBXBXBXBXBXBXBXBXBXBXBXBXBXBXBXBXBXBXBXBXBXBXBXBXBXBXBXBXBXBXBXBXBXBXBXBXBXBXBXNXZXDXnXNXZXHXbXxXxXO.O : ; 8 % & 2 - ; D &     AXJXSXZXgXmXZXFX@ X #XJXFXFXFXGXa X w.JXFXVXJXxX.   . o o 1 - ; & o ; 7 O     xXHXNXFXbXNXNXDXCXBXBXBXBXBXBXBXBXZXBXCXyXuXyXuXyXyXyXyXyXyXyXyXyXyXaXyXyXyX7XdXDXBXZXZXZXZXZXZXZXBXBXBXBXBXBXmXdXsXyXyXyXyXyXyXmXBXnXNXFXcXyXaXyXuXyXyXyXyXyXyXaXAXp O H 8 o :.LXKXFXFXZXnXyX0XbXDXCXZXDXnXyXyXiXyXyXmXNXBXZXNXZXBXBXBXBXBXBXBXBXNXNXNXNXNXBXCXKX%X:X;X;X>X>X,X,X,XXX.X-X3 3 9 9 4 2 - - - o S .X`./.U.U.U.U.W.I.U.U.U.U.U.I.U.I.J.>.4.E.E.I A A Z C S S C M 1 % I E.P.6.K.5.,.C 5 m 4 5 5 4 < $ $ < < m S J J m 6 4 5 $ $ % $ 4 J.,.-.1.4.=.P K R L L L S > * 3 * % 1 R =.T =.T ",
"' R ` ' R R ' R T =.K $ 6 3 $ 5 4.' L ` >.[ E T T E 3.G.<.E K T 1.>.R ' 2.2.,.4.1.4.4.4.J.5.1.H.2.2.1.E.-.% < I ,.,.-.=.1.J.J.J.2.P.J.J.,.Z 3 Z < 9 S Z M m C I 5.1.,.-.-.-.-.` 5 Y R -.-.-.U ).XX X(. X X X X X).-X<X,X>X,X,X,X,X:X%XAXHXNXZXMXmXmXNXZXZXNXZXDXJX+Xo y ; e ; D r 7 o.} p p i i g O.#X3XAXKXFXNXqX0XqX9XcXCXBXmXmXZXpX7XyXeXyXyXyXyXyXyXyXyXyXyXyXuXyXyX9XyXMXCXBXBXBXBXBXBXBXBXCXNXDXnX7XyXyXyXyXyXyX7XyXMXBXBXBXBXBXBXBXMXMXBXBXBXBXBXBXBXBXBXBXBXBXBXBXBXBXBXBXBXBXBXBXBXBXBXnXiXZXmXnXgXDXAXHXxXp   X @ b.HXiXgXmXCXCXMXZXMXMXMXBXBXBXBXBXBXBXBXBXBXBXBXBXBXBXBXBXBXBXBXBXBXBXBXBXBXBXBXBXBXBXBXBXBXBXBXBXBXBXBXBXBXBXBXBXBXBXBXBXBXBXBXBXBXBXBXBXBXBXBXBXBXBXBXBXBXBXBXBXBXNXZXDXnXBXZXgXVXHXAXg   . O ; 8 8 - 2 * ; 8 ; : AXKXAXFXmXnXCXFXp a @XPXGXKXLXLXp X w.LXJXvXLXKXO : : 8 ; 1 & * & - : o . z p wXFXnXZXNXDXVXCXDXBXBXBXBXBXNXBXBXZXBXCXyXuXyXuXyXyXyXyXyXyXyXyXyXyXyXyXyXyXyXdXDXZXZXZXZXZXZXZXZXBXBXBXBXBXBXmXdXsXyXyXyXyXyXyXmXBXmXNXFXnXyXaXyXyXyXyXuXyXyXyXyXSXp O G 9 o } LXSXbXnXNXnXyXaXNXDXZXZXDXnX9XyXiXrXiXmXNXBXZXNXZXBXNXBXBXBXBXNXBXNXNXBXNXNXBXCXKX%X:X;X;X>X>X,X,X,XXX.X-X3 3 9 8 3 3 - < * % S '.^.W.U.U.U.U.W.R.U.U.U.U.U.I.U.I.5.2.5.E.E.I H F Z C S S M M 3 $ ,.Q.Q.K.E.Q.6.S 4 C C 9 4 4 4 1 > > $ 5 5 J J m < C 5 % < < 1 A 6.6.,.5.1.P J L L L L U A 3 , 1 % $ 5 P =.Q E Q ",
"' R R R T R ` T ' -.I < < 4 $ 5 4.1.' L T ' [ [ [ Q W ' >.2.<.' R ` R =.1.>.=.4.1.J.,.' ,.5.4.2.2.2.1.E.-.% > I -.,.1.1.2.1.>.<.J.2.J m 4 > * 1 * 9 U I -.6.6.P.4.5.5.5.4.5.4.1.S P K Z A R L E.XX(.).(.(.(. X(.).-X<X,X>X,X,X>X<X:X%XAXHXNXZXZXCXZXZXZXDXDXNXVXJX+X. y 2 r e H H u 3XAXxXcXAXAXvXAXJXSXVXDXFXdXdXqXqX0XyXVXmXCXmXCXpX7XyXeXyXyXyXyXyXyXyXyXyXyXyXuXyXyX9XyXMXCXMXMXMXMXBXBXBXBXBXmXCXgX7XyXyXyXyXyXyX7XyXBXBXBXBXBXBXBXBXZXMXMXMXMXBXBXBXBXBXBXBXBXBXBXBXBXBXBXBXBXBXBXBXBXBXBXFXBXDXZXCXmXZXnXSXFX*X*X*X*X0XFXZXZXmXCXZXmXCXmXMXMXMXBXBXBXBXBXBXBXBXBXBXBXBXBXBXBXBXBXBXBXBXBXBXBXBXBXBXBXBXBXBXBXBXBXBXBXBXBXBXBXBXBXBXBXBXBXBXBXBXBXBXBXBXBXNXBXNXNXBXBXBXBXZXZXBXBXBXBXZXZXMXBXDXBXBXDXmXZXDXAX*. .O.O . & ; & 2 1 & 1 1 o y p %.NXCXmXDXFXa   w ~ p p p i u o O.PXxX| ~ ..o 1 * < * - * ; - - ; o w xXAXHXFXNXbXbXFXNXBXNXNXNXBXNXNXZXBXNXZXBXCXyXuXyXyXyXyXyXyXyXyXyXyXyXyXyXeXaXmXnXVXDXZXZXZXZXZXZXZXZXBXBXBXBXBXBXmXsXsXyXyXyXyXyXyXmXBXmXNXFXnXyXuXyXyXyXyXaXaXyXyXyXAXp O G D & } JXAXbXNXDXnX9XqXcXDXNXNXDXnX9XyXyXrXiXBXBXBXZXmXZXBXBXNXNXBXBXBXBXZXZXBXBXNXBXDXKX:X:X;X;X>X>X,X,X,X-X.X-X3 3 9 4 3 3 < < < % S '.!.U.U.U.U.U.W.W.U.U.I.I.U.I.U.I.P.5.K.E.E.I H F Z C Z Z M M 4 < C Y A A Y Y S 5 4 4 4 9 4 4 1 5 > 3 3 I ' ,.' J I R S < < < < 4 < m m J J m C A M C Z Z Z 3 * * 3 Y Y T ' T ' E ",
"R T R ' E ' ' R R =.T 5 6 3 $ 3 ,.K.1.K K ' <.3.<.T Q Q ` 2.>.' J R ,.J.4.' ' K.5.K.=.S T 5.J.2.1.2.1.E.-.o $ U -.,.,.,.1.<.1.4.P.1.m % > > 1 9 < 1 Z U 1.E.5.4.>.5.I.I.P.P.R.R.E.E.K $ 4 -.^ 5..X).^.(.(.(. X(.).-X<X,X>X,X,X;X,X:X%XAXHXNXZXZXmXZXZXZXZXZXNXSXKX+X. y 2 e ; 8 & . 3XKXqXqXaX0XcX8XVXDXDXFXFXcXqXqXcXaXqXyXyXmXmXCXpX7XyXeXyXyXyXyXyXyXyXyXyXyXyXuXyXyX9XyXMXCXMXMXMXMXBXBXBXBXBXBXDXgX7XyXyXyXyXyXyX7XyXBXBXBXBXBXBXBXZXZXMXMXMXMXMXBXBXBXBXBXBXBXBXBXBXBXBXBXBXBXBXBXBXBXBXBXNXCXBXgXCXZXZXmXNXHXSXJXHXFXHXNXmXZXmXCXmXmXFXnXBXMXBXBXBXBXBXBXBXBXBXBXBXBXBXBXBXBXBXBXBXBXBXBXBXBXBXBXBXBXBXBXBXBXBXBXBXBXBXBXBXBXBXBXBXBXBXBXBXBXBXBXBXBXBXBXNXNXNXNXNXBXBXBXZXBXBXBXBXBXZXZXCXnXBXDXnXBXDXmXhXFXcXJXKX}   7 : y ; 2 8 1 1 2 +   p GXHXSXHXJXp   X X . X . O + . q.LXPXy . o * Z % * < 3 ; ; & O 7 . X vXJXVXbXZXDXVXFXVXZXZXNXZXNXNXNXZXNXNXDXCXDXyXaXyXyXyXyXyXyXyXyXyXyXyXuXyXyXsXDXDXNXFXSXSXSXSXZXDXZXZXBXBXNXBXBXBXmXsXsXyXyXyXyXyXyXmXBXmXNXFXVXyXuXyXyXrXyXyXyXyXyXaXAXg + D 0 o ~ KXqXdXnXZXnXaXdXcXNXnXnXZXnX7XyXyXrXiXBXBXBXZXnXZXBXBXNXNXBXBXBXBXZXZXBXBXNXBXDXKX:X:X;X;X>X>X,X,X<X-X.X-X3 3 9 9 1 4 < < > % S (.Q.U.U.T.U.U.Q.W.U.U.U.U.U.I.U.I.R.P.5.E.0.F S F Z C Z C M M M 3 $ $ % < < $ - 4 1 1 1 4 4 1 < * $ $ % T 4.5.,.4.P K C - * 1 4 9 $ 3 > 5 M m M 4 9 M 1 < 9 3 * % M ,.=.T T L ' T ",
"E R T T E R T T =.=.E 6 < 3 > 5 >.1.>.L K T [ G.[ Q Q T ' [ <.>.J L K.I.G.[ 4.2.P.=.=.=.=.Y.J.H.G.2.4.P.I $ < C Z M ,.,.2.2.,.,.,.-.5 % 3 < * > < < U U 1.P.P.P.5.U.W.Y.^.R.R.).E.E.L 6 S U 7.R ..-.1.Q.(.'.(. X^.-X<X<X<X<X>X;X:X:X%XAXKXNXZXMXmXmXFXCXZXFXFXKXLX%Xo r e e y t w @ &XVX8XeXrX7XyXqXcXCXDXDXDXbXqXdXaXyXaXyXaXVXBXNXyX7XyX7X7XpXyXyXyXyXyXyXyXyXuXyXeXyX7XyXBXBXBXZXBXBXBXBXBXBXBXBXCXmX8XaXyXyXyXyXyXyXiXnXCXMXBXBXBXBXMXMXmXmXmXZXZXBXBXCXCXCXBXBXBXBXZXBXBXBXBXZXBXNXBXCXBXBXBXBXBXBXCXMXmXDXBXNXSXSXNXNXBXBXBXZXBXBXBXBXBXBXBXBXBXBXBXBXBXBXBXBXBXBXBXBXBXBXBXBXBXBXBXBXBXBXBXBXBXBXBXBXBXBXBXBXBXBXBXBXBXBXBXBXBXBXBXBXBXBXBXBXBXBXBXBXBXBXBXBXBXBXBXBXZXZXBXBXBXBXBXBXBXBXBXBXBXBXBXBXBXBXCXCXbXFXFXi   . O 8 & & 1 8 % e : o ..3XvXxXxXxX+ O q d q # # # # # i *X{.; ; 8 * 1 * 1 * % ; O   +     @ 3XHXSXNXZXBXBXBXBXBXBXNXZXZXBXNXNXNXZXFXFXSXcXcXcXbXaXsX8X7XnXsX7XeXuXsXrX8X8XDXNXFXFXVXHXSXSXHXDXFXnXBXDXDXBXNXBXmXsXhX7XyXyXrXyXyXMXBXBXBXDXdXdXuXyXrXrXrXyXyXyXyXaXSXg + G 9 o } LXKXbXHXNXbXqXqXbXbXNXNXnXsXiXrXrXrXpXMXBXBXNXBXDXBXBXBXBXZXZXBXBXBXZXBXBXNXNXSXKX1X-X;X,X>X>X,X,X<X.X-X-Xe 1 9 4 9 < * 1 1 o Y ).Q.U.U.T.W.T.I.I.W.W.T.T.T.U.Y.5.I.R.P.6.5.U Z S C C M 9 9 4 4 4 1 1 4 4 3 4 3 1 < 4 > 3 * % 4 4 ' L L ' ,.2.2.1.L P C * Z 1 4 9 < 3 3 3 C C M C M M M Z 9 $ > 6 S J L T R R R R ",
"T R R T R E ' =.=.=.E 6 5 5 > 3 L =.>.' ' ' T T ' [ ' ' [ E K T R R K.I.G.E <.' 5 C 4.P.5.J.2.G.H.J.5.E.U % * 1 % * ,.1.,.J.K.,.1.7.M $ > * * 1 Z e I I 1.E.Q.R.^.W.R.I.I.A V ` ).!.P.6.1.9 C F ..-.6.Q.(. X(. X^.-X<X<X<X<X;X;X:X:X%XAXKXNXMXMXDXmXmXnXSXDX3X&.+X:.& ; o : o o . X #XcX7XtXrXrXeX7XsXBXFXDXFXbXqXdXaXaXaXyXfXVXBXBXmXnXmXdXeXuXyXyXyXyXyXyXyXyXuXuXyXuX7XyXBXBXBXBXZXBXBXBXBXBXBXBXBXmX7XuXyXyXaXyXyXyXrXdXgXsXBXBXBXBXMXMXmXmXDXCXmXnXmXmXmXmXBXBXMXMXZXZXBXBXnXZXCXZXNXNXBXCXCXBXMXBXCXCXNXBXBXBXNXNXBXBXBXBXBXBXBXBXBXBXBXBXBXBXBXBXBXBXBXBXBXBXBXBXBXBXBXBXBXBXBXBXBXBXBXBXBXBXBXBXBXBXBXBXBXBXBXBXBXBXBXBXBXBXBXBXBXBXBXBXBXBXBXBXBXBXBXBXBXBXBXBXBXBXZXZXBXBXBXBXBXBXBXBXBXBXBXBXBXBXBXBXBXnXbXZXFXwXwX+X. 8 r t 8 y - 2 8 o o O .   . . X # #.z.h # g n.n.#.X + O o - % * 3 - 1 - % & . r.wXwXwX=XSXFXVXBXBXBXBXBXBXBXBXNXBXZXBXBXBXZXDXHXKXLXLXLXAXAXbX0XVXyX5XeXpXuXtXeXyXsXgXHXHXKXKXJXLXKXGXKXAXFXCXNXDXZXNXNXBXmXdXdXyXyXyXeXeXyXmXBXCXMXDXsXyXeXyXeXeXeXeXeXeXeXqXvXp + H Z 8 D +Xe.&XFXSXbXqX0XcXbXnXNXmXnXhXhXhXhXmXBXBXBXNXBXBXBXBXBXBXBXZXBXBXBXZXBXBXBXCXSXKX1X-X;X,X>X>X>X,X,X(..X-X9 1 9 9 9 9 1 * < o U .X/.T.U.T.T.T.I.U.T.I.I.I.U.I.Y.5.2.P.5.7.6.U F F Z C C 9 9 9 9 9 9 9 9 9 Z Z 4 > $ < * * $ m 1.5.1.-.=.>.1.1.=.P 4.1.A % 4 9 C 9 4 9 9 4 9 4 3 4 < < > 3 < 3 Y R L P R R R T R R ",
"T R ' R T E >.4.=.=.E 6 5 4 < 3 P Q Q ' 2.1.T K E 3.3.<.<.T J K R T G.J.3.[ <.T 6 C 4.K.1.2.3.J.H.H.4.K.U % * * * 1 6.6.,.4.5.I $ 3 $ % 1 1 1 Z F S -.=.5.R.Q.!.W.U.^.XXR.% o S !./.!.(.E.$ * U ..-.6.Q.(. X(. X^.-X<X<X<X<X;X;X;X:X%XAXKXNXMXMXMXCXZXFXFXHX#X. O ; 8 y } $X+X+X+Xv.wXdX7XrXeXuXeX7XpXBXDXDXDXbX9XdXdXaXaXqXaXBXmXBXBXCXBXsXeXyXuXyXuXyXyXyXyXyXfXuXuXaXrXyXMXBXBXBXMXMXBXBXBXBXBXBXBXmX7XyXyXyXaXyXyXyX9XyXyXrXBXBXBXBXBXMXmXmXmXmXBXZXCXCXCXBXBXBXMXMXMXBXBXBXZXBXZXZXZXZXZXZXBXMXhXmXBXBXBXDXBXBXZXZXBXBXBXBXBXBXBXBXBXBXBXBXBXBXBXBXBXBXBXBXBXBXBXBXBXBXBXBXBXBXBXBXBXBXBXBXBXBXBXBXBXBXBXBXBXBXBXBXBXBXBXBXBXBXBXBXBXBXBXBXBXBXBXBXBXBXBXBXBXBXBXBXNXBXBXBXBXBXBXBXBXBXBXBXBXBXBXBXBXBXBXBXmXBXFXSXSXKXJXV.      o o 2 8 & ; 2 3 ; & & : + X d n.n.#.X g }.n.n.# . 7 0 8 ; * 1 > < * % +   +XJXJXHXSXFXVXVXBXBXBXBXBXBXBXBXNXBXBXBXBXZXDXFX .z } | } a @ @ z cXVX8XeXrXrXeXyX7X7X7XSXvXB.z z g }  .O.b.AXDXNXZXZXNXBXBXnXyXyXyXyXyXyXyXyXmXmXDXNXFXCXVXcXnXVXnXnXcXcXcXcXcXLX~ + t 9 Z 8 & . &.SXFXbXqX9XiXnXbXmXNXBXBXBXBXBXBXBXBXBXNXNXBXBXBXBXBXBXBXZXZXBXZXBXBXNXCXSXKX1X:X;X,X,X;X,X>X<X.X.X-XC 4 Z 9 1 9 4 * < o A ).!.T.U.T.T.T.I.T.I.I.I.I.U.I.Y.J.P.E.P.7.6.U F F C C 9 9 9 9 9 9 C 9 9 Z F S 3 * 3 < * > % 4 ,.1.4.1.2.2.3.1.[ K 5.5.A o 5 4 M 1 9 M M 9 3 , > < > > * > * < I ,.E E E R T T T R ",
"T R ` R T E >.1.=.=.R 6 5 4 < 5 4.=.T <.H.' K Q ' <.<.<.<.' R ` L K 3.H.3.[ <.Q 5 C 1.K.K.P.H.J.J.2.2.P.I $ < < * 3 ;.,.,.6.[.,.% 5 3 1 9 1 > 9 Y A 1.2.P.R.R.R.U.W.!.).P.5 $ L !.R.E.!.5.$ * U ..-.6.R.(.(.(. X^.-X<X<X<X<X;X;X1X:X%XAXKXNXMXMXmXDXVXFXSXLX*X  2 2 r O O.LXLXKXJXSXcX7X8XrX7XuXyX7XyXgXNXDXDXnX9XdXaXaXaXqXaXBXVXBXBXBXBXyX7XyXuXuXuXuXyXyXyXyXyXuXyXuX7XyXMXCXBXMXMXMXBXBXBXBXBXBXBXBX7XyXyXyXaXyXyXyXyXyXyXyXBXBXBXBXBXBXNXmXmXBXCXCXZXmXMXBXBXBXMXMXMXMXBXBXCXNXNXNXNXNXmXnXZXCXCXCXCXBXBXCXBXBXNXZXBXBXBXBXBXBXBXBXBXBXBXBXBXBXBXBXBXBXBXBXBXBXBXBXBXBXBXBXBXBXBXBXBXBXBXBXBXBXBXBXBXBXBXBXBXBXBXBXBXBXBXBXBXBXBXBXBXBXBXBXBXBXBXBXBXBXBXBXBXBXBXBXNXNXBXBXBXBXBXBXBXBXBXBXBXBXBXBXBXBXBXBXBXZXZXbXNXVXSX=X@.O.O.q.7 & 8 - 2 3 1 2 8 ; ; : O q #.z.h # g z.#.#.7 8 0 * O ; * 1 - & o t O.p #XGXbXNXNXVXVXDXBXBXBXBXBXBXBXBXBXBXBXNXBXZXDXFX@       O . . . i AXSX0XeX7XsXBXnXuX7XcXJXLXr.  . . .     a cXHXNXZXZXZXBXBXnXyXyXyX7XyXdXrX7XnXDXDXqXVXSXAXAXAXAXAXvXvXvXvXvXvXvX} 7 D S I F 8   q.KXFXbXyX9XpXnXnXnXNXNXBXBXBXBXBXBXNXNXBXBXNXBXBXBXBXBXZXZXZXBXZXZXBXNXSXSXKX:X:X;X>X;X:X,X:X<X-X-X-XC 4 C 9 1 M M 1 8 % Y ).!.W.U.T.T.T.I.W.I.I.I.I.U.U.I.P.E.P.6.7.6.U Z Z 9 9 9 9 4 4 9 9 3 1 3 9 9 1 > 1 % % 3 -.,.,.J.1.,.1.2.1.1.2.1.' -.,.L 4 A 4 9 1 4 9 M 9 3 > > , > 1 1 1 $ $ Y -.R T T T T T T R ",
"E E R T T E ' =.' ' R 6 5 4 > 5 4.2.1.3.3.` Q [ [ E R ] ' <.2.1.K K G.J.3.' <.K 5 C -.,.,.K.4.H.J.4.5.E.I % * * * > S M S C C 3 < 4 3 < 9 9 9 A I K 5.P.R.R.R.U.~.Q.` V L 7.1.5././.R./.5.$ * F ..-.6.R.).(.(.(.).-X<X<X<X<X,X;X<X:X%XAXFXmXMXhXDXDXbXHXAXLX3Xo ; % :   a xXKXAXFXCXaX7XyXuX7XeXyX7XrXyXsXBXZXgXyXyXyXyXaXyXaXBXBXBXBXBXmXyXeXaXyXaXfXuXaXaXaXyXyXuXyXyX7XyXMXCXMXMXMXMXBXBXBXBXBXCXBXBX7XyXyXyXyXyXyXyXyXyXrXyXBXMXBXBXBXBXNXBXDXZXNXNXmXnXmXCXBXBXMXMXMXMXBXBXBXmXDXDXSXZXDXDXbXmXZXCXBXBXNXNXBXNXmXZXMXBXBXBXBXBXBXBXBXBXBXBXBXBXBXBXBXBXBXBXBXBXBXBXBXBXBXBXBXBXBXBXBXBXBXBXBXBXBXBXBXBXBXBXBXBXBXBXBXBXBXBXBXBXBXBXBXBXBXBXBXBXBXBXBXBXBXBXBXBXBXBXBXBXBXBXBXBXBXBXBXBXNXBXNXNXBXBXBXBXBXBXmXBXnXmXFXVXFXKXGXKXLXPX}   O - 9 8 - * 1 1 ; 8 & O q # + . O O O = & ; $ , < 1 1 ; 8 7 : _.KXAXAXHXVXNXDXNXNXBXBXNXBXBXBXBXNXNXZXBXNXNXBXBXCXFX&X&Xq.+ : 8 8 : : {.b.=XVXdX5X=X=XcXcXcXwXvXt.O D t 8 7 . p cXHXNXZXZXNXZXZXVXyXyXyX7XyXyX8X7XVXFX0X%.| #.| | g ~ g g g g g i i ~ 8 8 Z S A C Z o t.JXFXdX9X9XpXmXnXnXnXnXNXmXnXNXNXNXNXNXBXNXNXZXZXZXZXZXZXZXZXMXZXZXZXBXBXCXKX:X:X;X>X>X;X;X:X,X.X.X(.4 1 9 1 1 1 < % < % Y .X!.W.I.U.T.U.T.W.R.R.U.T.R.R.R.R.5.` ` -.-.Z 1 3 9 9 9 9 4 4 4 4 9 C M 9 1 * M I -.K -.E.E.5.5.>.1.3.3.<.>.1.2.>.,.1.1.1.1.C 3 M 9 9 M 9 1 , , 1 > 1 1 3 * > L -.T T T R T T T T ",
"` E T T R R T T T ' E 6 5 3 > 5 1.2.>.E >.3.3.3.<.Q K Q K >.J.1.K K J.Y.3.>.1.P C 9 C 3 J 6.J.H.H.H.J.P.A o $ % * < M 9 S 9 9 3 4 4 1 * 1 3 1 C -.U 5.P.P.U.R.U.P.E.J o 4 R. X!.R.U.R.!.5.$ > U ....6.R.).(.(. X).-X<X<X<X<X<X,X<X:X%XAXFXmXMXMXmXDXDXKX#X3X_.o o ^ %Xw.N.GXFXSXNXFXdX7XuXyXyXyXuXyXrX7XyXnXZXgXdXaXyXyXaXyXaXBXBXNXBXDXVXaXyXaXyXyXfXfXaXaXaXyXyXaXyXyXyXyXmXBXMXBXMXMXBXBXBXBXMXCXBXBXyXyXyXyXyXaXyXyXyX9X9XyXBXBXBXBXBXBXCXDXSXVXVXNXDXNXnXnXNXBXMXMXMXMXMXBXDXnXNXDXSXSXSXNXFXDXZXmXnXNXZXNXZXZXZXZXMXMXBXBXBXBXBXBXBXBXBXBXBXBXBXBXBXBXBXBXBXBXBXBXBXBXBXBXBXBXBXBXBXBXBXBXBXBXBXBXBXBXBXBXBXBXBXBXBXBXBXBXBXBXBXBXBXBXBXBXBXBXBXBXBXBXBXBXBXBXBXBXBXBXBXBXBXBXBXBXBXBXNXNXNXNXNXBXBXBXBXBXnXCXCXCXDXVXNXNXFXSXFXKXe.i ~ o & 1 8 1 1 < * * < & = O ; - 1 ; = = < 4 > M * o o . .     @.KXJXFXFXNXnXCXBXBXVXBXNXBXBXBXBXNXNXZXBXNXNXBXBXBXNXHXJX*X@ . o = * o O X @XSXcX*.X #.cXSX=Xa p + o - & & :.{.@XSXNXNXZXZXNXZXCXVX9XyXyXyXyXqX7XsXDXJXvX} p ~ ~ ..~ ~ ~ ~ G G G u G & t F Z A A 9 e o r.LXKXbXiXrXgXnXnXnXnXnXnXNXNXZXBXBXBXDXBXNXNXZXZXZXZXZXZXZXZXMXZXZXZXBXBXCXKX:X:X:X;X;X;X;X:X;X.X.X(.4 4 9 4 3 < < % $ $ P )./.U.I.U.T.T.T.W.I.I.I.I.I.U.R.R.1.U I I -.Z ; 9 9 9 9 9 9 9 4 1 4 9 1 < $ $ A 6.[.5.4.,.=.,.J.2.2.2.3.>.' <.2.3.1.,.1.J.4.5 6 4 C M C 9 1 , , > , 1 > < * 3 I ,.R R R R R R T T ",
"E E W W E R T L T ' ' 6 5 3 > 4 4.,.T Q [ <.[ ' >.' ] R T >.2.1.K J G.Y.3.<.K.E > * 1 * J E.K.1.G.H.H.J.I S F * $ * N 9 Z 9 C < * > 1 1 9 Z 9 S -.P 5.5.P.I.U.U.J.!.I % 4 E.!.R.!./.R.!.5.% $ U ....6.R.).(.(. X).-X<X<X<X<X<X<X<X:X%XAXFXmXMXhXmXBXFX0X@ + 2 % O %XLXLXGXHXDXVXFXFXyX7X7X8XpXpXuXyXyX9XyXmXDXnXnXsXyXyXaXeXyXBXBXnXnXBXBXpXeXyXyXyXaXaXyXyXyXyXyXdXyXyXyXyXgXhXBXBXBXBXBXBXBXBXBXCXmXCXyXrXaXyXyXaXyXyXyX7X7XyXBXBXBXBXNXBXDXFXHXKXHXJXHXDXSXDXNXNXmXmXMXMXBXBXZXnXDXHXKXKXJXJXSXFXFXFXNXmXZXZXNXZXNXNXZXZXMXBXBXBXBXBXBXBXBXBXBXBXBXBXBXBXBXBXBXBXBXBXBXBXBXBXBXBXBXBXBXBXBXBXBXBXBXBXBXBXBXBXBXBXBXBXBXBXBXBXBXBXBXBXBXBXBXBXBXBXBXBXBXBXBXBXBXBXBXBXBXBXBXBXBXBXBXBXBXBXBXNXNXNXNXBXBXBXBXBXBXBXCXBXnXBXDXNXDXVXbXJXPXLXxX: : 8 8 2 - ; 3 3 5 5 1 = 3 * < < 0 = & * * ; o t ..~ } | i b.AXSXFXNXDXnXCXBXFXDXNXNXNXBXBXBXBXNXBXBXBXBXBXBXBXNXcXSX#X+ + : o * F -   +XAXAXe.. g SXJX=X  X 7 D t w 7 4XLXAXHXDXZXZXDXNXDXDXVXyXyXaXaXaXyXaXcX8XxXxXq.O.:...^ ~ ^ ^ ^ ^ ^ ^ U U 9 S Z 3 e Z e 8 . r.LXKXVXbXsXnXnXnXnXnXnXmXBXZXZXZXZXZXBXBXBXBXBXBXBXBXZXBXZXZXBXZXBXBXBXBXCXKX$X:X:X;X;X-X;X;X;X.X.X).9 4 9 4 3 C ^ I -.-.5.!.Q.U.I.U.T.T.W.W.I.I.I.I.I.I.R.E.4.I -.-.-.Z 1 e 9 9 9 C 9 9 1 1 * $ % > m m J 1.,.4.J.4.5.J.H.3.G.3.G.<.[ >.2.2.1.=.=.>.,.m m A C M M 9 1 < < * 1 1 > < > 1 A A R E R R R R R T ",
"E E W R E R T T T ' -.< < 3 < 4 P T ` <.<.Q J W [ 3.3.>.>.>.<.1.T K G.J.2.1.P.=.$ 9 F 1 S 5.J.4.J.J.4.K.J.E.E.A % * Z 9 9 9 F 1 * > 1 < 3 9 < C 7.I P.P.I.U.T.I.Q.!.K % 5 5.!.).R./.W.!.5.$ < U ..-.6.R.).(.(..X).-X<X<X<X<X<X<X<X:X%XAXFXmXMXmXBXNXHXvXX O 1 Z . $XPXKXFXVXVXDXDXFXaXyXyX7XsX8XyXyXyXrXyXBXDXmXBXnXyXyXaXeXyXBXDXmXmXCXBXsXaXdXyXaXaXyXaXyXyXyXyXaXeXyXyXrXyXrXBXBXBXBXBXBXBXBXBXCXmXCXyXrXyXyXyXyXyXyXyXrX9XsXBXBXBXNXNXZXDXFXwXwXwX5X3X3XwXbXNXNXmXmXBXBXBXBXnXZXFXAX*Xr.+X#XB.3XbXFXZXmXZXZXNXNXNXNXBXMXMXMXBXBXBXBXBXBXBXBXBXBXBXBXBXBXBXBXBXBXBXBXBXBXBXBXBXBXBXBXBXBXBXBXBXBXBXBXBXBXBXBXBXBXBXBXBXBXBXBXBXBXBXBXBXBXBXBXBXBXBXBXBXBXBXBXBXBXBXBXBXBXBXBXBXBXBXBXBXBXBXBXBXNXBXBXBXBXBXBXBXmXCXCXBXBXBXZXmXFXNXFXcXLXxX  X   . o o o & - % < 0 * 3 - < > % ; ; ; 8 : O w.LXKXJXLXKXSXHXVXDXnXFXnXCXBXBXBXBXNXBXBXBXBXNXNXBXBXBXBXCXCXBXNXyXFX3X*.+X:.; < > * ; 3XLXLX{.. z LXLX3XO y D y w O   B.JXcXDXNXZXDXDXNXCXDXVXyXaXdXyXyXqXdX8XC.  } w ~ ..G H ~ U H H G G F F F F Z Z U F e Z 8 o v.LXSXVXNXbXnXhXnXnXnXnXnXBXZXBXBXNXNXNXNXBXCXBXBXBXBXBXBXZXBXBXBXBXBXBXCXSXKX$X:X:X;X;X;X;X;X;X.X X).3 < 1 < o C E.).-X-X(.U.T.U.I.T.W.W.W.W.W.W.R.I.I.I.R.Q.,.P -.I I 9 1 r 4 9 9 9 9 4 < * 3 3 4 L ,.,.=.J.H.4.,.,.J.J.<.G.G.G.G.G.<.>.3.2.J.1.=.=.5.-.,.1.M 4 9 9 1 1 1 * * > < 4 1 * > % R T T T R R R R ",
"T R T T T T T T P -.I 5 < 4 < 5 ' L R H.[ K E >.>.' <.3.1.>.K ` 2.1.[ <.J.1.K.T * 4 Z 1 L K.5.4.H.J.4.K.J.5.1.4 $ 9 < 9 9 9 1 9 1 1 1 * * ^ U A 5.5.P.U.I.U.U.I.I.!.K $ 6 E.!.E.!.I.U.!.5.$ < F Z S I P.).'.(.(.(.-X<X<X<X<X<X<X<X1X$XAXFXZXCXMXmXBXFXvX. : 9 9 o $XJXKXSXDXDXDXCXDXdX7XyXyXtXtXuXyXyXyXdXnXmXBXBXnXsXyXaXyXyXmXmXnXmXmXCXpXsXyXeXuXuXuXaXyXeXuXyXyXyXyXyXyXyXiXBXBXBXMXNXBXZXNXMXBXBXBXnX7XyXyXyXyXyXyXyX7XrXyXCXBXNXZXZXNXSXJXp   X   +   &.JXNXbXiXFXHXHXDXVXgXDXHXKXi   +     i GXFXNXZXhXZXZXBXZXZXBXZXMXMXBXBXBXBXBXBXBXBXBXBXBXBXBXBXBXBXBXBXBXBXBXBXBXBXBXBXBXBXBXBXBXBXBXBXBXBXBXBXBXBXBXBXBXBXBXBXBXBXBXBXBXBXBXBXBXBXBXBXBXBXBXBXBXBXBXBXBXBXBXBXBXBXBXBXBXBXBXBXBXBXBXZXBXBXBXBXBXBXBXBXMXMXBXBXBXBXZXZXDXNXSXFX5X .w.&.O.O.8.u . w : % 8 o - 1 * < = ; o o O   O | JXFXSXSXSXDXCXNXBXBXBXBXBXBXBXBXBXNXBXBXBXBXBXBXBXBXBXBXBXBXBXBXVXqX0XbXJX@Xo 8 1 1 ; ..r.t.} O p r.+X..7 o ; w X #X#XwXHXbXCXmXBXZXBXNXBXCXnX9XqXdXqXaX9XdXaXb.X     . . O O O . . . . o o o o & o o * 9 U Z r . $XJXKXSXqXVXBXsXmXpXmXmXgXBXCXBXMXDXBXmXDXBXNXDXDXDXDXDXZXBXZXCXZXBXBXDXFXFXKX4X-X;X<X,X>X-X;X>X^.-XE.C 3 4 * % 4 E.E.R.).W.I.T.U.U.U.R.U.U.U.U.I.U.W.I.I.E.Q.,.` -.C 4 4 C 9 9 9 9 9 9 4 < > > * % -.[.5.1.H.4.4.4.4.H.G.G.G.3.G.G.H.G.<.[ T J.H.1.2.>.>.4.R m Y F 9 1 4 Z 9 1 1 1 1 < < > $ L =.T T E T T R ",
"R R E R R T T R -.-.I < > 1 > 4 P L E 2.>.T ' ' [ <.<.R ` <.' ' 2.1.>.<.G.<.J.I * 4 Z 1 L K.5.4.J.J.4.J.4.4.1.m o $ % 1 0 9 , < > > > * 4 6.E.!.Q.R.R.W.T.T.T.U.Q.).K % 4 E.Q.E.!.R.!.).P.< $ Z $ < A 5.^. X'. X(.-X<X<X<X<X<X<X<X:X%XAXFXVXBXZXnXZXHXvX. & 9 3 o $XJXKXSXDXDXDXDXDXdX7XyX9XyXyXyXyXeXrXyXyXyXiXdXyXyXeXyXyXyXmXZXmXZXBXCXsXnXdXuXsXyXeXeXrXyXpXyXyXyXyXyXyXyXyXMXBXBXMXmXNXNXnXBXCXBXBXnXyXyXdXyXyXyXyXyXrXrXyXVXVXVXZXZXNXFXJX| X : : i + r.KXbXFXFXNX5X5XcXFXHXFXGXvX..O y 2 o } KXKXNXCXZXCXZXBXDXZXBXZXMXMXBXBXBXBXBXBXBXBXBXBXBXBXBXBXBXBXBXBXBXBXBXBXBXBXBXBXBXBXBXBXBXBXBXBXBXBXBXBXBXBXBXBXBXBXBXBXBXBXBXBXBXBXBXBXBXBXBXBXBXBXBXBXBXBXBXBXBXBXBXBXBXBXBXBXBXBXBXBXBXBXBXBXBXBXBXBXBXBXBXMXBXMXBXBXBXBXnXmXZXNXNXFXHXSXJXJXLXLXPX+X@   O O 8 O - 2 < 1 ; ; O } r.w.q.@XFXDXNXNXSXDXBXNXBXBXBXBXBXBXBXBXNXNXNXBXBXBXBXBXBXBXBXBXBXBXBXCXcXaXqXcXAXb.  . % * ; & o o & o . : : O o % :   @ 0XHXFXFXgXCXMXBXZXBXNXBXCXnX9X9XaXyXaX9X7XcXqX3X*XB.w.@.@.q.w.w.w.w.r.r.r.r.r.w.t._.t.1 S A S o q.@X&XcXbXNXVXNXmXpXnXmXmXBXMXMXmXCXBXBXDXBXZXNXNXNXNXVXnXVXnXNXNXNXNXNXNXCXSX1X:X,X>X;X;X-X>X,X-.L A < 9 9 - o 9 Q.E.R.!.Q.U.T.U.U.U.R.U.U.U.T.I.U.W.I.I.E.Q.,.` -.C 9 9 Z 9 9 C 9 4 9 1 > * > m 5 =.4.1.,.2.4.4.4.2.G.G.G.G.G.G.G.H.G.3.>.' 1.2.2.2.' R 4.5.m A A Z 9 1 9 1 > * * * * * * > L =.T T E T T R ",
"T T R R T T T I -.-.U 3 1 3 < m T R R ,.G.3.>.T [ G.<.K Q 2.2.>.' [ >.<.2.>.5.I $ 4 Z 1 L K.5.4.J.J.G.J.2.2.4.J m C * 1 1 1 , , < 1 3 1 4 -.,.P.).R.R.W.U.U.T.U.I.).J % C E.E.).E.R.!.!.P.< $ A S A ' P.(..X`..X(.-X<X<X<X<X<X<X<X:X%XAXLXFXDXnXnXZXHXvX. & 9 3 o $XJXFXDXDXCXCXCXDXnXsXdXyXyXyXuXyXyXyXyXyXyXyXeXyXyXyXaXyXyXBXZXZXZXNXBXyXdXqX7XyXuXyXuXuXeXeXyXyXyXyXyXyXyXyXhXMXZXMXNXZXZXZXnXNXmXmXsX7XyXyXyXyXyXyXyXyXyXyXdXaXbXNXZXNXSXHX|   : : D O H r.e.0XKX3Xp a #XSXSX&X .O.: o ; 2 . o.KXFXbXZXmXmXBXBXCXCXBXBXZXZXBXBXBXBXBXBXBXBXBXBXBXBXBXBXBXBXBXBXBXBXBXBXBXBXBXBXBXBXBXBXBXBXBXBXBXBXBXBXBXBXBXBXBXBXBXBXBXBXBXBXBXBXBXBXBXBXBXBXBXBXBXBXBXBXBXBXBXBXBXBXBXBXBXBXBXBXBXBXBXBXBXBXBXBXCXBXBXBXBXMXBXMXBXBXBXBXNXZXZXDXDXnXnXFXbXAXAXSXSX=X .| 7 & 8 & - < - % ; O : %XLXLXKXJXDXSXNXNXNXNXBXBXBXBXBXBXBXBXBXBXNXNXBXBXBXBXBXBXBXBXBXBXBXBXBXBXnXaXyXdXcX&XO.8.t.r e e & : ; 2 e & & ; o y q.}  .cXFXNXNXnXCXMXmXZXBXNXBXCXnX9XsXdXyXdXdX7XyXFXHXHXFXSXSXFXFXFXSXSXSXSXSXSXSXSXLXPXLXxX; Z F N 1 y X z 0XVXbXsXdXaXdXnXnXnXBXCXCXBXBXBXZXDXBXDXDXDXFXDXDXDXDXDXCXCXDXDXDXFXDXKX$X:X<X,X>X>X-X>X,XV % 5 3 Z 9 * o C !.R.I.W.W.T.T.T.R.R.R.U.U.U.T.U.T.T.I.I.Q.Q.,.=.-.Z C C Z C Z Z 9 1 1 < * $ S ,.=.4.4.4.4.2.4.4.2.2.G.G.G.G.G.G.G.G.G.3.1.3.E >.2.H.>.' 1.4.J J A L A 1 1 9 1 < - * * * > > L =.T T E T T R ",
"T P T T T I I I M C M < 1 < 6 m -.R L ' H.J.>.Q <.3.>.Q E 2.H.2.T R [ <.H.1.J.T $ 1 e 1 L [.J.5.4.H.H.J.2.H.J.=.1.,.1 * * , , 1 > 4 Z S S -.I 1.!.R.U.U.U.I.U.U.W..XL 6 4 A S -.!.!.!.5.1.< $ I E.E.R.~.`.`.`.`.`.-X<X<X<X<X<X<X<X:X%XxXAXAXFXnXnXZXHXvX. & 8 3 o $XKXHXDXDXCXCXZXDXBXBXVXaXyXyXyXyXyXyXyXyXyXyXyXyXaXyXaXyXyXBXCXZXZXNXDXdXcXdXyXyXyX7XeXsXsXuXuXyXyXyXyXyXrXrXgXMXBXMXBXBXZXZXBXCXBXBXmXyXyXyXyXyXyXyXyXyXyXyXqXqXsXZXZXNXSXKXr.i ~ ; D ; : @ @ =XLX5X    v.LXLXB.    - Z 2 ; . O.JXSXNXZXCXnXBXBXCXCXBXBXZXZXBXBXBXBXBXBXBXBXBXBXBXBXBXBXBXBXBXBXBXBXBXBXBXBXBXBXBXBXBXBXBXBXBXBXBXBXBXBXBXBXBXBXBXBXBXBXBXBXBXBXBXBXBXBXBXBXBXBXBXBXBXBXBXBXBXBXBXBXBXBXBXBXBXBXBXBXBXBXBXBXBXBXBXBXCXBXBXBXBXMXBXMXBXBXBXBXDXNXnXnXCXCXBXnXZXZXVXbXDXFXSXLXp + + o - & - & O   X B.KXJXAXVXSXNXBXNXNXBXBXCXBXBXBXBXBXBXMXBXBXNXBXBXBXBXBXBXBXBXBXBXBXMXBXBXuX7X7X7XnXbXcXJXvXy O t y e - 3 e & & y o ..PXLXSXFXZXmXDXCXMXMXmXZXBXNXBXCXnX7XaXqX9X7XdXaX8XVXNXbXyX0XqXqX7X7XyXyXaXaXaXaXaXaXaX0XKXvXo ; Z Z F 8   | PXJXbXVXCXcXNXcXbXnXNXDXBXBXNXNXNXVXSXSXbXbXbXbXbXbXnXbXbXbXbXbXbXbXVXAX1X:X<X<X<X>XXX;X,XC 6 S Z Z 3 * o S ).R.I.T.U.T.T.T.R.R.R.U.U.U.T.U.T.W.I.I.E.Q.,.=.-.Z C Z Z Z Z Z 9 < < < $ $ J E.J.H.,.1.2.1.4.4.2.2.G.G.G.G.G.G.G.3.1.1.2.H.' ' >.1.4.H.4.=.P L J I Y > > 9 Z Z 9 3 1 < > 6 L =.T T E T T R ",
"-.R =.-.-.-.-.^ $ $ * * 5 5 < C =.T T ' >.>.[ >.<.[ ] [ 3.>.<.2.>.[ <.>.G.G.J.T $ 3 e 1 L K.J.5.H.H.H.H.G.J.K.2.J.1.> % % * * , > 4 S F F -.I 5.Q.U.R.W.R.W.W.W.I.W.V % 6 < 3 7.-X-X!.,.` < $ U -X'.(.(.`.`.]. X(.-X,X<X,X,X<X<X;X;X1X2X4X3XSXFXmXZXFXvX. & 8 2 . $XKXFXSXDXZXCXZXDXCXFXBXaXyXyXyXyXyXyXyXyXyXyXyXyXaXyXyXqXqXNXZXZXNXnXDXdXcXdXyXyXyXeXeXyXrXeXyXyXyXyXyXyXrXrXsXMXMXMXmXmXnXmXBXCXBXDXmXyXrX7XeXyXyXyXyXyXyXyXaXaXnXDXCXZXDXFX$Xe.t.O 8 D D : O 3XLXvXw + $XLXLX$X+ & D D o O + e.KXSXNXmXDXMXBXBXBXBXZXZXZXBXBXBXBXBXBXBXBXBXBXBXBXBXBXBXBXBXBXBXBXBXBXBXBXBXBXBXBXBXBXBXBXBXBXBXBXBXBXBXBXBXBXBXBXBXBXBXBXBXBXBXBXBXBXBXBXBXBXBXBXBXBXBXBXBXBXBXBXBXBXBXBXBXBXBXBXBXBXBXBXBXBXBXBXBXCXSXBXBXBXBXBXZXBXBXBXBXDXBXDXZXmXBXDXmXBXDXDXVXNXNXNXHX# X . O 7 . o 7 + X @ b.dXVXnXDXNXNXBXBXBXBXBXBXBXBXBXBXBXBXMXBXBXBXBXBXBXBXBXBXBXBXMXMXBXBXBXnXhXsXpXrXyXsXbXFXxX@   o   o o ; o O   .   p vXLXFXVXnXNXBXmXnXFXmXZXBXmXBXBXnX7XyX7XdX7X7XqX8XnXDXmXyX7X7XeXyXyX7X7X7X7X7X7X7X7X7X7XSXxX  . ; < 9 e ; t.LXKXAXFXSXcXFXcXcXNXVXNXBXDXNXDXSXSXHXSXHXJXJXJXHXHXHXHXHXHXHXHXJXJXJXLX3X<X2X<X<X<XXX>X<XS 5 S 4 9 1 < % S ).R.I.W.T.T.T.T.R.R.R.U.U.U.U.U.U.T.U.I.R.Q.,.=.-.C Z C Z Z Z Z 4 * * * * $ S J.4.4.,.2.G.G.2.2.2.2.2.2.G.G.2.G.2.,.<.<.2.H.4.,.=.` >.H.4.=.R T L P A * * 9 F F Z 9 9 1 * $ I =.T T E T T R ",
"L A J Y A F F S 9 1 3 < 3 3 5 C T T 1.2.E Q >.I.<.] T 3.J.[ ' 1.J.3.G.>.G.G.5.T $ 4 C 1 U K.J.4.H.H.H.J.G.G.H.2.4.1.$ $ > * * * 1 M A F A Y m ,.E.P.U.W.W.W./.W.~./.P K Y 5 3 I 6.1.,.K ` K I 6.(.).~.^.`.`.`..X(.-X,X,X,X,X<X,X;X<X1X1X%X$XKXFXmXZXHXvX. & 8 ; . $XKXFXSXDXZXCXCXCXZXDXVX9XyXyXyXyXyXyXyXyXyXeXaXyXaXyXaXyXyXNXNXSXDXSXFXaX0X8XcXaXaXaXuXuXsXuXyXyXyXyXyXyXrXrXsXMXMXMXCXZXmXZXnXNXmXBXmXyXrX7XeXrXyXyXyXyXyXyXyXyXnXDXZXmXZXSXHXKXxXw & 8 e & o 8.4X+X: & o.+X{.:.& ; 8 & . O.e.3XHXSXBXnXDXBXBXBXBXBXZXZXZXZXBXBXBXBXBXBXBXBXBXBXBXBXBXBXBXBXBXBXBXBXBXBXBXBXBXBXBXBXBXBXBXBXBXBXBXBXBXBXBXBXBXBXBXBXBXBXBXBXBXBXBXBXBXBXBXBXBXBXBXBXBXBXBXBXBXBXBXBXBXBXBXBXBXBXBXBXBXBXBXBXBXBXBXBXSXSXBXBXBXBXZXZXBXBXBXBXnXsXBXDXBXNXBXBXmXmXBXBXNXNXnXVX5X3X3X5X4Xy O i LXAXcXDXFXMXnXCXBXBXBXBXBXBXBXBXBXBXBXBXBXNXNXNXBXBXBXBXBXBXBXBXBXBXMXMXBXnXnXgXrXrXyXyX9XyXyXaX=X| O.O.| q.H o y +Xv.B.r.V.SXVXVXNXFXZXVXCXBXBXmXZXBXmXBXBXnX7XsX7XdXdXaXdXaXnXnXsXyXyXyXyXyXeXuXuXuXuXuXuXaXpXpXpXcXwXO.w.t.7 ; 9 2 ..+Xt.w.B.&.V.SXcXcXbXVXSXSXDXSXFXSXSXHXwX3X3X3X3X3X3X3X3X3X3X3X3X3X3X3X3X_.0.5.1.!.>X.X;X;XV $ e e Z 9 * % S ~.W.U.W.T.I.T.T.R.R.R.U.U.U.U.U.U.T.U.I.R.Q.,.=.-.C Z C Z Z Z Z 4 * * < * $ A J.4.H.G.H.H.J.2.2.2.2.2.2.G.G.2.2.2.1.<.<.2.4.4.1.1.' ' >.,.,.,.,.T L J 4 4 Z 9 9 9 8 9 < * $ I -.T T E T T R ",
"< $ $ * % $ * % Z 9 9 1 3 4 4 S T T K.P.` T >.G.>.>.] <.3.>.>.[ <.<.J.<.G.H.5.T $ 3 C 5 K K.5.2.H.5.H.J.G.G.G.2.5.4.6 * 1 > * * 9 S A U Y A 5 =.Q.U.U.R.U.T.W.W.U.U.P.(.E.C $ < % $ 4 5 =.5.Q.).).).~.`.`.`.`.`.^.XX,X,X,X,X,X,X<X,X<X1X1X3XJXSXmXZXHXvX. & 8 :   #XKXFXSXDXZXDXCXZXNXDXVX9XyXyXuXuXyXyXyXuXaXyXaXaXaXyXdXaXaXNXNXDXFXFXHXSXSXSXSXVXnXsXyX7XeXyXyXyXuXdXuXuXuXyXsXMXMXmXDXZXnXNXBXZXBXDXCXmXmXmX7XrXyXyXyXyXyXyXyXqXsXBXmXnXZXSXAXJXxX+ O ; 2 8 o O & 2 o o o O o ; o < ; & i AXvXSXHXSXFXmXDXCXBXBXZXZXZXZXZXZXBXBXBXBXBXBXBXBXBXBXBXBXBXBXBXBXBXBXBXBXBXBXBXBXBXBXBXBXBXBXBXBXBXBXBXBXBXBXBXBXBXBXBXBXBXBXBXBXBXBXBXBXBXBXBXBXBXBXBXBXBXBXBXBXBXBXBXBXBXBXBXBXBXBXBXBXBXBXBXBXBXBXBXBXBXSXBXBXNXNXNXNXBXNXBXCXDXDXBXBXBXBXBXBXDXBXBXmXnXBXBXDXFXFXJXLXvXp   z LXJXSXDXZXbXNXZXBXBXBXBXMXBXBXBXBXBXBXBXBXZXNXNXBXBXBXBXBXBXBXBXBXBXMXMXMXmXsXyXyXiXaXaXyXyXrXyXCXaXSXAXPXLX$X@ p KXJXFXHXVXHXNXnXmXNXbXNXFXBXnXmXZXBXmXBXCXgX7XyX7X7XdXDXDXNXsXdXyX7X7X7XrXyXyXyXyXyXyXyXyXyXyXyXyXaXVXvXLXxXw w r 2 * & .       } PXGXGXSXSXFXSXSXVXSXbXGXGX@X  . . . . . . X . . . X . . . o o o % o P -X-X-X>Xm $ C Z A 9 $ o C ~.W.I.T.T.T.T.T.R.R.R.U.U.U.U.U.U.T.U.I.R.Q.,.-.-.C Z C Z Z C Z 9 * * < $ % C J.1.2.<.3.3.2.2.2.2.2.2.2.2.2.4.4.4.1.2.1.4.4.-.-.4.4.,.=.R =.J.J.E L L Y Y F ; 1 3 8 9 1 > $ I -.T T E T T R ",
"9 > > < * > 3 * 9 9 M M S K K T R K 2.K.[ [ ' Q >.G.>.' >.3.2.` Q E H.3.J.J.J.T $ 4 Z 5 K K.H.2.H.2.H.J.J.J.H.G.J.4.% % $ $ * > Z A A F A A 4 2.~./.R.W.T.T.W./.W.I.P.).1.% % 6 < 6 4 5 T 5.E.P.(.(.~.].].].`.`.^.XX,X,X,X,X,X,X<X;X,X;X-X4XJXFXmXZXHXvX. & 8 :   #XKXFXSXDXDXDXCXZXZXFXBXyXrXyXyXeXeXyXyXyXaXaXaXyXyXyXaXyX0XcXFXbX5XV.b.@. .@.w.b.=XqXsXaXyXyXyXyXuXsXsXdXuXuXmXBXMXnXNXbXqXqXSXSXSXFXFXCXFXFX7XyXyXyXyXyXuXyXdXyXnXDXBXNXDXDXSXJXwX    o . O r ; o y 8 e 2 ; o & o O .   w GXJXDXNXsXFXnXDXBXBXBXZXZXZXZXBXBXBXBXBXBXBXBXBXBXBXBXBXBXBXBXBXBXBXBXBXBXBXBXBXBXBXBXBXBXBXBXBXBXBXBXBXBXBXBXBXBXBXBXBXBXBXBXBXBXBXBXBXBXBXBXBXBXBXBXBXBXBXBXBXBXBXBXBXBXBXBXBXBXBXBXBXBXBXBXBXBXBXBXBXBXBXBXBXBXNXNXNXNXNXBXNXBXnXDXBXnXBXDXBXBXBXnXBXBXmXBXNXBXCXNXcXJXxX@   | FXKXSXNXNXNXDXNXBXBXBXBXBXBXBXBXBXBXBXBXNXNXNXNXNXBXBXBXBXBXBXBXBXBXMXBXBXnXuXeXyXyXaXaXaXyXrXyX7X7XdX0XcXSXV.  . JXHXcXFXnXCXhXZXmXNXDXDXVXNXCXmXZXMXmXBXBXgX7XyXsX9XyXBXDXNXyX9XrXyXyXyXyXyXeXyXyXyXyXyXyXyXyXuXdXyXqXcXAXwX.   + 3 8 Z 2 D w . O.LXLXLXLXJXJXJXJXKXLXKXLXLX+XO O & & & & & + + + : : ; ; - - - < 5 % -.lX2X<X<XA < C 4 9 4 < o S ).W.I.T.T.T.T.W.R.R.R.U.U.U.U.U.U.T.U.I.R.Q.,.-.-.C Z Z Z Z C Z 9 * * < $ % M J.4.2.1.G.G.G.4.2.2.2.2.2.2.2.2.H.4.4.H.H.5.J.>.R ,.J.K.<.L R K.K.E J I R I A * - 3 9 9 9 1 > I -.T T E T T R ",
"Z > < > * 3 3 4 S Y M m C J E E =.' 1.E E <.' ' [ 2.<.' E >.H.' K [ J.K.1.1.5.I * 1 C 3 P J.G.J.H.H.H.H.H.H.H.H.2.,.=.=.A o > * S M U F A S m 1.Q.W.U.W.W.W.T.T.U.R.U.P.5.1.>.-.2.5.5.5.Q.Q.E.Q.'..X.X`.`.`. X X^..X,X>X-X>X>X,X,X,X>X<X%X3XJXFXNXZXHXGX. & ; ;   r.JXSXDXDXNXDXNXDXZXDXNXyXeXuXuXyXyXyXaXaXyXyXyXyXyXyXdXyXyXVXVXFXe.  + . O . O    .vXcX8XnXmX7XpXsXuXyXVXaXyXMXpXCXiXDXbXa   i w i 7 i p @ 5XnXyXrXyXaXyXyXdXyXyXcXBXDXDXDXZXVXHXAX3X3X5XxXi + : 2 & % - : y o t.3X3X*X*X=XVXNXNXNXBXBXZXBXBXmXDXBXCXmXCXBXCXBXBXBXBXBXBXBXBXCXBXBXmXBXCXMXDXBXBXMXMXBXBXBXBXBXBXBXBXBXBXBXBXDXNXCXNXmXCXBXCXBXBXBXBXBXBXBXBXNXDXCXBXNXNXCXDXBXBXBXBXBXBXBXBXBXBXBXBXBXBXBXBXBXBXBXBXBXBXBXBXBXBXBXBXNXNXNXNXBXBXBXBXBXNXBXBXBXBXBXBXBXBXBXBXBXBXBXBXBXBXBXBXZXDXNXDXcX5X=X5XSXSXNXNXNXNXNXNXBXBXBXBXBXBXBXBXBXBXBXBXBXBXBXBXBXBXBXBXBXBXBXBXBXBXBXBXBXsX7XaXaXaXaXaXyXyXyXyXyXyX7XyXdXaX0X=X&XcXDXDXZXmXZXmXMXMXBXBXBXBXBXBXmXNXBXmXBXBXsX7XyXpXyX9XBXBXBXyXyXyXyXyXyXyXyXyXyXyXyXyXyXyXyXyXuXyXyXaXdXcX=Xg w.~ & Z F ; 8 : : H t.t.q.q.q.t.t.q.q.w.r.t.t.:.& 1 9 1 < 1 2 - - - - - < 1 1 1 < 1 < < C U -.I I Z 3 9 9 9 4 - o S ).!.W.W.T.W.T.T.R.R.R.U.I.U.T.U.T.U.U.R.R.Q.1.-.-.C Z C Z Z Z Z 4 > > 4 J.4.4.1.4.4.2.4.H.H.H.4.H.4.4.4.4.4.1.J.J.1.1.4.4.H.' =.,.2.1.` ` 2.=.` ` T L L K C * < 1 9 8 9 < $ L -.T T ' R E E ",
"C > , > > 4 4 4 A J S K P P ' R T L ' R ' 3.<.H.H.<.>.3.<.[ 3.>.<.1.3.2.1.4.J.R * 1 C 4 P J.G.J.H.H.H.H.H.H.H.H.2.2.4.5.E % > % S F U F F S V =.~.Q.T.W.W.T.T.U.P.I.R.W.Q.Q.Q.!.Q.!.Q.Q.).).).'..X`.`..X.X`.].`.^..X,X>X>X,X>X>X,X,X>X<X%X3XKXFXZXGXHXPX. & 2 ;   r.JXSXDXCXBXDXZXDXNXDXBXyXeXyXyXyXyXyXaXaXyXyXyXyXyXyXaXyXaXVXHXHXe.  : - Z 8 ; o w.KXFXqXsX8XBXBXnXsX8XyXcXFXsXyXFXZXJXJXp   o   o . O   . =XbXyXyXyXaXyXyXiXyXyXcXBXDXDXDXDXDXFXJXKXHXJXSXw     O o & 2 o .   +XJXJXHXFXNXFXNXNXNXBXBXBXBXBXCXDXmXBXnXBXmXDXCXCXBXZXBXZXCXCXBXmXCXBXCXDXmXmXBXmXMXMXBXBXBXMXMXBXBXBXBXBXBXNXNXNXDXBXCXDXBXDXCXBXBXBXZXZXZXZXNXNXmXmXDXDXmXmXBXBXBXBXBXBXBXBXBXBXBXBXBXBXBXBXBXBXBXBXBXBXBXBXBXBXBXBXNXNXBXNXBXBXBXBXNXNXBXBXBXBXBXBXBXBXBXBXBXBXBXBXBXBXBXBXVXNXNXFXDXNXBXDXBXBXBXBXBXBXBXBXBXBXBXBXNXNXNXNXBXBXBXBXNXBXBXBXBXBXBXBXBXBXBXBXmXBXBXBXBXsX7XyXaXaXyXyXyXyXyXyXeXyXyXyX9XdXFXFXbXFXDXVXNXmXNXmXBXBXBXBXBXBXBXBXZXZXBXNXBXCXnX7XyXyX7X7XBXBXBXyXyXyXyXyXyXyXyXyXyXyXyXyXyXyXyXyX7XyXyXyX7XdXSXqXLX@X: = 9 1 r 8 ; & ; o o o o o o o . o o o o o 9 F F Z M Z Z 9 * - < < < < < < 1 1 < $ % $ % o < $ * 9 A F C * o S )./.W.W.T.T.T.T.R.U.R.U.T.I.U.U.T.T.U.U.R.E.1.-.-.C Z Z Z Z Z Z 4 < > 4 K.5.4.4.4.4.2.4.H.4.H.H.H.H.H.H.2.4.4.H.1.>.=.' >.2.<.3.1.<.>.>.>.2.T P P K J K L Y * , 1 0 9 3 < $ L =.T T ' E E E ",
"Z * * * > 4 m 4 A S A T =.R T T >.T E R ' >.' 2.3.T ] 2.3.3.J.1.I.J.2.H.H.4.1.I < 4 C 4 P K.H.J.H.H.H.H.H.H.H.H.H.5.5.K.E % > % Z I F A U Y L ,.!.R.I.U.T.T.T.U.W.W.R.R.I.P.P.P.R.Q.Q.R.R.R.E.!..X^.~..XXX`.].].]..X:X-X;X,X>X>X,X,X>X<X%X3XKXFXZXSXHXPX. & 2 2   r.JXSXDXCXBXCXZXCXNXDXNXyXeXuXyXyXaXaXaXaXyXyXyXyXyXyXaXyXyXVXCXAX&.. w o - ; 8 O O.wXwXwXHXBX0X=X5XVXVXdXwXcXNXDXHXwXwXxXH : 2 : O O g a p =XcXaXyXyXaXyXyXyXiXyXsXmXmXBXZXZXDXVXDXSXSXSXAXz i } ..t o o : i + B.AXSXVXCXVXNXBXBXBXBXBXBXBXBXBXBXBXCXCXFXnXDXZXZXZXZXZXZXNXNXZXNXCXBXmXBXBXDXBXMXBXMXBXBXBXBXMXMXBXBXBXBXBXBXnXZXZXmXBXZXnXnXZXMXmXZXmXMXMXmXNXNXZXVXBXDXNXFXBXBXBXBXBXBXBXBXBXBXBXBXBXBXBXBXBXBXBXBXBXBXBXBXBXBXBXBXBXBXBXBXBXBXBXBXNXNXBXBXBXBXBXBXBXBXBXBXBXBXBXBXBXBXBXBXBXNXnXZXDXZXCXZXBXBXBXBXBXBXNXNXBXBXBXBXBXBXBXBXBXBXNXNXNXBXBXBXBXCXSXNXBXBXBXBXBXBXBXBXBXsXyXyXyXyXyXyXyXyXyXyXpXpXyXyX7X7XVXNXDXFXNXnXZXCXCXBXBXBXBXBXBXBXBXBXZXZXNXmXBXBXsX7XpXyX7XyXDXCXBXiXyXyXyXyXyXyXyXyXyXyXyXyXyXyXyXyXuXpXdXsX9X8X9X0XAXe.  o 8 % 3 9 r 2 Z S r D 8 8 r C 9 r r r D Z 9 Z C 9 9 Z Z 8 % * - < - * * * < 1 1 < < < * $ < < 1 4 9 C 4 * o S )./.R.W.U.W.T.T.R.U.U.U.I.U.U.U.U.T.U.U.R.R.1.,.-.C Z Z S S 9 9 1 > > 5 K.5.4.4.4.4.4.4.4.H.H.H.H.H.H.H.H.H.H.4.,.<.=.R ' 1.H.J.1.` ` >.>.=.,.R P K J J J A * , ; 1 1 1 > $ L =.T T ' R E E ",
"Z > * * > 4 m 4 C J L R R L P T <.T R E ' >.[ 3.3.' >.<.[ H.K.` 1.<.>.5.1.K m < < 4 C 4 I K.4.H.H.H.H.H.H.H.H.H.J.5.4.5.I % > * A I F F I -.K.P.R.P.J.Y.U.T.T.U.I.I.I.I.I.R.Q.Q.I.R.R.E.E.E.E.Q.'.^.^.`. X].].]. X`..X XXX>X>X>X<X>X>X<X%X3XKXFXZXSXHXPX. & 2 2   r.JXSXDXZXBXCXZXZXZXFXNX9XeXuXyXyXaXaXaXaXyXyXyXyXyXyXpXyXyXnXCXFX=Xb.+Xw O ; 8 o : p @  .cXSXc X g wXSX&Xa X qXFXbX|   w . o : 7 O g vXAXcXFXdXyXyXyXyXyXyXyXiXyXyXdXsXnXBXZXBXZXNXVXFXSXHXbXFXLXLX$X: o t.PXxXGXHXZXnXZXBXBXBXBXBXBXBXBXBXBXBXmXCXBXZXZXgXNXNXNXNXNXNXVXbXbXZXnXNXBXBXBXMXmXBXBXBXMXBXBXBXBXMXBXBXBXBXBXBXBXZXDXmXnXZXZXNXNXZXNXNXZXZXZXZXmXZXVXDXDXZXNXgXNXBXBXBXBXBXBXBXBXBXBXBXBXBXBXBXBXBXBXBXBXBXBXBXBXBXBXBXBXBXBXBXBXBXBXBXNXNXNXBXBXBXBXBXBXBXBXBXBXBXBXBXBXBXBXBXBXCXZXNXNXNXBXNXnXBXBXBXBXNXNXNXNXBXBXBXBXBXBXBXBXBXBXBXNXNXNXBXBXCXCXSXSXBXBXBXBXBXBXBXmXVXdXyXyXyXyXyXyXyXtXrXrX7X7X7XyXyX7XbXDXVXCXNXBXDXBXmXBXBXNXBXBXBXBXBXBXNXNXNXNXCXCXsX8XpXrX7XyXDXCXZXiXyXyXyXyXyXyXyXyXyXyXyXyXyXyXyXyXyX7X8X7XdXyXyXyXVX5X#X3X%Xy ; Z D e Z Z 4 9 1 M 9 M 9 9 9 9 Z Z Z Z C 8 9 Z C 9 < 1 4 8 e e 9 9 1 1 4 9 9 C C Z 9 C Z e 1 * < 4 % A (.!.W.W.T.W.T.T.R.R.U.U.U.U.U.U.U.U.U.I.I.P.5.6.7.C S A F A 1 1 < > $ 5 K.5.4.4.4.4.4.4.H.H.H.H.H.H.H.H.H.H.2.2.2.4.4.,.<.4.H.J.<.` ' <.=.` P.` K P L K K L * * , , < < > $ L =.T T ' R E E ",
"Z > * * * 4 4 m m J =.E L L T ' ' E >.>.' ' ` <.[ ' >.' >.I.Q.<.=.,.4.R.5.V $ $ 1 4 C 4 I K.4.H.H.H.H.H.H.H.H.H.2.5.K.E.,.% < $ Y U F ^ ^ 7.).E.P.Y.J.Y.I.T.U.U.Q.Q.W.R.I.I.I.R.R.R.R.W.Q.Q.Q./.~.(.`.~.~.]. X X X].`.^..X>X>X;X>X>X;X<X%X3XKXFXZXFXJXPX. & 2 8   r.JXSXZXZXCXCXZXZXZXDXVXqXyXyXyXaXaXaXaXaXaXyXyXaXyXyXyXyXyXsXVXCXAXKXKX| o y 8 - & .   O.JXLX|   g KXLX3X@   xXLXLXO.  2 ; D 8 :   w SXHXDXiXyX9XeXyXyXyXyXyXpXyXyXyXrXgXMXZXZXFXmXnXFXbXNXDXSXJXJX+X    q.LXKXVXnXhXmXCXmXmXBXBXBXBXBXBXBXBXDXBXZXVXNXDXDXFXHXHXHXHXHXHXFXFXFXFXVXNXDXDXCXMXBXBXBXBXBXBXBXBXBXMXBXBXBXBXBXBXZXZXhXZXDXSXFXHXKXFXFXFXFXFXFXFXFXBXNXNXBXDXDXDXBXBXMXMXBXBXBXBXBXBXBXBXBXBXBXBXBXBXBXBXBXBXBXBXBXBXBXBXBXBXBXBXBXNXNXNXNXNXNXNXBXBXBXBXBXBXBXBXBXBXBXBXBXBXBXBXBXZXDXBXZXDXCXBXBXBXNXNXBXBXBXBXBXBXBXBXBXBXBXBXBXBXNXNXNXNXNXBXNXNXCXBXBXBXBXBXBXBXmXsXyXyXrXyXyXyXyXyXyXrXyXyXyXyXyXiX9X8XdXDXDXDXZXBXBXNXmXDXBXBXBXBXBXBXBXBXNXZXZXZXDXDXnX7XyX7X9XyXCXBXBXyXyXyXyXyXyXyXyXyXyXyXyXyXyXyXyXyXsXpXyXyXyXyX7XiXiXVXHXLX5Xw . & o 1 , A Z M 1 M M M M M M C 9 C 9 C e 4 1 1 3 5 3 1 1 3 8 9 4 4 M 9 9 3 4 9 Z A C Z F F 9 $ $ 4 % A '.!.R.W.T.W.T.T.T.T.U.U.U.U.U.U.T.U.I.P.P.P.E.P.6.Z S F F A < > > > $ 5 K.5.4.4.4.4.4.H.H.H.H.H.H.H.4.4.4.H.2.H.H.H.K.J.4.4.<.<.>.<.4.2.>.>.P.=.T P L L L Y * * * * > < * $ L =.T T ' R E E ",
"Z * * * * 3 4 m 4 K =.R L L T ` E >.2.1.R K K ` J.3.<.' ` 2.2.=.,.5.4.5.,.m 6 9 < 4 C 4 T K.4.H.H.H.H.H.H.H.H.H.2.2.K.E.,.% < > C Z S I U -.5.,.I.P.Y.I.U.U.I.U.U.U.U.I.I.I.R.R.R.I.I.R.R.Q.Q.W./.(.'.~./.]. X X X]. X].XX,X>X-X>X;X;X<X%X3XKXFXGXFXJXPXo - 3 8 . r.JXSXZXZXMXZXmXmXNXDXVXaXaXaXaXaXaXaXaXaXaXaXyXyXaXyXyXyXyXiXqX0XaXJXJXz   w 7 0 r 8 : t.IXvX| X g =X5Xr.+ @ 3XvXxXO.O D 3 2 o + z $.bXVXnXiX7X7XeXyXyXyXyXaXpXyXyXyXrXsXmXmXhXZXBXmXZXBXZXnXgXbXbX*X| p B.bXDXZXDXMXMXCXBXBXBXBXBXBXBXBXBXBXZXZXDXBXBXDXFXqXcXvXvXAXAXvXvXcX3XSXHXDXNXnXmXMXBXBXBXBXBXBXBXMXMXBXBXBXBXBXBXBXhXhXnXHXFXcXKXLXKXKXKXJXJXKXKXFXqXFXFXNXNXVXDXBXBXBXMXMXBXBXBXBXBXBXBXBXBXBXBXBXBXBXBXBXBXBXBXBXBXBXBXBXBXBXNXBXBXBXNXNXBXNXNXNXBXBXBXBXBXBXBXBXBXBXBXBXBXBXBXBXNXBXDXBXNXNXnXNXBXBXNXNXBXBXBXBXBXBXBXBXBXBXBXBXBXBXNXNXNXNXNXBXNXNXBXNXBXBXBXBXBXCXBXdXyXyXyXuXyXyXyXyXyXyXyXyXyX7X7XpXnXdXnXDXDXVXNXNXZXZXmXCXBXBXBXBXBXBXBXBXnXZXZXNXmXmXsXrXyXpXhXhXDXBXDXiXyXuXyXyXyXyXyXyXyXyXyXyXyXyXyXyX7XyXsXuXyXyX7X9XrXnXNXHX3Xi a w i ..$ M A M 3 3 M M M M M Z 9 9 4 M e 8 3 4 9 9 C e 8 e e e C C C M 9 4 9 Z Z Z C C C Z Z 1 < 3 % A '.!.W.W.I.T.T.T.T.T.U.U.U.U.U.U.U.U.I.P.P.P.R.E.6.C Z F F S 1 > 1 1 > 3 [.5.4.4.4.4.H.H.H.H.H.H.H.H.4.4.4.2.H.H.2.1.4.4.1.1.<.>.>.4.J.>.' >.=.>.>.P J L I S > * * * * < > $ L =.T T ' R E E ",
"9 * * * $ 3 C S J L =.R T T L R T T ' <.' K K ` 2.<.>.T R ,.1.4.,.6.K 4 m 6 $ 1 < 3 M 4 I P.4.H.H.H.H.H.H.H.H.H.H.2.5.E.=.% < , , 1 9 S U U I T P.P.I.U.T.I.I.W.W.W.W.W.R.R.R.W.R.R.W.Q.R.Q.~.~.!.(.`.^.^.`. X X X]. X`.XX,X>X-X>X;X;X<X%X2XKXFXFXFXLXPXo ; 8 8 . t.JXSXZXZXCXZXZXZXNXFXDXNXNXcXaXyXyXyXyXyXyXyXaXyXyXyXyXyXyXyXaXaXcXKXKXz . y : = & - o o y + p g z g X + . O o O : o o r 2 y + | PXFXFXmXCXgX7X7XyXyXyXyXyXyXyXyXiXyXrXpXgXpXmXmXCXmXgXMXDXBXDXZXHXFXAXSXHXHXNXZXCXhXhXMXMXCXBXBXBXBXBXBXBXBXNXDXNXDXNXbXNXC.    . . X X .   X &XKXKXFXBXCXDXBXBXBXBXMXMXMXMXBXBXBXBXBXBXBXBXCXmXbXbXB.+ + + + : + + + + @ @ l qXFXDXFXVXDXBXBXBXBXBXMXBXBXBXBXBXBXBXNXNXBXBXBXBXBXBXBXBXBXBXBXNXBXBXBXBXNXNXBXBXBXBXBXBXBXBXBXBXBXBXBXBXBXBXBXBXBXBXBXBXBXBXBXNXCXBXBXZXNXZXBXBXNXBXBXBXBXBXBXBXBXBXNXNXNXNXBXBXBXBXBXBXBXBXBXBXBXBXNXNXBXBXBXCXBXsXyXyXuXaXuXfXyXyXyXyXyXyXsXyX7XVXFXDXBXNXDXVXZXZXZXBXnXnXBXBXBXBXBXBXBXBXnXZXNXgXyXyXyXrXyXnXCXBXDXCXFXsXyXyXyXyXyXyXyXyXyXyXyXyXyXyXyXyXuXyXuX7X7XaXdXdX9XnXbXHXHXAXGXPXLXPXH 1 4 1 C Z 9 9 M 4 M C 3 C A S Z e r Z S A S S D t t D Y I 9 M M 9 9 9 4 * < 4 4 1 e Z C C % K .X(.Q.W.I.T.T.T.T.T.U.U.U.U.U.U.U.U.I.I.U.R.E.E.6.4 C A S Z 1 > 1 3 > 5 [.5.4.4.4.H.H.H.H.H.H.H.H.H.4.4.4.2.H.H.1.1.,.=.=.1.G.<.<.2.1.T P >.J T -.T J P R A > * * * < < > $ L =.R T ' R E E ",
"3 $ * * $ 3 Z A ,.T =.' ' ` L R ' K J =.<.R K T 4.H.1.P R 1.1.K.E.E.A % > 4 4 9 < 3 M 4 P K.4.H.H.H.H.H.H.H.H.H.J.H.K.E.-.% < > > 1 3 M I U J -.5.J.Y.U.T.I.I.W.I.I.I.U.I.I.R.R.I.I.Q.Q.I.R.(.'.~.^.(. X.X.X X`.XX`.`.^..X>X>X>X>X>X;X<X%X2XKXKXFXKXLXPXo ; 8 8 . t.JXSXNXZXCXZXCXZXNXFXHXHXHXbXaXyXyXyXyXyXyXyXaXaXyXyXyXyXyXyX8XaXVXFXSXg   X O . o 8 2 o & o g b.&X| . y 8 ; = o & r 2 ; . o   p JXSXgXgXFXiX7XyXyXyXyXyXyX9X9XyXiXiXyXiXyX8XmXmXMXMXMXMXmXmXmXgXZXNXSXHXDXdXZXmXMXMXCXCXmXBXBXBXBXBXBXBXBXBXBXDXVXCXDXNXFXe.@ @ O + & & + + . 3XLXKXSXCXZXMXBXBXBXBXBXMXZXZXBXBXBXBXBXBXBXBXnXNXHXLX+X  o O o o . . . .     . bXFXbXFXNXDXDXBXBXBXBXMXBXBXBXBXBXBXBXBXNXBXBXBXBXBXBXBXBXBXBXNXNXBXBXBXNXNXNXBXBXBXBXBXBXBXBXBXBXBXBXBXBXBXBXBXBXBXBXBXBXBXBXDXnXBXNXNXZXnXBXBXBXNXNXBXBXBXBXNXBXBXBXBXNXNXNXBXBXBXBXBXBXBXBXBXBXBXBXNXNXBXBXMXBXBXsXeXyXyXeXaXaXaXaXaXyXyXyXyXyX7XsXBXmXmXBXBXNXDXZXNXZXNXDXBXBXBXBXBXBXBXBXNXCXBXiX7X7XyXyXeXnXDXBXBXBXDXiXyXyXyXyXyXyXyXyXyXyXyXyXyXyXyXyXyX7XuXyXeXaXyXyXyXDXnXnXDXFXHXGXJXPX7 % 9 3 C ; 1 3 9 1 4 9 3 Z 9 < o o o o o o . o o .   o - 4 1 M Z Z Z Z 1 % * Z Z 4 9 Z 9 1 % L -X'.!.W.I.W.T.T.T.T.T.U.U.U.U.U.U.U.U.U.W.R.P.E.1.1 9 S Z Z 1 * 1 3 6 < K.4.4.4.4.H.H.H.H.H.H.H.H.G.4.4.4.4.H.2.2.4.,.R ` 2.K.G.3.2.>.K P 2.L P =.-.T L K A > , , , < < > $ L =.T R ' R E E ",
"4 $ 1 * 3 5 C A K J S K ' T R ' K K R >.' R T P 2.1.<.,.' >.4.>.,.1.L 3 3 4 3 3 3 9 J P =.5.4.H.G.G.H.H.H.H.H.H.J.1.K.J.-.6 * 1 > 1 M S F U K -.4.5.I.I.U.U.Y.W.U.R.R.R.U.U.U.U.U.U.U.R.W.W.Q.Q.`.!.^..X X.XXX]..X X X^.XX,X>X>X,X-XXX<X%X2XLXGXLXvXPX3X8 o r D O w.LXAXVXCXCXZXmXhXDXFXKXe.B.wXNXdXqXiXyXiXyXyXyXyXyXyXyXyXyXyXyXyXBXCXVX5X=X*Xp | u O e - - o | / 9./ ; 8 ; 1 1 8 ; y ; o r.*X&XwXbXNXbXZXDXnX7XyXyX9XyXyXaXNXaXsXdXyXdXiXyXrXmXBXMXmXMXBXMXMXBXZXBXNXNXNXNXBXBXBXMXMXMXMXBXBXBXBXBXBXBXBXBXBXBXDXCXNXVXDXNX5X. w : y 2 - e 8 o :.r.O.KXNXNXFXCXBXmXnXNXCXZXZXZXDXDXgXFXNXBXNXDXFX@X@X~ o 8 2 - r y O v.#Xb.#X&XdXDXDXBXCXDXNXBXBXBXBXBXBXBXBXBXBXBXBXNXNXBXBXBXBXBXBXBXBXBXBXNXNXBXBXBXBXBXBXBXNXNXNXBXBXBXBXBXBXBXBXBXBXBXBXBXBXBXBXBXBXBXBXBXBXBXBXBXBXBXBXBXBXBXBXNXBXBXBXNXNXNXBXBXBXBXBXBXNXNXNXBXBXBXBXBXCXZXmXZXBXnXZXDXBXmXcXaXfXfXqXeXyXyXfXaXyXeXuXyXeXyXnXCXBXmXBXNXNXNXNXBXBXBXBXBXBXBXBXBXBXMXMXBXBXnXdXyXyXyXyXuXnXBXBXmXnXMXsXyXyXyXyXyXyXyXyXyXyXyXyXyXyXyXyXyXyXyXyXuXuXyXyXyXBXmXnXDXDXbXbXFXKX+ : F * r 9 8 8 9 9 9 Z Z Z 8 ; %X+Xv.+X+X@X#X+X#X#X$X_.:...9 A F U 9 M 9 9 M M 9 4 9 Z M 1 % Y Q.5.Q.(.R.W.T.I.T.W.U.I.U.U.U.U.I.U.W.U.I.Q.5.E.6.5 9 F F Z 1 * 1 3 $ < [.5.4.4.4.4.4.4.H.H.H.H.H.H.4.4.4.4.H.2.4.H.,.=.<.1.H.G.5.H.<.T T 3.' ' I T P K K A * 1 * , < < 1 $ J =.T T ' R R R ",
"4 % * $ 4 4 Z A S S V J T L R =.K L R E T T ' 1.>.P Q 1.4.4.K.,.6 1 > * 1 1 < 9 F R 5.5.4.4.2.1.G.G.H.H.H.H.H.H.5.5.5.E A % , > > 1 Z F F Y J -.P.H.J.H.Y.W.I.W.R.R.R.R.U.U.U.U.U.U.R.R.R.R.R.W..X^.`..X^.`..X X.X X X^.XX,X>X>X>X>X;X;X_.2XLXLXKX .. & & 9 r &   @.JXFXDXZXCXCXCXmXNXVX0X@ X  .SXbXdXsXiXyXiXyXyXyXyXyXyXyXyXyX7X7XmXDXHXCXFXSXvXLX$X+ + : y 7 + X 7 O O 0 1 9 & : O + o + *XLXKXHXFXnXhXZXNXyX7XyX9X8XrXrXdXBXdXdXyX9XaXdXyX7XnXMXMXmXMXMXBXMXBXBXBXBXBXNXBXBXBXBXBXBXBXBXBXBXBXBXBXBXBXBXBXBXBXBXNXDXNXDXDX0XPXt.o & 2 % * 9 * & o @ KXJXSXqXyXBXFXDXNXhXgXnXDXNXFXVXCXdXFXSXJX3XX O o o 3 1 2 & O + wXJXKXFXVXFXFXNXNXNXBXVXBXBXBXBXBXBXBXBXBXBXBXBXNXNXBXBXBXBXBXBXBXBXBXBXNXNXBXBXBXBXBXBXNXNXBXNXBXBXBXBXBXBXBXBXBXBXBXBXBXBXBXBXBXBXBXBXBXBXBXBXBXBXBXBXBXBXBXBXNXBXBXBXNXNXBXBXBXBXBXBXBXNXNXNXBXBXBXBXmXBXBXmXDXFXDXDXDXBXnXdXyXeXeXyXeXaXuXyXuXuXuXuXpXrXrXhXCXCXBXCXBXNXNXNXNXNXBXBXBXBXBXBXBXBXMXMXBXmXsXyX7XrXyXdXdXMXMXnXyX7XyX8XyXyXyXyXyXyXyXyXyXyXyXyXyXyXyXyXyXyXyXyXyXyXyXyXyXNXDXFXDXZXZXFXFXKXy o Z Z r ; - & : & : ; ; ; O i PXLXJXJXJXJXJXJXJXKXLXxX2X%X0.I 9 Z 9 F F Z Z M 1 > 1 3 9 4 4 < 5 $ -.(.E.I.U.I.U.T.I.I.U.I.U.U.U.U.U.I.J.K.5.E.6.3 M F U F 1 * 1 3 $ 5 [.5.4.4.4.4.4.4.H.H.H.H.H.H.4.4.4.4.4.2.4.H.1.2.4.2.2.>.` ' 1.<.' ' 5.,.T L K L I J * 1 * , > > 1 $ J -.R T ' R R R ",
"4 $ * $ 3 4 3 4 C S Z L E T ,.4.K T R T K K ` 1.4.L T J.J.1.5.=.% * > 9 Z 4 < S A T 4.J.5.J.4.K.G.G.H.H.H.H.H.H.H.J.5.E J $ 4 < > 3 F F F F J =.R.5.2.2.J.W.U.W.R.R.R.R.U.U.I.I.W.W.T.T.U.U.U.U.XX`..X.X^.^..X.X.X X.X^.XX,X>X>X-X>X>X:X.X2XPXLXLX8.O 2 8 & o : . O.AXFXDXCXBXCXZXmXDXHXAX+ X w.JXSXdXaXyX8XyXdXyXyXaXyXaXyXyXyXsXyXMXBXBXbXVXdX0XAXV.@ .   O o : o = 7 1 1 % o o + .     . #XFXNXNXNXgXnXDXDXnX7XrXrX9XrXrXaXBXnXbXyX9XyXdXyX7XnXMXBXmXBXBXBXBXBXBXBXBXBXBXBXBXBXBXBXBXBXBXBXBXBXBXBXBXBXBXBXBXBXBXNXDXNXDXDXdXKXe.+ o ; - 1 M S 1 o 7 AXKXKXJXHXFXcXdXFXFXDXFXHXcXSXFXHXCXHXAXLX3XO : 8 1 - % 2 o . @ =XFXNXVXDXDXnXNXDXBXDXBXBXBXBXBXBXBXBXBXBXBXBXBXBXBXBXBXBXBXNXBXBXBXBXBXBXBXBXBXBXBXBXBXBXBXBXBXBXBXNXNXBXBXBXBXBXBXBXBXBXBXBXBXBXBXBXBXBXBXNXNXNXNXNXBXBXBXBXBXNXNXBXBXBXBXBXBXBXBXBXNXBXBXNXBXBXBXNXNXDXDXBXmXNXNXnXbXFXCXnXsXyXyXyXpXyXyXeX7XrXuXrXeXtXtXrXsXBXCXBXZXBXZXNXNXNXNXNXNXBXBXBXBXBXBXBXBXmXsXiXyXrXyXyXsXnXCXDXBXpXeXuXeXyXyXyXyXyXyXyXyXyXyXyXyXyXyXyXyXyXyXuXuXrXtXpXhXdXbXVXNXVXFXHXSXJXPXD o N N o & O O O O O O O O   w xXHXAXVXSXSXVXSXGXAXPX3X%X|.6.C $ 4 1 Z F M S M 3 1 3 9 C S 9 $ % $ E.>XQ.R.R.I.U.T.I.I.I.I.I.T.T.U.U.Y.5.4.5.E.6.4 Z F F F 9 < 1 3 $ 5 K.4.4.4.4.H.4.4.H.H.H.H.H.H.4.4.4.4.2.2.4.4.4.J.J.1.>.>.` ` <.2.1.=.K.4.T K K P R J $ , * , < < 1 $ J -.R T ' R R R ",
"J S S $ 5 5 5 < 1 C Z U I P =.,.T R R R ` R T T ,.T R 1.>.=.2.E < 3 9 9 Z 1 * A 6.4.J.H.H.J.1.1.G.G.H.H.H.H.H.H.J.H.K.J.=.6 1 1 > 3 F U F F J R 4.1.J.Y.I.W.T.I.R.R.R.R.U.U.U.U.T.T.T.T.T.T.T.T.~.~.`.'.~.~.`..X X X.X^.XX,X>X;X<X,X;X-X-XQ...y 7 o & D 3 - 8.vXwXxXJXFXDXNXBXCXZXZXZXHXKX+ . t.KXcXaXdXnXyXdXyXyXaXaXaXaXaXyXyX7X8XhXmXmXNXDXgX8XwXwX=X&X+Xr.7 y & & ; ; - - : +X*X*X&X*X#XxXFXnXZXZXnXmXCXBXiX8X7XrXrXyXrXeXsXDXVXsXyXyXdXyXqXmXBXCXBXBXBXNXBXBXBXBXBXBXBXBXBXBXBXBXBXBXBXBXBXBXBXBXBXBXBXBXBXZXBXNXDXNXNXDXbXSXAX=Xw O e Z < < 4 r O | w r.GXSX&Xa g wXNXqXVXqX .p e.dXFXvXO.} ~ o ; - - $ 2 o u B.V.0XDXDXDXNXNXNXDXDXNXBXBXBXBXBXBXBXBXBXBXBXBXBXBXBXBXBXBXBXBXNXNXBXBXBXBXBXBXBXBXBXBXBXNXBXBXBXBXBXBXNXNXBXBXBXBXBXBXBXBXBXBXBXBXBXBXBXBXBXBXNXNXNXNXNXNXBXBXBXNXNXNXBXBXBXBXBXBXBXBXBXNXBXBXBXBXNXNXNXNXBXZXnXNXBXNXFXNXSXVXbXdXqXqXqX9XqXqXyXyXrX9X7XrXtXtXiXgXBXBXBXBXZXNXNXNXNXNXNXNXBXBXBXBXBXBXBXBXnXpXiXsXhXgXnXnXnXBXCXBXdXeXuXuXyXyXyXyXyXyXyXyXyXyXyXyXyXyXyXyXyXuXuXuXrXrXsXMXBXDXDXZXNXFXSX&.| :.; 1 ^ 9 ; 4X3X3X3X=X=X=X3X3X3X=XHXFXNXZXDXZXSXFXSXGXLX3X_.%X.XE.E.Q.F C F U S Z Z Z C M M Z < 3 3 $ I -.Y 5.R.I.I.T.I.I.I.I.I.U.T.I.I.I.I.P.5.K.6.C Z S Z C 9 < 1 3 $ 5 K.4.4.4.4.4.4.4.H.H.H.H.H.H.4.4.4.4.4.2.2.2.1.1.1.,.' 1.4.<.' ' =.2.=.=.' ' I P R A $ , * , < < 1 $ J -.R T ' R R R ",
"' =.-.< < 5 4 4 9 Z A I L J L L >.>.=.=.,.>.R T R R =.1.,.4.P.,.$ 1 3 > 9 1 > L E.J.G.3.G.Y.H.J.4.4.H.H.H.H.H.H.H.1.5.E.,.$ > , , 1 S U F F A P =.>.Y.I.I.W.I.I.R.R.R.R.U.T.T.T.I.I.U.T.T.W.W.W.Y.I.~.(.^.~.^. X X X.X^.XX,X;X;XXX-X;X<XlX).o . & ; 8 8 & o t.LXLXSXFXVXNXZXDXDXCXDXSXKXAX+ . 8.LXcXcX0XdXyXdXrXyXyXaXaXyXyXyXyXyXyXCXDXCXZXFXgXqX7XSXFXAXvX3X@   O O ; ; & o   5XJXJXKXJXFXHXDXZXCXmXgXBXDXBXpX8X7X7X7XyX7X7XyXDXCXmXsXyXyXyXyXmXBXBXBXBXBXNXBXBXBXBXBXBXBXBXBXBXBXBXBXBXBXBXZXBXBXBXBXBXBXBXBXBXBXBXDXZXNXDXBXVXHX0XX   + 2 1 1 9 A & O   q.LXLX=X. X cXJXKXJXJXp . | JXLXKX+ o ; ; Z * 1 o &   O.KXHXJXDXVXVXDXBXBXBXNXBXBXCXBXBXBXBXBXBXBXBXBXZXZXNXNXNXNXZXNXNXNXNXNXNXNXNXBXBXBXBXBXBXNXNXBXBXBXBXBXBXNXNXBXBXBXBXBXBXBXBXBXBXBXBXBXBXBXBXBXBXBXNXNXNXBXBXBXNXNXNXBXBXBXBXBXBXBXBXBXBXNXNXBXBXNXBXBXBXBXNXnXNXNXFXFXVXJXJXJXJXKXKXSXSXSXSXSXFXSXVXcXnXdX9XiXhXmXBXCXZXNXZXZXZXNXNXBXBXBXBXBXBXBXBXBXBXBXBXnXyXyXmXBXZXDXDXNXZXZXBXdX7XyXyXyXyXyXyXyXyXyXyXyXyXyXyXyXyXyXyXyXyXyXyXrXrXsXCXnXmXNXVXNXJXSXa . ; Z Z Z o + LXLXLXJXJXJXJXJXJXJXSXFXVXNXCXNXmXDXHXGXvXPX3X|.;XlX<XlX;XS $ 4 F F F F F Z 3 > < * 9 9 % $ % % 1.Q.U.I.T.I.I.T.I.I.U.U.Y.Y.U.Q.E.P.5.1.e 9 9 9 9 9 < 1 1 $ 5 K.4.4.4.4.4.4.4.H.H.H.H.H.H.H.H.H.H.J.2.2.4.<.` ' >.<.G.H.3.=.T T =.K P =.4.=.L L J $ , > , > > 1 $ J -.E T ' R R R ",
"` =.T $ $ < 4 Z M Z S U Y A J J 1.4.,.' ' R T R ' >.>.2.,.>.>.L $ 3 9 > 9 9 1 I E.H.H.3.3.G.1.G.2.4.H.H.H.H.H.H.H.H.4.K.=.$ , , 1 , Z U F F J L ' =.P.Y.G.Y.I.I.R.R.R.R.U.T.T.T.I.I.U.T.T.W.W.W.I.W.~.`. X`. X.X X X.X(.XX,X;X-X,X<X<XXX>XQ.2 r t 9 1 < ; O 8.LXSXAXDXFXFXFXDXMXZXDXSXHXAXy : :.KXwXFXcXaXyXyX7XyXyXyXyXyXyXrXrX8X7XBXNXBXNXFXnXyXyXdX0X8X0X5X@.w ~ : . o w i @ #XqXdX8X0XwXsX7XgXZXCXmXmXBXnXgXiXsXyX7XyXaXpXsXDXCXBXgXrX7XyXrXhXmXmXmXZXZXNXBXBXBXBXBXBXBXBXBXBXBXBXBXBXZXZXZXBXBXBXBXBXBXBXBXBXBXBXDXBXnXCXNXnXDXqX*.r.i & Z 4 < 9 1 r : r.PXPX3X+ + 3XvX5XwX3X} + w.vXAXxXH o ; 9 Z 1 e o w + q.SXSXDXNXZXDXBXNXBXBXBXDXCXBXBXBXBXBXBXBXBXBXZXZXZXNXNXNXNXZXNXNXNXNXNXNXNXNXBXBXBXBXBXBXNXNXBXBXNXNXBXBXBXBXBXBXBXBXBXBXBXBXBXBXBXBXBXBXBXBXBXBXBXNXNXNXNXBXNXNXBXNXNXNXBXBXBXBXBXBXBXBXNXNXBXBXNXNXBXBXBXBXCXDXNXFXwXB.V.@X$X$X$X&X&X&X&X&X#X#X@X@X=XAXSX0XyXnXCXZXZXNXNXNXZXZXNXNXBXBXBXBXBXBXBXBXBXBXBXBXmX7X7XgXmXNXZXZXZXZXBXBXsX7XyXyXyXyXyXyXyXyXyXyXyXyXyXyXyXyXyXyXyXyXyXyXrX9XsXCXCXmXnXnXbXFXJXy 8 Z Z & 8 : 7 xXAXAXbXbXgXbXbXbXNXNXDXbXZXDXZXCXbXFXxX$X3X<X-X>X.X.X:X XK C S M F F F F S 9 3 1 1 9 3 * < * % 6.!.U.I.T.I.T.W.T.R.U.U.Y.J.Y.R.R.P.5.-.9 9 9 9 9 9 < < 1 $ 5 K.4.4.4.4.4.4.4.H.H.H.H.H.H.H.H.H.H.J.1.1.J.,.R ` <.Y.2.>.1.5.>.T T L T ,.K.=.J L J * , > , > > 1 $ Y -.R T ' R R E ",
"T P P 4 Z 4 1 9 0 1 > 4 4 4 A C T =.' P T P L R =.=.R =.E m 6 6 , 4 9 > 9 3 $ J K.4.J.H.J.J.2.J.2.2.4.5.H.H.H.H.H.J.5.K.=.$ 1 , , , A U F Y J I ,.>.H.2.<.Y.W.W.R.R.R.R.R.T.T.T.I.I.U.U.T.T.T.T.~.~.~.`. X X X.X X X.X X-X,X;X;X>X>X-XJ < 9 o 1 ; 1 9 M 8 O O.LXSXSXZXZXNXBXCXBXCXNXVXGXwXO o y w p 0XcXqXdXyXrXyXyXyXyXyXyXrXrX7XqXsXsXnXNXFXNXBXFXVXeXaX0XSXVXAXAXw.@ 7 #XLXKX0XnXnXyXyX7XMXgX8XmXFXDXBXCXMXCXMXBXdX7XaXmXBXMXCXZXBXhXrX9XyXrXyXpXdXnXBXZXNXNXMXMXBXBXBXBXBXBXBXMXMXMXMXZXZXZXBXBXBXBXBXBXBXBXBXCXBXCXmXnXBXmXnXmXHXSXLX8.o 8 1 < 4 1 2 o : i u 7 . o w O X @ O o . + y . u o * - * & % 2 O r.GXAXHXZXZXnXmXBXBXmXCXCXBXBXnXnXBXBXBXBXNXNXNXNXZXZXNXNXNXNXZXZXZXZXNXNXNXNXNXNXNXNXNXBXBXBXBXNXBXNXNXNXBXBXBXBXBXBXBXBXBXBXBXBXBXBXBXBXBXBXBXBXBXBXBXBXNXNXBXBXBXBXBXBXNXNXBXBXBXNXNXNXBXBXBXBXBXBXBXNXBXBXBXBXDXZXbXAXB.X       . . . . . . . .   . @ g #X0XbXqXVXDXNXNXNXNXNXZXZXNXNXBXBXBXBXBXBXBXBXBXBXMXBXMX7X7XnXNXNXZXNXNXNXnXZXnXyXuXuXnXnXnXsXsXsXsXdXyXyXyXyXyXyXyXyXyXrXyXyXyX7XsXCXnXhXhXCXNXSXLXy & 9 Z : %XPXwXJXHXFXDXCXCXDXDXFXVXZXZXBXBXmXMXNXDXJXwXr.%X:X;X>X>X>X,X<X).-XE.F F F F F F F A S F 9 % % % $ % 5.!.U.I.T.T.T.W.T.R.I.U.U.Y.J.K.P.1.-.-.Z Z M M M 9 < < 1 $ 5 [.4.4.4.4.4.4.4.H.H.H.H.H.H.H.H.H.H.<.>.,.J.2.>.>.1.H.<.>.2.J.2.' ' =.' -.4.=.L I A * 1 > , > > 1 $ J -.R T ' R E E ",
"=.T =.R 7.U 4 9 e 1 * * > 3 A C 5 J K K ' ' R =.-.=.T ,.=.5 $ m 3 4 9 > 9 4 $ P E.H.G.G.H.J.1.2.G.2.4.5.H.H.H.H.2.2.2.R.,.% , > > , F I F F K -.K.1.2.3.<.I.W.W.R.R.R.R.R.T.T.T.U.U.U.U.U.U.U.U..X]././.~.~.!.~. X X.X X-X,X>X-X-X>X>XV % C < 9 4 4 < * O   +.KXAXDXDXDXBXDXFXCXDXnXAXAX3XO & D   a PXJXcXdXqXdXaXaXaXaXaXaXyXyXsXaXaX7XnXnXDXDXNXFXnX8XnX7XyXyX0XAX&.. . e.KXcXaXuXrXyXgX7XtX8XpXBXCXmXBXBXmXmXMXCXdX8XaXBXCXBXBXMXMXhXiXyXyXrX7X9XyXsXNXZXNXmXMXMXBXBXBXBXBXBXBXMXMXZXZXZXZXZXBXBXBXBXBXBXBXBXmXCXBXCXCXBXCXMXCXnXCXbXJX}   O o - Z 8 e 8 ; o o O ^ %Xt.u u p {.9.7 O : . 8 o 1 3 ; & : :   #XJXbXDXgXZXZXBXCXCXnXDXDXBXBXBXDXNXBXBXBXBXNXBXNXZXNXNXNXNXNXZXZXZXZXZXNXBXNXBXBXNXNXNXBXBXBXBXNXBXBXNXNXBXBXBXBXBXBXBXBXBXBXBXBXBXBXBXBXBXBXBXBXBXBXBXBXBXBXBXBXBXBXBXBXNXNXBXBXNXNXNXNXBXBXBXBXBXBXNXNXBXBXBXBXBXDXSXJX#X    . : : ; - & & & = & : : O   w #XKXcXNXZXNXNXDXDXDXBXZXNXNXBXBXCXCXCXBXBXBXBXBXBXBXmX7X9XDXHXHXHXHXHXHXHXJXFXbXVXVXcXcXcXdXaXyXyX9XyXyXyXyXyXyXyXyXyXrXrXyXyX7XdXBXCXmXgXnXbXGXLXw o F H . +XLXSXSXNXNXmXmXmXmXNXBXNXNXmXCXmXMXDXNXSXJXxX%X1X<X>X>X,X>X-X,X>XlXQ.5 A F F F F U U A S < & < - * % 6.~.R.I.T.I.T.W.T.U.I.T.W.P.5.5.5.P P -.A Y Z M 9 9 > > < $ 5 K.4.4.4.4.4.4.4.H.H.H.H.H.H.H.H.H.H.R R >.4.H.4.4.1.L ' 1.2.1.=.>.2.1.=.=.,.T I R S * 1 > , > > 1 $ J -.R T ' R R R ",
"T T T L I F < - 3 1 < 9 1 1 F M 4 C Z A -.5.,.T ' =.=.6.R > > 4 1 4 9 < M m 6 L K.J.H.H.H.H.H.J.G.G.G.G.5.4.4.4.H.4.5.P.-.% 1 > , 1 S I Z F F I 6.I J.Y.U.Y.I.W.U.I.I.I.I.I.U.U.U.U.T.W.I.I.R.W.`.XX].Y.^..X.X(.(.XX.X.X>X>X-X;X-X;X-Xm < 5 < < < C % o 7    .GXSXZXDXDXDXDXZXDXZXHXcXLX4XO 2 D + | xXKXAXAXAXAXSXAXAXSXAXSXcXFXbXdXyX9XdXNXDXNXZXDXnX7XeXuXyXyXyXaXC.n n C.aXqXyXyXyXyXyXyXyXyXyXBXCXmXNXZXNXmXBXDXsX8XaXBXBXBXMXMXMXMXCXhXrXyXyXyXyXnXCXCXBXZXBXBXMXBXBXCXBXBXBXBXBXBXBXNXNXNXZXZXZXZXZXZXZXZXBXBXBXBXBXMXMXMXmXBXVXDXSXe.g | ..- - e - 2 ; D r O u 3X3Xw 7 g 5X{.7 o = & & ; 2 o :   .     V.FXDXSXNXBXZXZXCXBXBXBXBXBXBXBXBXBXBXBXBXBXBXBXBXNXNXNXNXBXBXBXBXNXNXNXNXBXBXBXBXBXBXBXNXBXBXBXBXNXNXNXBXBXBXBXNXBXBXBXBXNXNXNXNXBXBXBXNXNXNXBXBXBXBXNXNXNXBXBXBXBXBXBXNXNXNXBXBXBXBXBXBXBXBXBXBXBXBXBXBXBXBXBXBXZXNXDXFX5XC.C.&.  + O & 1 > % 8 < * ; 8 o i 5XKXcXFXiXMXDXnXFXNXFXVXDXNXCXFXSXSXDXNXnXNXMXBXMXBXmX8XSX=XB.B.B.r.r.t.w.q.@.O.O.O.O.} w . b.FXyXyXyXyXyXyXyXyXyXyXyXrXtXiXrX7XdXBXNXNXnXFXSXLXLXu $ Z Z O $XLXAXNXSXZXZXZXZXCXBXCXCXZXZXMXMXZXZXZXSXHXxX+X1X<X>X,X,X-X,X,X,X>X!.1.Q.I S A F F A Z 9 - & & - o < 6.(.P.Q.R.J.W.T.T.W.I.Y.J.<.1.J.5.,.=.I F A Z C M M < * > $ 3 K.5.4.4.4.4.H.H.H.H.H.4.H.4.4.4.4.4.,.2.1.,.J.K.H.1.K R >.J.K.E T H.H.=.J L I L P Y > * * > * > > % Y -.E T ` E ` R ",
"T T T T -.U - % < 1 1 9 9 3 M 9 C e 1 < S R -.' =.A 5 m 3 > 4 M 4 9 M < J ,.>.4.J.2.<.<.H.H.H.J.G.G.G.H.4.4.4.H.J.4.5.P.-.% 1 , > $ > 9 1 F U I I K J.I.U.P.I.I.U.I.I.I.I.I.U.U.T.U.U.U.I.I.U.R./.~.].I.!.(. X/.XXP.m 9 ).2X,X<X=.4 A % < < 5 1 1 1 o :.AXAXAXHXNXNXZXSXNXVXnXNXSXbXz p y o 8 2 ; & H i w p w p p p p g z p p &XFXVXsXqXiXNXDXNXBXDXnXrXyXuXyXyXeXVXcXVXnXdXnXeXyXyXyXyXyXyXyXyXyXBXDXMXBXBXNXBXBXDXdX8X7XpXyXdXMXMXMXCXBXsX7X7XyXqXyXnXBXBXNXBXBXBXBXBXBXCXBXBXBXBXBXBXNXNXNXNXZXZXZXZXZXZXZXZXBXBXBXBXBXBXMXMXnXNXNXDXHXAXGXJXLX8.& 8 ; e ; - 8 ; : u ~ 7 q q o./ 7 7 ; 2 - O O 7 $X3X3X3X=XqXDXSXNXNXBXBXBXZXBXBXBXBXBXBXBXBXBXBXBXBXBXBXBXBXBXNXNXNXBXBXBXBXNXNXBXBXBXBXBXBXBXBXBXNXBXBXBXBXBXNXNXBXBXBXBXNXBXBXBXBXNXNXBXNXBXBXBXBXNXNXBXBXBXBXNXNXBXBXBXBXBXBXNXNXNXNXBXBXBXBXBXBXBXBXBXBXBXBXBXBXBXBXBXBXnXDXDXFXCXDXSX5XX p O o 9 1 < $ 3 < < 3 o . i p *.cXnXgXmXnXFXVXVXNXFXNXVXCXSXSXNXDXbXnXmXmXBXBXZXqXcXz X X . o o .   . o o     . . .   B.HXaXyXyXyXaXaXyXyXyXyXuXrXtXiXrX7XdXBXmXnXgXVXV.w.$XH % 1 1 o #XJXbXDXZXZXZXZXCXBXBXCXCXBXZXMXMXZXZXZXSXHXxX+X1X<X>X,X<X>X<X,X,X<X.X/.(.I 9 Y U A Z Z F e 3 ; ; - * 9 3 C 5.E.P.U.I.T.W.T.I.Y.2.1.5.6.,.-.U S S C M M M 1 > < $ 3 K.4.4.4.4.4.H.H.H.H.4.4.4.4.4.4.4.4.4.H.4.1.1.>.>.1.4.1.,.2.4.R T J.H.>.T E R J A S 1 > > > * < > $ Y -.E T ` E ` E ",
"R T T T ' K < % < 5 3 1 9 4 > 4 C 8 $ % < C K I ,.A 6 < > < 9 1 < 1 4 6 J E.R.K.H.1.>.<.2.H.H.H.G.G.H.H.H.H.H.H.J.4.5.P.=.% , > * $ % $ $ F U U Y J P.I.U.U.U.I.U.I.U.U.I.I.U.U.T.I.I.U.R.R.R.W.K.J.W.W.`. X-X X<X5.o o !.lXlXlX7.% $ $ 3 < 4 1 1 & . | LXJXSXbXDXDXDXDXSXSXFXHXJXJXp   & y e - Z - ; o O : O O O X     X . . V.HXDXnX9XyXmXDXZXBXDXnXyXyXuXeXyXeXyXyXsXsXyXyXyXyXyXyXyXyXyXyXyXiXBXDXZXZXZXBXDXZXZXsX8X7X8X8XrXMXMXMXMXBXgXyXyXyXyXyXnXBXBXBXBXBXBXBXBXBXBXBXBXBXBXBXBXNXNXNXNXBXBXZXZXBXZXBXBXBXBXBXBXBXBXBXBXNXNXBXnXVXSXJXJXLXz   O o 8 Z 9 4 8 8 O = 0 = ; ; = O 1 * 1 & o   w xXLXJXJXFXSXDXZXNXNXBXBXBXBXBXBXBXBXBXBXBXBXBXBXBXBXBXBXBXBXBXNXZXZXBXBXBXBXBXBXBXBXBXBXBXBXBXBXBXBXZXZXBXBXBXBXBXBXBXBXNXNXBXBXBXBXBXBXBXBXBXBXBXBXNXBXBXBXBXBXBXBXBXBXZXZXBXBXBXBXBXBXBXBXBXBXBXBXBXBXBXBXBXBXBXBXBXBXBXBXBXFXVXNXNXbXbX0XcXwXg   & * 4 > * * * 8 ; & +   | JXHXBXDXmXCXnXFXSXFXFXDXDXNXNXNXDXDXDXZXgXhXnXqXSXJX| X w : y y t y 7 7 7 : 7 7 + @ @ V.HXdX9XyXyXaXaXaXyXyXyXuXrXyXyX9X7XpXMXmXgXcXFX*.  i 8 ; e 8 O $XHXbXFXZXZXZXZXCXBXCXCXCXBXZXMXZXZXZXZXNXKXxX+X1X<X<X,X<X>X<X,X,X<X-X X-X` 4 A A 9 C A Z e r 2 * - * o o 4 Q.-X).!.~.`.I.I.I.I.P.2.1.6.-.I A Z C C M M M 1 < < $ 5 K.4.4.4.4.4.H.H.H.H.4.4.4.4.4.4.4.4.J.J.4.2.>.R ' 2.J.4.' R ' ` R <.<.=.' =.I M 4 M 3 < < > * < < $ Y -.E T ` E ` E ",
"' R R P T P C C C 5 4 1 4 Z 3 C 3 1 < < 5 3 M A S < 5 3 * < 9 1 > < A C J K.K.<.H.2.<.2.G.H.4.2.G.H.H.H.H.H.H.H.J.4.4.K.R % , > * < > * % U U U L K P.J.P.U.W.U.U.I.U.U.I.I.U.U.U.U.U.U.R.U.U.Q./.W.~.(..XR.!.!.!.5.5 5 E.>X-X<X-.$ 3 3 1 < 8 ; - 7 . O.AXSXbXDXZXZXZXDXSXFXJXAXKXPXO.: y r 8 ; 8 9 r e S D e r 7 i 8.O.O. .z &XFXDXgX7X9XmXDXZXZXCXgX9XyXyXeXyXsXaXyX7X8XyXyXsXyXyXyXyXyXyXyXyXyXnXmXmXZXDXBXDXDXCXnXsXiX7X8XyXMXMXMXCXCXmXhXnXdXyXyXnXnXNXZXDXBXBXBXBXBXCXBXBXBXBXBXBXZXNXNXNXBXBXZXZXBXBXBXBXBXBXBXBXBXNXBXBXCXNXZXDXnXbXNXcXSXe.&.t.: o 9 9 9 M e ; 0 0 , Z - ; ; 9 1 % o ..}  .xXHXbXSXFXFXZXNXNXNXBXBXBXBXBXBXBXBXBXBXBXBXBXBXBXBXBXBXBXBXBXNXNXZXBXBXBXBXBXBXBXBXBXBXBXBXZXBXBXBXBXZXBXBXBXBXBXBXBXBXNXNXBXBXBXBXBXBXBXBXBXBXBXBXBXBXBXBXBXBXBXBXBXBXBXZXBXBXBXBXBXBXBXBXBXBXBXBXBXBXBXBXBXBXBXBXBXBXBXBXNXnXVXFXVX8XqXbXcXKXB.X O & 1 < - 1 - ; 2 8 7 O } vXxX0XFXmXmXmXHX=X&XqXFXDXNXDXFX=X=XqXZXmXgXNXSXAXJXO.. : & 2 & 8 ; & ; 8 : : + a a a C.VXiXyXyXyXaXaXaXaXyXyXuXyXyXyXyXyXpXmXDXsXdXJXe.  i 8 % 8 7 . #XHXbXCXZXZXZXZXCXBXCXCXCXBXZXZXZXZXZXZXNXKXxX%X1X<X<X<X>X>X<X<X,X,XXX X X-.Y I Y C S Z S 8 9 8 ; 1 3 3 % M 6.E.,.=.-.1.I.I.I.E.P.1.-.6.-.Y Z C C C Z Z 9 < > < $ 5 K.4.4.4.4.4.H.H.H.H.4.4.4.4.4.4.4.4.4.4.4.2.,.=.>.H.1.4.>.R <.G.>.E T R T =.P 5 < 9 3 < > * * > < $ Y =.E T ` E ` E ",
"R R R T R =.E -.L < 5 < $ 1 * - - 2 4 e 9 3 5 4 < $ < 1 $ 1 9 4 < 5 -.1.,.4.2.<.1.2.H.H.H.5.5.2.H.H.H.H.H.H.5.H.J.2.4.K.-.% , * * < * * * U U U L Y 5.2.5.I.W.I.U.U.U.U.U.U.U.U.U.U.I.I.R.I.R.(.Q.Q.R.R.E.S 6 < < 5 % % 5 5 5 M 5 $ 4 3 1 1 8 ; 7 :    .KXFXbXZXNXZXSXFXSXKXPX$Xi i O : 2 7 2 y y r t 8 8 y 8 G O o.PXLXAXKXAXDXDXZXgX8XyXNXDXBXCXBXsX9XrXeXeXuX7XrXsXrXyXdXrX7XyXyXyXyXyXyXyXyX9XdXyXdXBXCXNXBXCXCXBXBXmXyX7XpXCXMXMXCXCXCXCXCXsX9X9XyXdXgXNXZXZXBXBXBXBXZXBXBXBXBXBXBXBXBXBXBXBXBXBXBXBXBXBXBXBXBXBXBXBXBXNXBXBXBXBXDXDXFXZXDXHXbXJXvXi . ; ; * 9 r 1 * 1 1 < 9 r ; ; ; o w xXHXcXFXSXVXVXNXNXZXNXNXmXBXBXBXBXBXBXBXBXBXBXBXBXBXBXBXBXBXBXBXBXBXZXZXZXBXBXBXBXBXBXBXBXBXBXBXBXZXBXBXBXBXZXBXBXBXBXBXBXBXBXBXNXBXBXBXBXBXBXBXBXNXNXNXBXBXBXNXNXBXBXBXBXBXBXBXBXNXNXNXBXBXBXNXNXBXBXBXBXBXBXBXBXBXBXBXBXBXBXBXBXDXDXFXFXcXaXcXqX5XHX=XX   : * < * 3 ; - * & & o o o.p b.HXNXhXZXNXz X B.SXAXiXDXqX@ X B.NXmXiXSXqX@.e.p . & & 2 2 ; & ; 0 8 = O @X0XKXcXdXNX9XyXyXyXaXaXaXaXyXyXyXyXyXyXnXgXhXZXZXsXcXJXq.O ^ D ; t y X #XJXNXbXZXZXZXZXZXZXZXCXBXBXBXMXZXZXZXZXNXKXxX%X;X<X<X<X<X,X<X<X2X<X.X X.X(.).(.Q.E.6.F A 8 1 1 9 1 1 1 $ $ 4 3 % % $ 6 J.P.K.P.5.-.I 7.I S M C M C Z Z 1 * > < $ 5 K.4.4.4.4.4.H.H.H.H.4.4.4.4.4.4.4.4.2.4.1.1.4.4.1.4.' ,.1.<.2.2.>.` T R P =.I 4 < 9 1 < , * * > > $ Y =.E T ' E ` E ",
"T T ' R T ' E =.S % $ 6 $ 5 4 4 - 3 4 4 4 1 < 3 9 < < 1 4 C 9 1 > < ,.R.4.>.' 1.<.3.H.H.2.5.5.5.H.H.H.H.H.H.H.H.J.G.4.K.E % > * > * $ * < I U I I J 5.J.Y.I.T.T.I.U.U.U.U.U.I.U.I.U.I.I.Q.R./..X(..X)..X(.Z o % C M C 4 3 5 < > 1 4 4 3 3 1 3 ; o +   z AXFXNXZXZXFXSXFXJXLXKX+X  O : w O O .     . . . . . o O   p vXJXcXFXFXgXDXDXgX7XyXBXDXBXCXBXgXyXiXyXeXuXyXrXyXyXyXyXyXpXyXyXyXyXyXyXyXyXyXyX7XdXCXDXZXZXZXZXCXDXBXyX8XyXMXmXMXCXCXCXDXDXgXyX9XyXyXsXNXZXZXBXBXBXBXBXBXBXNXBXBXBXBXBXBXBXBXBXBXBXBXBXBXBXBXBXBXBXBXBXNXBXBXDXBXnXnXDXnXBXnXSXHX0Xp X + o 8 % ; 8 1 M Z < 8 % o O O   @ xXHXFXDXgXDXDXCXZXZXZXBXBXBXCXBXBXBXBXBXBXBXBXBXBXBXBXBXBXBXBXBXBXBXNXZXZXBXBXBXBXBXBXBXBXBXBXBXBXBXBXBXBXBXBXBXBXBXBXBXBXBXBXNXNXBXBXBXBXBXBXNXBXNXNXNXNXBXBXNXNXBXBXBXBXBXBXBXBXNXNXBXBXBXBXBXNXBXBXBXBXBXBXBXBXBXBXBXBXBXBXBXBXmXnXBXBXaXaXcXqXdXcX&Xp z y o 1 $ - - - ; ; ; ; o O   w.JXSXmXNXJXz   #XLXJXAXJXLXa   b.HXVXnXHXwX  . + & & & * 2 & ; 8 : o o X &.=XHXSXdXdX9XsXyXyXaXaXaXaXyXyXyXyXyXdXBXCXZXCXnXDXKXLXq.O 7 : o o O   B.HXDXmXZXZXZXZXZXZXZXBXBXBXBXBXZXZXNXZXSXKXxX%X;X<X<X,X<X,X,X<X2X<XXX X^. X X(.Q.Q.E.3 4 S F Z 9 1 1 = 1 $ $ $ % $ 6 $ P.R.E.Q.Q.5.6.E.U C 9 Z M M N M < * * < $ 5 K.4.4.4.4.4.H.H.H.H.4.4.4.4.4.4.4.4.4.4.2.4.J.4.1.,.R ' <.5.2.' ` 2.R ' P E L 3 > 3 1 > * * * > > $ Y -.E T ' E ` E ",
"R T ` T T T L T =.P K K Z < 5 * 1 3 2 1 2 1 1 3 - * * < 9 C < 1 m m =.K.4.>.' <.1.2.2.2.3.4.5.5.H.H.H.H.H.H.H.H.J.2.4.K.E % > * < * % * > Z M A I K K.R.W.Y.I.T.I.U.U.U.U.U.U.U.I.I.P.U.Q.5.-.1.1.5.1.6.6.4 $ $ < < 1 4 4 M M 9 9 9 < < , 1 8 & i $X@X*XHXSXNXNXVXHX3X#X4X3X3Xt.& 8 y : p r.B.B.B.B.@X@X@X@X@X@X&X&XAXbXaXNXDXnXZXDXgX7XyXBXDXBXBXBXmXnXmXpXeXrXrXrX7XyXyX7XrXtXyXyXyXyXyXyXyXyXdXaX9XsXDXFXZXDXZXBXZXCXmXrX8X7XpXpXmXCXCXCXDXDXnXyXyXdXyXsXNXBXCXZXBXBXZXZXNXNXNXNXBXBXBXBXBXBXBXMXBXBXBXBXBXBXBXBXBXBXBXBXBXBXMXCXBXBXmXFXBXZXnXNXFXDX5XwXvXvX3X7 + y & 1 - 1 t : t.3X3X3X&XSXgXmXZXgXZXnXNXmXZXZXBXBXBXBXBXBXBXBXBXBXBXBXBXBXBXBXBXBXBXBXBXBXBXNXNXNXBXNXBXBXBXBXBXBXBXBXBXBXBXBXBXBXBXBXBXNXNXNXBXBXBXBXBXBXBXNXBXBXBXBXNXNXBXBXBXBXBXBXNXNXNXNXBXNXBXBXBXBXBXNXBXBXBXBXNXNXBXBXBXBXBXBXBXBXBXBXBXBXBXBXBXBXFXNXBXBXsXqXyXdX7XyXsXdXvX| . ; 2 - - - - ; - ; y y   r.PXvXSXAXLXO.O {.IXxXxXIXxXH   e.KXcXFXSX5X+ O : ; & 1 < % & ; : O i w.e.*X8XdXyX7XyXyXpXyXyXaXaXyXyXyXyXyXyXyXdXDXDXhXhXDXcX3X3X:.8 & r w + i p #XSXnXmXZXZXZXZXZXZXZXBXCXCXBXBXBXBXZXZXSXJXxX|.;X,X>X,X,X,X,X<X2X<X.X X X.X(.~.K.E.E.4 1 Y -.^ Z 9 Z 0 9 1 1 1 3 4 4 5 A A U I I U U U e < 3 Z N M N M , * > 1 $ 5 K.4.4.4.4.4.H.H.H.H.4.4.4.4.4.4.4.4.4.4.4.H.1.=.' >.1.>.<.4.3.' ' J.R =.T T L 5 * < < * * * * , > % Y =.E T E R E R ",
"E T E T T ' T T R >.` =.P 5 < < - 2 2 ; 3 3 1 1 * < 4 < 3 1 * Z =.P 1.J.4.4.<.2.J.H.2.1.1.4.5.2.H.H.H.H.H.H.H.H.J.2.2.J.R % > * * * * < % * % < R K K.Q.I.2.G.I.I.U.U.U.U.U.U.U.U.U.P.E.P.P $ o % % o % < o < 1 * < 4 9 3 3 4 3 3 9 3 3 , 3 9 o o.LXLXAXJXAXAXbXGXKXw.@     & o 8 e O . q.KXJXHXHXFXSXSXSXSXKXSXFXcXVX8XdXBXBXCXBXZXsX8XyXBXDXCXBXCXBXDXDXhX7XeX9XiXrXyXyX7XpXrXyXyXyXyXyXyXyXyXaXaX9XdXDXDXNXDXCXBXZXCXmXrX8X9X7X9XgXCXCXCXDXDXsX9X9XiX9XyXnXnXCXZXBXBXZXZXNXNXNXNXBXBXBXBXBXBXMXMXMXMXBXBXBXBXBXBXBXBXBXBXBXBXBXMXBXDXmXDXnXBXDXNXgXDXFXHXKXJXPX+ . 7 & 8 & e 2 . $XLXKXJXFXZXCXhXZXZXCXnXDXZXZXBXBXBXCXCXBXBXBXBXBXBXBXBXBXBXBXBXBXBXBXBXBXBXNXNXNXNXNXNXBXBXBXBXBXBXBXBXBXBXBXBXBXBXBXBXBXNXNXNXNXBXBXBXBXBXNXNXBXBXBXNXNXNXBXBXBXBXBXBXBXBXNXNXBXBXBXBXBXBXBXBXBXBXBXBXNXNXBXBXBXBXBXBXBXBXBXBXBXBXBXBXBXBXBXnXyXyXdXyXeXaXuXyX8XdXbXz . 7 ; % * - - - - - % 8 . O.4X3XGXGXKXq.  . +       o : . v.LXvXvXw.~ . ; & - * 4 - - ; : . 7 4XLXKXVXsX9X7XyXiXyXyXyXyXaXyXyXyXyXyXyXyX9XdXDXCXiX9XFX#X@ O ; 0 y t.LXvXPXxXFXHXgXZXZXZXZXZXZXZXZXZXZXCXBXBXBXBXNXSXGXLXxX|.>X,X>X,X,X<X<X2XlX<X X^..XXX.X(.P.K.E.S C C U ^ 8 8 F ; , > > * * $ $ $ o o % & o o o o * % < Z Z M Z Z 1 * < 1 $ 5 J.4.4.4.4.4.H.H.H.H.4.4.4.4.4.4.4.4.2.1.4.J.<.L L <.J.2.>.` ` ` R R ' 1.=.-.U 4 > 1 > * * , , < > $ J =.E T E R E R ",
"E E E E E E E E R T R ' L V 6 $ & % < e 3 1 1 ; * & 1 3 4 < < C 6.R =.K.4.1.2.1.1.1.2.4.5.4.2.3.J.H.4.1.4.J.J.5.J.J.4.4.E % * * * * * * * * > 9 Y I K.E.Q.4.I.Y.I.U.Y.I.W.I.U.I.I.Q.R.~.'.,.< 6 1 1 1 1 < < < * 1 1 1 1 3 3 3 3 9 < 3 4 < 3 1 o t.PXLXLXLXJXJXLXLXLX#XO : y e e D & H    .SXbXVXnXnX8X8X8X8X8X7X7XqXaXyXnXBXBXDXCXDXgX7XiXmXBXCXBXDXBXCXCXgX7XrXtXrXtXtXrXtXyXrXrXyXyXyXyXyXyXyXyXaX9XdXDXDXBXZXZXBXBXBXnXiX9X7X9X7XsXCXZXZXFXDXnXyXyXdXyXyXnXmXnXCXNXNXZXDXDXZXNXNXZXZXZXMXBXCXhXMXhXCXMXMXCXCXMXCXCXCXCXmXNXCXBXBXBXMXMXMXMXBXBXBXBXBXBXBXBXSX0Xa   7 o 8 o :   X e.GXFXVXDXDXMXZXZXBXMXBXBXBXBXBXBXBXBXBXBXBXBXBXBXBXBXBXBXBXBXBXBXBXBXBXBXBXBXZXZXZXBXBXBXBXBXBXBXBXBXBXBXBXBXBXBXBXBXBXBXBXBXBXBXBXBXZXBXBXNXNXBXBXBXBXBXNXNXNXNXNXBXBXBXBXZXZXZXZXBXBXBXBXBXNXBXBXBXBXBXBXBXBXBXBXBXBXBXBXBXBXBXBXBXBXBXBXDXgX9XyXpXuXyXyXeXyX7XdXcXb.@   o - - 8 % - 1 1 2 ; ; O + +XLXLXLX8.X O O O & : O O . r.vX5XwXp o ; * 1 * 1 * & & O .   a *XAXcXyXyXyXyXyXyXyXyXaXaXyXyXyXyXyXyXyXyXqXdXBXCXgX9XFX=XO r D H o $XJXSXSXFXZXmXMXCXMXMXMXCXZXZXDXDXZXCXFXNXFXbXFXbXwXxX2X;X>X,X>X<X,X<X<X,X;X,XXX XXX.XXX~.E.).6.C 4 4 I I A U S 1 1 < * * * * * $ * - - - - * * - - % 1 Z Z Z A S * * > < $ 5 K.4.4.4.H.H.2.2.G.G.4.4.4.4.4.4.4.4.2.J.2.2.J.=.R 1.H.3.' R R ` ' 1.>.' P ,.L $ > 3 * 1 $ , 1 < 1 $ K E ' T R E R R ",
"E E E E E E E E E R ` ' ' I P U 3 - < 3 - - ; ; 1 * 3 8 9 3 < C 1.4.,.=.=.2.2.>.` ' [ <.2.4.5.5.2.5.H.5.5.4.4.J.H.1.4.5.R % > * > * * * * * > 9 R I ,.4.E.P.W.J.I.R.Y.I.I.Y.R.R.J.R.,.T -.Y 6 5 1 1 < < < < < * 1 < 1 1 3 3 3 3 3 < 3 3 5 4 3 $ y t.q.O.q.O.@.@.O.q.H o ; ; 2 e ; y xXvXcXHXVXZXmXmX9X7XrX9X9XyXyXyXyXeXyXaXyXsXDXDXsX7X7XyXiXsXBXCXMXMXBXsX7XrXtXrXtXtXrXtXyXrXyXyXyXyXyXyXyXyXyXaXyXdXBXDXBXBXCXZXZXCXBXmXhXnX7X7XgXDXCXZXDXDXgX9XyXiXyXyXdXgX9XmXCXDXDXNXNXbXZXZXNXmXBXBXBXnXMXDXMXCXmXBXCXZXmXMXMXMXBXMXBXCXBXBXMXMXMXMXMXMXBXBXBXBXBXBXBXBXHX3X0XxX} O O t.xX3XcXFXSXVXBXgXZXZXBXBXBXBXBXBXBXBXBXBXBXBXBXBXBXBXBXBXBXBXBXBXBXBXBXBXBXBXBXBXBXZXZXZXBXBXBXBXBXBXBXBXBXBXBXBXNXBXBXBXBXBXBXBXBXBXBXBXZXZXBXBXNXNXBXBXBXBXBXNXNXNXBXNXBXBXBXBXZXZXBXBXZXZXBXBXBXNXBXBXBXBXBXBXBXBXBXBXBXBXBXBXBXBXBXBXBXBXBXBXDXgXyXrXyXyXyXyXeXuX7X9XdX5XV.B.+ O . & & e 1 o * - 8 ; O H q.O.t.7 # q q q = q q q X X 7 . 7 . & 1 * < * 1 ; 8 . i r.&.*.5XdX9XyXyXyXyXyXyXyXyXyXyXyXyXyXyXyXiXyXnXnXnXmXmXiXqXKX*XO F F D . +XSXbXNXZXmXhXgXhXCXCXmXZXCXZXZXNXZXNXDXNXFXNXFXxXB.%X%X.X-X,X,X<X,X<X<XXX.XXX.X X).P.5.1.1.P.6.I E.I F C e F F e 3 < * * * < * $ - - - - - * * - 1 * 3 Z Z M Z M * * > < $ 5 K.4.4.4.H.H.2.2.2.2.4.4.4.4.4.4.4.4.1.4.4.2.H.J.1.,.Q ' 1.H.3.` ' J.T P K -.I 1 1 4 * < * < > * > % L E ' T R R R R ",
"R R R R E E E E R R R T ' >.2.1.< $ < 3 1 - - ; ; & < < < < > 5 ,.K.4.R ' 4.2.>.' ' >.1.2.5.5.5.4.J.P.R.E.P.K.E.=.R ,.5.I % 1 * * > * > > * * 4 ,.I E ,.K.R.~.Q.I.R.Y.I.Y.Y.R.I.R.Q.L % $ < $ 4 1 < < < < < < < 1 < 1 1 1 1 1 1 1 < 3 5 1 4 9 1 o ; o   o   o o o o o o ; ; r r 7 + AXJXcXNXmXZXMXmX9X7XyX9XyXaXaXyXyXyXyXyXqXsXDXCXgXyXyXrX7XrXCXCXMXMXZXnXpXgXiXrXtXtXrXtXyXrXyXyXyXyXyXyXyXyXyXyXyXdXBXDXCXDXBXBXBXBXBXMXBXCX7X7XgXDXDXBXCXCXgXrXyXdXyX9XyXyXiXnXBXDXDXDXFXNXFXFXNXnXnXDXDXZXgXmXnXNXnXZXNXnXmXZXCXCXBXCXCXCXBXBXMXMXMXMXMXMXBXBXBXBXBXBXBXBXNXVXJXLXz   O 3XLXKXSXZXnXCXDXMXBXBXBXBXBXBXBXBXBXBXBXBXBXBXBXBXBXBXBXBXBXBXBXBXBXBXBXBXBXBXBXBXBXZXZXZXBXBXBXBXBXBXBXBXBXBXBXBXNXNXNXBXNXNXBXBXBXBXBXBXBXBXBXBXBXBXBXBXBXBXBXBXBXBXBXBXBXBXBXNXBXBXBXBXBXBXBXNXBXBXBXBXBXBXBXBXBXBXBXBXBXBXBXBXBXBXBXBXBXCXBXBXCXnXyXrXyXyXyXyXyXyXyX7X9XcXVXbX@ .   O . ; ; 3 - < 1 - o o o . O O #.z.n.#.# # b.b.b.q q O = Z * < * < % & o : O r.KXHXaXdXiX9XyXyXyXyXyXyXyXyXyXyXyXyXyXyXyXyXyXmXCXmXgXgXiXqXJX*XO F F D : 4XJXFXFXZXDXDXmXMXmXDXZXZXZXnXFXHXHXNXFXbXDXNXHXvX+X1X<X,X,X>X-X-X<X,X,X.X(..X.X.X.X>.P ' ,.6.1.-.Q.U 3 4 S U F S 8 1 * * * < * * * - - - * * * * 1 * 4 Z Z C Z Z * * < 1 * 3 K.4.4.4.4.4.2.2.2.2.4.4.4.4.4.4.4.4.4.1.H.J.4.J.J.>.K E 3.I.4.R T 1.T I J I L 1 3 1 , < < < $ % > % L ' ' R R R T R ",
"R R R R E E R R E ` R L T =.1.1.4 3 5 3 1 - * ; 8 - 3 4 4 A A J -.2.2.,.1.1.<.<.2.2.2.2.5.5.4.2.J.K.,.>.4.4.4.5.L J ,.J.K % 1 * > > * * > * * 3 Z C -.E.E.K.J.J.I.R.I.I.Y.Y.W.R.P.Q.L % * 1 $ 1 < < < < < < 1 < 1 1 1 1 1 1 1 1 3 1 3 4 1 4 9 3 8 e 2 y r 2 8 8 e - ; 2 ; ; ; : .   wXHXgXCXMXiXMXmX9X7XqXqXyXaXaXyXyXyXyXyXyXmXCXBXmXMXMXyX7XyXBXBXMXBXCXZXMXCXiXrXrXtXrXtXyXyXyXyXyXyXyXyXyXyXyXyXyXdXmXBXBXBXBXBXBXBXMXMXBXCX9X7XsXZXBXmXZXDXhXyXyXsXyXyXiXyXnXnXCXFXFXKXJXJXGXHXHXSXNXSXSXVXSXDXFXFXFXHXDXDXZXZXCXCXMXCXCXBXBXBXMXMXMXMXMXMXMXBXBXBXBXBXBXBXNXnXDX0Xg   @ B.FXNXmXZXZXmXBXCXBXBXBXBXBXBXBXBXBXBXBXBXBXBXBXBXBXBXBXBXBXBXBXBXBXBXBXBXBXBXBXBXBXZXZXZXBXBXBXBXBXBXBXBXBXBXBXBXNXNXNXNXNXNXNXBXBXBXBXZXBXBXBXBXBXBXBXBXBXBXBXBXBXBXBXBXBXBXBXNXBXBXBXBXBXBXBXNXBXBXBXBXBXBXBXBXBXBXBXBXBXBXBXBXBXBXBXBXBXBXBXmXNXsXyXyXyXyXyXyXuXeXyXyX7X9XdXcXwX3X*Xe.+ o o e 1 3 1 1 8 ; ; 7 = # #.n.n.z.X q b.b.n.# = 0 * 1 4 9 1 % o : . . X  .0XcX7XrX8XeXyXyXyXyXyXyXyXyXyXyXyXyXrXyXyX7X7XmXDXmXpXpXiXqXKX*X: H D D 7 r.xXwX3X=X0XFXNXMXMXCXCXmXmXNXHXcXbXcXHXFXSXVXSXxX+X1X<X,X,X,X,X<X,X,X<XXX XXX X.X.X2.-.4.5.6.7.-...C e A Y F A Z Z 8 < * * < * * * * - * * * * * * * 1 Z Z Z A S , * , 1 * 3 [.5.4.4.4.4.2.2.2.2.4.4.4.4.4.4.4.4.,.>.1.J.1.>.<.,.>.<.' >.>.` ` ' ' =.K U S * , * 1 , < > * M Y C P ` ` R R R T T ",
"` ` R R R R R R ` ' ' T T ' =.=.' I S 5 - * * 8 9 - 9 9 Z -.,.,.>.E >.4.1.=.=.>.2.2.2.2.5.5.4.2.K.4.C $ < < 6 $ m m 4.E.L % > * > > > > > > * 1 $ > -.E.5.>.=.5.I.W.R.W.I.P.Q.P.E.Q.L $ 1 3 * 9 < < < < 1 1 1 < 3 1 1 1 1 1 1 1 1 1 1 3 1 1 3 4 1 1 9 C 9 < 4 < 8 - 2 y 8 : & t p g 0XFXmXDXCXmXZXZXiX9XyXqXaXaXaXyXyXyXyX9X9XnXDXBXBXCXCXpX8XyXCXBXMXZXCXZXZXCXpXrXrXyXyXyXyXyXyXyXyXyXyXyXyXyXyXyXyXyXdXdXyXyXBXBXBXBXBXBXBXBXiXyXsXnXnXnXBXDXhXyXyXpXyXyXdXiX7XdXFXKX5X@X#X#X&XxXJXJXJXJXJXKXJXHXJXKXGXKXcXHXNXmXNXZXmXZXCXNXBXMXMXMXMXMXMXMXMXBXBXBXBXBXBXBXZXBXNXFX5X3X=X0XFXZXZXZXZXnXnXCXBXBXBXBXBXBXBXBXBXBXBXNXBXBXNXBXBXBXBXBXBXBXBXBXBXBXBXBXBXBXBXBXBXZXZXZXBXBXBXBXBXBXBXBXBXBXBXBXBXBXNXNXBXBXBXBXZXZXZXZXBXBXBXBXBXBXZXZXZXZXBXBXBXBXBXBXBXBXNXNXBXBXBXBXBXBXNXNXBXBXBXBXBXBXNXNXBXBXBXBXBXBXBXBXBXBXBXBXBXBXnXgXsXiXyXyXyXyXyXyXyXyXyXaXaX7X8X7XCXbXSX5Xq.~ o ; 3 8 1 * 1 8 ; - ; o #.#.#.#.# # #.| | 7 = 9 3 1 * - o O } *X3X3X=X5XaXyX8XiXtXtXyXyXyXyXyXyXyXyXuXyXyXyXyXyXuXyXyXmXDXVXpXsXsXyXFX*X+ H H H O 7 o . . X e.AXCXZXFXBXmXNXZXDXSXe.@ p 0XSXZXSXHXIX%X1X<X;X;X;X-X>X-X>X<XXX(.'.`.'.(.Q.).Q.6.-.-.7...^ ^ I Z 1 2 2 D r 3 - * * * * * * * * * * * > * * 1 9 9 9 C C , * , < $ 3 [.5.4.4.4.2.2.2.2.2.4.4.4.4.4.4.4.4.R ' >.,.1.>.=.1.J.H.T K ' 1.4.=.K R Y F Z * * * < * > * 9 -.4.=.T ` R R ` ` T R ",
"` ` R R R R R R R ` ` R ` ' ' ' =.-.K < < < * 0 8 * 9 4 m ' 4.2.,.=.,.4.1.,.3.1.2.2.2.2.4.5.4.2.4.4.V 6 C 4 4 3 6 < ,.[.I % * * > < > > > > > 1 > < -.E.1.4.1.P.J.Y.Y.R.P.P.R.4.,.,.C % > < * 1 < < < < 1 1 < < 3 1 1 1 1 1 1 1 1 1 1 1 1 < 1 1 9 4 9 M 3 4 M 4 e 1 ; 2 ; O + 8.JXcXFXhXhXMXmXCXMXMXyX9XyX0XyXyXaXyXyXyXyXyXyXnXFXCXBXCXBXyX8XuXDXCXCXCXCXMXmXCXgXrXrXyXyXyXyXyXyXyXyXyXyXyXyXyXyXyXyXyXyXyX7X7XBXBXBXBXBXBXBXBXsXgXgXsXiXgXBXDXhXrXrXyXyXyXdXyXbXbXJXKXv.+ . X w O.+X#X#X#X#X#XB.r.r.e.e.e.*.wXFXDXDXCXNXNXZXnXBXMXBXMXBXBXBXBXBXBXMXBXBXBXBXBXnXBXmXFXNXHXDXDXNXZXnXnXNXZXZXCXBXBXBXBXBXBXBXBXBXBXBXBXBXBXNXNXBXBXBXBXBXBXBXBXBXBXBXBXBXBXBXBXBXZXZXZXBXBXBXBXBXBXBXBXBXBXBXBXBXBXNXNXBXBXBXBXBXBXZXZXBXBXBXBXBXBXBXBXZXZXBXBXBXBXBXBXBXBXNXNXBXBXNXNXBXBXBXBXBXBXBXBXBXBXNXNXBXBXBXBXBXBXBXBXBXBXBXBXBXmXsXiXyXyXyXaXaXyXyXrXeXuXyX7XaXyX9XdX7X8XSXHXKX5Xu O & 1 C 8 < ; 1 9 1 o # X X q O 7 X X O 7 ; - 3 1 2 2 O O t.LXLXKXSXdXaX7X7XuXeX8XyXyXyXyXyXyXyXyXyXyXpXyXyXsXmXsXnXBXBXVXaXdXdXqXJX*X. y D ^ H t r y : X v.JXFXNXDXmXmXNXNXFXFX .  w vXJXNXNXFXxX%X1X<X;X1X<X,X<X>X>X,X.X~.'.`..X(.(..X!.5.1.-.7.7.6.-.I e 1 2 3 Z Z 8 1 < * > > * * * * * * < 1 3 1 1 1 1 < < < , * , , $ 1 [.5.4.4.4.2.G.2.2.2.4.4.4.4.4.4.4.4.>.2.1.>.4.J.,.>.2.G.T T >.1.5.=.4 A Z F Z * , , < - > * 9 ^ ,.>.R ` ` R ` R T R ",
"R R R R R R R R T T T R R R R ` P =.K < < 1 * - 8 < C m 4 E 4.>.' ,.,.>.1.5.4.2.2.2.2.4.H.H.H.4.5.5.S 4 S < 5 Z A S 1.5.I % * > > < , > > > > < > < I 1.-.E.5.5.J.K.P.Q.R.R.R.,.% 6 5 3 9 9 , * 1 1 < < 1 1 < < 9 3 1 < 1 1 1 1 1 1 < 1 4 1 1 4 9 1 3 4 3 9 M M < * - o .     O.LXbXgXtXCXDXmXmXBXBXyXyXaXqXqXqXyXyXyXyXyXdXaXcXBXmXmXCXBXuX8XpXBXmXMXCXCXZXZXCXgXyXrXyXyXyXyXyXyXyXyXyXyXyXyXyXyXyXyXyXyXyXyXyXmXBXBXBXMXBXBXBXmXBXnXyX9XsXBXCXgXyXyXpXyXpXdXyX5Xb.w.v.~ . o O   . O X         .             #XJXSXZXFXZXNXZXmXMXBXBXBXBXBXBXBXBXBXBXMXBXBXBXBXBXDXhXCXiXCXBXCXCXDXCXBXBXFXDXmXBXBXBXBXBXBXBXBXBXBXBXBXZXNXBXNXBXBXBXBXBXBXBXBXBXBXBXBXBXBXBXBXBXZXZXZXBXBXBXBXZXZXBXBXBXBXBXBXBXBXNXNXBXBXBXBXBXBXBXBXBXBXBXBXBXBXBXBXBXBXBXBXBXNXNXNXBXBXBXBXBXBXBXBXBXBXBXBXNXNXNXNXBXBXBXBXBXBXBXBXBXBXBXBXBXBXBXBXBXmXsXyXyXyXaXaXaXaXyXyXrXpXrX7XyXyXyXsXsX8XNXFXHXwX+   : o * 9 1 * , 1 * * ; = O = : & 0 7 = 8 8 ; 8 ; o o .   @.SXAXaXdX7XuXyXuXhXuXuXyXyXyXyXyXyXyXyXyXyXyXyXyXgXBXnXBXBXBXnXyXyXaXqXbX#X@ i 8 8 Z F F Z 8 O +XLXSXNXmXmXCXNXVXSXJX&.. w AXJXgXNXHXAX%X<X<X:X1X:X:X>X,X,X>X.X(..X'..X`.~.!.Q.!.(.E.7.7.-.^ I F S F r 8 e e 8 1 > > > * * * * > < 1 3 C 9 4 < - * * * , * > > $ 1 K.5.4.4.H.G.G.G.2.2.4.4.4.4.4.4.4.4.4.J.J.2.1.J.2.' <.<.R 1.1.T R ' m J C A Z , , 1 < < - * < 4 m T ' ` R R ` R T R ",
"T R R R R R R R ` T T R R T T R R ,.K $ $ 3 < < < * M 4 5 E 4.=.K =.' R 2.5.<.2.>.>.<.1.4.4.H.5.5.1.4 < 4 $ S 6.E.1.E.K.I $ * < > < > > > < > < 4 < 4 3 6 1.P.E.E.R.Q.).!.!.!.1.% 6 3 1 < 1 3 1 1 1 1 1 1 1 < > 9 4 1 1 1 1 1 1 4 1 1 4 9 9 4 9 1 1 9 M M 4 1 9 - t ......O.| V.FXbXDXhXhXhXBXCXCXDXsXaXcXaXuXyXyXyXyX7XeXaXeXyXyXyXsXBXBXiX8XyXpXiXsXmXZXZXCXCXgXyX9XyXyXyXyXyXuXuXyXyXyXyXyXyXyXyXyXyXrXrXrX7XBXBXCXBXBXBXBXBXNXDXNXyX9XsXBXCXgXyXpXsXdXdXdX0XAX}   . O o 8 8 8 7 : : : w 7 + : + 7 + +   X wXPXcXbXDXZXNXCXCXBXBXBXBXBXBXBXBXBXBXMXMXMXMXBXBXCXCXmXFXhXCXMXCXBXmXBXCXBXCXDXCXBXBXBXBXBXBXBXBXBXBXZXBXZXZXBXBXBXBXBXBXBXBXBXBXBXBXBXBXBXBXBXBXBXZXZXZXZXBXBXBXBXZXBXBXBXBXBXBXBXBXBXNXBXBXBXBXBXBXBXBXBXBXBXBXBXBXBXBXBXBXBXBXBXBXNXNXBXBXBXBXBXBXBXBXBXBXBXBXNXNXNXNXBXBXBXBXBXBXBXBXBXBXBXBXBXBXBXCXCXmXsX9XiXiXaXaXaXaXyXyXrXrXyXpXaX7X7XyXqX8XbXbXFXSXV.3X3XH & 8 0 0 1 * * 4 = ; 7 & 2 - < 0 < 1 2 8 & o ~ O.| p e.SXcXyXyX7XsXyXeXyX7XyXyXyXyXyXyXyXyXyXyXyXyXyXeXgXBXnXmXnXnXsXeXqXyXqXVX0X@XxX{.D Z F A Z 8 O +XJXNXDXZXZXCXZXDXSXHX@.. : AXJXbXSXHXvX%X1X1X:X1X<X,X<X>X>X>X.X(..X`.`..X(.(.).-X-X0.I 7.-.U ^ ^ U ^ F - 3 C C 4 < * > > > > < < 1 4 9 C C 9 < < < < < , * > > % 5 K.5.4.4.4.G.G.G.2.2.H.H.H.4.4.4.4.4.1.>.2.J.>.=.1.>.1.=.T K.5.J J -.L I Z Z Z * * , * * 1 < < % % P ' ` E R ` R T R ",
"R R R R R R R R R R R R R R R R T ' L $ < < 3 1 1 1 4 3 C P -.=.<.H.' ` <.2.H.4.P ` [ 1.5.5.2.2.K.6.S 5 C 5 4 ,.P.,.4.E.,.$ > < * < < * * * < < 1 3 6 % C E.E.P.4.P.-.-.1.-.-.R > 5 3 3 1 , 1 1 > 3 1 1 1 , , 4 M C 3 3 Z Z Z F Y F F F U F Z 9 4 9 9 3 3 4 9 8 o 2XLXLXLXLXLXKXFXbXDXhXMXDXiXCXmXNXDXDXnXyX7XpXyXyXaXaXaXyXyXyXyX7XsXDXCXsXrXrXpXyXsXBXDXDXCXCXiXiXiX9X7XuXrXuXuXuXuXuXyXyXyXyXrX7XrXyX7XrXyXrXhXiXhXBXBXBXDXBXCXDXnXiX9XsXCXFXiXsX9XgXqXcX8XFXLX&.. + w 7 t H H H H ~ H ^ ~ u ~ i i } ~ i i w + X wXHXDXNXDXnXNXNXNXBXBXBXBXBXBXMXMXMXMXBXBXBXCXhXMXMXmXBXBXBXBXBXBXBXBXBXBXBXCXBXBXBXBXCXCXmXMXMXmXBXNXZXBXBXZXZXZXZXZXZXBXBXBXBXBXZXBXBXBXBXZXZXBXBXZXZXBXBXCXCXBXmXBXBXMXBXBXBXBXBXBXBXBXBXBXZXBXmXCXCXBXDXBXBXBXBXNXNXBXBXBXBXBXBXBXBXBXBXFXCXNXNXBXBXNXBXBXBXBXBXBXBXBXBXBXBXNXNXNXNXNXNXNXBXDXnXVXVXyXyX7XiXrX7XyXyX9XsXyXyX7XyXdX9X7XsXVXNXNXSXFXFXHXJXLX+   . . & o ; 2 % & 1 ; & 8 - 1 % ; 8 O . y   @.LXKXJXbXqXcXyXyXuXyXyXyXyXyXyXyXyXyXyXyXyXyXyXyXyXuXyXeXgXBXmXMXsXmXsX7X7X7XiX8XDXSXLX3X: H Z A e S   #XJXSXSXFXNXZXNXbXbXJX@.  : PXKXNXSXFXvX%X1X<X,X,X,X;X;X;X,X,XXX(.(..X X'.'.'..X).Q.!.).Q.6.Y U ^ ^ ..D - 1 8 e 9 9 9 9 > > * * * < 9 M 9 Z 9 * * > * > * * 1 > $ C -.=.=.P.>.G.H.H.H.H.G.G.G.2.G.G.2.2.R ' 4.J.>.>.1.>.>.1.,.4.,.J A Y I U A C 4 < , * * < < 4 % % $ ' R R R R R R R R ",
"R R R R R R R R R R R R R R R R <.>.L 6 6 $ < 1 1 1 4 3 C L =.=.4.J.[ T ] ' <.<.' [ >.3.2.2.2.2.P.1.A 4 4 < m 1.K.4.J.K.-.% > % * * - * * * < < $ < < $ 4 -.-.4.5.5.C % $ % $ % , 1 4 5 3 < 1 1 > 3 1 1 1 1 < 4 M Z M M S S C A Z A Z S F F 9 9 1 3 3 3 1 1 1 1 & 2XLXLXLXLXLXLXJXbXFXZXgXCXnXFXCXNXZXDXnXyXrXyXyXyXaXaXaXyXrXtXyXyXnXCXMXsXyXyXsXyXVXDXDXNXnXnXNXnXnXdXyXpXyXyXuXuXyXyXyXrXrXeXyXrXyXyXyXyXyXrXrX7XsXBXBXBXBXNXNXSXVXdXiXgXmXBXhXsXyXbXaXwXB.=X3XO.+ O : r ^ ^ ^ ....^ ^ ....^ ..^ ~ i ~ r.q.O . @ wXJXAXFXDXFXNXNXNXBXBXBXBXBXBXMXZXZXBXBXBXBXCXhXCXBXMXBXCXDXBXBXBXBXBXBXBXBXBXBXCXCXBXMXMXmXMXMXBXBXNXZXZXZXZXZXZXZXZXZXZXZXBXBXBXBXBXBXBXBXBXZXBXBXZXZXBXBXmXBXBXBXBXBXBXCXBXBXBXBXCXCXCXBXNXZXBXBXCXCXBXBXNXBXBXBXBXNXBXBXBXBXBXBXBXBXBXBXnXNXBXBXBXBXBXBXZXZXBXCXBXBXBXBXBXBXBXBXBXBXBXBXnXBXBXdXyXdXyXiXiXpXyX9XdXdX9XyXyXyX9XyXdXyX9XnXNXNXNXNXSXSXSXSXAXb.b.+X{.8.O 8 : & ; ; * * ; 8 ; 2 & O +   .    .SXAXFXcX9XdXyXuXyXyXyXyXyXyXyXyXyXyXyXyXyXaXaXaXyXuXyXeXgXBXnXMXsXnXpX7X7X7XyX7XVXcXJX*X+ D D S 8 S o #XKXbXFXbXFXFXFXJXJXLXq.O w AXKXbXSXJXAX%X1X<X,X,X>X;X;X;X;X-X.X(.`.'.'..X'.'.'.~.!.(. X-XE.U Y F F U D 9 9 9 9 9 9 4 9 > , * * * < 9 M 9 Z 9 * * , * > * * > * % < C C I K.,.H.2.H.H.H.H.H.J.J.J.H.2.2.` ' 4.J.>.' >.Q H.2.R T T K J Y S Z Z 9 1 * * > * < * < % $ 6 P R R R R R R R R ",
"R R R R R R R R R R R R R R R R >.=.R J K 3 < 4 3 3 9 4 C K R ' ,.5.>.' [ [ >.<.3.3.2.4.5.5.H.5.K S C Z C 6 m ,.5.4.K.K.,.Y I 4 * > < > * < < < * < < < $ < $ U ).R.S % < 1 1 < 1 1 4 4 1 1 1 1 , 1 1 1 3 3 3 3 C S S A F F Z A F U F F F S 9 1 3 3 3 9 9 M M 9 o ;._._._.r.r.+XB.b.cXDXiXmXgXnXBXnXZXDXnXyXyXaXyXyXyXyXyXyXyXyXrXyXsXmXhXsXpXiXiX9XsXDXDXBXCXFXDXDXCXsXyXyX9XyXyXyXyXyXyXyXyXyXeXeXyXyXeXeXyXeX8X8XpXMXMXBXBXmXBXSXVXnXnXnXnXsXsXqXqXdXcX*XX X w . . O & ; 9 - 8 0 r 8 r t r r r r u u } v.t.w p p @.e.&.FXSXSXZXNXNXBXBXBXBXBXBXMXZXZXBXBXBXBXBXNXBXBXNXBXBXBXBXBXBXBXBXBXBXBXNXmXBXZXmXmXZXZXNXNXBXBXBXBXBXZXZXZXZXZXZXZXBXBXBXBXBXBXBXBXBXBXZXZXBXBXBXBXBXBXmXZXZXZXCXBXBXCXBXBXBXBXBXNXNXBXDXDXZXBXZXBXNXBXNXNXBXBXBXBXBXBXBXBXBXBXBXBXBXBXBXCXDXBXmXMXZXmXmXNXBXBXNXNXBXBXmXmXmXmXNXmXNXNXNXCXCXiX9XyXrXyXiXiXrXyXnXnXyX9X9XyX9XyXdXyXyXnXBXDXBXNXNXNXNXNXHXFXJXJXLX*X    . O & ; 1 3 & & * ; o i 3X3X*X3X*XSXbXNXdXdXdXyXuXuXyXyXyXyXyXyXyXyXyXyXyXyXyXyXyXyXuXyXeXgXBXnXmXsXsXyX7XyXyXyXiXDXSXJX3X: i H D 8 9 o %XHXVXFXSXHXAX0XvXvXxXr.. 7 AXHXVXNXJXIX%X1X<X,X,X>X;X>X>XXX X X'.'.`.`.XX'.(.(.!.~.(. X.XQ.,.7.-.F ^ U F Z 9 9 9 e C 9 > > > * * < 9 9 9 Z 9 * * > > > < * * * $ * * % L K.1.H.1.2.H.H.G.G.H.J.J.H.2.2.>.>.4.J.1.<.<.T H.1.P K T P Y 4 1 4 4 1 * * * < = < * * > S S ' R R R R R R R R ",
"R R R R R R R R R R R R R R R R >.>.>.-.1.C $ - 3 4 9 9 m A L L 1.H.2.2.2.<.>.[ 2.2.2.4.H.H.H.J.5 $ 4 A C $ 4 ,.5.5.J.J.E.K.E.A $ * < < < < > > < 1 > 1 > $ % -.Q.R.A $ 4 9 3 4 1 3 4 3 1 1 1 1 1 1 < 1 9 Z Z Z 1 9 M M Z Z Z S Z S S F U F Z N 9 3 1 1 1 1 1 1 % - o . o o . .   @ 5XJXFXFXNXNXNXNXDXDXgX9X9XeXyXyXyXyXyXyXyXyX7X7XyXpXsXmXMXMXhXgXBXFXDXZXDXDXDXCXCXsX7XyX9XyXaXyXuXuXuXuXuXuXyXyXyXyXyXyXyXyXrX7XrXpXsXmXBXMXCXDXBXNXBXBXgX9XdXdXNXSXJXxXX   . . O & o o o % o o o o & o o o & o o O u :.q.{.4Xv.+     JXHXNXDXZXNXBXBXBXBXBXBXBXNXZXBXBXBXBXNXBXFXCXCXFXDXBXDXCXBXBXBXBXBXBXDXZXZXZXmXmXZXCXBXBXBXBXBXBXBXZXBXZXZXZXZXZXBXBXBXBXBXBXBXBXBXBXBXZXBXBXBXBXBXBXBXZXZXCXDXDXCXDXBXBXBXBXBXZXBXBXNXNXNXmXNXBXDXDXNXNXBXBXBXBXBXBXBXBXBXBXBXBXBXBXCXBXMXBXMXZXZXZXZXZXZXBXBXBXCXDXZXZXZXZXBXZXZXZXNXBXNXdXrXiXrX9XrXrX7XyXnXmXdXyX9XyXyX9XyX9XyXsXDXZXCXZXZXZXZXSXNXFXFXAXJX3X@   X w o & - 2 1 ; y O   } KXLXGXKXFXHXNXVXaXnXyXyXuXuXyXyXyXyXyXyXyXyXyXyXyXyXyXyXyXyXuXyXeXgXBXmXmXhXnXyX7XyXyXdX8XVXFXJX3X+ w i t y 3 8 #XJXgXgXFXSXV.p + w y o   w AXHXFXbXLXIX%X<X<X,X>X>X>X>X,X X^. X'.'..X'.'.(.^.(.~.^.(.^.!.!.Q.).6.F F H U D 9 3 8 C C 9 < < > * * < 4 9 9 Z 9 * * > * > < * - - * * $ o =.E.4.J.,.2.J.H.<.G.G.G.G.2.H.H.,.>.,.2.2.J.H.,.' =.L P -.,.-.S $ * < < * * * < * ; * $ 3 -.' -.R R R R R R R R ",
"R R R R R R R R R R R R R R R R [ ' ' ' ,.4 % < 4 4 4 C m m S J 1.1.1.1.2.1.<.<.<.3.1.2.2.2.G.4.m 5 Z Y 9 $ 4 1.5.5.H.1.J.E.E.M * > 1 < > > > * > 1 $ < < < * I 5.6.F $ < < * < 1 3 3 3 1 1 1 1 3 1 1 3 Z F F F F U F Z Z S F F S A A S A C 1 1 9 3 3 3 9 3 9 9 S 9 - & 2 e : : 7 y 5XKXxXcXxXKXFXNXBXDXgXdXdXaXyXyXrXrXrXyXyXyXuXrX7X8XrXmXCXmX9XiXmXDXDXDXDXNXZXCXCXsXrXyXyXdXaXyXyXrXeXeXeXrXrXrXrXrXrXrXrXyXyXrXeX7XrXhXCXBXCXCXCXCXFXDXcX8XsXNXbX*XxX3X7 : 8 ; & % o o - e ; - & - - % o ; ; ; = O G 8.t.{.$X%Xp @ @ KXvXSXFXZXNXZXCXBXBXBXBXBXNXNXBXBXBXBXBXDXBXNXBXNXBXNXBXBXBXBXBXBXBXBXZXmXbXmXNXNXNXZXZXBXBXBXBXZXBXZXBXBXBXBXBXBXBXBXBXBXBXBXBXBXBXBXBXMXBXBXBXBXBXBXCXBXNXnXNXNXnXbXZXZXNXZXBXZXZXZXFXDXDXDXNXNXBXBXNXBXBXBXBXBXBXBXBXBXBXBXBXBXBXBXBXmXBXDXBXmXmXnXNXNXNXNXNXNXNXNXmXmXmXNXNXNXNXNXBXNXnXsXiXyXyX7XrXtXyXdXnXsXaXyXyXdXaXyXyXdXsXnXBXBXBXZXZXZXZXZXVXNXDXbXSXbX=X3X3X4X7 : o & 1 & o O p w.vXSXbXSXDXSXSXNXyXyXrXuXuXuXuXyXuXuXyXyXyXyXyXyXyXyXyXyXyXyXyXyX7XsXBXmXmXmXmXyX7XyXyXsXdXBXFXSX#X@ @ O + w o & r.JXFXZXFXFX3Xq.: o o y + w wXSXFXAXLXLX1X<X<X,X>X>X>X;X>X'.^. X(.`..X`.~.~.(.`.(.^.!.R.R.Q.Q.).1.Z F U U D 9 8 9 e C 9 1 1 , > * < 3 9 9 Z 9 * * > * > * * * * * * * % R 1.=.4.1.4.H.1.G.G.G.2.1.1.4.J.,.>.>.,.1.H.4.,.' =.L K K L I Z * * * < > > * * * , * % 1 -.R T R R R R R R R R ",
"R R R R R R R R R R R R R R R R R R T T ,.C $ 3 4 1 4 C 4 4 C S R R ' <.1.1.>.<.3.2.2.H.G.G.2.2.5 < Z A M $ 5 ,.4.4.J.4.5.K.E.Z $ > 1 < > > > > 1 1 $ < * * % 1 % < $ % > 1 1 9 1 1 , 1 1 1 1 3 9 1 3 M S U ^ ^ -.-.^ Z 3 1 1 1 < 3 3 4 C C 9 9 9 4 9 Z M 9 9 9 ; ; y D D D Z r - . u 7 O + w #XJXSXSXDXVXNXDXVXyXyXrXrXrXrXyXyXsXyX7X7XyXNXDXZXbXdXNXDXCXDXFXDXZXDXCXsXeXyXyXyXyXyXyXrXyXyXaXyX9XrXrXrXrXrXeXrXrXrX7X8XtXmXCXBXBXNXCXCXDXBXcX0XdXSX3X@ a w   O o o o o $ & o o & % & & o o & ; ; 8 8 = 7 r = + %X{.~ y   i @ &.FXZXZXZXZXBXBXBXBXBXNXNXBXBXBXBXBXCXmXNXDXCXFXFXSXNXNXNXNXNXNXNXVXVXVXNXZXNXnXBXDXDXBXBXBXZXBXBXBXCXBXBXBXBXBXBXBXBXBXBXBXBXBXBXBXMXBXBXBXBXBXZXDXNXNXZXSXDXFXSXVXnXbXNXVXNXNXNXbXbXNXNXNXNXBXBXNXBXBXBXBXBXBXBXBXBXBXBXBXBXBXBXDXBXBXDXNXnXDXDXVXVXVXNXNXNXNXNXnXmXVXVXNXNXNXNXbXdXqXaXyX9XpXpXsXhXmXnXsXyXyX9XyXaXaXaXdXnXBXNXBXCXBXBXBXNXBXNXZXnXZXZXbXFXFXHXJX3X    O y 8 o   @.vXKXFXVXVXFXbXqXdXsXrXyXrXuXuXuXyXyXuXuXyXyXyXyXyXyXyXyXyXyXyXyXyXyX7XhXBXmXmXMXMXiX7X7X7XpX9XnXDXHXHXwXvXAXxXxXD . w 3XbXbXSXJXLXPX:.& : 4XPXxXHXFXNX=X3X$X<X,X,X,X>X>X,X;X>X'.(..X(.`..X`.~.~.`..X(.^./.P.W.R.P.R.1.A U U U D r 9 9 9 C 9 1 1 < > > < 3 9 9 Z 9 * * > * > * * * * * * * * 5 m 4 =.2.4.H.1.G.H.G.<.[ ' <.2.1.2.1.,.1.2.>.R 4.4.=.P S 3 4 * * * * * < < * * , , > % < ,.T P R ` R R R R R R ",
"R R R R R R R R R R R R R R R R ` ' ' ' 1.Z % * 1 < 4 C C 4 C J R R 1.2.<.[ E [ H.H.H.H.G.G.G.H.6 $ C Z C < < ,.4.4.J.J.K.K.Q.U > > < < > > > > < 1 * 4 , 1 * * % * 1 4 3 < * * 1 1 , 1 3 3 9 9 9 3 M S F I -.-.I I F 9 $ % % % % % % % % % % % $ % % $ % o o o ; o & 2 ; - - $ A - 9 o o O + 3XJXSXFXFXNXNXDXVXyXyXrXrXrXrXyXyXrXyXyXdXnXDXFXFXFXVXSXHXFXDXDXZXZXDXCXiXeXrXyXyXyXyXyXyXuXaXdXcXaXdXdXyXdXyXyXdX7XrXrX7XyXmXBXmXBXBXBXBXBXBXbXqXqXJX3X    . o 8 & * % o % o o o . . o o . o + . o & 8 , 8 ; O D {.o.u y O .   &.FXDXZXZXZXBXBXBXBXBXBXBXBXBXBXBXmXMXmXFXHXSXFXKXJXJXJXHXHXHXHXHXHXJXJXHXHXSXDXHXDXDXZXZXBXBXBXBXBXBXBXBXBXBXBXBXBXBXBXBXBXBXBXBXBXMXBXBXBXBXBXZXBXZXFXFXFXFXHXHXHXFXHXHXHXHXHXJXJXJXJXHXSXSXDXDXBXBXBXBXBXBXBXBXBXBXBXBXBXBXBXBXBXVXBXVXVXFXFXSXFXHXHXHXHXHXHXJXHXHXHXJXJXJXJXJXJXSXbXSXVXiXpXyXgXnXmXnXpXrXyXyXyXyXaXaXsXBXDXCXCXBXBXBXBXBXMXNXCXnXmXZXnXnXmXiXFX*X+ } 7 + o u @ *.AXSXbXbXZXDXNX9X7XrXyXuXuXrXuXuXuXuXuXuXyXyXyXyXyXyXyXyXyXyXyXyXyXyX9XgXBXMXmXnXnXdXyXyX9XgXsXnXVXSXHXSXJXKXJXLXu   @ =XHXGXJXLXLXLX... O vXLXAXSXbXAX#X%X:X<X,X,X,X>X,X,X;X>X(.(.'.(.'..X~.~.~.'. X^.^.!.U././.U.!.5.L U F H F Z 9 8 8 e C 1 1 1 > > < 3 9 9 Z 9 * * > * > * * * , , * * - % % % ' 4.4.4.H.2.G.2.<.' ' >.1.4.J.4.,.2.>.R T J.4.,.,.L C 9 1 * * > > > * * > , * < $ 1 ,.T T R ` R R R R R R ",
"R R R R R R R R R R R R R R R R R ' ` P ,.S > 1 < < 4 Z C m C J =.' 2.2.>.' >.J.2.1.1.1.3.G.G.4.A C S C 9 < < 1.K.1.4.J.K.5.[.S > > < > * > < > * * * 9 & ; , = * $ < 1 > * , 1 1 1 1 1 3 9 9 9 9 9 Z F U I -.^ R -.-.I K K I P U I P I R ` -.-.-.R R -.-.-.:.t.t.H 8 y e e e 3 1 3 A 1 U 8 . 4XwX0XSXFXVXnXDXBXyXyXrXrXrXrXyXyXeXyXyXyX0X0XwXwX=X*XwXSXFXSXFXDXFXDXDXiXeXuXyXyXsXdXuXyXyX0X0X0X0XxX0X0X0XqX7XrXrXuXyX8XyXmXMXnXBXBXBXBXNXBXVXcXqXJXwX@ + 7 O o o & % & - : D 0.t.t.r.t.t.|.t.p . ; 8 ; r - o ^ %X~ 8 : y + . O.HXFXZXZXZXBXBXBXBXBXBXBXBXBXBXBXZXCXmXFXSXwX3X3X3X3X3X3X3X3X3X3X=X3X3X3X=X=X5XcXSXDXZXZXCXBXBXBXBXBXBXBXBXBXBXBXBXBXBXBXBXBXBXBXBXBXBXBXBXBXZXBXSXSXFXAX0X5X3X3X5X5X3X3X3X5XwXwXwXwXwXwXwXqXNXZXNXBXBXBXBXBXBXBXBXBXBXBXBXBXBXBXCXCXCXSXSXKXvX=X*X*X*X*X*X*X*X*X*X*X*X*X=X=X*X*X*X@XV.5XqXaXdXyXdXsXnXsXyXyXyXpXyXyXaXyXsXBXDXNXBXBXBXBXBXBXBXBXBXCXmXZXDXMXnXZXZXSXAXKXO.  @ 3XKXSXDX9XgXDXBXNXsXyXyXiXyXrXpXuXuXuXuXuXuXuXyXyXaXyXyXyXyXyXyXyXyXyXyXyX9XgXBXMXhXsXsXdXsXsXpXmXgXNXZXVXFXSXFXbXAXKXw O + r.@Xz $X#X$X3X..: + xXFXVXSXbXHX#X%X1X<X>X,X,X;X,X,X;X,X(.(.'.`..X.XW.~.^.'.`.^.^.^./.I.U.U.!.J.P I U U F Z 9 4 3 9 Z 1 1 1 < > < 3 9 9 Z 9 * * > * > * & & * ; * * $ 1 $ % ,.K.1.2.J.3.G.H.2.<.<.1.J.2.J.2.=.=.' T R ,.-.L I A 1 4 4 * * < > * * * < , * < * < -.P R R ` R R R R R R ",
"R R R R E E E R R R R R E E R R ' ` R R =.,.,.-.< % < A S C C S =.=.>.,.1.H.H.1.G.<.E E 3.J.G.4.5.P.I 3 C < > 6.5.5.5.=.,.E.Q.S > < 1 > > < 1 > < * , , = = 1 , ; - > > , , 1 1 0 9 1 1 9 9 M M M M M F I -.1.-.,.P.'..X'.'.XXXX(.XX-X>XlXlXlXlXlX<X2XlX2X2XxXLXLX1XO + u & 1 1 4 S 6 4 3 8 & o   @ AXHXbXNXBXmXyXyXrXrXrXrXeXyXhXyXnXSXB.X     X    .KXJXVXSXDXDXFXDXBXsX8XpX7XsX7XeXaXVXSXa . : O w @ a @ n cXeXyXyXyXeX9XrXyXCXBXBXBXNXDXDXbXbXJXxX  O o - & % ; o e _.t.|.IXxXIXPXPXPXPXLXa . . O ; ; o 8 & o y u : + :   $.HXAXVXbXmXCXmXCXBXBXBXBXBXBXBXBXmXZXbXHXHX@   .   X   + .   .       X         0XFXZXDXmXDXBXmXCXmXZXNXmXZXNXnXCXCXZXZXCXZXZXFXnXBXCXBXmXBXCXZXDXVXAXJXPXw.    . .   .     X       O       %.HXDXNXBXBXBXBXBXBXBXZXNXBXDXNXNXCXBXDXnXNXFXAXJXKXa   .   .     . .   . . . .       X   . C.FXcX0XqXcXqXcX8XyXyX9XpXyXyXyX9XdXBXDXBXBXBXBXBXBXBXBXBXBXBXBXMXMXMXMXNXZXNXHXLXg     wXHXSXbXhXnXMXCXBXsXpXyXrXyXuXuXyXyXyXyXyXyXyXyXyXaXaXyXyXyXyXyXyXuXyXyXeXrXsXCXCXsXyX7XsXCXBXBXCXCXCXZXNXNXNXSXSXHXSX+   w . : . & . O   r.LXAXSXFXNXbXSXFX#X%X;X,X<X,X:X;X,X,X<X>X.X(.(.(.(.(.!..X(.`.~.W.^.^.U.U.U.T.I.P.Q.E.R Z U U I U 8 9 C 3 4 3 < > 1 9 9 9 9 9 4 1 * * < * * * * * * * * < % % L Q.4.5.4.H.2.H.J.H.H.J.H.1.J.5.=.' ,.4.4.1.-.Z C 9 > 9 < * * > > * * > * > $ > % m -.E T R R R R R R R R ",
"R R R R R R E R R R R R E E R R R E R R R =.-.-.< * < M C C C S =.R ' ,.J.J.2.>.<.<.>.<.H.G.3.J.2.5.I 4 C 4 4 1.,.,.E.E.5.4.J.A > < < > > < < > 1 , 1 1 , , 1 , ; - > > , < 1 1 1 9 9 1 9 9 9 Z M F F U L L 1.[.P.E.!.!.!.^.(.~.~.(.(.'.-X>X>X,X>X>X>X>X:X1XxXLXLX$X+   .   O o % M 4 C M F Z r & a AXJXNXDXZXnX7XyXyX7XeXeXyXsXgXhXBXSXB.X . + + + t.AXKXSXHXSXFXFXHXCXnXVXnXDX=X8XcXVXAXPXp o e o O . @ . c FXeXyXyXyXeXeXyXyXBXBXBXBXNXZXZXbXbXJXxX  + o - & & - o e _.0._.zX2X3XzXUXUXUXUXp   + : o - & 2 o o 8 r O     + @.JXGXHXFXNXDXBXBXBXBXBXBXBXBXBXBXCXDXVXSXcXa X X   7   + : : 8 : 7 7 7 : 7 7 . wXHXNXCXmXCXCXCXBXDXCXZXNXZXDXZXgXnXCXmXBXZXmXZXnXBXCXBXmXBXZXNXSXHXKXLXKX+X+ : : : & ; & & : & 2 w + X + @ $.bXSXNXNXBXBXBXBXNXBXZXNXBXCXNXBXCXNXNXHXHXKXJXLXPX| + : : : : : 2 : : : 7 7 : : : : + + a $XJXSXKXJXSXqXSXaXdXsXyXyXyXyXaXdXsXNXBXnXBXBXBXBXBXBXBXBXBXBXBXBXBXMXMXmXCXZXFXSXz   + wXFXNXnXMXMXMXmXmXsXuXyXyXyXuXuXyXyXyXyXyXyXyXyXyXaXaXyXaXyXyXyXyXuXuXuXuXiXhXMXmXsXyX7XsXCXBXBXCXZXZXZXZXZXZXDXSXFXcXp + w . 8 Z * % ..p +XPXAXHXNXNXbXSXKX$X%X:X>X,X;X:X1X;X>X>X>XXX.X'.'.'.'.'..X(.`.`.~.`.`.U.U.T.T.I.Y.Q.E.=.4 A A U U Z Z F 3 9 4 1 > > 1 1 4 M M M 9 1 * < * * * * * * * * * $ 3 -.!.4.J.J.4.2.2.H.H.H.4.,.,.4.4.,.,.1.,.,.1.-.A Z M < 4 < * * > * * > > * > $ > % 5 R ' ' R R R R R R R R ",
"R R R R R R R R E R R R R R R R E ' =.` P I R -.C Z 9 1 3 M S A J J R 1.1.>.<.1.<.2.G.G.3.[ ' 2.2.,.K 5 3 4 3 S S m 1.E.,.m M > > < < > * > > > , * , < , , 1 < < < , < , 1 1 1 , 9 9 3 9 9 Z U F -.-.-.-.,.E.'.'.(.Q.U./.^.].!.~.^.~.~.(..X-X;X;X>X>X>X:X-X<XlX3X3X3X3X3X3X3X4Xo e A 9 9 Z 4 3 & : vXHXbXmXmXZXsXsXyXrXtXtXuXpXrXiXsXNX3XO.i + O o y ~ i B.SXFXwX&.b.0XSXcXn c C.AXSX@Xg O.O ; 1 8 : y @X@XV.VXyXyXyXyXyXyXyXyXnXmXMXBXMXZXZXVXbXJXxX  + o - & = & o e _.t._.3X2XUXxXzXxXxXIX3XxXxX8.. o o & o o o : D $X2XUX4X .*.wXFXbXNXCXBXBXBXBXBXBXBXBXBXnXNXSXSXHX=X3X3X3X3Xi & 8 2 1 & & 7 ; & 8 &   3XLXbXDXmXnXnXDXmXnXnXCXCXnXmXCXZXNXDXnXNXDXZXNXDXBXDXBXBXBXNXNXDX5XB.e.r...o 2 ; < 1 3 2 ; ; & : O . i $X=X3XFXFXNXBXBXBXBXNXNXNXBXNXBXZXNXSXDXSXbXKX*X .q.w.t.H i H H H H H H y 8 8 8 8 8 8 8 8 7 O . i O.~ | | &.e.qXcX0XyXiXyXyXyXgXmXBXBXBXmXBXBXBXBXBXBXBXBXBXBXBXBXBXBXBXNXNXbXNXHXcXAXcXFXSXnXmXCXBXnXaXyXuXyXyXyXuXuXuXyXyXyXyXyXyXyXyXuXaXaXaXaXyXyXyXyXyXyXsXmXnXmXBXBXsXyXqXsXCXBXBXCXBXBXZXCXZXZXNXNXNXFX3XxX3Xw 9 Z 1 ..vXvXvXJXVXVXDXDXbXAXAX%X%X<X;X>X:X:X1X;X-XXXXX.X'.'.(.(.'.(.'.!.Q.!.!.!./.I.I.Y.I.Y.P.R.I.1.-.-.U Y U Y U U 9 M M 4 < < < 1 1 9 Z Z C 1 * * * * * * * * * * < * % < S 4 =.K.H.1.1.4.4.2.1.' =.1.,.>.4.,.=.-.A A 1 1 1 $ > $ * < > * > < > $ * * Y L L =.R L R R R R R R R R ",
"R R R R R R R R E R R R R R R R [ <.1.=.P L T -.I -.A $ > M S A m m T ,.>.E >.H.3.J.J.2.>.Q T <.1.' L 4 6 < < $ < 6 1.).=.% $ > > > > > * > > > * * * , , < 1 < < < < < 1 1 1 1 1 3 9 1 3 9 Z I U -.-.-.K.E.E.!.'.`.!.R./.].`.`.`.`.`.(.'.XX-X,X;X>X>X,X<X<X:X%Xt.3XKXJXFXHXLXxXO 8 e - 8 Z Z A o 7 PXLXSXNXbXZXDXmXyXrXsXhXsXsXsXmXsXDXFXwX+Xi 8 ; :     q.JXJX0X  X 5XJXAXX . *.JXLXO.  : 8 r 9 r . w 5XJXcXyXyXyXyXyXyXyXyXyXsXsXmXBXZXZXNXNXbXJXxX  O o - * * & o Z |._.|.UX2XUXIXzXxXUXxXIXPXIX+.  8 o o : : . o y IXPXPX$X  @ 3XHXNXmXCXBXBXBXBXBXBXBXBXBXCXNXFXVXFXFXHXJXJXAXa   o ; 3 1 , 1 1 1 9 & O xXLXGXHXFXNXgXDXZXFXmXmXCXZXmXZXZXZXFXNXZXBXNXnXDXCXDXDXBXZXNXSXFXe.+   O o o 9 4 1 < * * & & ; : . @ &.AXJXFXHXNXNXNXBXBXBXNXNXNXBXNXBXBXNXCXDXSXJXLX+X. @ + y ~ ..o...........t y y r r e e y e r ; o o o   o .   a xXKXqX9XqXyXyXyXnXDXDXBXZXZXBXBXBXBXBXBXBXBXBXBXBXBXBXBXBXBXZXCXNXVXFXHXHXbXNXmXmXCXCXsXeXeXyXyXyXyXuXuXuXyXyXyXyXyXyXyXyXyXyXaXaXyXyXyXyXyXyXyXsXBXCXBXCXDXsXyX9XsXBXBXMXCXBXZXCXCXBXmXnXnXgXDXSXLX3XO o ; o H LXJXFXFXNXmXZXFXGXLXLX1X.X,X>X>X;X:X1X:X X(.~.~.(.(.!.~.(.(.!.E.P.P.I.U.I.I.I.Y.I.I.Y.I.I.K.Q.E.I S U U U F 9 9 9 3 1 < 1 1 1 9 C Z C 1 $ $ * * * * * * * * * * $ % $ % T K.4.2.1.4.H.2.<.' ' ,.=.' 4.4.=.-.5 1 * < < * < * * < > * > < > * > < I ,.T E E T R R R R R R R R ",
"E E R R R R R R E E R R R R R R >.1.1.>.T L T -.L R S $ > M S A S V P 1.1.=.>.<.<.2.2.1.<.' ' G.5.5.2.P 5 5 4 $ 3 4 5.).,.> < M > > > * * * > < 1 < > * > , , , < < < 1 1 1 1 1 9 1 9 3 4 9 4 S I 1.,.-.E.Q.P.P.R.~.~.W././.^..X`.`.'.'.`..X;X<X,X,X-X-X<X<X;X:X|.3XGXSXgXSXSX5X  . O o 8 % 1 N < D PXKXFXHXnXnXCXMXrX7XsXhXhXhXiXgXyXNXSXqX3X{.o & r 8 7 r.AXKX&XX p V.=X&X# X e.LXLX:.o r 9 o y + @ e.0XcXyXyXrXrXyXyXyXyXyXyXeXuXgXMXCXZXNXNXbXJXxX  O & , * * * % F _.t.|.lX2XzXIXxXxXxXxXIXUXIX4X$X2Xy   o . . 0.O.xXxXIX*X@ @ 3XJXDXmXCXBXBXBXBXBXBXBXBXBXDXNXCXnXnXmXnXbXFX0Xa @ w o - 9 1 1 9 9 1 & O +XxXwXcXSXHXbXmXnXnXmXnXNXCXZXNXDXnXDXZXDXbXFXNXNXCXDXZXZXBXNXSXHXr.+ O & ; 1 9 < 1 1 < 8 - O +   e.B.3XSXFXbXZXnXBXBXBXBXBXBXBXBXNXNXZXBXNXSXDXSX5XxX+Xu } ~ H o......._ ......t y y y y e e y e - % % * & & ; : . g vXKXcXbXyX9XiXiXnXDXBXNXNXBXBXBXBXBXBXBXBXBXBXBXBXNXBXBXBXBXNXNXDXNXCXqXFXFXDXZXZXDXDXnXyXyXyXyXyXyXuXuXuXuXyXyXyXyXyXyXyXyXyXyXuXuXuXyXyXyXyXeXsXDXDXBXBXBXdXaXyXsXBXBXMXCXBXZXCXZXBXmXnXnXMXBXbXFXV.  . + O i xXFXdXnXCXCXNXFXxXxXIX1X-X>X,X>X:X;X<X:X X(.~.~.(.(.).).(.).'.).!.!.!.R.E.I.U.I.I.T.I.I.R.R.R.5.K S I U U U 9 9 1 < * * > 1 1 9 C C M < $ $ * * * - * * * * $ , , , < $ -.R.4.4.4.4.4.1.1.,.>.1.=.T ,.4.,.-.< 1 > < < * 1 * * < > * < > > > % $ L ,.P P R T R R R R R R R R ",
"E E R R R R R R R E R R E R R R ' >.>.' T T E =.5 C 4 $ > C S S A S E 5.,.' ` ] >.1.1.3.J.G.3.J.2.<.1.1.' ,.6.Y $ < R -.I , , 3 > * * * * * > 1 M 9 1 > < < * > < < 1 1 1 1 1 1 1 , M M S A M F 1.Q.Q.P.E.R.P.E.P.~.`.!.W./.~.`.`.`.`.`.(. X-X>X<X<X,X>X>X>X>X;X%X3XGXFXgXDXDXcXB.$X4X2X4XD Z F Z 2 _.q.*XSXNXmXMXmXyX8XtXuXtXgXmXmXgXFXNX0XAXvX7 y D r O 7 ~ p b.Z.&Xg X X X X b.5X3X..& 1 9 ; o @ | xXcX5X7XeXeXrXyXyXyXyXyXyX7XyXuXhXMXmXnXNXbXJXxX  O & , * * * % 3 ..Y 7.%X|.2XIXxXxXIXxXxXxXGXxXIXxX+.y o . w PXzXIXzXIXzXp   B.GXVXNXCXBXBXBXBXBXBXBXBXBXBXnXmXZXmXDXCXZXVXFX*X3Xr.O & ; ; * , * * ; o 7 . @ p B.AXFXDXCXNXFXDXNXDXDXVXNXVXNXVXFXSXHXFXFXCXBXNXNXNXNXSXJXO.O : 8 ; - * * < 1 1 8 o O w   xXbXFXFXnXnXZXCXBXZXBXBXBXBXBXBXNXNXDXNXNXSXDXSXX + 7 + ~ o...................i 8 7 8 8 8 8 8 8 8 1 1 * % * % o : y v.b.=XFXVXnXmXnXBXDXBXNXNXNXBXBXBXBXBXNXBXBXBXBXBXNXBXBXBXBXNXnXZXDXFXNXDXVXDXDXBXNXBXgXyXuXyXyXyXyXuXyXyXyXyXyXyXyXyXyXyXyXuXyXuXyXyXyXyXyXuXeXdXCXBXgXsXVXdXaXaXsXBXBXMXCXNXBXZXZXBXBXBXBXhXhXbXHXqXV.*X*X*X=XSXDXNXCXCXnXSXGX*X|.:X.X;X>X>X;X:X;X<X-X.X.X(.~.'..X(.).!.E.K.P.K.P.Q.E.I.I.P.Y.Y.I.Y.Y.I.I.Y.P.-.-.,.U S I F Z 4 1 > * > 1 3 9 C C M 1 * > * - * * * * * * > * > $ $ % =.R.4.5.4.4.4.2.2.4.4.4.-.T E E L J * < < > * * * = * , > > < * * 4 5 m I ,.` T R T R R R R R R R R ",
"E R R R R E E R R R R R E E R R E ` E T T E =.-.$ 6 , > < M S C M C T ,.' P ' =.1.2.<.>.2.H.3.2.U.2.3.5.4.E.5.Z % % 5 $ M 1 * > * * * * * * > 1 Z Z 1 > 1 , > > < < 1 1 1 1 1 1 > > Z S U ^ I 6.E.R.!.P.P.P.J./.!.'.~.Q.!.~.~.`.'.'..X.X(..X-X>X-X>X,X,X,X>X>X<X|.UXKXFXgXhXNXFXKXJXLXLXPXy & 1 C o y    .bXNXZXhXhXtX8XeX7X7XuXCXhXpXDXnX8XbXvX. O ; 8 7 : : . g 5X5XX X g =X5X| # + O & 1 Z - o.3X5XvXaX8XuXeXeXeXrXyXyXyXyXyXrXrXeXiXhXnXnXNXbXJXxX  O O , * = , % % - o Y |.|.3XIXIXIXIXxXxXxXxXUXIXIXUXIX|.. a GXxXzXzXIXUX_   B.KXSXDXBXMXBXBXBXBXBXBXBXBXDXDXnXCXnXNXNXNXbXHXGXLX4X+ : ; 8 1 8 1 8 r ; o . O   z AXHXnXhXDXmXnXVXDXDXFXHXSXNXVXFXwX*X*XFXDXNXVXNXDXSXFXJX| . ; ; * < 1 8 1 1 ; 8 O O.xXxXqXVXDXZXmXMXMXmXBXBXBXBXNXBXNXNXNXZXDXNXVXSXFXSX+ O y 7 H ....} ......o...H ..D 8 0 r r r 9 9 e e 1 - % % * % ; o   +   B.HXNXDXCXBXCXDXBXBXBXBXBXNXNXNXNXNXBXBXBXBXBXBXBXBXBXBXDXCXDXNXnXDXFXNXCXFXNXdXsXaXeXyXyXyXyXyXyXyXyXyXuXuXyXyXyXyXyXyXuXuXuXyXyXyXyXyXuX7XdXCXBXdXyXdXdXaXaXsXBXBXMXCXNXBXBXBXNXNXBXDXDXCXsXDXFXSXJXJXJXFXFXbXNXBXBXBXSXKX*X_.:X;X,X-X;X;X;X>X,XXX(.'.).~.(..X(.Q.5.` 4 S S K 1.P.P.I.R.I.I.Y.I.I.I.I.R.Q.E.Q.K.S 3 U ^ F C 4 3 1 1 1 1 9 M C C 3 < 1 - * * * * * > > * * , 3 , % R K.5.5.1.2.4.4.4.H.H.,.-.=.P S m 5 > 1 1 < , < 1 1 * > * > < % $ C -.-.R T P T ' [ R R R R R R R R ",
"R R R R E E E R R R R R E E R R ` E T T R ' ' E 5 > < < , 9 A S S 4 A E ' -.5.4.<.1.' T >.2.1.3.<.[ 3.J.,.4.6.A % % % o 3 M > > * * * * * * < 1 Z M < * > , > 1 < < 1 1 3 3 1 1 1 < Z Z Y R -.Q.Q.P.P.P.R.R.Y.R..X'.R.P.!.(.~.~.'.(.'..X(.XX>X,X>X,X>X>X>X>X>X,X|.lXLXHXDXCXnXDXFXSXAXJXIXO & S C 1 H   w.KXSXhXhXhXrX8XrXrXeXsXCXhXiXCXhXgXFXxXX X . o & : : X | cX&XX # q =X5Xb.X o 8 1 * 8 . @ KXJX5X0XaXyX7XrXeXrXyXyXyXyX9XyXrX7XrXsXgXbXNXbXJXxX  O & , = = < * % & o _ 1Xt.UXIXIXIXIXxXxXxXIXxXxXzXxXIX_   p IXxXIXIXIXUXp   @XJXSXVXmXCXBXBXBXBXBXBXBXBXNXDXnXFXmXBXNXnXNXDXcXJXB.  @ o ; ; 8 ; ; & - ; ; y   7 vXJXSXFXZXNXFXSX=XC.=XFXNXSXFXSX%.. @ cXFXZXNXSXFXKXKXLXO.o 8 * % < & * - * & O   O.KXJXFXZXhXgXMXDXCXCXBXZXNXNXNXBXBXBXNXBXDXNXVXSXFXSXw O H u t H } H ......O.} D D e 8 8 0 0 9 8 8 9 8 ; ; % & * o ; - & 7   B.JXbXZXZXBXBXBXNXBXDXNXBXNXNXBXBXBXBXBXZXZXBXBXBXBXBXBXDXnXBXBXnXDXVXDXDXFXNXaXaXuXeXeXyXyXyXyXyXyXyXyXuXuXyXyXyXyXyXyXuXuXuXyXyXyXyXyXyX7XiXDXDXdXaXcXdXaXaXsXBXBXMXCXBXBXBXmXnXnXNXBXnXCXgXNXDXNXSXbXbXZXDXhXDXBXVXFXFXKX3X%X<X-X;X,X;X;X;X,X>X.X!.~.(.).(..X(.E.-.S S A C Z ,.E.E.E.!.!.Q.Q.W.Q.Q.Q.R.E.P.!.E.C > F -.U C 9 9 4 1 < * 1 9 C C 4 1 4 * * * * * * > > , * > , > % -.Q.J.J.,.>.4.4.4.4.1.R =.6.-.S m 3 < 1 1 * * * * , * * * > < % $ A ,.=.T T R R R T R R R R R R R R ",
"E E E E E E E E E E E E E E E E T R ' >.1.>.' E 5 > 1 , 1 9 1 3 S m C C K 4.4.>.H.1.' ` >.4.H.3.4.3.5.4.2.H.4.=.J L L -.I o $ < * * * * > * * 1 Z C 1 * < 1 1 1 * 1 1 1 9 1 1 Z Z Z A S A 6.,.5.P.P.I.I.U.U.U.U..X~.!.~.^.`.`.(.(.(.`.`.(..X-X,X,X<X<X<X,X,X,X>X.XlXIXxX0XFXNXDXDXSXSXHXvXO ; e 9 M Z o ..LXSXbXhXhXhXhXsX7XaXsXBXmXnXmXmXgXbXVX3X*X@X+ : H o . o.r.o.0 o 7 ~ ~ u = : D t O 7 z #.0XcXaX8X9X8XgXyXtXrXrXyX9XqX9XrX9X9XrXaXNXqXvXvXLXIX. O ; * * * * * $ o o H :X|.4XxXxXxXxXxXIXIXIXxXxXxXUXUX3X2X3XxXxXxXIXxXzXk   @XGXFXFXnXCXBXBXBXBXBXCXBXBXCXCXNXNXBXBXBXBXmXDXSXSXwXB.3X} o 9 * ; 8 & 1 % - ; O : q.q.B.HXFXbXSXKXz . %.FXNXVXSXSX*.  a cXFXZXNXJXwXz O._.8 o 1 & * % ; ; < 1 o t.| @.AXSXNXmXBXBXBXBXBXBXBXBXNXBXBXBXBXBXBXBXBXNXCXNXFXAX7 : y t u i D ....} ....o.u D r 8 0 r 9 8 8 8 8 & & & * & = * & - - & . B.JXNXZXBXBXBXBXBXBXBXBXBXBXNXBXBXBXBXBXBXBXBXBXNXNXNXNXDXDXNXNXNXSXNXNXNXDXBXsXyXyXuXuXyXyXyXyXyXyXyXyXyXyXyXyXyXyXyXyXyXeXyXyXaXuXyXgXMXmXMXDXCXcXaXcXcXaXdXbXBXZXBXMXMXBXnXBXMXhXmXnXBXMXBXBXBXNXNXZXBXNXZXCXBXNXNXFXGXKX3X:X<X-X>X;X:X;XXX^.'. X).).~..X-.A -.U S F F S F A A A S Y I I I I I I P K K A 6.).E.9 1 I I F Z 3 9 9 1 < * 1 M C Z Z Z 9 $ * > > * * * > 1 < > > > 3 C J J ,.1.' =.4.1.,.P J S A A A S M > - * * * * * * * $ 1 , > Z L P ,.=.' R R R R T R R R R R R R R ",
"E E E E E E E E E E E E E E E E T R ' <.1.<.=.' 6 $ , * > < % % S Z S 4 A ,.,.P <.<.>.>.1.4.4.1.[ >.5.4.1.2.H.1.5.K.K.E.-.$ < * * * * * > * * 1 Z M 1 * < 3 1 1 3 3 1 1 1 > < 9 Z Z S C S 5.5.P.P.P.P.U.U.U.U.U.^.~.`.'.(.`.'.(.^.(.'.'.`..X-X,X>X,X,X,X,X,X,X>XXX%X%X|.*XFXFXFXDXSXSXHXvX@ ; C 1 3 Z & q.LXGXFXZXMXhXCXmXyXaXsXBXmXmXBXZXnXgXbXHXJXSX| 7 y o O . = o % 1 ; o o ; & : y + 7 v.vX8XnXeXyX9XqX7X7XrXrXrXrXyXyXyXyXyXtXrX7X8X0X&X+X%X%Xq.  & o * 3 * % % > * % _ 2X0.3XIXUXwXGXIXIXxXxXxXxXwXUXzXzXIXzXwXxXxXIXzXUXi   $XFXSXDXBXBXBXBXBXBXCXCXNXNXCXCXNXNXBXBXBXBXBXNXNXFXHXKXLXw.o 9 9 ; ; ; 1 4 < 1 & o O   p AXFXNXJXKXz   &.JXFXNXKXLXw.  + KXHXNXAXJX=X@   O ; % 1 * 1 * ; * - - O xXSXAXHXNXNXmXMXBXBXBXBXBXBXBXBXBXBXBXBXBXBXBXBXNXCXNXHXAX7 ; e t t t t } ........O.H H t 9 0 r 9 8 9 8 8 & & & * = = * * * - & . B.JXNXmXBXBXBXBXBXBXBXBXBXBXBXBXBXBXBXBXBXBXBXBXNXNXNXNXBXCXCXCXDXDXDXDXBXCXBXdXyXyXuXuXyXyXyXyXyXyXyXyXyXyXyXyXyXyXyXyXaXyXaXyXyXyX7XuXBXMXBXDXDXcXaXcXdXqXdXbXNXBXBXBXmXCXBXCXmXdXhXhXBXMXBXBXBXMXZXZXZXMXNXNXNXCXDXFXKXKX2X%X<X;X,X;X-X:X XW.!.~.!./.-X.XP C ^ I F S F A F S A Y e 3 3 1 < < < 1 5 5 4 4 6.).6.4 1 I U F F e 9 8 < - * 1 9 Z Z Z C e * * > > * * * * * > < * $ $ * < $ R J.4.1.1.-.' K J S C Z M M 4 > - - - - - * * * * 1 $ * A R =.,.>.' R R R R R R R R R R R R R ",
"E E E E E E E E E E E E E E E E R ` ' <.1.<.=.R < < , $ * < * * e C C 3 S -.-.T R >.1.2.2.2.1.,.` >.4.4.1.2.H.H.1.1.4.5.-.% - * * * > > > * * 1 Z M 1 * < 1 1 1 < < 1 3 3 < 1 C S A A A K E.E.P.P.P.P.I.U.U.U.U.R.~.'..X(.(.(.~.^.`..X.X`..X-X,X>X,X,X,X>X,X,X>X;X:X:X%X3XHXSXmXDXSXSXHXvX@ ; e e 1 C % r r.O.C.SXNXhXMXhXrXyXpXmXhXnXCXDXNXnXcXdXAXcX@.p w X O o O ; % * * & : . + . . + | 5XSXaXeX7XeXyX7XuXpXuXuXtXtXrXrXrXrXeXtXiXyXcXSX*Xq.q.t.H & & o o o - , * % o o U 2X|.zXPXIXIXPXIXGXIXIXIXIXzXUXxXzXzXUXxXIXIXIXIXxXk   *XJXAXNXDXNXBXBXBXBXCXCXNXNXBXBXBXBXBXBXBXBXCXNXNXbXSXFXFXw.: o 1 * > 3 % > 4 4 9 8 : o ..LXJXKXLXLX:.+ @.vXAXvXvXAXt.. y IXLXKXJXLX5Xw O ; ; < < * * & & & ; O . xXLXSXDXiXBXBXBXBXBXBXBXBXBXBXBXBXBXBXBXBXBXBXBXNXSXSXHXAX: 2 e r t y y H ..} ..} ..D H t 9 0 0 9 8 9 8 8 * * * = = = = * * - & . +XJXNXNXBXBXBXBXBXBXBXBXBXBXBXBXBXBXBXBXBXBXBXBXNXNXNXNXNXBXZXZXZXZXZXZXCXBXmXyXyXuXuXyXyXyXyXyXyXyXyXyXyXyXyXyXyXyXyXyXsXyXuXyXyXaXqXuXBXCXBXBXBXbXaXqXdXdXcXVXSXCXCXCXCXCXBXBXmXsXmXMXMXBXBXBXMXMXMXMXCXBXNXmXVXFXFXAXJXPX3X:X<X>X>X-X-X:X XR.Q.!.!.!.).).I A -.^ F C U A S C A ` A 4 C Z Z Z S A Y U e 4 6.!.6.M 9 F U F U S e 8 - * * 1 e Z C C C e $ * > > > * * * * * < < * $ $ $ 6 =.Q.Q.E.K.1.-.J J S S Z M 9 3 > * - - - - * * * * 9 * < I ,.=.1.>.' R R R R R R R R R R R R R ",
"E E E E E E E E E E E E E E E E ' ' ' ' ' ' R L L K M * * * * * A e 9 3 Z I E =.R >.2.5.1.<.,.1.>.1.2.2.3.2.4.2.1.1.6.E.-.o - < * * > * > * * 3 Z M 1 * < 1 1 3 > > 1 9 M 3 3 9 A A I -.-.E.P.P.I.I.I.I.U.U.U.U.P.Q.~.~.~.(.(./.'..X.X.X.X.X-X,X>X,X,X,X>X,X,X>X,X<X2X1X3XHXSXCXCXZXSXHXxX@ ; 8 e ; C * % :    .FXZXhXpXrXrXtXiXyXyXgXBXCXBXnXbXcXcXAXwXxXxX5XvX} O t 8 < ; ; + + $X3X&X5XvXSX8X7X7XyX8XfX8XyXeXeX7X7X7X9X9XeXeXeXyX7X8X0XcX&.  +.|.0.0.7.-.U 6 & ; % o - 6 _ :XoX|.0.+.O.k +.UXxXxXxXIXIXzXzXUXUXxXIXIXxXxXwX3X_   $XJXSXNXDXmXBXBXBXBXBXBXNXNXBXBXBXBXBXBXBXBXBXNXFXDXFXFXJXxX4X; & 8 9 M $ 4 1 > - ; ; & 8 q.O.&.q.t.y O + w . @ X w O O : _.+Xr.r.+Xq.+ : 8 ; 1 * 1 < ; ; : 7 O . 5XJXbXVXFXBXBXBXBXBXBXBXBXBXBXBXBXBXBXBXBXBXBXBXNXCXNXHXAX: 2 e e t y y H ..} } i H u H t 9 0 r 9 8 9 8 8 * * * = = = = * * - & o +XJXSXZXNXNXBXBXBXBXBXBXBXBXBXBXBXBXBXBXBXBXBXBXBXNXNXNXNXZXZXBXmXmXNXBXCXBXsXyXrXuXuXyXyXyXyXyXyXyXyXyXyXyXyXyXyXyXyXyXuXyXaXyXsXnXcXmXBXBXnXsXgXdXqXqXnXnXNXBXCXCXDXFXFXVXdXdXnXMXCXCXMXBXBXBXMXMXMXMXBXCXZXBXNXFXSX0X3XUX2X;X<X;X;X:X;X;X XR.!.^.!.).!.(.-.S A C Z U F A A Z U 7.I 4 e C Z C e e C Z S 4 1.E.6.U U I ^ I I S e 9 - * * 1 e Z C e e C $ * * > > > * * * * > > * > < 1 < J T P P I K J V C C S S M 4 4 * * * - - * * * * * 1 $ 5 I -.T -.=.' R R R R R R R R R R R R R ",
"E E E E E E E E E E E E E E E E ' R ` ` R ` ' P =.R Z * * * * * F e 9 4 S I =.1.-.,.2.1.>.[ <.2.2.4.4.2.2.2.3.1.4.1.4.E.-.o * * * * > * > * * 3 Z M 1 * < 1 1 4 3 3 9 Z M 9 9 M A A R K.5.E.P.K.I.I.I.I.I.I.R.R.I.R.R.E.).'.(.!..X.X.X X`..X-X,X,X<X<X,X,X,X,X>X,X,X;X%X3XJXSXNXCXZXSXJXxX. ; 8 8 * C C 9 ; X e.HXDXnXrX7XyXpXiX7XyXhXBXmXmXmXnX8X5X0X0XAXcXAXLXw.  o ; S & O   + xXJXFXDXSXdX5XaXqX8X5XcXVXcX0XcXcXcXdXaXdXaXaXaXaXaXaXAXSXw.  _ |.oX2X:X:XU o o o o 2 0.0._.:X2X7.    .   w IXJXIXIXzXIXzXzXxXxXxXzXxXIXIXPXIX_   #XJXFXNXNXNXBXBXBXBXBXBXNXNXNXNXBXBXBXBXBXBXBXmXDXVXDXVXSXKXLX+   O o % * Z 1 9 9 1 ; ; o o     . + o o X X X # X X X 7 . . X . . o O . - * > 1 * 9 % & .   .     3XJXSXnXZXBXMXBXBXBXBXBXBXBXBXBXBXBXBXBXBXBXMXBXNXCXNXFXAX+ 2 y e t y y H ....} H _ H ^ t 9 0 0 9 8 9 8 8 & & & = = = = * * * & . r.JXSXZXBXBXBXBXBXBXBXBXNXNXNXNXBXBXBXBXBXBXBXBXBXBXBXBXBXBXBXMXBXBXBXBXBXnXdXyXyXyXuXyXyXyXyXyXyXyXyXyXyXyXyXyXyXyXyXyXyXyXuXyXnXCXBXBXMXBXsX7XyXyXyXdXmXZXZXZXZXBXCXDXCXsXyXyXhXMXMXMXMXMXBXBXBXBXBXBXMXCXCXCXNXFXSX3Xr.%X%X:X,X-X>X;X:X:X XR.!.^.!.).(..X=.4 3 S 6.;XQ.Q.!.P.5.5.P < 4 9 C e 4 9 C Z Z 4 1.E.E.6.E.0.-.^ U Z 8 8 - * - 1 9 Z Z e e Z * * * * > > , * > > * * * * * > $ 6 % % $ 5 5 6 3 m C C Z 9 < < * * > < * - * * < * $ % 6 P =.P R R R R R R R R R R R R R R R R ",
"E E E E E E E E E E E E E E E E ' R R R T ' ,.' P R C * > * * - 9 e Z 4 C I -.,.4.2.1.1.>.[ <.G.2.5.H.2.2.3.1.2.K.5.1.6.-.$ 1 1 * * * * > * * 3 Z M 1 * < 1 1 4 9 9 9 9 9 Z F F A A E E.K.E.K.Y.Y.I.I.I.I.I.R.R.E.E.E.Q.(.'.(.~.'..X.X X`..XXX>X>X,X<X,X,X,X,X>X,X<X<X;X3XLXSXmXCXmXSXJXxX. : 2 r - 4 9 C 2   w.HXFXZXiXyXgXpXtXeXyXhXmXgXnXBXnXyXyXdX0XqX8XqXbX#X .O.: & & 8.$X@XSXFXnXCXnXdXnX8X8XaXSXvXSXKXLXSXSXGXGXSXSXSXSXSXSXSXAXAXPXr.+ 7.|.|.2X1X|.e - : o o : 0.7.{ 0.:X7.o : y o t 3X*X*XIXUXzXUXUXIXIXxXxXIXIXUXxXxXy + *XHXHXNXVXZXBXBXBXBXNXBXNXNXNXNXBXBXBXBXBXBXBXBXCXNXDXNXNXJX0XX   w O O & o * ; 1 ; 1 9 9 1 y e ; 8 = = / 9.g q # / #.w.q 7 : : : O : ; r - 9 1 * % o D w w + @ @ &XSXDXnXmXBXBXBXBXBXBXBXBXBXBXBXBXBXBXBXBXBXMXBXBXCXNXFXAX+ 2 e e t y y _ ..} ......H ^ e 8 0 0 9 8 9 8 8 & & & = * = = = % & & . e.FXNXNXBXBXBXBXBXBXBXBXNXNXNXNXBXBXBXBXBXBXBXBXBXBXBXBXBXBXBXBXBXCXCXCXnXsXyXyXyXyXyXyXyXyXyXyXyXyXyXyXyXyXyXyXyXyXyXyXyXyXuXeXnXDXBXBXMXBXpX8X9XyXiXnXMXZXZXZXBXBXBXNXNXnXnXnXmXCXMXCXMXBXBXBXBXBXBXBXMXZXNXZXNXFXFX3X%X1X;X,X,X>X,X;X:X;X X/.!.~._._.^.(.-.S S Y 5.(.'..X'.E.5.,.J 5 5 5 1 3 4 C C C 4 C 7.6.6.6.6.6.-.I U 9 3 9 < * < 1 9 Z Z C e e < > * * > > , , * * > > > * * $ > > > $ < C Z C m Z C C C 3 * * * * * < * * * * * $ 1 3 S R ' T T T R R R R R R R R R R R R R R ",
"E E E E E E E E E E E E E E E E ' R R R R >.4.>.T -.C $ * $ * * 1 e S 9 C S C S J.4.1.1.1.<.<.3.2.2.,.<.2.2.1.1.4.1.A 4 C o % o * * * * > * * 1 Z Z 3 * > 1 1 4 9 9 M 4 9 Y ^ I L L =.Q.K.P.P.I.I.Y.I.I.I.I.I.I.E.Q.!.(.'.).~.'.(.`..X.X`.`..XXX-X,X,X,X,X,X,X,X,X<X<X%X2XKXFXFXDXmXSXJXxX. : ; 8 - 3 3 Z y . w.HXSXZXmXnXnXyXrXyXyXdXsXyXnXBXmX8XqX9X7XaX0XdXqXAXPXPXi   . 3XJXHXSXbXnXFXDXyXyXyXqXSXvXg + + w p p p g g g | | g z | | | 8.u o 7.oX0.0.|.:X_.|.: o o : _.0.0.|.2X7.& - e o o a   p xXIXxXxXzXxXzXxXzXUXt.+ : + + +.xXFXFXSXVXDXBXZXBXBXNXNXNXNXNXNXBXBXBXBXBXBXBXBXDXCXBXNXNXFXHX3XwXAXwXxX*Xw 7 8 ; ; - ; < ; - & & : O X / &X}.d # n.@Xb.q # 7 ; 8 & ; * * o < 1 8 : i PXLXKXJXJXcXHXFXFXCXMXBXBXBXBXBXBXBXBXBXBXBXBXBXNXBXBXBXBXBXBXCXNXFXAX+ 2 y y t y y _ .._ ......H ~ y 8 r 0 9 9 9 8 8 & & & * * * = = & & : @ e.FXNXZXBXBXBXBXBXBXBXBXNXNXBXBXBXBXBXBXBXBXBXBXBXBXBXBXCXBXBXCXDXCXBXVXaXyXyXyXuXyXyXyXyXyXyXyXyXyXyXyXyXyXyXyXyXyXyXyXyXuXyXeXsXDXBXmXMXBXpX7X9XqXiXCXBXZXZXNXNXZXZXNXNXnXCXBXDXDXNXDXBXMXBXBXBXBXBXMXMXBXmXDXNXFXKX3X%X1X;X>X>X>X,X;X:X>X.XQ.!.!.!.Q./..X/.R.!.E.).!.Q.Q.Q.P.K.P.5.6.5.5.5.5.5.1.` K 5 5 Y Z S Z Z C I I I Z 9 Z 4 1 1 1 3 e Z Z e e 9 1 < > > > > * * * > < < < > * $ < 4 4 9 C Z C C Z 9 4 9 < * > * * > > > > * * * * J -.=.=.R T T T R R R R R R R R R R R R R R ",
"E E E E E E E E E E E E E E E E ' R ' ' ` <.4.-.L T 4 % % % * * & , 9 Z C 1 % < 5.4.1.4.H.2.3.<.J.1.' >.H.J.<.=.K.1.5 o * % 8 * $ * * * > * * 1 Z Z 3 > > 1 1 3 9 C Z 9 9 U R U I ' 1.!.J.P.I.K.I.I.I.I.I.I.I.I.E.!.'..X'.Q.Q..X~.(..X.X`.`.`..XXX>X>X>X,X<X<X<X<X<X<X-X3XLXGXNXCXmXSXHXxX  + : O & 2 - 4 8 O w.JXSXDXDXDXmXyXiXrX7XyXyXyXnXCXBX7XiXyX7XyX8XiXqX8XcXKX| X p xXAXVXqXZXDXNXCXnXnXnXwXFXAX.   O   X X X X X X X X X X X X . O O o 7.2X7.o { 2X2XoX% o . o |.%X|.|.2X..o ; H t & o   p PXIXUXIXxXxXxXIXxX3XO.. & 7 . +XLXFXNXFXNXDXBXZXBXBXNXNXNXNXNXNXBXBXBXBXBXBXDXmXmXDXNXBXBXnXVXDXHXJXFXLXxX  o O : 2 ; ; 1 1 1 ; ; 8 7 # / }.}.# X n.@Xb.q O 8 & ; = 1 * 1 1 ; ; :   @ KXJXAXbXJXDXFXdXNXDXBXBXBXBXBXBXBXBXBXBXBXBXBXBXNXBXBXBXBXBXNXCXVXFXAX+ 7 y y t y w _ o.} ......H ..t 8 r 0 9 8 9 8 8 & & & * * * = & & : y + B.HXDXDXBXBXBXBXBXBXBXBXNXNXBXBXBXBXBXBXCXBXBXBXBXBXBXBXCXSXSXCXCXBXcXyXyXeXyXuXuXyXyXyXyXyXyXyXyXyXyXyXyXyXyXyXyXyXyXyXuXuXyX7XsXDXBXmXmXBXiX9XqX9XiXDXNXZXZXNXZXDXDXNXNXnXNXNXNXCXNXDXBXMXBXBXBXBXBXMXMXmXNXFXSXKXKX3X%X;X<X,X,X,X,X;X;X;X XR.R.R.E.R.!..X!.(.-X(.).P.E.P.E.E.R.Q.R.Q.E.E.Q.).!.5.K 5 4 5 4 $ 1 4 4 < Y I ..F S F e 8 3 1 1 e Z Z e e Z 9 1 > > > * * > * * * * * * * 1 M Z Z C C Z M C M < * < * $ < * * > > > > * - * 5 I 1.=.T P ` R R R R R R R ' R R R R R R R R ",
"E E E E E E E E E E E E E E E E ' R R R ' ' T T R P S 4 C % % ; & 8 9 9 Z 4 5 m E.,.=.,.H.H.3.G.[ E <.H.1.1.1.>.5.5.3 % < * * < * > * * 1 < * 1 Z 9 3 1 1 < 1 9 C 5 C 4 m J A J J.K.P.E.E.I.I.I.I.I.I.I.I.I.R.R.R.!.'..X!./.(.`.`.^.(.'..X`.`..X X,X,X>X,X<X,X<X,X2X,X-XlXLXLXHXDXmXNXJX3X@       u o & r e . e.JXFXDXBXDXNX9XdXyXyXyX7X7XgXBXnX7X9XyXyXyX9X9XqX7XVXAXwX3XwXAXFXbXbXNXZXNXZXDXDXBX7XSXAX+ O   + # # # d q # q # q q q q q q q O -.<X0.5 0.|.|.oX_.7.. & _.|.|.|.2X... : O O 7 X . + p +   2XxXzXzX%X3Xq.i O u 7   B.KXbXbXCXFXFXBXCXBXmXZXBXNXCXNXBXBXBXBXBXBXCXBXBXBXBXBXBXBXNXZXbXZXNXcXFX3Xa + y o 8 8 % 1 1 1 * ; 8 O 7 q q q q q q g q 7 7 1 * * = * 1 ; & ; o : X p 0XFXVXSXNXNXNXNXNXBXMXBXBXBXBXBXBXBXBXBXBXBXBXBXBXBXBXMXBXMXCXBXbXHXxXO 7 2 t i t 2 ............H D D r r 0 8 8 8 8 ; = = * = & & = = o + vXLXAXSXNXZXZXBXBXBXBXBXBXBXBXDXZXNXDXNXBXDXCXBXBXBXBXBXBXBXBXFXNXCXmXBXnXyXyXyXyXyXyXyXyXyXuXyXyXuXyXuXuXyXyXyXuXuXyXuXdXeXyXsXyX7XhXCXDXBXBXmXiX9X8XdXZXbXNXDXDXZXZXZXCXDXCXmXnXbXDXNXBXBXBXBXBXBXBXBXBXMXZXCXNXSXHXKXLX3X:X;X-X,X,X>X<X;X;X-X'.!.Q.Q.R.R.^. X X).^.~.Q.R.I.I.U.R.R.I.I.I.E.E.E.E.5.,.` K 6 A 3 5 C 3 4 4 I U I U U S 3 Z 1 - 3 Z S Z Z e Z 9 3 < $ * > * * * > > > * * * 3 Z Z M Z C 9 C Z 9 1 < * * * - * $ * * * < $ * % $ T ,.T T T T R R R R R R R R R R R R R R R R ",
"E E E E E E E E E E E E E E E E ' ` R ' ' ' ` T P R ' I -.1 % & & ; < 1 9 4 < 4 A L ,.4.2.H.J.J.E >.<.1.1.4.4.1.4.1.3 % 1 * $ * > > * * < * * < Z 9 3 1 1 1 1 9 A Z F 9 J 6.6.,.K.K.E.E.P.Y.P.Y.I.Y.Y.Y.I.I.R.R.K.R. X(.R.W.(.(.~.!.~.(.`.`.(.`.'.>X,X>X,X<X,X<X,X<X<X:X:X3X4X3XFXSXbXFXFXwXAXAXAXIX..; 8 8 o r.JXFXSXNXDXVX9XdX9XrXyX9X9XnXCXnX7X9XyXyXyX9X9X9XyXdXdXcXVXFXDXNXCXmXZXDXDXDXDXCXgX7XFXGX+   7 / #.( ( h f s ! ! ! s ! ! s ! u = 7.1X0.: t y 0.oX1X0.o % |.|.|.|.|.:.O + O X X # 7 .   . o 4XUXxX$Xo @ . O 7 7 7   r.KXAXcXSXDXVXDXCXmXnXNXNXVXDXBXBXBXBXBXBXBXCXBXBXBXBXBXBXBXBXBXNXCXDXDXFXSXvXAX4X: - ; & 2 1 8 3 ; ; & ; = = 7 7 = O O = & ; 9 1 1 ; & & & ; : 7 %XvXxXHXDXmXZXZXNXNXBXBXBXBXBXBXBXBXBXBXBXBXBXBXNXBXBXBXBXBXBXBXBXBXBXbXHXxX@ w y t y t w ..........} D t r y 0 0 9 9 9 8 ; = = = = & & & & o + vXJXVXZXZXBXBXBXBXBXBXBXBXBXBXDXBXNXDXDXNXNXFXDXDXBXCXCXCXCXnXBXnXBXBXDXsX8XrXyXyXyXyXyXyXyXyXyXyXyXyXyXyXyXyXyXuXuXyXuXsXyXyXyXyXyXgXCXBXNXVXZXNXNXVXbXVXbXbXnXbXbXbXVXVXVXbXqXbXbXNXNXDXZXBXBXBXBXBXBXBXMXmXNXNXSXcX*X3X2X:X,X;X>X<X,X<X;X^.^.~.~.Q.Q.!.!.(.(.(.!.!.!.!./.Q.W.R.R.R.R.R.R.I.E.R.Q.Q.E.P.5.1.E.P 4 4 5 4 3 e 4 8 3 e e 4 Z 4 < 3 9 e e Z Z Z C M 3 > > 1 > > > > * * * * * > 9 M M Z C 1 < 1 1 < * * * * * > > 1 * * < < C I J R =.R >.>.R R R R R R R R R R R R R R R R R ",
"E E E E E E E E E E E E E E E E ` ` ' =.=.=.` T P ` =.=.-.1 % * * * * > 9 4 1 4 $ m ,.1.=.1.H.2.<.H.H.2.H.H.1.1.E.6.m % < * * * > < > > > * * 1 Z 9 1 < 1 1 1 9 4 3 4 $ K ).-X!.Q.Q.Q.E.R.R.E.R.I.I.I.R.R.E.E.R.E.E./.R.U.~..X^.~.!.~.(.`.`.`.'..X>X,X,X<X<X,X<X<X,X2XlX2X3X%X3XKXFXbXbXFXFXHXSXJXKXH . 3 e o _.LXFXSXNXDXnX9XiX9X9XyX9X9XnXCXnX9X9XyXyXyXyXyX9XrXeXyXcXNXBXBXZXDXZXZXCXZXDXCXmXMXsXSXAXw . q ( n.n.k.k.( ( ( ( ( ( ( ( ! ! d = 6.1X0._ Y : 0.:X2X0.. o |.oX|.|.2Xt.  X #.b.#.g X : : o o oX2X2X2X+ 7 / g g + i X B.JXAX0XVXSXcX9XrXiXNXFXFXNXBXBXBXBXBXBXBXBXBXBXBXMXMXBXBXBXBXmXDXBXmXBXNXSXJXLX*Xo . & - ; & o ; - e 1 3 1 9 ; ; ; , ; 9 9 3 1 9 8 : O . . O .   #XLXHXZXgXZXZXZXBXZXZXZXBXBXBXBXBXBXBXBXBXBXBXBXBXBXBXBXBXBXBXBXBXBXZXbXFX0X. : y y y D y ..o.........D t t 8 8 9 8 8 9 8 ; & & = & & & & & o + vXHXbXZXZXBXBXBXBXBXBXBXBXBXBXZXZXmXZXZXNXZXnXnXnXmXmXmXhXmXnXmXnXBXgXhXtX7XrXrXrXyXyXyXyXyXyXyXyXyXyXyXyXyXyXyXuXuXyXuXdXyXaX7XyX9XiXZXZXVXaXSXSXHXJXFXFXHXHXHXHXHXHXHXJXHXJXHXHXHXFXmXCXZXZXZXBXBXBXZXZXZXmXnXNXKXxXr.+X%X:X<X;X;X,X,X<X-XI.Q.!.~.~.~.(.`.^.^.!.W.Q.!.~.^././.W.R.R.R.R.E.R.R.R.Q.!.!.!.!.).).K $ < 3 9 1 5 < < - 3 Z C S 8 1 < < 1 e Z Z C Z Z 3 > > < * , , > * * * * * < 9 9 M Z C < * * * * * * * * * < < < * > * * S 6.` T T ' 4.2.' R R R R R R R R R R R R R R R R ",
"E E E E E E E E E E E E E E E E ` ` ' =.=.=.' ` ' ` I U I * % * * * * < 9 4 4 9 4 m =.1.>.1.2.1.2.2.4.K.J.1.1.,.,.-.4 % > * * > > > < > * * > 1 Z M 1 > 3 1 1 9 4 3 4 4 I E.).E.Q.Q.Q.Q.E.E.R.E.R.R.E.E.E.Q.Q.Q.E.P.I.R.W.~.`.!.^.^.^.^.`.'.'..XXX;X;X>X<X<X,X<X2X<XlXlX<X1X_.3XJXFXNXgXmXgXbXgXNXAXp   D Z o r.LXFXDXDXDXmXqXiX9X9XyX9X9XnXBXnXdXyXyXyXyXyXyXrXeXeXyXyX7X7XgXDXZXZXZXZXZXZXCXZXCXnXcXAX@.. # d ( ( k.k.h f f f f f f f s s q O 7.:X0.0.0.S _ 0.2X7.o 6 |.oX|.|.%XO.  # b.0X&Xg . O - o o |.lXlX%Xo y 3X5Xv.O w . r.JXSXcXVXcX0XqX7XyXnXFXSXNXCXBXCXBXBXBXBXBXBXBXBXMXMXMXBXBXBXBXBXCXMXNXDXDXcXKX#X+ X O . .   O ; o $ < > 1 4 1 < 9 9 , , < - ; & .   7 p a + w @ v.SXbXmXmXCXZXZXZXZXZXZXBXBXBXBXBXBXBXBXBXBXBXBXBXBXBXBXBXMXBXBXBXMXZXnXFX0X+ : y y y H y ..o.........D t t 8 9 9 9 8 9 8 ; & & = & & & & & o + vXHXbXZXBXBXBXBXBXBXBXBXBXZXBXmXZXZXZXDXCXFXDXDXDXDXCXCXCXCXFXZXDXCX8X9XrXpXrXrXrXrXyXyXyXyXyXyXyXyXyXyXyXyXyXuXuXuXyXyXyXyXdXiXgXiXsXCXNXbXNXHX0X3XxXxXxXxX5XwXwXwXwXxXxXxXwXwXwXwXFXDXNXmXZXZXBXBXBXBXZXZXDXNXNXKXIX%X1X1X:X<X;X;X>X,X,X-X!.~.~.~.~.`.`..X/./././.!.!.!.!.W.W.R.U.I.I.R.R.W.R.R.E.E.R.U.U.E.E.K 5 M 4 M 4 3 4 4 3 e F F F 8 3 < < 3 S H Y M Z Z 1 * * > * , , > * * * > 1 9 M M M C 9 < * * * * * - - * * * < * $ 3 < $ S ,.` ` R ' 1.1.E R R R R R R R R R R R R R R R R ",
"E E E E E E E E E E E E E E E E ' ` E E ' ' ' ' 3.>.T P I < % * $ * 1 4 9 4 4 M 4 < =.5.1.,.' >.2.<.1.K.4.4.5.P 6 4 > * 1 < * * * > < > * * > 1 Z Z 1 > 3 1 1 C e C -.1.-.J N A C C C C C C C C S S S S A S A A 7.1.E.(./.U./.~.`.].~.~.~.].`.`. X.X.XXX<X<X>X,X<X,X<X(.I < - +XJXbXZXZXDXmXZXDXFXHXi   r e o {.LXSXDXDXDXnX9X9XyX9XyX9X9XnXCXNXnXsXyXyXyXyXyXyXuXyXaXaXyXaXgXgXhXmXZXNXNXZXZXCXCXmXbXJX3Xa O q # d k.z.f f f f s d f s s s q = 7.:X|.U.0.e o _ |.0._ _ oXoX|.:X2X%X%XB.z | #.a y o . Y { |.oX2X3Xt.u {.&Xw.+ + X w.KXLXKXKXcXcX0X8XyXBXFXFXSXFXNXBXBXBXBXCXZXZXBXBXMXMXBXBXBXBXDXnXBXDXZXCXFXDXHXbX3XwXwXxXxXxXxX$X7 - 3 1 9 * * < 0 1 = = 8 0 O y ~ w.5XKXKXAXKXcXSXJXSXDXhXgXZXZXBXBXBXBXBXBXBXBXBXNXBXNXSXNXBXBXBXBXBXBXBXMXBXCXCXmXZXmXFX0X@ : y i u u y ..o.......~ i y y r r r 0 0 0 8 ; & & = = & & & & o @ cXHXbXZXBXBXBXBXBXBXBXBXZXZXZXnXZXZXmXmXgXbXVXVXbXbXnXnXnXbXNXbXVXVX8X9X9X8XrXrXrXrXyXyXyXyXyXyXyXyXyXyXyXyXyXyXuXyXyXyXyXyXsXnXBXZXZXZXNXDXAXcX@.  . X .   . O . . o o     X + . p 0XJXCXDXZXZXZXZXZXZXZXZXNXNXSXKXxX%X1X1X;X<X;X,X,X,X<X-X(.(.(.(.`..X.X`./.~.^.^.(.~.Q.R.I.U.U.U.R.R.R.U.R.U.U.U.R.U.U.I.P.!.1.,.-.C 1 e 4 2 2 4 e U ..I e 8 8 3 Z I -.I Z A C < $ > < > > > > * * > 1 9 9 C C 9 4 < * * * * * * * * * * * < > * 3 > $ A -.=.' ` R ' >.T R R R R R R R R R R R R R R R R ",
"E E E E E E E E E E E E E E E E ' ` R R R R ' ` Y.3.' I -.< & * % * 1 9 9 3 3 9 > 3 ,.E.5.,.L >.H.1.,.J.4.K.E.F % $ > > 1 < > > > > < * $ * > * Z Z 3 > 1 1 1 Z < Z 6.).4.5 % > 6 > , , , , , , > > > < < < < < 7.7.P.).!.U./.`.`.`.^.~.~.`.`.`..X X(.XX<X<X<X<X2X<XlX<X7.o o %XLXcXGXNXmXmXgXgXZXFXp   r e o +XLXSXDXDXBXnXqX7XyX9XyXqXyXnXCXBXNXnXdXyXyXyXyXyXuXeXyXaXaXcXsX9XgXZXCXZXNXBXBXZXZXZXSXJXwXX   X X X s ( f k.k.d s d s s d s d = 6.-X|.|.0.6 o 7.0.0.0.0.oX|.|.2XIXxXPXxX+   X O 8 Y _ 0.|.|.0.|.LXPX:.y : + ~ 8.O ~ @Xv.@X@X&XSXaX0XaXVXVXbXVXNXbXBXBXBXBXCXZXZXBXBXMXMXBXBXBXBXDXBXBXBXmXnXmXDXNXDXDXHXHXHXHXKXLX3X. . & ; Z ; * 1 1 , 0 0 = O O r.vXLXJXHXFXFXHXFXSXNXsXBXMXDXMXZXBXBXBXBXBXBXBXBXBXBXNXNXSXNXBXBXBXBXBXBXBXBXMXMXCXmXZXnXFXcX  O + i u y y o.O.o...o...H t r 0 r 0 8 8 9 8 ; & * = = & & * & o + cXFXbXZXBXZXBXBXBXBXBXBXZXZXZXmXFXFXFXHXHXHXHXHXHXHXHXHXHXHXJXHXJXHXcXDXsX9XyXyXyXyXyXyXyXyXyXyXyXyXyXyXyXyXyXuXyXyXyXyXyXdXnXmXnXDXCXmXFXHXJXKXq.  o & ; & & - o o - o   :   X   a wXHXSXDXZXZXZXZXZXZXZXZXbXZXHXLXIX%X-X;X;X<X;X<X<X,X<X>X(.(. X X.X.X`.~.].].`..X`.!.U.I.I.U.U.W.W.W.E.R.R.U.U.W.R.R.R.U.R.R.1.5.6.C 1 C C 4 5 3 1 A -.^ 4 e 8 3 Z ..-._ C A M < * < > > * > > * * < 9 Z M C Z C 4 > * * > * * * * * * * * < > $ $ % % C -.' T T T T ' T E R R R R R R R R R R R R R R R ",
"E E E E E E E E E E E E E E E E R ' E R R R T ` 3.=.P P -.< % * $ $ 1 4 9 4 4 4 3 C -.-.,.J.=.4.2.,.>.J.,.-.1.J > 1 1 > > > < 1 < > > * * < 3 1 M Z 9 > 1 < < Z Z A -.6.-.Z m N m M M Z Z N M M M M M M 9 9 9 8 -.-.1.Q.~./.~.^./.~.~.~.`..X.X.X.X.X(.XX,X,X<X2X,X;X<XlX).6 % _.PXwXSXZXmXZXFXDXFXJXi o H t o {.LXSXSXDXDXNXsXcXaX9XyXyXyXsXmXsXBXmXdXyXyXyXyXyXrXeXqXaX0XaXdX9XiXmXZXBXZXDXBXBXnXZXNXSXwXz z } + . # # s z.k.f f s s s d s s q ~ 7._ U.0.Y Y 0.7.7.0.0.oXoX|.2XPXzXxX3X} w t t _ |.|.|.|.|.|.oXPXIX_ : _ ..%X1X. O #   X X p 0XSXnXdXyX8X8X0XyXdXBXCXBXBXBXmXZXZXZXNXNXBXBXBXBXNXCXZXnXNXCXZXnXZXMXnXmXiXNXNXSXFX5X| ..u o 8 : 8 1 , 1 0 O o w   r.KXJXNXgXmXDXmXCXNXFXmXMXhXMXZXZXBXBXBXBXBXBXBXBXBXBXNXNXNXNXBXBXBXBXBXBXBXBXCXMXCXMXZXbXFXbX| O.: w i y t ~ ..} } } ~ u r r ; 1 ; ; ; 8 1 ; = * * * = = * & o O cXHXbXZXBXZXBXBXBXBXBXBXBXBXVXDXHXqX5X0XxXvXxXxXxXxXxXxXxXxXxXxXxXwX3X=X=XVXaXyXyXyXyXyXyXyXyXyXyXyXyXyXyXyXyXuXyXyXuXuXsXmXBXZXhXZXnXZXFX=XwXxX8.7 8 * * $ 1 8 - ; y + H 4X3X3X*X=XNXDXNXNXZXZXZXZXZXZXZXZXDXSXbXAXxX%X,X,X>X,X;X<X,X-X-X-X(. X X X X X`.^.].].~.~./.W.I.I.U.U.U.U.R.R.E.R.U.T.U.U.R.U.I.P.E.K.` 1.1.Z 3 Z A r 2 4 < Z -.I 4 e 8 1 e I -.U C Z M 4 9 3 * * > , > * * > 9 Z C 9 4 4 1 > * > > * * * * * * * * $ < * 1 4 4 A ' ` P ' ' T ' R E R R R R R R R R R R R R R R R ",
"E E E E E E E E E E E E E E E E R R ' ' R T T T P P P ` -.1 % * * * > 3 9 9 9 3 3 1 3 % M 4.,.1.J.4.>.5.P $ > > , 1 1 < > < > * > * > > < 9 Z M M S 9 < 1 > > Z -.K 4 > , m M 3 M M N S S Z N M M C Z Z Z Z C e C A 1.!.!.Q.W.I.Y.U.W.~.`..X.X`..X.X`..X-XXXXX,X<X2X1XlX).$ o ;._.&.qXHXFXDXSXSXFXJXi . r 8 . v.JXSXSXZXDXDXCXFXaXqXyXyX7XyXyX7XBXMXsXyX7X7XyXyXpXeXuXcXaXaXdXyXiXnXmXmXCXDXBXNXmXCXCXbXFXbXLXPX+ X O O d ( h k.f s s s s s ! q = & o :.0.6.0._ 7.7.0.0.:X2X|.2XzXUXUXzX3XzXzXzXlX2X,X,X|.0._.oXPXLX|.{ 2XIXPX%X= q g d g X # cX=X5XcXAXVXcXaXqXyXmXDXBXBXBXMXZXZXmXNXNXBXBXBXBXZXnXZXDXmXmXCXmXZXhXhXCXnXCXmXnXNXHXGXLX+XO 7 7 8 2 ; 8 7 O O.IXwXcXFXSXbXZXCXhXMXZXhXZXmXCXMXMXZXZXZXZXZXZXBXBXBXBXBXBXBXNXNXNXBXBXBXBXBXBXBXBXCXMXCXZXCXnXDXSXLXvX~ : u y u y w w p p u q q q O = O O = ; ; = = - * * = * * * o O xXHXnXZXBXZXBXBXBXZXBXBXBXZXSXFXbX*.X                         . . .   . a 5XaXaXyXyXyXyXyXyXyXyXuXyXuXyXuXyXyXyXyXyXdXsXnXBXmXFXmXCXbXFXVXg   a . o 8 * 1 9 < 2 & & O   | LXJXHXJXFXDXNXDXmXZXZXZXZXZXZXZXZXFX0X@XB.%X%X<X-X,X,X;X,X-X(.(. X X.X.X(.^.^.`. X~./.T.I.I.Y.I.W.W.U.U.I.I.I.R.R.R.U.U.U.R.R.U.I.2.P.5.E.K.C 3 F A e 4 e 1 e ..I Z S C 1 4 I -.U Z A Z S F C < * , , > * * > 3 Z C 1 * * $ $ * > * * * * > > * * < $ 5 C I 1.7.,.T ' =.5.2.R E T R R R R R R R R R R R R R R R R ",
"R R R R E E E R R R E E E R R R ` ` ` ` ` ` ` ` T T L -.-.1 % < * * 1 3 4 9 9 9 3 9 9 % C 4.,.-.,.,.-.4.L % > 1 > , , > > < < < > , > $ 1 9 4 C C Z 4 < 1 * * M -.U 9 < 3 9 M 9 9 9 M N N M Z S Z M F Z M Z Z Z 4 Z 5.P.I.~.Q.Q.R.!.(.^.(..X X.X'..X.X.X'.(.-X<X,X<X<X2X.X% % 7.t.+XGXHXNXFXFXFXHXJXp + H u + +XJXSXSXSXNXDXFXCXqX9XqXyXyXyX9XyXCXBXsX7X7XrX9XrXrXpXyXyXdXaXyXyXyXyXyXmXDXZXCXNXDXBXMXmXnXVXSXAX+ . = q X q ) ( ( ( ( f d s s q q 0 = t.E.7.5.] 7.{ 0./.{ Y 7.%X3XzXzXzXzXUXIXzXzXzXlXlXOX|.|.oXPXPXzX{ |.xXIX%XO d ( f s ) d X X # w.5X=XSXcX0XdXyXpXmXBXBXBXBXBXNXZXCXNXZXCXNXBXBXBXBXBXBXBXMXMXMXMXMXMXBXNXNXNXVXKXKXB.X   o o o H o O   } LXFXFXDXZXZXZXZXNXBXBXBXBXBXBXBXBXBXBXBXBXBXZXBXBXBXBXBXBXBXBXBXBXBXmXNXZXNXBXCXNXCXBXBXCXCXBXMXZXFXKXw # u u 7 g d d d d s d d d d d d d d d q q O = = = = & * - o + vXFXZXNXNXNXBXBXZXZXZXZXZXZXNXFXNX*.    X     + & & ; o ; - 1 ; % 7 7   | JXcX8XdXpX7XuXsX7XsXrXeX7XsXuXdXaXdXiX8XdXgXMXFXCXnXFXnXNXVXHXJXa . + : ; 1 1 < 1 * e o O u @  .bXNXBXBXBXBXBXZXZXZXNXBXCXCXBXNXDXHXGX%X|.%X:X;X;X,X>X;X<X>X X.X.X.X X X(.(.(.(.`.`.W.W.^.W.Y.I.W.W.W.R.R.R.R.R.R.R.W.W.U.I.R.I.I.2.5.P.!.E.S > Z Z Z S Z 9 Z U I C A S * $ I -.F 1 S Z Z A M * * , * * * * * 9 Z 9 4 * * * > * * > * < * * < * * * 6 4 U I -.K.1.' E 1.P.5.' T T R R R R R R R R R R R R R R R R ",
"R R R R E R R R R R E R E R R R ` ` ` ` ` ` ` ` T T L =.-.3 % * $ * > 1 1 4 4 4 9 M 9 $ S 6.1.,.P -.1.K.I $ $ $ , , , , * * - - * * * * 1 Z C S Z A 9 < 1 < * 9 Z M 1 * 3 M 9 9 Z Z Z Z Z Z Z S A S F Z Z A 9 9 9 C L I 2.~.Q.Q.!./.!.~./.!. X`..X.X.X.X'.'.-X<X<X<X;X2X(.% % 7._.%XAXJXFXHXFXKXGXLX} . 7 : . v.JXSXSXSXNXDXFXBXqX9X7XqXyXyXyXyXsXgXsXsXgXiX9X9X9XyXyXyXyXyXyXaXaXyXyXnXZXNXCXCXCXBXCXMXmXnXbXAXX . o = = O = q ( k.k.f d s s d q q = X.;.6.-X>X^.7.3./.{ $ { 2XIXIXIXzXzXUXUXzXIX2X0.0.|.oX|.oXPXPXzX{ :XIXIX4XX d ( f d s d # s q X X # wXVXcXuXyXpXnXBXCXCXCXCXBXZXZXNXBXCXBXBXBXBXBXBXBXBXBXBXBXBXBXBXBXNXNXFXDXSXSX#Xz i i ..o o   | g @.cXCXZXZXZXBXBXBXBXBXBXBXBXBXBXBXBXBXBXBXBXBXBXBXBXBXBXBXBXBXBXBXBXCXBXZXCXNXBXZXNXZXBXBXBXBXMXMXZXbXSXg q g g q g z.z.z.k.z.k.k.( ( ( ( k.( ( ! g q q q q q ; = & o @ vXFXZXmXmXBXBXBXZXZXZXZXZXZXZXDXVX&X .| O.O.i . ; 2 1 < M 1 < 4 < ; = o @.KXSXdX8X8XuXyX7XyX8XyXVXaXuXeXdXaXqXiXqXdXiXgXCXFXDXZXnXHXDXcXAXO.o : : ; 1 1 < < & ; o t.PXcXqXFXMXMXMXBXBXBXZXZXZXBXBXBXBXCXDXFXJXPX2X:X,X<X,X;X>X>X;X,X;X(.`..X X.X'.'.`.`.(.(././.^.]./.U.U.I.T.U.U.U.R.R.W.R.I.R.R.I.I.W.R.I.W.Q.Q.E.1.S < e Y Z C S C 9 Z Z Z A S 4 3 I 7.I 1 S Z Z F 9 * * * * * * * * 9 M 9 1 * * * > * * > * > * * < * * % $ 4 I ` =.,.T T P ' ,.=.T R ' R R R R R R R R R R R R R R R R ",
"R R R R R R R R R R R R R R R R ` ` ` ` ` ` ` ` P T P ` -.S m 9 $ * * < < < 1 1 < 1 , % C 1.,.,.-.L 5 5 > % 1 , , , , , > > < < * * * * 4 A Z A Z S 9 < 1 9 9 9 9 C 9 9 Z S C Z M M 9 M M M M C M C C C U U A A A Z 4 3 -.!.Q.!.^././.(./.R.XX.X.X.X.X.X`.'.-X,X<X,X,XlX'.% $ 1.0.t.xXJXGXSXGXGXLXLX..  ~ q.| *XKXSXSXSXNXCXDXBXnXnXdX9XyXyX7XyX7X9XsXBXDXgX9X9XrXyXyXyXyXyXyXyXaXyXyXnXDXZXCXZXNXBXCXCXZXnXbXcX#X*XO.: 0 ; = q s ( ( f ( s d d d q q 0 1 Z -.6.-.7.7./.U.{ 0.0.|.:XzX3XzXzXzXIXzX2X_ _ U.OX|.2XIXPX2X_ oXIXzX%XO d f f f f h ( ( s q + g cXDX7XdXyXyXdXgXgXgXgXnXnXmXBXBXBXBXBXBXBXBXBXBXBXBXBXNXNXBXBXBXBXBXNXnXmXNXFXFXAXKXLXvX~ . p vXKXbXHXVXNXNXNXBXBXZXZXBXBXBXBXBXBXBXBXBXZXBXBXBXBXBXBXZXBXBXBXBXBXBXBXZXZXZXZXBXBXBXBXBXBXBXmXnXmXmXnXiXFXh h k.k.h z.x.x.x.x.x.k.k.k.h i.k.k.( h f s s ! ) ) ) s q q O @ cXFXZXMXZXZXBXMXZXZXZXZXZXZXNXNXFXHXSXFXKXLXv.. 7 : ; * 1 < * 3 2 ; & O i v.V.cXqX7XsXyX7XyXdXcXSXbXdX8XyXyX8XgXFXFXFXZXNXbXDXbXdXFX&Xa i . O ; 1 * < 1 < - & o   8.LXJXVXhXMXMXMXMXBXBXZXZXZXDXDXBXNXFXFXSXLXPX2X-X-X-X;X,X>X>X;X,X-X(.`.`.`.'. X X'.^.~.!.W.~.`.~.U.U.I.Y.I.I.U.U.W.W.W.W.U.R.U.I.I.U.I.I.J.P.P.5.5.,.-.1.Y 9 4 Z S C e C 1 4 A U U ^ -.-.4 A A Z F M * * , * * , * > 9 M 9 1 * * * * * * > * < * * > * < Z C J ` R ' =.P ' T E ' I P ' ' R R R R R R R R R R R R R R R R ",
"R R R R R R R R R R R R R R R R ` ` ` ` ` ` ` ` T ` L P ` L I I $ * * * * * < < , , , * F 6.4.1.,.K % % $ > 1 $ , , , , > > < < * $ * * 4 A S A 9 Z 4 * < 9 r 9 9 Z Z Z S Z M S M 9 9 9 M 4 4 m 3 M M C I I U U I S C C -.E.Q.!.Q.~.!..X(.Q..X`..X'.'..X`.`.XX>X<X,X<XlX'.% $ ' E.0.3XLXLXLXLXLXLXIX}   +XLXPXJXFXSXSXDXNXBXZXBXDXFXnXyXyXqX7X9X7X7XsXBXCXnXiXiXiXiXyXyXyXyXyXyXyXyXyXBXDXZXZXBXNXBXBXCXBXmXnXcXHXLXe.  . O 0 = # q s ( k.f d d d q q 0 = = = % $ 0.U.R.oXOX/.% . 7.IXxXzXzXzXzXzXzX7.7./.:X|.oXLXLX2X_ oXIXxX+XO s f f h y.f f h d #   p 0XVXyXsXpXyXyXyXyX9X9XyXiXnXCXCXBXBXBXBXBXBXBXBXBXBXBXBXNXBXBXBXBXBXBXZXDXnXmXSXSXHXKXPXp   X cXJXSXVXNXmXmXNXBXBXBXZXBXBXBXBXBXBXBXBXBXZXBXBXBXBXBXZXZXZXBXBXBXBXBXBXZXZXZXZXZXCXCXBXCXCXBXnXnXVXnXsXsXFX( h k.k.p.c.M.M.M.x.x.p.p.i.h f y.y.h h f s f f ! ( ! s d q O @ vXFXZXMXZXZXMXMXZXZXZXZXZXZXCXnXbXbXbXbXcXKX&.    . ; 1 4 1 ; ; ; ; ; O o X p vXSXaX7X7XyXaX0X#X&X8XnXrXuXsXmXiXwX3XDXZXGXFXFXSXKXJX#X  O & * 1 1 > < < < & O y   | vXFXnXnXMXMXMXMXBXBXBXZXNXDXDXDXNXFXFXxX3XUX:X:X,X,X>X>X>X,X;X>X-X(.`.`.'..X.X X(.~.W.R.^.`.^.R.Y.I.T.I.I.U.U.W.W.W.W.W.W.W.R.I.I.I.Y.J.4.J.5.5.K.P.P.R.U Z Z Z S A S A 8 4 Y -.-.F A F e F F A F C * * < * , < * < 9 9 4 1 > * * * * * * * < * * > * 1 7.-.' ' T R =.R T R ' T T T T T R R R R R R R R R R R R R R R R ",
"E E R R R R R R E E R R R E E E E E E E ` ` ` ` T ' T T T T -.R * * * * * * * * , , < < S -.-.R C C 5 5 1 > * % , , , , > > > > > * 1 1 9 A Z Z 9 Z 3 * < 9 9 8 8 C M 9 C M M J ,.,.-.-.-.R R T ' -.=.-.1.7.-.-.Y C Z S S K I I 1.!.!.). X^..X.X.X'.`..X.X`.XX;X<X>X<X<X/.6 5 L E.7.%XUXUX3X3XxX_...:   w.PXKXFXFXSXDXDXNXNXCXBXDXDXnX9XyXyX9XaXyXyXdXsXgXnXnXmXiXyXrXrXrXyXyXyXyXyXyXmXBXnXBXZXBXZXBXBXBXBXmXVXNXSXe.@ u & 1 * q q d ( ( f s s d q u q 0 0 ; = - E.I.U.|.|.U.V : _.IXUXzXxXzXzXIXzX_ _ 0.|._.2XPXPXlX{ oXzXzX2XO d f f k.l.l.k.k.f # . p 5XnXsXuXyXyXyXyXyXyXyXrXiXnXBXCXBXMXBXBXBXBXBXBXBXBXBXBXBXBXBXBXBXBXBXhXmXgXgXNXNXSXSX3Xp X a 0XFXNXmXZXZXZXNXBXBXBXBXBXBXBXBXBXBXBXBXBXZXZXZXBXBXBXBXBXBXBXBXBXBXBXBXZXZXNXNXMXMXMXMXMXMXMXhXgXhXnXsXgXDXh f i.p.p.x.M.M.M.d.p.p.p.i.h h ( ( ( ( ( ! ( ( ( ( ( ) s u O @ cXFXmXMXZXmXMXMXMXMXBXBXMXZXZXZXCXmXmXnXbXFXx @ w p O & 3 < 8 - * < 1 8 O   | vXcXVXyX7XyXbX#X@ X b.uXeXeXeXdXC.# @ 8XFXFXbXKXKXKXPX@X. : ; < < < * * ; - o i *X#X*XSXNXNXDXMXMXMXMXBXBXBXBXNXDXCXDXCXKXKX3X+X2X%X,X,X,X>X;X>X,X-X-XXX(.`.`.'..X.X.X(.~.Q.R.XX'.!.R.I.I.U.R.I.I.I.U.U.W.W.W.W.W.R.U.I.I.Y.H.I.Y.5.J.J.5.2.5.>.=.` S C Y A Y Z 4 F -.-.Z 9 A C F A A F 9 * > < * * < * > 1 4 1 < * * * * * * * * < * * * * 3 ,.' =.' R ' ' T P T R T R ' R T R R R R R R R R R R R R R R R R ",
"R E R R E R R R R E E R R E R E E E E E ` ` ` ` ' ,.>.-.=.R ' I * * * * * * * * * * * * < 9 4 1 % * * $ $ * , 9 , , , , > > > > < > 9 9 M F S Z 4 9 1 * 1 r Z 9 C Z 9 3 M 4 m K Q.E.E.E.E.P.P.P.!.!.R.R.E.P.5.7.A Z U U C M S S 6.).(.~.(.(.^..X.X.X.XXX.X.XXX>X,X>X<X<X.X<.Y.R.% o % - : & O : . : $X+X3XKXFXSXSXZXDXDXNXNXBXMXNXBXsX7XyXyX9XaXyXyXyX9X9XnXDXDXyX9XrXrX9XyXyXyXyXyXqXdXsXiXmXDXBXZXNXmXBXBXBXCXnXVX0XwXxXw o 1 ; O q q d s ( ( d q q q q 0 q 0 1 6.6.0.|.0.U.|._.0._ : %XzXzXzXIXzX7.7.7.Y Y 7.0.oXOX3.0.0.|.%X# d f y.f f f f j n.5X=X=XnXsX7XyXyXyXyXyXpXdXpXyXiXdXsXgXsXsXmXBXBXBXBXBXBXBXBXBXBXBXBXBXBXBXBXZXZXZXZXZXnXVXSXJXcXbX0XHXNXmXZXZXZXZXZXBXBXNXNXBXBXBXBXBXBXBXBXBXZXZXZXBXBXBXBXBXBXBXBXBXBXBXBXNXNXnXgXsXiXtXiXtXtXiXiXiXpXsXpXgXFXh h k.p.p.x.M.M.M.x.x.i.i.f d d d d d d d d d d d d d d q q O X xXFXNXmXZXmXMXMXMXMXmXMXMXZXgXZXCXgXgXhXgXbXVXcXKXxX: O 8 3 3 - 1 1 > < ; : . p a 5XcX7X8XSX*X  . V.BXsXeX0XHXV..   qXHXbX*.a w y i u o 8 * > > > * * ; * o | KXJXAXFXnXhXmXMXMXMXMXBXBXBXBXDXDXNXDXSXHXKX3X%X2X:X;X-X;X-X>X;X,X.X(. X^.^.^.`.`..X.X'.(.^.~..X~.I.I.W.I.Y.U.R.R.R.R.R.R.W.R.R.R.R.U.U.U.Y.J.Y.4.5.Y.P.5.2.2.5.P.5.A m K Y Y 4 1 A -.-.A C F Z F A Z F 9 * < > * * * * * < < < < * * * * * * * * > * > * $ 9 -.I R T P R T T >.-.' T R ' R R R R R R R R R R R R R R R R R R ",
"R R R R E E E R R R R R R R R R E E E E E E E E ' 1.1.1.=.R ' T $ * * < , , * * < ; * * * * > * * < * * < , * , , , , , > > > > > > C Z Z F S Z < 1 1 < 0 Z Z 9 9 Z 4 3 C 4 m L P.K.5.K.P.P.P.P.R.I.J.I.P.P.P.,.6 m Z C 4 9 S A E.Q..X).~.!.I.~.`.`..XXX.X.XXX>X-X;X<X<X,X-XlX-X$ < 3 5 8 e 8 t   w LXLXKXHXSXNXZXNXDXDXNXNXZXmXNXDXsX7X9XyX7XyXyXyXyX7X7XsXBXBXiXiXiXiX9X9XyXyXyXyXqXyXyXqXVXDXBXZXBXNXBXBXBXCXnXDXFXJXLX7   O o O O X X d ( ( d d d q 0 q q q ; :.6.0.|.|./.|.:X0.. o %XzXzXzX3X2XoX:X|.5 5 V 6 { T.0.0._ t X.X q f k.k.( f # X b.LXFXcXsXrXrXyXuXuXyXyXyXyXyXyXyXyXyXyX7XrXhXBXBXBXBXBXBXBXBXBXBXBXBXBXBXBXBXmXhXmXZXNXZXSXFXDXNXHXNXFXbXmXCXZXBXBXBXNXNXNXNXBXBXBXBXBXBXBXBXBXZXZXZXBXBXBXBXBXBXBXBXBXBXBXBXNXNXgXyXrX7X8XrX8X8XrXtXyXyXyXyXbXKX( h k.k.k.x.M.M.M.x.x.i.z.j # # # # O X O O = = = = = = = O O . xXHXSXSXFXZXZXZXMXMXBXMXMXMXFXDXCXiX8XiXhXmXbXSXLXxX  7 & - - < 4 3 > * * - = .   xXHXSXcXKX*X. . @XAXcXAXAXKX#X@ + vXLXKXg . o o o : o 3 % < - - - - ; ; o w AXKXdXCXmXCXCXMXMXBXBXMXBXBXZXCXZXNXFXSXKXLXlX|.<X;X<X<X<X;X>X;X,X(.!.(.(.(.^.`.`.`.`.`.`.`.`.~.Q.I.I.Q.R.I.R.Q.Q.Q.Q.Q.Q.Q.E.E.R.R.I.R.R.I.J.Y.J.J.P.I.J.5.2.4.P.P.J C I Y L 9 M U -.-.A 3 9 A Y A S F 9 < 4 < * * > * * * * > * * * * * * * * * > * > * $ 9 ,.E R L L R R ` J.2.' R ` R T ` R R R R R R R R R R R R R R R R ",
"R R R R E E R R R R R R R R R R E E E E E E E E T =.>.>.' T ' ' $ * * < < ; * * < , , , * * 1 1 * * * * , > * < , , , , > > > > > > C S C A Z Z 1 1 0 1 0 9 Z 9 9 S C Z K K L ,.P.K.5.J.P.P.P.P.J.1.>.J.P.U.Q.7.P 7.` A A U U U 7.-.!.).!.).Q..X^.`.`..X`.`..X-XXX-X,X>X-X,XlXQ.% 4 C 4 S F e u ~ p KXAXSXFXZXZXNXNXZXZXNXmXZXmXNXDXnX7XyXyXqXyXyXyXyXyXyXdXnXnXmXgXgXpX9X9XyX9XyXyXyXaXyX7XnXDXmXBXBXBXDXCXMXMXmXCXqX0XSXp + + a 7 + X O d ! ( d # q q d q 0 q - 6.E.5.oX:X|.|._.0.Y _ |.|.2X3XzXzXlX2X|.V { ] _ 0.Y.Y.,XE.8 O d d f h f ( ( # # w.cXqXyXrX7XiXyXuXpXyXyXyXyXyXyXpXyXyXpXrXyXhXBXBXBXBXBXBXBXBXBXBXBXBXBXBXBXBXCXMXCXZXnXZXDXDXDXbXFXiXFXmXCXmXNXNXNXBXNXNXNXNXBXBXBXBXBXBXBXBXBXZXZXZXBXBXBXBXBXBXBXBXBXBXBXBXCXBXnXiXiXyXrXuXyXyXyXdXcXaXqXcXcXKX/ d h h h ( k.i.i.k.k.h ( d # O = = = = = ; ; ; ; = = = = = o . vXJXFXHXHXFXZXZXZXMXBXBXMXMXgXiXmXMXhXMXmXmXBXSXSXwXp {.7 & ; ; < < 1 3 1 , ; : X *X5XwX5XvX%X.   | e.%.&.@.v.O.  o 3XxXLX~ o e e ; 8 & e < 1 < 1 1 ; 8 1 o p SXHXgXDXmXMXhXBXBXBXMXBXCXZXZXBXZXZXFXGXKXLXlX-X<X;X<X:X,X>X,X>X,X(.!.(.'.`.(.`.`.(.^.^.^.(.(.~.~.Q.R.!.!.!.(.!.!.!.!.!.Q.Q.Q.Q.R.E.E.R.R.P.5.J.J.J.Y.J.J.2.>.1.K.P.K S I Y K Z Z F I U Z 9 e Y U F A U Z 1 Z 1 * > < * * * * * * * * * * * * * * > * > * $ 9 -.T ' T T ' R ' H.1.` T R R T ` R R R R R R R R R R R R R R R R ",
"R R R R R R R R R R R R R R R R E E E ` ` ` ' ' ' R ` ' ' ` ` T $ * * < , * = * , * , * * * * > * , , , * * > > > 1 > * , , > , $ < M S S S F F 1 1 3 1 1 M Z 1 < 3 C J ,.E.E.K.J.2.2.2.P.1.P.E.P.=.>.>.2.2.1.R.).!.Q.1.5.6.4 C K 4 -.).). X'.(..X~.W.~.`.XX].I.T.XX,X,XXX>X<X!.6 4 C 5 4 : : xXLXAXSXGXDXNXZXmXBXBXBXBXZXZXNXNXDXZXNXZXCXiX7XyXyXyXyXyXyX9XqX7XmXCXCXsX8X7XyXyXdXyXrXyXyXyXuXyXhXMXMXMXMXBXBXBXnXCXBXbXbXSXKXHXJXLXq.  = q ! s f ( ( d q q q 0 - Y _ L S V U.oX|.|.0.|.2 : y p p 0.3X2X2XzXlXlX2X2XoX|.t.:.0 # ( f f f d # g LXAXvXcXaXyXtXrXrXyXyXyXyXyXyXuXuXuXuXuXyXyXyXyXyXyXyXyXyXyXyXyXyXyXyXsXBXBXmXBXBXBXCXCXZXBXBXBXNXBXNXBXBXNXBXBXBXBXBXBXBXNXNXNXNXCXnXBXDXBXBXBXBXBXBXBXBXBXBXBXBXdXdXiXiXiXiXyXyXpXyXgXrXuXyXaXdXaX0XSXV.# a a a w w + O O # q q d d d q q q q q u G G G G G G G H H ~ ~ H H U G G 7 u g p g a =XDXNXbXFXZXZXCXCXgX9XyXmXMXmXmXMXmXnXFXAXJXLX~ . 7 O O ; % 4 $ 1 3 ; O O . . O O O : O O   X X X . X O & O O = 8 & ; - - 2 ; - - 8 - o o o & o o @ AXHXnXZXgXCXMXBXMXMXMXMXBXBXBXmXCXZXFXxX+X4X1X:X<X<X:X;X<X<X>X<X;X.X).^.^.(.`.`.`.^./.~.`.`.(.!.!.R.~.K.P I P K K K A A A A A A 9 A m A 1.2.1.5.,.5.E.5.2.K.4.5.P.5.-.-.I S 4 9 C C 1 < A U Z Z S Z Z Z e 8 8 1 - * * - < 9 Z < * * * * * * * * * * * < * % M ,.' T T T R ' ` R R R R R R R R R R R R R R R R R R R R R R R R ",
"R R R R R R R R R R R R R R R R E E E ` ` ` ` ' ' ' ' ` R ` ' ' < < > * , * = * , , * * * * * > * * * * * * * * * , > > 1 , > , > 3 M S Z C Z Z 9 1 9 9 M C M 3 C S J L =.4.5.2.1.>.2.1.2.5.(.!.Q.-.T J J K ` P.Q.R.Q.5.P.1.4 A I 4 I E.)..X.X'.`.~.W.~.`..X`.T.W..X-X,X>X>X>XP.o % 6 % % o o 3XKXAXFXSXDXNXZXZXBXMXBXBXBXZXZXZXZXZXNXCXCXsX7XdXyXyXyXyXyXyXyXyXBXBXmXdX9X9XyX9XyX7XyXyXyXyXyXyXhXMXCXCXMXBXBXBXmXBXBXBXDXFXDXNXFXJXw.  = = q # ( ( ( d q q , * & Y U Y S V |.oXoX/.7.|.2 o X .   } 3XzX2XzXlXlXxX:X_._.H o X ! h f h f # X a SXSXbXaXyXyXtXyXiXyXyXyXyXyXyXuXuXuXuXuXyXyXyXyXyXyXyXyXyXyXyXyXyXdXyXnXBXBXBXBXBXBXBXCXBXBXZXZXZXBXBXBXBXNXBXBXBXBXBXBXBXNXNXNXNXCXNXBXCXBXCXDXDXCXCXCXCXCXDXDXDXdXdXiXiXiXiXyXyXyX8XsXsXsXdXDXSXKXKXJX@X+ + + + + w 8 r G ~ ..^ ..^ ^ / ~ ~ ....~ ~ ^ ^ ^ ^ ^ ^ ..^ ^ ..^ ^ U G ^ u O       X 3XJXFXNXDXnXDXBXyXgXyXiXMXCXMXMXMXMXnXNXVXKXKXz   X . . : - 1 - 9 < - ; & & & = ; = ; O # # # X q # # O O o & = ; 1 ; - - 2 - - 2 % o t y + 7 O X a 0XDXVXDXmXCXCXBXMXMXMXMXBXBXBXZXCXNXFXxX+X:X:X:X<X<X;X;X<X,X;X>X-X X^.^.(.`.`.`.~.~.!.!.!./.!.W.~.!.(.5.S m 3 Z C C e 9 9 4 4 C 5 Z C A -.` I 6.=.-.5.K.2.1.4.5.5.,.5.E.A $ Y U F Z 9 4 F U S F U F 8 3 e e 8 1 - * * * - 4 Z 1 * * * * * * * * * * * < * % 9 -.I I R T R ' R R R R R R R R R R R R R R R R R R R R R R R R R ",
"` R R R R ` R R R R R R R R R R E E E ` ` ` ` ' ' ' ' R T ` ' T $ * * * , , * * * * * * * * * * * * * * * * * * > > > > , > , < 3 m C C M 9 9 9 9 3 9 Z M 9 M A R R -.=.,.,.1.2.2.>.J.P.5.K.).1.V 5 I ,.>.,.' 1.J.5.R.E.!.1.4 S U 5 Y 5.).).!.R.`.~.~.~.]..X X~.~..XXX<X>X>X<X XE.Q.!.R._._.t.PXKXbXFXDXDXNXBXBXMXMXMXMXMXMXNXNXZXZXNXZXBXdX7XyXyXyXyXyXyXyXyXyXsXiXdXnXhXgXiX7X9X7XyXyXyXeXyXeXpXmXCXCXBXMXBXBXCXBXmXBXCXMXhXnXgXbXq.  O O = q ( ( ( d d q q = o Z _ { _ Y R.|.oXU.0.oX2 O p @.w.g i w : 2 : 7 7 + @ 7 q q q s f f f d g  .w.cXaXyXyXyXyXyXyXpXyXyXyXyXyXyXyXyXuXuXuXyXyXyXyXyXyXyXyXyXyXyXyXyXyXyXdXnXnXnXmXmXBXBXBXBXBXBXBXBXBXBXBXBXNXBXNXNXBXBXBXBXZXZXZXZXZXZXZXZXmXnXmXmXnXnXnXnXmXmXmXmXdXiXiXiXyXyXyXyXsXyXsXeXaXVXcXw.v.+X#X8.y i H u ....U ^ ..H H H H D D t y y e y r y r u t t D D Z 9 N Z N Z Z Z 0 u 7 7 y w + +X3X#X=XDXVXNXdXrXgXiXgXCXCXmXmXMXMXMXNXNXbXSX#Xe.@Xw.7 + 2 - $ % - ; ; 1 ; 1 1 1 = = q ( n.#.# ( n.#.g O 7 ; , > 3 2 2 3 4 4 < - 8 : 3XLXvXKXJXGX5XFXFXnXZXmXmXBXBXBXMXMXMXZXZXBXmXDXNXJXIX%X2X2X;X,X<X;X:X1X;X-X.X X(.^.(.(.`.`.`.].~.`.^.Q.Q.!.Q.).J.1.=.L P P Y Y F A A Z Z Z A C S Z Z Y Y I -.-.-.1.5.1.-.1.1.5.,.1.E.-.S -.-.U Z 9 4 A U F Y I Y 3 1 e Z 9 1 1 < * * - 8 Z 1 > * * * * * * * * * * > * % 9 -.I I R T R ' T R R R R R R R R R R R R R R R R R R R R R R R R ",
"` R R R R ` R R R R R R E R R R E E E ` ` ` ` ' ' R ` ' ' ' ` K % > * $ > < * * * * * * * * * * * * , , , , > > > > > * * > , 1 4 C Z M 9 4 3 9 M 9 S Z 3 5 A -.,.,.,.4.1.1.4.J.4.[ 2.P.I.K.E.I % $ -.E.E.E.5.5.P.P.Q./.).1.< 6 K 4 I E.-X(.).Q.~.~.].`.`. X`.^.`..X>X<X>X>X<X<XlXlXlXlXlX2X1XLXLXbXFXVXnXmXBXmXBXMXMXMXMXBXBXNXNXNXNXBXmXiX7X9XyXyXyXyXyXyXyXyX7X7XdXBXDXBXsX7XyX9XrXyXyXeXyXeXrXsXmXBXBXBXBXBXDXBXBXMXmXhXhXCXnXFXB.  O & = q ! ( ( d d q q = o S _ _ _ V 7.0.|.|.oX:Xa   | 0XSXw.X   O O O O g 5X5X/ q / d f ( h # X v.KXSXdXeXeXrXuXpXyXyXyXyXyXyXyXyXyXyXyXuXuXyXyXyXyXyXyXyXyXyXyXyXyXyXyXdXyXyXyXyXyXsXmXCXDXCXBXBXBXBXMXBXBXBXBXBXBXBXNXBXBXBXBXZXZXZXZXNXZXCXZXnXiXyXrXyXiXyXyXyXyXiXyXdXyXyXyXyXyXyXyXyXuXyX5XcXJXvX+   . 7 u ~ ~ ~ ....;.;.:.;.e o o o o o o . . o o . . o o o o o o & $ 1 * $ , N N 8 r 8 D t t & : .   &.JXJXbX8X7XgXpXhXCXMXmXMXMXCXDXCXDXbXCXVXSXLX3X@   O & e 1 - 1 1 2 1 < < ; ; O d b.}.#.# h n.n.g O : 2 1 3 $ - < % $ 3 1 1 o   3XLXJXHXFXSXHXFXNXmXZXCXBXCXBXBXBXMXZXmXmXmXbXFXGXLXIX%X-X:X>X,X<X;X;X;X;X-X X(.(.(.`.(.].^.`.`.^.`.(.!.~.~..X.X-.S J T -.K A S Z Z C C 9 9 3 3 e e 8 e F 7.7.6.5.6.6.5.1.-.5.6.5.5.6.6.6.-.^ A C Z C Z U U U I U Z e Z Z 8 3 8 4 - * - 9 S 1 > * * * * * * * * * $ * * % 9 6.=.' E P P R P R R R T R R R R R R R R R R R R R R R R R R R R ",
"R R T T R R R T R R R R E E R ` ` ` ` ] ` ` ` ' ` R >.4.1.' R P 5 C 3 $ > 1 * * * * - * * * > > > > > > > > > > * * , 1 , , 1 1 3 Z S M 9 4 3 8 M Z F C 4 J I 4.4.,.,.2.4.1.2.H.Q.I.K.1.5.1.6.L 6 $ -.E.5.P.P.I.R.R.Q.R.~.K.J A I C I 5.!.P.'.XXU.~.`.`.`.].^.^.`.`.;X<X>X;X;X;X;X:X-X:X;X,X%XzXLXAXJXFXNXNXZXBXBXBXMXMXMXMXBXBXNXNXZXZXMXgXiXpXyXrXyXyXyXyXyX9XyXqXdXBXBXnXsXyXhXrX7XrXyXyXyXeXrXyXsXnXBXBXBXBXNXBXBXmXnXgXgXbXnXHX*X@ o - O = d s ( d d # q = o ..0.7.7.{ 7.Y { oXoXoX_ . p vXSX*.@ 7 y q q d g SXVXg X d f h f d # X C.FXDX5XsXuXuXpXpXuXuXuXyXyXyXyXyXyXyXyXyXyXyXyXyXyXyXyXyXyXyXyXuXyXyXyXdXpXyXyXyXyXsXmXBXBXBXNXBXBXCXBXMXMXMXZXBXBXBXBXBXBXBXBXZXZXZXZXmXZXZXmXnXdXyXyXyXyXyXyXyXyXyXyXpXyXuXuXuXuXuXuXyXyXaXaXcXAXvX} y i H ..o.....:.H ..o.;.:.~ 7 O o . . .       . o . o o o o o o * o * 1 > 1 1 9 9 ; & 3 1 S H 8 : . t.KXvXVXaXgXhXgXnXZXmXmXZXCXMXZXmXDXmXmXnXdXcX#X# @ ~ . o & ; ; ; ; ; - - - 7 O q #.#.( # g z.#.g O ; : - 1 * < 9 4 4 1 & ; u w *XSXNXFXZXFXDXbXDXDXmXmXhXmXZXBXBXBXBXmXMXZXFXHXGXLXIX1X:X;X<X,X<X<X>X<X;XXX(.(.`.`.`.`.].~.~.].~.~.~.~.(.!.Q.!.,.K P I P J A A S S Z C M 4 C S C Z Z 8 S ....-.6.6.6.E.E.6.-.` 1.5.7.7.6.-.Y C Z Y A Z F Y U I I I U A 8 3 3 e 9 - * < 9 Z 1 < * * * * * * * * * $ * * $ 3 -.I I ' P T ' L T T T R R T R R R R R R R R R R R R R R R R R R ",
"R R ` R R R R ` R R R R E E R ` ` ` ` ] ` ` ` ' R ' 2.P.4.' ` ' E -.S $ * < * * * * - - * * > > * * * * * * * * $ > 9 M M 4 4 1 1 Z S C C 9 9 C Z Z F Z J -.,.4.4.,.,.,.4.1.1.1.>.R.I.,.K.E.E.5.$ $ ,.Q.K.P.I.I.Q.!.!.R.!.!.E.).-.3 C A J S E.'.W.^..X.X`.^.^.`..X~..XXX-X,X;X;X,X>X>X,X>X<X-X2X%X$XAXGXNXZXZXBXBXBXBXMXMXMXBXBXmXNXZXCXCXBXMXMX7X9XrXrXyXyXyXyXaXyXyXaXyXyXnXBXBXiX7XrXyXyXyXyXyXyXiXbXVXNXBXBXBXBXmXmXZXZXZXZXbXHX=X@ o 2 % , # d ( ! s # q = o :.|.U./._.7.o S oXoX|.|.+.g cXVX*.X 7 u # q j g eXwXp # ( k.j d g 5X5XAXDXNXBXBXhXuXyXyXyXuXuXiXiXiXiXyXyXyXyXyXyXyXyXyXyXyXyXyXyXuXyXuXyXuXyXyXpXyXyXyXyXpXsXdXdXdXsXnXmXBXMXMXMXMXZXBXBXBXBXBXBXBXBXZXZXZXZXZXCXmXgXdXiXyXpXyXyXyXyXdXdXpXdXpXyXuXuXuXuXuXyXsXeXcXSX@Xa ~ y D ~ D ; 8 ; o O O O O . i r.@X#X$X$X$X@X@X@X+X%X+X+X+X+X+X%X%X%X_.H D F r 1 o % & % % * % % $ < & o y i p 5XCXnXmXhXmXZXmXZXCXCXnXgXiXgXiXyXyX8XyX0X5XvXxXw o 2 - - - - - - 1 1 2 ; = # # # O # # # O o & - * 3 1 % 1 8 8 2 2 ~ LXPXJXFXbXZXgXhXCXnXDXBXmXCXZXDXZXZXBXBXNXmXmXmXNXbX*X3X2X|.;X,X<X;X<X<X>X<X<XXX X X'.'.`.(.~.~.W.`.W.W.~.W.~.I.m S A L ` -.5.(.!.Q.Q.E.E.E.E.P.5.6.Y C S 3 3 3 4 1 Z I -.-.1.7.-.7.1.7.-.I -.-.Z 4 Z U A 9 e Z e e S I ..A 1 1 3 Z e - % - 8 8 1 < * * * * * * * * * * * * $ 1 4 5 A ' =.-.1.' T T T R T T R R R R R R R R R R R R R R R R R R ",
"R ` ' ' R R R ' R R R R R R R ` ` ` ` ` ` ` ` ' ' ' ,.4.>.` ` =.>.,.J $ * < * * * < < - > > > > > > > > > > > > $ > M Z M 9 9 3 < Z S C C e 9 Z Z Z A S R J.1.4.4.4.2.2.1.2.2.2.>.R.Q.K.E.-.-.I 3 $ 7.!.K.P.R.R.~.~.!.Q.!.!.).<X,.5 4 3 5 6 K.~.!.'..X^.^.~.^.XXXX~..X^..X<X>X,X>X;X;X,X-X;X%X:X_.%XPXJXFXDXNXnXBXBXBXMXMXMXMXMXmXmXZXZXZXCXCXCXrXrXyXyXyXyXyXyXyXqXyXqX7XyXmXFXCXpXrXyXyXrXyXyXiXyXyXdXbXbXNXDXCXBXmXZXFXDXSXFXbXJX3X@ o 2 % , = q s s s q q = o 7.^.3.Y.U.7.2 { _.|.oX2Xr.@.SXFX*.  w ~ q q X g VXSXg X h k.d X w KXJXHXbXiXFXDXnXuXyXyXuXiXiXiXiXiXiXiXyXyXyXyXyXyXyXuXuXuXuXuXuXuXuXuXyXyXyXyXaXyXyXaXyXyXyX7X9X9XyXsXmXBXmXMXMXBXZXBXBXNXBXBXBXBXBXNXNXZXZXZXCXnXiXyXyXyXyXyXyXyXyXyXyXuXuXuXuXyXyXuXuXuXyXeX7XcXJX#X  + H H U F * 1 8 o o o       @ O.+X4X#X#X#X$X&X*X*X*X*X*X*X*X4X4X4X4Xr.u y u r 8 o o % $ * % % % % 5 < * : .   wXHXgXmXmXZXZXmXZXZXnXgXiX9X9X7X7XdXsXyXpXcXFXxX+ . & ; ; ; 1 1 1 3 8 * 9 ; = O 7 7 = O = , < 5 5 < 0 - o o o o . o i LXKXFXDXZXDXCXFXCXCXZXBXDXCXhXgXZXZXZXNXNXNXmXmXFXvX+X%X%X X>X<X<X;X,X<X>X,X<X.X X'.'.`.(.^.~.^.~.`.W.~.~.W.R.5.m C A U U I 1.!.).!.Q.Q.Q.Q.W.R.R.E.S 3 Z Z 4 - - 2 e S S C Z K 6.Q.6.-...-.-.-.Z 4 C Y S 4 3 3 < - 4 U ..F 3 1 9 Z Z < % < 3 1 1 < * * > * * * * * > * * * $ < % % C ` =.,.1.' T T T T T T E R R R R R R R R R R R R R R R R R ",
"L T R T L K T R R R R R R R R ` ` ` ` ` ` ` ` ' =.R T R T ` ' R R -.A $ * 1 * * * < < < > > > > < < < 1 < < < < * > 9 M 3 3 9 4 > Z A C Z e 9 Z Z C A A ' J.1.5.2.2.1.2.,.1.,.,.P.K.P.P.6.3 $ $ 4 $ 7.).K.P.R.R.I.J.P.E.).E.E.-X-.< m Z C 5 E.!.!.`.^.W.U.W.!..X'.`.-X'..X<X;X;X;X;X>X<X-X<X;X:X%X%XIXAXAXSXNXZXBXBXBXMXMXMXBXBXnXmXZXmXnXNXBXmXyXyXyXyXyXrXyXrXqXaXdXyX7XyXmXCXCXgXyXpXyX7XrXyXiXyXyXyXaXdXnXBXZXNXBXFXbXwX=X=X*XwX%X  o 8 o 1 = q d d d q q O o 7._.0.Y.0.0.7.{ Y 0.2X2X0.&.GXKXB.w 7._.:.8.| p SXSX# # z.z.h g | JXSXVXDXCXNXCXnXaXuXgXhXgXgXdXdXpXiXiXyXyXyXyXyXyXyXuXuXuXuXuXuXuXaXaXuXuXuXyXdXaXyXaXyXyXaXyXyXyXiXnXBXCXBXBXBXMXBXBXBXBXBXBXBXBXBXBXNXNXNXNXZXnXiXiXpXyXyXyXyXyXyXyXyXuXuXuXuXyXyXuXuXuXyXyXsXaXKX&XX : 8 e Z F < > 1 % 8 t.w.*XwX=X&X#X*X#X#XC.C.C.#X#X#X#X#X#X#X+X+X+X+X{.O.O.O.o.o.y & & % * o $ < 6 > 1 % & o X xXFXgXmXmXZXBXnXmXnXsXsXiXiXyXpXyXyXeXtXeXeX0XxXg w 7 : ; 8 2 2 8 8 9 $ Z 1 0 ; & > * ; * > < 5 < 1 ; & u q.t.r.r.q.t.@X#X5XSXFXnXNXNXnXDXBXnXZXmXZXDXZXZXBXNXNXNXmXNXFXAX$X4X1X;X>X-X>X:X>X,X;X,X,X.X X'.(.(.^.~.`.`.`.`.W.].~.J.5.=.4 S I -.1.E.Q.E.Q.Q.E.R.R.I.I.Y.P.P.K C I I U 4 3 U I A Z 4 4 I -.-...I -.-.-.-.A 9 C Y A C 9 3 C 4 e I ..F 4 1 9 A Z 1 * 1 4 1 3 < * > > * * * * * > * * * $ * - $ S -.` =.=.K T T T T T T E E R R R R R R R R R R R R R R R R ",
"T =.T V % 6 T R T R R R R R R ` R R ` ` R R E E ` ` ' ' ' ' ' ' ` -.J % $ > * * * - * * > > * > $ * 9 S Z Z 9 1 1 1 M Z M M Z S S S 1 1 9 9 Z C 9 Z I ,.,.,.4.1.4.1.1.1.1.1.1.1.2.K.J.K.E.4 $ C m 6 ,.!.R.E.Q.(./.!.Q.Q.E.E.!.-X,.* Z Z 4 5 E.~.I.'.`.!.I.I.`.XX`..X.X`.-X>X>X>X;X,X,X;X;X>X>X;X:X%X%X_.%XKXSXNXNXZXmXCXCXZXVXSXNXNXNXNXVXNXDXnXCXCXgX8XyXyXyXeXeXyXaXyX9XiXnXCXCXCXCXdX9XyXrXiXtX8XsX9XyX7XyXDXNXNXVXSXJX@X  . . O o o = = = ; = O # s ) ) d O o 7..XR.|.R.7.{ { V 7.oX2X2XIXq.a |.2XoX:X:X:X0.w } w g d z.f &XJXKXFXHXFXNXBXBXDXBXBXCXCXBXZXDXFXCXsXyXyXyX7XyXyXyXyXyXyXyXuXuXuXuXuXfXaXaXyXaXyXyXqXyXnXBXmXmXyXnXBXmXMXBXBXBXBXBXBXBXBXBXBXBXCXmXCXCXsX9XqXyXqXiXyXyXdXdXyXdXdXuXyXyXyXyXyXyXsXyXyXaXyXyXaXyXeXdXaXFX#XX O & & o < $ $ * % ..LXbXDXZXgXiXgXiXgX9XgX9X9X5XwX=XwXwX=X=X=XwX&Xr.@X+X%X+X_.|.|.%X- o o * % < 6 6 6 $ -     AXFXNXZXCXZXZXBXgXqXyX9XyXyXyXyXyX9XyXuXtXrX7XaXSX#X. X . . o o o % $ M 9 * 1 1 1 1 < < * 1 $ * 1 o o   r.LXLXJXKXLXxXO o r.GXFXbXCXZXCXCXZXZXZXZXZXZXMXBXBXCXNXnXZXSXKXxX%X%X;X-X>X;X>X<X:X<X.X^.^. X X X(.(.'.^.^. X~.~.~.!.).1.=.L M 5 6.!.~.Q.!.!.I.E.Q.I.R.J.I.I.I.4.1.1.1.5.E.Q.6.3 Z C 5 S C 9 3 2 4 -.E.6.-.K -.-.U U I 8 1 S I U Z 4 Z S S F S Z Z 3 * - 4 9 3 3 * * * > * * * * * * * * * * * % C -.L E T T R R R T T T T T R R T T T T T T R ` ` R T R E T ",
"K I L C $ 5 T R T R R R R R ` ' R R R R R R E E ' ' ' ' ' ' ' ' ' >.A % $ < * * = ; * * > < > > * > 3 M 9 9 9 < 1 1 4 9 9 9 C Z S S 1 3 C 9 M Z C S L =.,.1.4.4.4.4.4.1.1.1.1.1.1.1.1.J.E.4 % C C 5 ,.Q.E.~.!.W.(.Q.E.R.Q.E.Q.-X7.- S F m 5 5.Q.I.(.^./.U.U.^.(.`..X.X.X-X>X,X>X;X>X>X;X;X>X>X;X;X-X;X|.$XKXSXVXBXFXCXNXZXNXSXKXHXJXHXHXJXHXFXFXFXFXhXyXiXyXeXaXyXaXaXyXyXiXnXBXmXNXCXsX9XrXrXtXpXrXsXrXiX9XdXNXFXFXJXLXLX4X7 y & ; & & = = = = = = q ! ) ) / O o 7._.0.|._.0.0.0._ Y { |.2XxX0.: 0.:X|.|.|.|.0.y H # d d h q @XSXFXHXFXSXCXDXmXBXMXBXZXZXNXDXDXBXmXdX9XyXyXyXyXyXyXyXyXuXuXuXyXfXfXfXaXyXyXuXaXyXaXyXyXbXbXnXnXyXnXBXMXMXBXBXBXBXBXBXBXBXBXBXBXBXhXMXBXsXrXyXyXiXiXyXyXiXiXyXyXdXaXaXyXyXaXaXsXsXuXyXaXyXaXdXyXpXsXcXbXb.X @   o o ; * 1 - o u wX5X5X=X8XtXhXtXtXtXhXtXgXbXFXxXGXAX0X8X=X8X&X*.@X+X%X%X%X|._._.& & o $ % 5 > > 3 o o + @ wXNXDXZXCXZXBXNXgXyXiXyXyX9X9XyXyX7XrXeXeXuXrXyXaX=Xx z z ~ g ~ D 7 o o 9 9 > < 1 * 1 1 * * * 8 & . 7 @ e.cXcXVXVXKX5X: O r.KXFXbXDXDXBXBXZXZXZXZXZXZXCXCXBXCXDXFXFXAXLXIX:X|.;X;X,X,X>X<X,X2XXX(.(.(.). X(.(. X^.~.(.^.~.Q.Q.).-.I I M 4 5.Q.Q.U.R.R.~.Q.!.E.^.U.U.U.U.Y.P.P.Y.I.I.5.1.-.-.A < 9 9 e e S e A ..-.-.U I -.I I I 3 1 D ^ U Z e S A S F F S e 1 * - 3 3 9 3 > * * > * * * * * * * * * * * % Z -.I ' T R R R R R T T R T T T T T T T T T ` ` R R T E E T ",
"C Z Z 4 $ 5 P R T T T T T R R ` R R R R R R E E ' ' ' ' ' ' ' ' ' >.A % $ > * * = , * * < > > < 4 3 4 9 4 4 4 1 4 1 3 9 4 9 Z S A S 3 4 Z 3 3 Y 7.7.1.4.4.4.4.2.4.4.2.2.2.1.2.2.1.>.,.K.E.4 $ S m < =.P.5.P.P.5.P.5.5.R.~.E.Q.-X7.* Z U C 5 5.).!.(.!./.~.^.^./.^.`.`.`..X-X-X-X-X>X>X>X;X;X;X;X;X-X<X%X4XKXSXVXZXmXNXCXDXSXHXxX*X3X=X*X3X=X*XwXVXCXsX9XyXyX7XyXaXaXyXyXyXaXsXnXdXsXmXhXsXgXtX9XtX7XrXrXyXyXdX0X&.*.b.v.+X:.+ 7 8 8 - & ; ; = - & O O # d ) ! O o I :.7.:X:X|.oX{ 7.{ _ t.|.2X|.|.2XIXzXzXzXzX2X|._.y / / q X w.JXVXbXdXqXgXmXgXsXnXBXNXNXNXSXSXBXNXgXsXgXnXsXgXnXsXiXyXyXpXuXyXfXfXuXuXuXyXaXaXyXcXnXnXnXgXsXnXyXmXBXMXBXBXBXBXBXBXBXBXBXBXBXBXCXmXBXBXnXhXgXiXiXdXiXiXdXiXyXyXyXuXuXuXuXdXdXsXdXyXyXyXyXyXdXyXrXyXdXNX=XC.@Xz X O o   O O & O.JXSX=XC.=X8XhXhXtXpXtXrX=Xe.@Xv.#XV.=XbX8X9X8X=X#X@X+X#X$X%X_.t.t.:.2 - < 8 - * o o q.vX0XHXNXZXnXnXgXgXgXiXyXyXdXyXyXiXnXsXyXyXyXeXeXeXrXyXdXaXbXSXFXAXxX0X3X*XO & 8 ; 4 9 < 3 > 9 ; : O   i wXcXcXVX8XdXbXKX3Xw : v.KXHXbXFXDXCXCXCXBXZXZXZXZXDXBXNXBXCXFXAX3XxX3X%X%X;X-X,X>X;X:X;X<X).!.(.(.^.(.(.(.(.~./.~.`.~.Q.!.!.K m A C M K.Q.E.I.I.I.Q.' J P I.R.U.Y.I.I.I.I.I.I.J.>.,.6.6.I U ..^ A 4 A e < 4 U -.I ^ I I ..I 8 8 S F S 8 e Y A Z F Z e e 9 3 3 1 * 9 9 < * * * * * * * * * * * * * < $ Z -.I ' T ' R R R R R T T T T T T T T T ` ` ` ` R T R R T T ",
"3 3 < < $ 5 I =.E R E E T R R R R R R R R R E E ' ' ' ' ' ' ' ' ' >.A % $ > * * = , * * < > > 3 Z M 9 9 4 4 4 3 9 3 3 9 9 M S A Z A 4 9 Z < < I 6.4.4.4.4.4.4.4.4.4.2.1.2.2.2.2.K.1.2.P.K.5 % 4 m > -.!.P.5.K.P.P.P.U.!.Q.P.Q.-X7.- 9 A 4 5 5.(.~.(./.Q. XXX^.R.`..X.X`.'.`.'..X-X-X>X>X;X;X;X;X;X-X,X|.4XKXSXZXFXnXBXBXSXSXHXB.@ p p p g a # z FXHXVX7X8XyXeXyXyXaXyXyXyXyXyXyX9XyXdXnXCXCXsX8XsXiXrXpXiXaXqX&X    X . O O   O : & & & = = = - - = O O q ) / O = ; & e |.<XoXoX7.7.0.7._ 2 { |.:XUXIXIXIXIXIXUX2X1X8 u / O o @XJXcXcXVXnXiX9XiXpXmXCXCXBXCXDXCXDXZXNXNXBXBXBXBXBXnXiXyXyXyXyXyXyXyXyXyXyXyXyXyXyXmXCXCXnXiX9XyXsXmXBXMXBXBXBXBXBXBXBXBXBXBXBXBXCXMXBXBXMXCXBXsX9XyXyXyXiXyXiXiXyXyXyXyXyXiXdXdXsXdXpXyXyXpXdXdXtXiX9XbXcXFXKXV.  @ @ @ y O 7 q.3X=X*.*.aXgXgXtXgXhXsXHX=X@ X X   . w.HXbXgXqXgX=X#X#X+X$X$X|.r.$Xr.: o o o o + + @ &.JXFXZXnXZXiXiXyXyXyX9X9XyXyXyXyXgXBXmXiXyXsXuXuXpXuX7X7XpXyXyXdXdXqXqXcXAXw.O o ; 8 * * 3 * 8 o O @   p SXDXgXiX8XmXDXJX3Xw + r.KXFXbXDXCXCXDXCXCXZXZXZXZXBXBXBXCXSXFXcX#X+X%X|.-X>X-X>X>X>X-X;X2X.X(.(.(.).(. X(.^./.W./.^.`.~.(.Q.m $ 4 C S E.Q.Q.I.I.I.R.J $ m P./.W.U.I.Y.J.P.I.P.4.>.1.5.,.1.6.5.6.U 4 S Z 4 Z I 7.7.-.I U ^ U 8 8 8 8 4 4 S I Y Z S 9 9 e Z e e 3 $ 9 9 < * * * * * * * * * * * * * % $ U 5.,.,.T T R R R R R R T T T T T T T T T T T R T T E R T T ",
"9 3 1 1 > 3 L R =.R ' ' T T R R R ` ` ` E E E E ` ` ' ' ` ` ` ` ` >.A % $ > * * * * * > < * > 3 S Z C 9 4 4 1 1 9 1 4 9 9 C Z S Z S 9 4 4 < 3 I 1.1.,.1.4.4.4.5.4.4.4.4.4.4.4.4.I.J.H.K.5.4 $ 3 4 > -.).E.P.P.R.!.!.!.!.R.I.~..X-.5 C A 5 5 4.Q.Q.~.!.W.(..X!.Q..XXX.X`..X.X'..XXX-X;X>X>X;X;X;X>X-X;X|.4XKXFXFXbXDXFXDXJXKXLX4X: u i w a a a } KXKXcXdX8XyXyXdXyXyXyXyXaXaXyXyXyXyXyXgXBXBXsX8X7X7XrXnXcXSXHX5XX . + O o O O : & & & & & = = & & & = = q ) ! # = = % Y 1X2X:X:X0.7._ { _ S 0.2X2XzXIXPXPXPXLXzXUX2Xu G / O + {.LXAXSXVXbXnXiXhXgXBXDXFXDXFXFXDXZXBXNXBXBXBXBXNXZXnXsXyXyXiXdXdXaXaXaXyXyXyXyXyXyXnXCXCXnXyX9XyXgXmXBXBXBXBXBXBXBXBXBXBXBXBXBXBXMXMXMXmXBXCXBXsX9X9XyXyXyXyXyXyXuXuXyXyXyXyXiXiXyXyXyX9XyX9XyXyXrXiX9X9XqXSXHX0XqXbXvXAXvXO.+ u @ X . z xXqXgXqXgXgX=XwX&Xa # # 7 . | 3XV.5XtXtX=X#X#X+X#X$X|.|.+X8.  O w . O p PX5X=XSXgXnXFXZXyXyXyXyXyXyXiXyXyXyXyXsXmXnXyX7X7XeXeXrXuXrX7XrXsXyX9XrXyXsXmXFX&Xz w : 8 * < 3 e 8   } =X#XV.bX8X8XiXiXmXbXFX=X7 O r.PXFXbXCXBXCXCXCXBXBXZXBXCXBXCXDXDXFXJXAX$X%X:X:X;X>X;X,X,X<X,X<XlX<X-X X-X.X(. X X^.~.~.~.~.`.!.(.).K C A 4 S E.Q.Q.I.I.I.R.P m J R.R.I.U.W.Y.J.I.R.P.5.5.5.5.1.E.5.,.1.Y C 3 3 Z Y I ^ -...I U I F 8 e 4 8 e e A I Y Z S Z 8 9 8 9 e 8 - 9 9 1 * * * * * * * * * * * * * * $ 9 U A P Q R R R R R R R T T T T ` T T T T T T ' ' E =.=.-.-.",
"9 9 9 M 3 3 S S C m S J S K R R R ` ` ` E E E E ` ` ' ' ` ` ` ` ' -.A % $ > * * * * * > > * > 4 Z Z 9 4 4 4 1 1 9 9 C Z Z Z A F e e 9 < 3 Z S ` 5.5.4.4.4.4.4.4.5.5.5.5.H.H.H.H.1.1.4.4.J.R R R 3 6 U 6.1.K.!.R.R.R.R.!.I.K.5.2.P 3 S K V L R.Q.I.(.`./.~.^.!.'.`..X`.`..X.X.X.XXXXX-X>X>X;X;X;X,X>X>X|.4XKXGXFXVXDXNXFXGX&.w.8.w ~ r.B.B.&X*X3Xw.w.#XSXNXsX7XyXyXyXaXaXaXaXaXyXaXaXyXdXdXiXpXyXsXsXVXaX&X=X5X$X. o : & & : & 8 D D D D r 8 7 ; & % & = q d d q q = % 9 6.7.0.|.|.R.0.0.{ Y 7.{ 7.|.:XoX%X:X2X0...O.7 ~ / o . u } g g g V.FXbX9XdXsXVXVXbXVXVXnXBXNXNXBXmXNXNXnXBXNXnXnXmXNXmXnXmXmXnXnXgXsXsXgXsXmXBXBXmXgXgXmXnXBXBXBXBXBXBXBXBXBXBXBXBXBXBXBXMXMXMXmXBXCXBXnXgXgXnXnXsXdXdXiXdXdXpXyXiXyXyXyXyXdXdXyXdXiXiXsXiXgXiXgXsXdXDXFXSXDXSXJXJX .  X X # X + | p =XmXiXqXc # g #.z.h u O + @ X &XmX6X=X#X#X#X$X4X%X|.+XO.+ r.xX3X3XwXJXKXVXDXhXmXDXyXyXyXyXyXyXyXdXyXsXmXnXdXdXdXyXyXuXsXuXeX7XyXyXtXiXgXhXyXeXyXyX0XcXSX&XX . ; r * o :    .SXFXqX9XrXtXMXnXZXbXJX3X7 O r.KXHXnXDXBXZXCXZXZXZXZXCXCXMXBXCXSXSXJXPX$X1X<X<X>X>X>X;XXX-X!.1.6.6.7.-.).XX(.(. X^.^.`.`.~.~.I.Q.'.J.K.4.< Z E.Q.E.P.P.P.Q.K 6 V P.I.Y.Y.I.I.I.I.R.P.5.K.R.2.1.P.1.=.,.I K 4 4 Z S S Z F U I ^ ..I F U U Z S Z Z S Z 9 Z Z 9 9 e e e 3 * 3 9 1 * * * * * * * * * * * * * < $ % % % S L =.R R R R R R T T ` ` ` ` T T T T P =.E J J J J A ",
"9 Z Z C 3 1 9 4 < $ 6 < 5 C T R R ` ` ` R R E E E E ` ` ` ` ` ` =.,.J $ * < * * * * * * > $ * 3 Z Z 9 1 4 4 1 4 9 C F U F F F F 3 3 4 * 4 -.-.T =.,.,.1.4.2.1.H.4.4.4.4.4.H.J.H.' ,.1.=.4.5.Q.K.3 $ Y 6.6.E.(.).E.E.!.~.5.` S 5 C 3 S A S ,.(.Q.Q.'..X/.~.`.~.XX`.`.^.^.`.`.`.`.`..XXX;X>X;X-X;X;X>X<X|.4XPXAXSXHXFXSXJXvX. + } 7 O.xXLXFXJXKXwX. . %.FXFXnX8X7XyXyXyXaXaXaXaXaXaXdXyXyXyX7XiXsXnXVXVX&X@ . X   . o o o & & & t ;.......^ H G 0 y & & = = q q ! ) B = o o o _ :X:X<X1X:X7.e _ $ . y Y S Y Y 7.e . : y X./ O O O .     @ @XJXNXcXqXqXyXyXyXeXyXyXCXBXCXCXBXBXBXmXZXZXZXCXCXCXZXZXZXBXBXBXBXBXBXBXBXCXBXMXBXMXBXCXmXBXBXBXBXBXBXCXBXBXBXBXBXBXBXBXBXCXBXBXBXBXBXBXBXBXCXBXgXsXdXyXyXyXyXyXyXyXyXyXmXBXBXBXCXBXNXZXCXCXMXCXBXgXnXnXZXNXbXFXAX} @ # h n.b.g X   =XFXiXiXg X g n.n.z./ 7 7 .   =XDX6X=X#X#X%X$X4X|.|.%X+.. $XLXLXJXSXdXNXZXCXnXhXBXsXyXyXyXyXyXyXyX7XgXDXBXsXyXyXyXuX7XrXiXiXtXtXtXeXrXhXMXnXuXuXsXdX0XHX*XX O O : O 7 {.B.#XqXgXtX8X8XiXCXZXDXNXHX*X7 O _.KXJXNXDXBXBXZXZXZXCXCXBXBXMXBXZXSXGXLXPX$X:X:X;X;X>X<X-X(.~.1.$ o $ % % 5.-X(.(.`.(.^.`.^.~.(.I.I.~.E.'.P.$ S Q.!.Q.E.I.I.!.A % $ K.!.R.I.J.T.R.K.J.P.P.P.R.5.1.5.4.2.2.,.1.` I A C Z Z Z F ^ I U I -.-.-.A F S 4 4 4 4 e 9 8 C Z Z Z 1 % < 1 1 * * * * * * * * * * * * * * * < 3 < P T T R R R R R R R R T T T T T T T T K =.K 6 % % % % ",
"9 F Z Z 4 1 M 9 Z 3 5 < > C R =.R ` ` ` R R E E E E ` ` ` ` ` ` =.,.A $ * 1 * , * * * * * $ $ 3 Z Z 9 1 4 4 1 9 9 9 F U U F F F 1 1 3 $ C 5.5.P R >.,.1.4.2.1.H.2.2.2.2.4.4.4.4.,.K.4.T =.1.E.1.% % I ).Q.E.!.!.).!.).).5.K m 4 5 5 S 4 5 1.'.I.~.(.~.I.~..X!.'..X.X`.`..X.X`.`.`.`.XX;X>X-X-X:X-X;X<X%X2XPXxXvXHXSXSXLXvX+ | q.X } xXJXqXSXKX5Xp + &.KXNXsX7XqX7X7XyXyXaXaXaXaXaXaXqXaXaXyXcXcXcXSXJX3XX   . O o o o o ; % O G ;.........^ H 0 8 o % = = q q ) / q , 7 : o 7.2X|.|._._.U - _ 2 o U 7.7.7.-.0._ o + u ..u O ; O O O + O O.&X*XbXcXdXaXdXaXyXyXdXDXBXCXDXBXBXCXBXBXBXBXNXmXmXNXNXNXNXNXNXBXBXBXCXBXCXMXmXBXBXmXMXBXBXBXBXBXBXBXCXBXBXBXBXBXBXBXBXBXBXBXmXmXnXmXBXBXmXBXmXsXyXyX9XyXyXyXyXyXyXyXyXnXBXBXBXCXBXnXBXBXBXBXBXNXCXCXnXZXDXSXHXAXp     g n.b.g X X 8XnX9XrXg X #.n.n.n.q o = +   &XnX7X=X#X+X%X$X4X|.N.%X+.  +XKXAXVXbXZXnXgXBXDXiXyXyXyXyXdXdXyXyXyX7XyXBXDXsX7XeXyXyXsXrXtXtXeXrXpXpXsXpXyXyXyXyXyXdXdXaX5X5XxXg . X + xXJXNXiX8X9X8X8XgXDXCXZXVXJX=X7 O _.LXLXSXDXBXZXZXZXZXCXCXBXCXCXZXFXHXKXLXLX1X:X;X>X:X;X<X>X-X>XR.< % 3 6 $ Q.-X(.^.(.~.~./.T.~..X~.I.P.J.).1.6 J ).).~.Q.R.E.Q.J % 6 P.!.I.J.2.W.Q.G.2.Y.W.Q.J.I.P.1.1.2.>.1.1.,.-.S < 4 e 8 -.-.S 4 Y -.-.I A U F 8 8 8 8 C 9 8 9 e e e 4 * > 1 1 * * * * * * * * * * * * * * > > > 6 P T T R R R R R R R R T T T T T T R R -.6.E < % $ > > ",
"< 9 < 1 Z Z 9 9 1 > < 4 6 C =.' T P T T R E ' R ' ' R T R ' ' ' S m 3 < * * * * * < * * < 9 Z Z C 9 4 1 1 1 4 4 1 Z U U Z 9 9 9 1 8 A Z S -.5.1.1.1.4.2.1.2.4.,.2.2.4.4.4.2.3.1.<.2.K.1.>.,.,.5.P ,.K V A S S S K K K I Y A L 3 I 5.6.-.,.4.J.J.I.Q.Q.!.'.(.~.'.^.!..X^.-X/..X`.`.`.XXXXXX;X-X>X-XXX<X1X1X%X%X3XvXvXKXLXvXa X {.xXcXVXbXgXNXKX3X7 + @.HXNXmXNXmXnXmXnXdXaXaXaXaXaXcX0XdXaXdXaXcXvXV.=Xb.w 7 y t r 8 8 D ; o = ; G 8 y t t ^ D G H o & ; 7 O q ) ) = = = ; o & % % o o o o o o o o : o o % % % % & & y ~ u O o & o O : : 7   X AXFXaXyX9XdX7XeXuXrXyXpXsXsXgXgXgXsXmXBXCXBXmXnXnXmXNXBXZXBXNXNXBXMXMXMXMXMXBXMXBXBXBXBXBXBXBXBXBXBXBXBXBXBXBXBXBXBXBXBXBXBXBXBXBXmXmXmXmXnXgXgXsXgXsXsXsXgXhXhXgXmXmXmXmXmXmXmXNXBXBXNXmXmXmXmXBXCXNXFXbXwX  @.$Xp a X . w   3XZXqXSXp a 7 q d q ; % : O X &XDX7X5X&X4X$X$X$XN.|.%X+.  +XJXbXNXDXDXDXBXsXyXrXyXaXyXrXeXyXpXdXnXmXgXuXyXyXuXyXyXyXuXrXrXyXrXrXuXuXiXpXyXyXyXyXyXyXyX7X0XSXSXg . p =X0XcXdXiXiXrXgXhXhXhXZXCXFXHX*Xw y 8.2X*XvXFXDXZXbXCXZXmXZXBXFXDXDXGXwXxXUXlX2X:X2X;X-X-XP.` ,.I S P.!.Q.Q.Q.'.'..X'.`.(.~.!.'.'.!.Q.R.U./.Q.5.4 S J L L K K K S 4.1.>.R.R.J.J.W.T.I.2.P.~.Y.5.J.H.Y.Y.H.2.2.1.1.5.5.K 5 4 A Z S I -.-.I Y K I A I A 4 e Z e e Z 9 Z S Z e e 8 1 1 * * * * * < * * * * * * * * < % < % < R E P ` T T P T R T ` ' T R L L -.T S J J A C 4 3 1 1 ",
"> > * 1 S F Z F 1 > $ > $ M -.,.=.' ' =.' E E E T R T E =.=.=.>.6 6 $ * * * * * * > * $ < C Z Z 9 9 1 1 1 4 4 9 1 Z U U A C 9 4 3 C U I I ,.4.=.2.1.2.2.4.1.4.J.1.2.4.4.4.2.3.1.<.<.K.I.K.-.L P !.Q.I 5 $ < 5 5 3 m m C M Z S % ,.Q.E.P.E.E.W.Q.U.W.R.Q.'.'.(..XQ.R.XXXXXX.X-X`.`.~.`.`..X>X;X<X>X;X,X;X-X-X%X$X%XvXAXJXAXX   $XLXSXSXZXmXbXKXwXw + @.JXZXmXmXNXMXBXBXcXaXaXaXaXqXdXaXcXaXcXcXKXxX@ . + ~ o.........-...y o & * o o ; t ; D ~ ....& % & = o q / / q q = O o % o $ o o o o o o : . o o o % % * * - o 8 ^ G o o 8 U ^ H : o   p KXAXbXNXyXsXyXrX7XeXyXyXdXsXsXsXsXmXBXCXDXBXBXBXZXmXNXBXZXBXBXBXZXMXMXMXMXMXMXMXMXBXBXBXBXBXBXBXBXBXBXBXBXBXBXBXBXBXBXBXBXBXBXBXBXBXBXCXBXBXBXBXBXCXCXBXCXCXCXCXBXBXBXBXBXZXZXZXBXBXBXBXmXmXmXZXZXBXDXFXqX3XX #XLXp . + : .   0XFXdXcXa + . . O o O & 7 . X =XFX5X5X&X4X$X4X4X|.%X%Xo.  r.KXbXnXZXCXBXVXaX9X7XyXyXyXyXpXyXyXyXmXDXgXuXeXyXuXuXyXuXyXyXyXrXrXyXpXgXiXyXyXyXyXyXyXyXsXiXqXaXcX&.g &.cXbXiXiXiX8XrXCXCXmXMXMXZXNXSX*X  + : O 7 3XFXbXZXmXZXZXZXDXBXDXFXJXAX$X$X%X1X:X1X<X<X2X).S $ 5 5 4 Q..X.X'.'.XX.X.X^.~.^.^.~.^.^.Q.W.R.I.Q.Q.5.% % $ $ % % % % % 5.)./.R.5.5.I.W.H.I.W.U.Y.2.1.J.H.J.Y.H.2.2.1.4.5.4.` C 3 4 3 4 A I I I Y Y U Y I A 3 8 Z e Z 9 3 9 Z Z Z Z Z 3 1 * * * * * * * * * * * * * * * * < % < R -.-.' T ' R R ` P T T T ' T R -.S $ $ 6 > 3 9 M M 9 ",
"< $ $ > C C 9 Z 3 1 > * > m L I T L T =.' T T E =.' E =.=.P L R $ * * > > , * * > < * $ < C Z 9 4 1 1 1 1 4 9 9 4 Z F U F C 4 1 3 Z I ..-.,.4.1.>.1.<.>.1.J.1.1.1.4.4.4.2.2.1.1.1.1.J.K.1.=.' 1.4.1.L m m J J 3 C A S C M M M 5 -.E.R.P.I.I.R.I.W.R.I.R.(.'.(..X~.Q.^..X~.~.I.~..X~.`.'.XX>X;X>X>X,X>X-X>X,X-X%XUXPXGXJXAXa @ #XHXSXDXCXbXbXKX3Xw + @.JXZXmXBXBXBXBXBXsXyXyXaXaXaXaXaXaXcXFXxXJXPXw . : o.:.......;...H y - ; & o o & e & D ;.;.H % o & 7 = q / / q = O 8 e 2 o - % % % & o o : _ _ _ _ 2 % * = * o 1 F r - 2 t t t 7 y y i i q. .&XbX8X7XyXyXyXeXrXyXuXpXpXpXyXsXhXmXmXnXnXmXmXnXmXNXNXNXNXBXZXBXBXMXMXMXMXMXMXBXBXBXBXBXBXBXBXBXBXNXNXBXBXBXBXBXBXBXBXBXBXBXBXmXmXmXMXmXMXMXBXBXBXBXBXBXBXBXmXBXBXBXBXNXNXNXNXBXBXBXBXZXZXCXDXFXFXFX0X=X  C.LXw   : O X @ wXVX7XdXe.+X~ o : = = O .   X C.mX8X=X*X*X$X$X2X%X|._.o.@ r.KXNXZXDXmXVXdXeX7XrXyXeXyXyXyXyXyXdXmXCXgXyX7XyXyXyXyXuXyXuXyXyXsXgXpXpXyXyXyXyXyXyXyXyX7XyXyXyXDXaXbXCXbXsX9XyXsX9XyXDXCXCXZXMXCXZXSXwXw.%X8.: w xXJXSXZXZXZXZXCXDXZXDXKXKXxX$X%X:X1X<X<X:X:XlX!.5 $ < % 5 !.'.'.'.'.'.`.'.~./.^.'.^.!.Q.R.R.R.U.R.R.J.5 5 m m m m m V 5 4.Q.W.I.P.T.W.I.3.J.~.U.Y.H.1.H.2.2.H.2.2.2.1.4.1.4.1.' K A S Y I -.` I I I I A I F e Z Z 8 e e e C C 9 C S S 9 4 < * * * * * * * * * * * * * * * < % > L R R R P R T T T L T T ' =.E -.-.C $ > > , 4 M M 9 1 ",
"S C C 3 1 < * < 9 Z M 9 M 4 3 < 5 5 A ' E P T T E T E =.T m 6 < < < 1 1 < , * * * * * * 1 Z Z 1 < 1 1 1 4 9 9 9 C F U U F C 9 C 1 e I -.-.=.1.J.2.H.K 6 J 1.5.2.2.2.4.4.2.2.2.1.3.2.4.1.,.J.E.E.5.P.E.P.K.E.6.C C A A Y Y C Y ,.,.I.E.I.I.I.R.Y.W.R.I.I.!.~.(.'..XP.S 5 6 5 $ 5.-X~.^.~.!.'.(..X;X;X;X;X<X<X<X;X2X%X3XLXJX3XxXSXAXbXZXFXZXZXJXwXw : O.HXZXmXMXBXmXBXmXdXeXeXaXdXdXyXcXcXvXAXw.@.w.+ + o & & o & ; ; & 8 D U H r 8 8 o % o ; u 8 H H H H ^ G 0 q G q = = 6.%X6.% % & % o & o % y 0.7.0.0.e o & & % % * % & H 7...o   o ^ t.%X:.@   B.HXcXqX7X7XsXeXyXyXuXuXuXyXyXrXyXyXyXrXyXiXsXCXZXZXZXBXNXNXNXBXBXMXMXMXMXMXMXBXBXBXBXBXBXBXBXBXBXNXNXBXBXBXBXBXBXBXBXBXBXBXBXBXBXBXBXMXMXBXBXMXMXBXBXBXBXBXmXBXBXBXBXNXBXNXBXiXdXsXpXpXgXgXgXcXdXAXGXcXX b.KXy + : . v.=XcXNXdXnX0XAXq.  o O o X | *X=X0XqX5XC.C.#X4X%X$X|.|.|.}   r.KXNXnXiXsXdXaXeXrXyXuXuXyXyXeXdXnXBXsXyXsXyXeXyXuXyXyXyXyXyX7XyXBXBXdXeXyXyXyXyXaXaXaXyXyXyXiX8XyXyXnXiX7XiXrXrXgXnXnXBXBXZXZXZXDXCXFXSXLXLX%Xy w 3XKXqXDXZXmXmXZXNXSXFXKXxX4X2X2X<X<X<X<X<X:X<XE.4 S K P ' '.'.(.`.`.'.~.].~.!.~.(.~.W.U.I.R.R.U.R.R.P.P.E.R.R.R.R.R.R.R.R.5.4.Y.I.I.2.I.J.J.J.J.I.I.5.I.H.2.2.H.2.3.,.1.,.1.5.5.1.-.-.,.,.,.-.` -.-.-.3 F F F U F 4 4 F U U e 1 8 Z Z 9 9 < * < > * * * * * * * * * * > * < $ * C Z A -.I E P L P P ' R T A m S A 3 , C M M M 9 4 3 1 ",
"E =.-.M $ * $ < 9 Z Z Z S 4 $ % % % C -.' T R T L T ' ,.-.M % % * * * * > > * * * * * < 3 Z Z 3 < < 1 3 4 9 9 M S L I U A 9 9 F 9 Z I 7.,.=.>.,.4.H.L 5 J 1.5.1.2.G.2.2.2.2.2.2.1.<.1.H.Y.R.P.,.1.1.P.E.E.Q.K.K $ 6 < 4 S A R E.K.E.R.R.R.R.Q.R.W.R.I.I.E.Q.!.(.XXR.S 5 6 m 6 1.,X'.-X.X~.'.(.'.>X>X;X>X,X<X<X>X1Xr.xXLXPXJXJXVXDXbXbXDXDXbXKX3Xw : O.HXNXmXMXBXBXCXBXdXyXyXaXdXaXqXcXcXvXAXg   . o 7 o o o & o o o o 8 ..X.^ D 8 r o o o o o o & ^ ..~ ;.^ 7 O = = o o t.1X6.o o o o o & & ; t 0.7.0.0.e o O & ; 1 * o o H O._ + & : ..;.t.q.: . $XLXvXcXcX7XyXyXyXyXyXuXyXyXyXyXyXrX7X7XrXyXdXFXDXDXDXBXBXBXBXBXBXBXBXBXMXMXMXBXBXBXBXBXBXBXBXBXNXNXNXBXBXBXBXBXBXBXBXBXBXBXBXBXBXBXBXMXMXMXBXBXBXBXBXCXCXCXBXBXBXBXBXBXBXBXBX9X9XrXrXrXyXyXiXdXwXcXHXJX@ e.JX@   X X 5XKX5X=XVXiXgXgX%.X @ X . @ w.xXcXqXwX5X3X+.a q.$X4X%X%X_.w   w.KXDXmX9XyXyXaXyXyXuXuXuXyXdXiXnXBXBXyX7XpXyXeXyXuXyXyXyX7XyX7XyXBXBXsX9XyXyXaXaXaXaXaXaXdXyXdXrXyXyXsX9XyXgXpXrXgXCXDXDXZXZXZXmXFXZXFXFXJXLXq.. w xXLXHXNXDXnXNXZXVXFXKXLX3X|.1X<X;X;X,X:X<X;X2XE.$ m E.(.R..X`.'.`.'.'.W.~.~.W.W.W.~./.I.I.R.R.U.U.U.U.I.I.R.R.W.W.W.Q.Q.P.1.J.Y.I.T.J.Y./.U.H.J.P.Y.J.~.R.J.J.J.H.1.,.1.1.1.1.4.5.1.,.-.=.=.` I =.-.-.3 S F F ^ F 9 9 F ..^ C 1 8 Z e 9 4 < * > > * > * * * * * * * * < * * * * * * 4 -.I -.R P P P T =.T m $ $ > > , 4 M 9 3 1 < 1 1 ",
"E =.=.m % * * > 9 9 9 9 Z M 3 4 > > S R E T ' ` ' ' L A A 4 $ 1 > * * * * > * * > * 1 9 3 3 3 - < 1 3 3 3 9 9 C M A A Z M 1 4 F ^ I I -.,.-.=.' =.1.1.<.1.2.,.,.2.2.2.2.2.2.2.2.2.<.1.J.2.>.1.,.5.1.K.E.K.E.5.` K K J J P -.1.E.P.E.P.I.I.I.R.I.W.R.R.R.E.I.Q.~.(.!.Q.~.Q.(.R.4.S S P.(.~..X'..X<X>X;X,X>X;X,X>X:X%XxX3X3XKXSXNXDXDXbXNXDXSXLXxXy : O.JXNXmXMXMXMXZXmXsXyXyXyXyXdXyXaXcXvXLX@.O : & : & : & ; o & & o 2 r 9 Z D D ^ t u r ; o o 7 :.X.~ X.^ = o 0 G 0 & 0.%X:.O - & o % & & 8 8 -.L _ H y & O - & o o o O : : o i ......& o e & O 8.+Xe.5XCXyXrXyXyXyXyXyXyXyXyXyXyXyXyXyXyXyXdXnXnXnXmXBXBXBXCXBXBXBXBXMXBXBXBXBXBXBXBXBXBXNXNXBXBXNXNXBXBXBXBXBXBXBXBXBXBXBXBXmXBXBXMXMXmXmXmXBXMXMXBXBXBXBXBXBXBXBXBXBXBXBXBXyXyXpXpXpXiXdXiXnXqXdXFXFXX *.LX&Xb.#XC.3Xb.p a x %.9XhX=X=X0X5X3XwXwXxXwX0XAXvX3XO.i %X3X$X|.%Xq.+.p &XFXVXgX8XrXyXaXyXyXyXfXeXyXmXBXmXmXdXyXyXyXyXyXuXuXyXyXuXdXsXgXsXdXdXiXyXdXyXaXaXaXaXaXaXaX7XyXyXyXyXyXyXyXpXyXyXnXBXBXZXCXZXCXmXDXmXCXDXSXKXO.  7 3XvXwXqXDXVXDXDXAXFXAXLX3X%X2X;X;X;X;X:X-X-XlX).$ < ).-XW.`.].'.`.].].~.~.~.W.I.W.~.~.I.U.R.R.U.U.U.U.I.I.Y.Y.I.R.Q.Q.R.I.Y.U.Y.2.K.Y.2.Q.R.I.R.5.2.Y.I.K.4.2.H.H.2.2.1.4.1.>.1.2.1.>.=.=.=.' ` -.7.I U I F F U A 4 9 A ^ I Z 9 Z Z C 9 3 > * > * * * * * * * * * * * - $ * - < % % 1 M M I R T R I I T L M 5 1 , 1 3 9 M M 3 * % % $ ",
"R T T V 5 C > $ < * 9 9 9 Z 9 Z 9 < 9 A A K ' ` ` ` C % % $ $ 1 1 < > > , , * * < - 8 S 9 * * * < 1 3 3 3 3 9 C 9 M 9 9 M 4 9 F 6.-.R I -.=.>.,.>.,.2.4.1.,.,.5.2.2.2.2.2.2.2.2.2.1.1.5.=.R 4.P.L K ,.P.P.P.5.6.Q.E.E.J.P.Q.R.E.E.R.P.I.U.I.W.I.W.R.R.W.R.R.E.Q.Q.Q.Q.!.)..X-X-.% 6 P.-X'.'.!.(.,X>X:X<X>X:X<X>X;X:X1X_.*XKXSXFXgXDXNXFXFXbXKXxXy 7 @.JXNXmXMXCXmXBXmXgXsXsXsXiXsXdXVXSXvXLX@.. 8 & o & 8 o ; & & = o % % o 1 D H ....;...D o o O r 7 r H ~ r 8 G ;.H & _ o._ H ..y o & ; ; 2 % o o o o & & o y & & o o o o o o ..:.....- o & & o o . @ &XDXyXyXyXyXyXyXyXyXyXyXyXyXyXyXyXyXyXyX9XrXyXyXsXmXBXBXmXmXmXmXNXNXNXNXBXNXBXBXBXBXNXNXBXBXBXBXBXBXBXBXBXBXBXBXBXBXBXBXBXCXCXCXBXMXmXmXBXBXMXMXmXMXBXMXBXBXBXBXBXBXBXBXrXtXyXyXyXyXyXyXiXyXaXbXSXX &.PXKXSXHXKX*X@ o .   + 0XZX9XgXqXqXcXbX0X0X*X&X#X{.t.t : %X3X4X}   +XAXAXSXHXnXgX9XyXiXyXyXyXyXfXeXsXBXBXgXdXyXrXdXyXyXyXyXyXyXuXnXmXBXDXmX9X9XyXyXiXyXyXyXyXyXyXyXdXyXyXyXyXrX7XpXyXpXdXnXmXmXmXmXZXMXCXNXDXZXDXDXFXHXe.~ y y O . 5XFXSXSXFXAXvX3X3X2X:X<X>X>X-X;X<X;X-X(.6.5 6 E.;X~.`.`..X].`.~.`.~.W.W.W.~.~./.U.U.U.U.U.U.U.U.R.U.I.Y.P.Y.K.K.J.Y.J.Y.Y.Y.T.T.2.P.J.Y.I.2.H.Y.4.2.1.1.4.H.2.H.1.4.1.1.2.2.1.1.1.>.1.-.` ,.7.I -.-.U F I F 4 8 Z A A F U F e 8 9 9 1 * < > * * * * * * * * * * * * * * - $ $ < % $ A I P R I P m m 4 M M 1 9 3 N N 9 1 * * * * ",
"' T =.T T -.9 $ < * 9 Z C C 9 9 4 $ $ > 6 S T T T =.A $ < 3 > < * * * * > * * * * * 9 F 9 * * < 1 3 4 4 3 3 9 C C Z 9 C F F F ^ -.-.-.-.-.=.,.J.R ' ,.,.-.,.,.,.2.2.2.2.2.2.2.2.2.2.1.H.4.J.R.4.5 5 =.R.Q.P.4.K.5.>.5.K.P.R.P.I.I.I.P.R.U.I.W.I.Q.U.R.Q.Q.Q.Q.Q.'.'.Q.I.'.!.-X` $ 5 E.-X!.(.(.-X>X;X-X>X;X;X<X-X,X;X1X%X3XKXKXDXDXZXVXHXcX&.O.8.u 7 @.JXNXmXBXCXBXZXZXBXBXCXBXmXgXdXcXSXxXPX8.. = * - ; ; o ; o % * % & & o & ; ; & 8 H ^ U o o & O o D ~ ..^ ^ ^ :.H % D H ..0._.D o ; e 8 2 o o & & o & o o t 0.0.H o o e H H ..U - - * * - - 2 O   X =XFX7XyXyXyXyXyXyXyXyXyXyXyXyXyXyXyXyXyXyXyXyXyXsXnXnXnXmXnXmXmXmXNXNXNXNXNXBXBXBXNXNXNXBXBXBXBXBXBXBXBXBXBXBXBXBXBXBXBXmXmXBXmXnXsXyXyXnXnXgXsXsXsXsXsXdXdXdXpXpXpXpXpXtXtXuXdXaXyXyXyXyXdXdXdXSXX } *XcXFXbXHX=X  y D w + wXbX8X9X=XqXbX=Xe.w.g @   O ; o & |.%Xt.O.} &.FXHXqXiXiXsXrXdXyXyXyXuXsXfXqXmXBXnXyXdXyX7XyXyXyXyXyXyXyXgXBXmXNXDXBXyXyXsXyXiXiXyXyXyXyXyXyX7XyXyX7XyXsXyXMXBXCXCXBXBXCXCXCXZXhXCXmXCXNXCXZXNXJXvXLXPX:.. + *XKXFXGXKXAXxX%X).:X-X,X>X,X-X<X-X<X-X` 3 < m 5.>X`..X~.^./.~.~..X/.W.~.`.`.~.I.U.U.I.I.U.I.I.U.Y.I.I.R.Q.W.I.J.J.W.I.Y.Y.Y.I.J.I.Y.1.1.2.2.J.2.K.J.4.2.H.4.1.4.1.4.2.1.2.1.<.1.1.<.>.=.I -.7.` I I U I -.I C Z S e 9 U ..F 1 - Z Z 9 1 1 < > < * * * * * * * * * < * $ * * * * $ $ A ^ P I P L $ > 1 A M 3 N 1 , > * * < 9 A U ",
"R ' P T -.L < o * % 1 Z 4 9 S 9 4 1 < * 5 Z L ' -.-.S > > > * * * * * < < < * * $ < C F Z 1 * < > 9 1 3 9 9 Z M M M M M U -...-.^ I -.=.P -.5.1.' ,.1.1.,.P I 4.4.1.,.1.2.2.2.H.,.,.1.J.5.J.J.4.m < ,.E.5.K.P.W.H.2.I.P.5.Y.Y.I.U.I.I.I.I.U.U.U.R.R.R.U.U.W.~.(.~.Q.!.R.~. X.X>.% 6 E.'.'.(.].`.>XXX;X,X,X,X,X-X,X>X:X%X3XLXKXHXSXFXVXJXKXw   y i . z SXFXNXBXDXNXNXBXBXBXBXBXBXBXyXVXHXwXxXO.. ; % & ; & % & o & % o % % % o o o o & H ^ H % % & & & & % o 1 ~ X.;.D ; D ....0.t.t o - % & & t Y _ : o o : . _ |.%XH o ; D -.:.- & % $ * - - & o o     =XFXdXyXuXuXyXyXyXuXyXyXdXpXyXyXyXyXyXyXyXyXyXyXyXyXyXyXyXyXiXnXBXDXZXDXBXBXZXZXBXBXBXBXBXBXBXBXBXBXBXBXMXZXZXZXZXZXBXBXBXBXCXBXmXsXyX9XmXgXpXyXeX7XeXrXrXrXrXrXrXrXrXrXtXtXyXyXuXyXyXyXpXyXyXFXAX@   + $XwXwXJX3XX   O   @ &XcX8X8X=X0XwX3XO.p u : O : 8 % 3 < %   xXJXSXBXBXgX7XyXsXrXpXyXuXyX7XsXBXCXsXyXyXyXyXyXyXyXyXyXyXrX7X7XsXDXBXdXyXiXyXaXdXyXpXiXyXyXyXyXyXyXuXeXyXyX9XrXpXBXBXBXBXBXBXCXCXCXCXCXDXDXCXCXCXCXNXFXKXLXLX}   O 3XLXLXvX+X4X1X-X:X>X-X-X>X>X:X,X-X,X).E.m 5 < 5.-X.X.XXX~.I.R.^.~.^.~.~./.W.W./.U.U.U.U.I.I.I.U.I.I.I.I.T.W.W.W.J.J.Y.I.I.J.G.G.I.Y.1.1.J.H.H.Q.Q.P.J.1.1.2.2.1.2.2.2.1.3.3.1.1.1.1.>.` T ` =.=.K I U ` 7.^ S 3 8 9 r F U S 8 < S Z A Z 1 * * < * * * * * * * * * * * * * * > > $ % Y -.I -.I A < 1 9 Z M 9 9 1 3 * < * % S -.T ",
"R ' P P =.T A Z C $ * 9 1 1 C 4 4 4 < > < 4 S A A J 4 $ * < * * * * * * < < * * < < 1 9 9 4 1 4 1 3 * 1 3 3 C C C M M M U -.....-.-.,.=.T ,.P.4.5.5.L 5 S R -.,.2.1.1.1.2.2.2.4.H.2.2.4.4.5.K.J.4 < -.5.4.K.J.2.Y.H.I.P.Y.I.I.I.U.U.I.I.I.U.U.U.U.R.R.U.I.U./.~./.W.!.R.!.(.'.>.$ 6 Q..X'.(.].'.XX.XXX>X:X,X,X;X-X<X>X1X2XUX3XxXFXJXcXxXxXO.y w } p *.SXSXZXBXBXNXNXBXBXBXBXBXBXnXgXFXcXO.O.7 : & % & - % & ; ; & & * & & & & & & o & H U D % & & & & & & & 8 U ..;.t & D ....7.0.H o o - o % 0.|.7.7.0.: + o 7.%X%XH o 8 r H H % % $ * * - - & . ~ e.*.wXqX8X9XuXyXyXuXuXuXuXuXyXyXyXyXyXyXyX9XyXyXyXyXyXyXyXyXyXyXiXgXnXnXnXNXNXNXNXNXNXNXBXBXCXCXCXCXBXBXBXBXCXZXZXmXmXBXBXBXmXBXBXmXnXgXsXdXsXuXyXyXrXrXyXuXuXyXyXyXyXyXyXuXtXtXyXyXuXuXuXuXsXpXrX0XqXc g g $X*XwXJXwX*.w.O.| | *XqX8XqXqXcXwXq.X o & : u + ; & 1 * ; 7 xXbXsXhXBXhX7XyXsXpXeX7XyXuXaXsXnXBXsXyXyXyXyXyXyXyXyXyXyXyXdXdXsXmXBXyXyXiXyXaXdXyXyXtXyXyXyXyXyXrX8XuXuXpXiX9XyXBXBXBXBXBXBXCXCXCXCXCXDXDXDXCXCXCXCXFXFXHXAX+.+ w $XxXUX3X2X%X-X<X;X,X,X,X<X;X-X;X-X,X).E.m 5 < 5.>XXX'. X/.U.R.~.~.~.].].~.W.I.I.T.T.T.T.T.T.T.T.I.I.I.I.I.I.I.I.Y.J.K.Y.K.J.J.K.I.R.H.1.K.K.G.J.P.K.4.1.1.4.2.1.2.2.2.3.3.3.1.1.<.1.1.,.-.=.=.=.T ` Y K I U F F S C e F U F 9 1 Z M Z Z 9 1 < * * * * * * * * * * > * * * * > > < > S K A K Y S > > 9 M 9 9 9 1 * % > < 6 S ' T ",
"T ` T P E R R -.L * % < < 4 C 9 1 4 1 < < < 5 5 > 5 6 $ > < * * * * * * * * * * 1 < * < 1 9 C C 1 1 > 1 1 > 9 9 Z M M 9 F ..^ I -.,.4.>.' 4.R.4.>.1.S % 4 ,.4.R 4.1.1.2.2.2.1.2.H.1.2.4.2.J.K.K.5 5 R ,.4.I.K.2.Y.J.Y.P.P.U.I.I.R.U.I.I.U.U.U.U.U.U.U.U.I.I.R.W.W.~.'.(.(.(..X1.6 5 Q..X'.~.(.`.`.]..XXXXX>X,X>X;X<X-X-X1X%X%XAXJXAX*.X z #XAXAXJXSXVXFXnXmXBXNXNXNXBXBXBXBXMXMXnXbXHX5XX   . 8 & % & - % & 8 9 8 8 8 1 & % % & & o ; H ^ H & o & & & & & & - e D H ; & H 7.7.0._.7.o & e o o 0._.O.zXIXi . o _ :X%Xt o 2 1 ; % ; ; - * * * - & O +XLXAXFXgX9XgXrXyXyXyXyXyXyXyXyXyXyXyXyXyXdXaXyXyXyXyXyXyXdXdXiXyXyXyXiXiXiXdXyXyXyXyXyXyXyXyXBXBXBXBXBXBXMXMXCXBXnXiXyXyXyXyXyXyXyXyXyXyXyXyXyXyXyXyXyXyXyXuXuXuXuXuXuXuXuXuXyXyXyXyXyXyXyXyX9XiXsXyXHXvXKXPXz a C.FXbXcXJXvXAXAXcXqX8XwX3X .$Xz X : O H $X{._.%X_.8 . + vXVX9XyXsXsX9XyXyXyXyXrXdXBXMXnXgXgXpXrXyXyXyXyXyXrXsXmXmXmXBXBXsXyXcXyXyXyXyXyXaXyXyXtXyXyXyXyXyX9XsXBXsXnXBXhXmXZXZXZXZXZXBXCXCXCXBXZXDXDXDXCXZXZXZXmXDXFXJXwXxXxX  7   y <X;X-X;X-X;X-X-X-X-X:X,X-X,X).Q.S 5 6 1.>XXX.XXX X!./.W.].~.W.T.T.I.I.I.U.U.I.I.I.I.I.I.I.T.T.T.I.I.Y.Y.I.Y.K.K.K.K.K.K.2.I.J.2.H.H.1.H.J.H.1.1.4.4.4.2.2.2.2.3.3.3.1.1.` ' ,.1.-.T P T ` =.K K U Y ^ -.U r 8 S U A 3 1 9 3 9 S Z 9 1 * * * * * * * * * > > > > * * > > $ $ < < > < < < 9 9 M 9 < * * * 1 $ M U K L T L ",
"T ` R T R R E -.Y > % % % 1 9 9 1 4 1 < < < < > $ < 6 $ < < * * * * * * * * * * 4 1 < < 1 9 C C < 1 3 3 1 1 9 4 C M C 9 S ^ ^ ^ I ` 1.1.>.4.K.2.,.2.A % 5 R ,.=.2.1.1.2.H.2.1.1.1.1.4.J.4.4.4.1.5 5 P -.1.R.P.I.J.J.J.J.P.I.I.I.R.U.U.U.U.U.U.I.U.U.U.U.I.I.I.I.U.~.XXXX.X^..X1.6 5 Q..X'.~.~.`.`.~.`..XXX>X,X>X,X>X-X<X<X%X1XIXLXPXw.  X B.KXJXHXHXCXDXgXmXBXBXBXNXBXBXBXBXBXBXFXSXJX5XX + : ; - & & & % * 8 e r r r 8 - % % % o o ; H H D & o & % % % & & & * - - o o D _ _ _.|...o o & % : 0.|.r.PXIX:   o 7.%X:Xt o - , * o o o % * * * ; ; o %XLXGXNXqX7X7XeXrXyXyXyXyXyXyXyXyXyX9X9X9XyXyX7X7XyXyXyXyXyXyXyXyXyXyXyX9X9X9XyXyXyXyXyXyXyXyXCXCXCXCXCXCXBXBXDXCXmXiX9X9X9X7XyXyXyXyXyXyXyXdXyXyXyXyXyXyXyXyXyXyXyXyXyXyXyXyXyXyXyXyXaXyXyXyXuXtXpX8XcXVXKXKXw   B.JXSXcXGXGXAXFXqXqXqX0X3X+ X   . :   t 3X4X%X+Xt.u . @ cXFXyX9X9X9X9XyXyX7XyX7XdXBXMXdXeXeXyX9XyXyXyXyXyX7XsXBXCXBXDXDXnXeXdXyXyXyXyXyXaXyXyXyXyXyXyXyXrXrXdXBXhXBXDXmXZXhXZXZXZXZXZXCXDXZXZXZXDXDXDXCXZXZXDXFXFXSXFXAXAX3Xw : O H xXzX<X-X>X>X;X:X-X:X:X;X-X,X).Q.S 5 6 1.>X X(..X.X(.!.Q.`./.I.Y.Y.Y.I.T.I.I.I.I.I.I.I.I.I.T.T.W.T.I.I.Y.Y.Y.I.I.Y.J.J.J.I.Q.K.H.J.H.1.2.H.4.1.1.4.4.2.1.2.2.2.3.3.3.1.1.<.>.,.4.,.' P T ` =.P I R I -.6.I Y S S U F 1 1 3 1 9 Z Z C 9 > * * * * * * * * > > > > * * > > > < > $ $ $ $ < C Z Z 9 1 * * $ > % 4 R T L P P ",
"T ` ` R R T I T L S S < % 1 9 9 9 9 3 1 < 1 < > > < < > < < * * * * < * * * * < 4 9 9 9 9 9 9 4 < 1 4 1 9 U U Z 4 9 F F F ^ ^ -.P T -.1.,.1.H.H.1.4.=.P P J C T 4.2.2.4.4.2.1.1.2.2.J.J.4.2.1.-.5 $ J =.1.P.K.I.J.J.J.J.K.Y.I.U.U.U.I.U.U.U.U.I.U.U.R.R.U.I.I.I.Y.W.`.'.(./. X1.6 5 Q.XX'.~.~.'.`.~.~.'.XX>X,XXX,X>X<X<X<X<X2X%X_.%X3X@X#XwXSXSXSXZXZXDXZXCXVXCXBXBXBXBXBXBXBXBXnXVXJX3X  : : & * & % % & ; 8 9 r e 9 8 1 - & o o & % e y r ; - & % % & * - * & o & * - 8 & t :XxX0.% % t _.|.+._ N.IX2Xk w y 7.:X2XH o - 1 9 & & ; ; < - - : :   %XLXSXNXiXiXrXyXuXuXyXyXyXyXyXsXgXnXsXdXyXyXyXyXyXyXyXyXyXiXiXyXdXsXnXsXyXyXyXdXdXaXaXyXyXyXyXmXmXmXmXmXmXnXmXmXmXgXdXyXiXiXyXuXpXdXdXaXaXaXdXyXyXyXuXuXyXyXyXyXyXyXyXyXyXyXyXuXuXuXuXuXuXuXyXsXrXpX7XyXiXdXSXi : r.xXxX3X3X3X+X#XC.#XB.&.r.p a + . + . u 4X+X_.+ : r.3Xv.dXnXsXyX7X9X9XyXyXyXiXyXdXBXMXdXeXyXyXrXyXyXyXyXyX7XyXBXBXnXmXBXgXyXyXyXyXyXyXaXdXyXyXyXyXyXyXyX9XyXyXnXgXNXNXnXFXCXZXZXZXZXZXZXDXZXZXZXDXDXDXZXZXZXmXZXZXmXDXSXSXvX$X8 D S E.7.6.,X-X-X-X;X;X:X:X-X-X,X(.!.m 5 6 1.>X(./.!.^.^.(.^.^.W.I.I.U.U.I.I.I.I.I.I.I.I.I.I.I.U.I.W.W.T.I.I.J.I.W.R.Y.J.J.K.Y.H.<.1.K.J.1.1.4.2.4.4.4.4.1.1.2.2.2.1.1.1.1.1.2.>.>.,.,.=.T T ' ' P T R U I ^ -...^ F F F 9 4 Z C Z Z M 9 4 > * * * * * * * * * * * * * * > > > 1 , > < > , 3 1 3 4 3 1 < < < 3 % 5 L P K L T ",
"` ` R R R R T T ' -.-.C % < 3 3 Z 9 4 1 1 1 1 > > < > > > > * * * * < < * * < < 4 9 Z Z C 4 1 < 1 < 1 < Z -.-.U < 9 U -.^ ^ ^ -.-.=.>.4.1.1.J.I.<.>.1.P.K.V % C H.2.2.4.2.2.1.1.4.1.4.H.4.H.H.1.5 % S =.4.E.5.1.J.Y.J.Y.Y.K.I.R.I.I.I.I.U.U.U.I.U.U.R.R.U.U.I.I.I.W.Q./.!.R..X5.6 5 !.-X'.(.(.`.`.'.(.(.XX>X>XXXXX-X<X;X-X<X2X7.. w 3XLXJXFXSXFXFXNXnXMXMXBXVXFXBXBXBXBXBXBXBXBXVXSXLXwX  o O ; & & % & - 8 e 9 r 9 8 8 8 2 * % & & o % o ; 8 r ; & % & & % & % o 2 H H y . 2 2XPX0.    H xXzX:   B.PXIXzXxX2XlX:X2XH . - 2 D 8 H D 9 < & & & : o $XLXSXHXCXCXCXyXpXdXyXyXyXyXyXBXBXDXDXmXdXyX7XyXyXyXyXyXyXiXiXyXdXnXmXnXdXyXyXyXyXyXyXyXyXyXyXrXyXrXrXrXrXrXrXrXyXyXyXyXyXyXyXyXyXyXyXyXyXyXyXyXyXuXuXuXuXuXuXuXuXuXuXuXuXuXuXuXuXuXuXuXuXyXyXrXeXpXsXpXyXyXKXi O : + O w X       &.#X .  7 :.IX@XO     p 3X3X4XO   *XLXqXdX7XyXyXyXyX9X7XdXnXmXmXmXMXnXsXyXuXyXrXyXyXyXyXyX7XdXBXBXsXpXsXpXyXyXaXyXyXaXaXdXaXyXyXyXyXyXyXyXdXnXNXDXDXFXDXNXVXZXZXZXZXZXZXZXZXZXZXDXDXZXZXZXZXDXZXhXhXnXgXSXLXIX% < 3 < o K lX>X-X-X-X-X-X:X-X-X>X(.!.V 5 6 7.-X(.~.).^.(. X(.`.!.T.U.U.U.I.I.I.I.I.I.I.I.I.I.U.U.I.I.T.T.W.W.J.I.T.I.J.K.I.R.,.,.,.4.J.2.1.H.4.H.4.4.4.2.1.1.2.1.1.1.1.1.1.1.1.' R ' >.-.=.' =.` L L K A A Z ..;.;.F F U 4 4 U F F S 9 9 3 < * * * * * * * * * * * * * * > > $ * * > > > > > $ * $ $ $ $ % % 6 % 5 P R P P T ",
"` R R R R R ` E T T -.C % $ $ * 9 9 1 < < 1 1 > * * * > * * > > * < < < * * < 1 9 9 Z A Z 4 < 1 1 < C 9 S -.-.F 1 3 U -.-.^ I -.1.,.1.1.<.<.H.Y.2.<.-.5.5.m $ K H.4.1.2.2.1.1.2.1.,.1.2.1.4.J.5.5 % K -.,.P.5.=.K.I.J.K.I.Y.I.I.P.P.I.I.U.U.U.I.U.U.U.U.R.R.U.I.W.W.U.Q.~.!.-X5.6 5 !.XX'.).~.(.`.'.'.(..X-X;X-X<X<XlX<XlXlXlX0..   *XKXHXFXSXFXZXnXZXCXCXCXNXBXBXBXBXBXBXMXBXNXHXxXxX*XX + % - % * ; ; 1 8 9 9 r e 9 e r e 2 ; o - o & o ; e D 8 % o & % o % * & e ^ ..S . y UXUXO.. . i zXxXp   +XxXUXUXUX2X2X4X2XH o 2 - r 8 D Z 8 < * ; ; : . | v.C.bXmXgXhXsXsXsXdXyXyXiXdXnXBXBXBXbXdXqX9X9X9XyXyXyXyXyXyXyXsXNXBXVXaXyXyXdXdXdXdXdXdXaXaXyXyXyXyXyXyXyXyXyXyXyXyXyXyXyXyXuXpXdXaXaXuXuXuXyXyXyXyXuXyXuXuXuXuXuXuXuXuXuXuXuXuXuXuXuXuXuXyXeXuXyXsXyXyXrXSX~ - y O . t.2X%X@ + vXLX*X    :.LX$X      w $X$X%X+   B.KX8XyX8X7X9XdXsXyX9XyXmXBXCXmXpXyXrX7XeXyXrXyXyXrXyXyX7XdXBXBXsXyXyXyXyXyXyXyXyXaXdXdXaXyXyXiXiXdXsXnXVXbXFXHXFXJXHXAXHXSXZXZXZXZXZXZXZXZXZXZXDXZXZXZXZXmXhXZXDXDXZXSXPX3X% S U 5 3 I ).-X-X,X,X-X-X;X:X-X>X(.!.S 5 6 ,.-X.X.X.X X(.^.~.`./.U.Y.I.I.U.W.I.I.I.I.I.I.I.I.U.U.I.I.I.I.W.W.J.Y.Y.J.J.K.K.J.H.K.P.K.4.,.1.H.2.2.4.4.4.4.4.4.4.1.1.1.1.1.1.1.1.<.>.>.1.1.,.>.` ` K K Y K U S ^ -.-.F U U 1 3 U F F C 4 4 9 1 * * * * * * * * * * * * * * > > * > * 1 , > 1 > * > $ $ $ $ $ $ $ % 5 L R T T P ",
"R R ` ` R R R R R T =.S 6 5 > 1 3 1 < > < 1 1 > * * * < * * > > * < < < * * < 1 C 9 9 Z C 4 1 4 - 3 U F Z F A 9 9 1 U -.-.^ I -.=.-.<.>.[ [ <.<.>.1.>.5.4.C 6 J J.H.1.1.1.1.1.2.H.2.2.2.1.1.1.,.< % K =.' 5.5.' P.R.H.J.T.I.I.Y.P.P.P.I.U.U.U.I.U.I.I.U.R.R.U.U.W.W.I.!.`.^.-X5.6 5 !.XX(.!.!.~.~.'..X(. XXX-X;XXX^.5.,.5.` 6.:.q.i =XAXGXFXFXZXDXNXCXmXhXCXBXBXBXBXBXMXMXMXBXNX0Xx w p   ; % o & 1 8 8 8 8 8 8 8 8 8 e Z D D Z o ; & 8 - 2 r r ; o o & & & 2 r D t D t 2 . w UXzX3X2X3X$XzXUXq.+.*XIXxXIXzX2X4X2X2X_ : S - e 8 e r F U U D 8 O O O   @ 8XCXsXpXMXBXmXnXsXsXnXmXBXCXDXBXNXnXnXNXNXNXNXNXNXBXBXNXsXnXBXBXmXdXyXaXyXyXyXyXyXyXyXyXyXyXyXyXyXyXyXyXyXyXyXyXyXyXyXyXyXyXyXyXyXyXuXuXuXuXuXyXyXyXyXyXyXyXyXyXyXyXyXyXuXuXuXuXtXtXuXyX7XnXyXyXeXsXpXSX~ : O.} : %XLXLX+ + PXLX#X@   O.vXr.p w.w.w.3X%X+Xw X v.SX8XyXyX7XyXsXnXnXiXdXnXBXDXBXyXeXyXyXyXyXrXyXrX7XyXyX7X7XgXnXyXyXyXyXyXyXyXyXeXaXdXaXyXyXyXsXsXsXnXCXFXSXFXqXb.@.$.e.SXSXSXZXZXZXZXZXZXZXZXZXCXZXZXZXMXCXZXmXbXVXFXbX3X1X0.-X5.$ m S 3 -.5. X,X>X-X-X-XXX-X(.).S 4 6 -.-X.X X(./.R.Q./.W.U.I.U.U.I.I.I.I.I.I.I.I.I.I.I.R.U.I.Y.Y.I.I.W.J.J.J.H.J.J.1.=.4.1.>.=.1.J.H.1.1.2.2.2.4.4.4.4.4.1.1.1.1.1.1.1.>.>.>.>.,.,.>.' P T P L P =.7.I ....-.H ^ U 1 M F S C 9 3 9 9 1 * * * * * * * * * * * * * * > > > > * < * $ 3 > > < $ < m S A K I J K P P P P K ",
"R R R R E R R R T T T I R A < < > > > > > > > > * * * * > > > > < < < < * $ * < Z 9 9 9 9 3 4 C 1 e I ..A 3 1 1 1 U ......U Y I ' 4.2.<.G.>.R ' =.1.,.4.4.S 6 J H.1.1.1.1.2.4.1.2.2.1.1.1.1.H.J.S 6 $ % J 2.-.5.K.J.K.P.K.J.Y.I.I.U.R.R.R.R.U.U.I.I.I.I.I.I.I.I.W.Y.U.~.Q.`.XXP.6 5 E.(.5.5.5.!.'..X(. X^.-X.X X>XP.% 6 5 $ % 6.IX3XxXGXAXFXFXSXFXNXmXZXMXBXCXBXNXZXCXCXZXgXmXDXHX@   . o & o % & ; 9 r r 9 9 9 9 8 8 8 8 H U r o ; ; & - 2 8 r ; & o o o & 8 H G r D H :   y 3X2XIXLXLXIX|.N.IXPXxXxXIXIXIXUX2XUXzX_.t.6.& ; r r Z F D D D 8 o O : X X SXmX7XyXCXnXnXBXBXBXDXCXBXBXBXBXNXBXCXDXBXBXCXCXZXBXBXNXZXmXBXBXsXyXyXyXyXyXyXaXyXyXyXaXyXyXyXyXyXyXyXyXyXyXyXyXyXaXyXyXuXuXyXyXyXuXuXuXuXuXuXuXuXuXyXyXyXuXuXuXyXyXyXyXyXtXtXtXrXrXyXyXuXsXaXuXyXeXpXFXO.  +XIXp r.LXPXw X  .3X&.@ @ + X @ xX3X=X3X$X$X+Xa   V.VX8XuXyXyXdXmXBXCXCXBXmXsXpXiXyXrXrXyXyXrXrXrXyXyXyXrXrXyXrX7XrXyXyXyXyXyXyXaXyXyXaXdXaXyXyXnXDXNXFXSXFXKX=XxXp   @   LXFXSXSXZXZXZXZXNXZXCXCXCXZXZXCXCXZXNXNXbXGXwX*X4X%X1X:X-X-XA Z 5 6 S E.-X.X!./.!.!.XX.X~.A 5 < ,.>X.X(.~.Q.~.~.R.R.U.U.U.U.I.I.I.I.P.I.R.I.Y.I.R.W.I.Y.J.H.I.Q.I.W.J.1.K.P.1.=.1.J.T 5 6 >.,.4.1.4.2.4.H.4.,.4.4.1.4.1.1.4.1.>.>.' 1.' T T R ,.1.R ' P P ` ` 7.6...;...H ^ U Z M 4 1 4 9 4 9 C M Z < * * > * * > * * * * * * * * > > > > > * * * * $ Y I L I L L P P P P P P P P ",
"R R R R E E R R R T T P R A < < > > > > > > > > * * * * > > > > < * * < * * 1 4 Z 9 9 Z 9 1 1 9 1 e I ..F 4 4 9 3 U ....-.U A I =.1.1.>.>.' E ' >.' ' K.J.m % P J.4.4.4.1.2.4.1.1.2.2.1.1.1.H.H.K Z 5 % S 1.1.P.1.J.P.K.P.W.!.~.U.P.P.U.R.I.I.U.I.I.I.I.U.I.I.I.U.I.I.!.!.~.(.E.5 4 E..XK.5.5.!.'.XX(..XXX<X,X-X<X!.5 5 e 4 $ 7.IX3XxXxXAXKXJXHXHXDXZXBXZXCXCXBXDXZXmXmXMXnXNXFXJX+ . + O & o & ; 1 8 e 9 9 9 e 8 8 r e Z ^ ^ r % - & % - 2 ; ; & o o & 8 D D D D r u D : . t 3X2XxXPXGXxX|.|.xXGXIXIXxXIXGXIXzXIXIX|.0.7.% - e r Z F F F H r o : 7 . X AXbX7XyXsXyXdXmXNXBXCXBXBXBXBXBXBXNXBXBXBXCXDXDXDXDXDXCXBXnXNXBXsXyXuXyXyXyXyXyXyXyXyXqXyXyXyXyXyXyXyXuXyXyXyXyXyXyXyXyXuXuXyXyXyXuXuXuXyXyXuXuXuXuXyXyXyXuXuXuXyXyXyXyXyXuXuXuXuXuXuXuXyXaXuXuXyXrXpXFX@.+ @XwX@ p B.e..   #XvXi   @       =X3X*X3XxXUXr.+   b.NX7XeXyXyXsXNXDXDXDXDXBXpXiXyXyXrXrXyXyXrXrXrXyXyXyXrXrXyXyXyXyXyXyXyXyXyXyXaXaXaXaXaXyXqXyXsXZXDXHXSXJXwX .w.p   X # JXFXSXSXZXCXZXZXZXBXBXCXCXZXMXZXZXNXFXHXGXLXxX$X_.1X.X-X-X-XI I 4 6 $ -.(.-X:X-X-X!.).(.'.P 5 6 =.>X(.~.^.~.!.!.Q.R.U.U.U.I.I.I.I.U.U.R.R.I.I.I.I.R.I.I.P.J.J.I.J.Y.J.H.J.P.P.5.4.P.' 5 5 ,.H.J.2.4.2.2.4.1.1.4.4.4.4.1.1.2.1.>.<.<.2.>.` R T T P ` >.T T =.=.7.6.-.7.-.U U U N 4 4 3 9 C 9 M C 9 M 1 * * * * * * * * * * * * * * > > > > * * * * * $ Y I L I L L P P P P P P P P ",
"R R R R E E E R ` T T P I Y 5 < > > > > * * * * , , * * * * > > * * * < 1 1 9 9 C 9 Z F Z 1 < 8 1 e U ^ F 1 1 Z 8 U ..-.-.K J ' 1.1.<.>.' ' >.<.1.1.-.1.,.m $ J J.4.4.1.,.1.1.1.1.1.2.2.2.2.2.2.=.-.C % V 1.,.1.E.R.P.J.4.J.I.W.W.J.J.I.R.I.I.R.I.I.U.U.U.U.U.I.I.U.I.W.W.5.>.' 5 5 E.-XR.P.E.!.XX!.` ` ` -.` I ` =.S 9 U 6...E.lX:X2X2X3XxXwXxXAXSXNXNXCXDXCXBXnXmXZXDXCXCXVXSXKX@   + O & & & 2 8 8 8 8 8 e r 9 9 r e Z ^ ^ r % * & % * ; & o & ; y r D D D t t u t u : o y 3X4XxXPXPXIX$X%XzXPXIXwXUXxXGXGXIXPXPX|.0.7.% - D 0 D F F F H r o O O     cXbX7XyXyX9XiXnXnXmXmXnXsXnXmXNXNXNXNXNXBXBXBXNXNXBXNXmXNXNXBXBXmXnXnXnXmXnXVXnXnXmXsXyXyXyXyXyXyXyXyXyXyXyXyXyXyXyXyXyXyXyXyXyXyXyXuXuXyXyXyXyXuXyXyXyXyXyXuXuXyXyXyXyXyXyXyXyXyXyXuXuXyXuXyXyXyXrXtXCXO.+ @XAXB.B.&.%.e. .3XxX&.&.e.O.e.e.*X=X3X*X4X+Xq.v.&.&XnXrXsXhXnXnXBXDXBXmXnXsXyXyXyXyXyXyXyXyXrXrXrXrXyXyXyXyXyXyXyXyXyXyXyXyXyXyXaXdXyXyXaXdXdXVXnXNXDXcXV.@XB.@ a  .O.g  .SXDXSXZXZXZXCXDXZXMXMXCXCXCXCXZXZXSXKXxX3XxXxX2X-X:X.X:X>X>X.X.XC A 6 Y -.-.,.1.R.~.R.Q.(.L 4 5 1.,X~.!..X.X~.!.Q.U.U.U.I.I.I.I.I.P.I.I.Y.P.I.I.P.J.J.I.I.J.H.K.Y.J.P.J.1.J.R.I.4.,.' J S ,.1.1.>.4.1.1.4.1.1.4.1.1.4.1.,.1.1.<.1.<.<.R T ` R ' R =.>.P L T P -.-.-.7.-.U U F M 3 9 4 9 9 9 9 M 9 C 9 1 * * * * * * * * * * * * * * * * > * * > > > $ Y I L T L P P P P P L P P P ",
"R R R R E E E E ` T T P I Y 1 < < > > > * * * * , , * * * - > > * * * 1 9 9 9 C 9 9 F U F 1 1 9 U U ..-.L 4 9 U Z U ^ -.-.Y K =.1.-.>.>.` ' 1.1.-.1.1.1.,.S < J K.J.1.,.,.,.1.,.,.1.2.2.2.2.1.,.4.6.J % S 5.4.,.P.J.J.P.I.J.Y.!.I.Y.Y.I.P.I.U.R.I.I.U.U.U.U.U.I.I.W.P.U.R.] V 5 5 m Q.>X-X.X X(.:XP.6 $ 6 $ $ 6 % C 9 < -.2X<X<X-X-X:X%X%X%X+X$XKXKXDXVXNXDXBXCXCXDXCXnXgXNXVXJXLXw   O o & ; ; 8 8 8 8 8 8 9 r r e 9 8 Z U ~ D % * & % & * % o & r H H D D D D D G t D 2   w 3X2XxXIXIXIX$X%XzXPXIXwXwXGXKXIXxXPXPX|.0.7.% - D 0 Z F F G H y o & :     AXNXyXiXyXyXiXsXsXsXsXdXsXnXNXBXDXDXDXDXCXDXCXBXBXCXZXNXmXBXBXBXBXBXBXBXDXDXCXBXBXDXBXyX7XyXyXrXrXyXyXyXyXyXyXyXyXyXyXyXyXyXyXyXyXuXuXuXyXyXyXyXyXyXyXyXyXyXuXuXuXuXyXyXyXyXyXyXyXyXuXuXyXuXyXyXtX7XtXBX@.X @XJXAXAX3XwXbXwX3X3XwXGXPXGXAXJX*Xr.#Xr.@   O.KXSXbXBXhXCXDXCXCXDXBXnXyXyX7XyXyXyXyXyXyXyXyXyXyXyXyXyXyXyXyXyXyXyXyXyXyXyXyXpXyXyXyXyXyXdXVXCXDXBXNXFXwXa @ w   + 3XLXKXFXHXSXBXNXZXZXDXDXZXCXCXCXZXZXZXZXDXKXPX3Xq._.%X.X.X-X-X>X.X-X<X>X$ 5 $ m 5 % % $ I <X.X(.).K 4 < ,.,X~.Q.`. X~.W.I.U.I.I.I.I.I.I.I.K.I.I.Y.I.R.I.I.5.J.I.R.Y.H.J.T.P.P.H.,.5.R.P.5.K =.1.>.5.,.2.4.4.1.1.1.,.4.4.,.4.4.4.1.1.1.<.<.1.>.R ` ,.<.,.>.' =.K K P L P I -.7.-.I U U F Z Z M 4 1 1 4 9 9 C C 9 < > * * * * * * * * * * * * * * * * * > > > $ U I L T P P P P P P P P P P ",
"R R R R R R E E ` T T P I Y 3 - < < < < * * , * * * * * * * > > * * < 9 9 9 9 9 1 9 A U F 1 < e -...I I F 3 9 ^ U ^ ^ ..I K L =.=.T =.<.' >.2.2.1.,.-.1.1.Z , J R.K.1.,.1.4.1.1.,.,.1.2.2.1.1.<.4.5.J $ J ,.5.5.5.K.E.!.Q.H.>.1.J.P.U.Y.4.P.W.U.I.I.I.U.U.I.U.I.I.W.Y.U.!.1.K S m A E.'.(.-X(.Q.<X).S 4 4 C 4 5 5 Z m $ I <X>X;X;X,X<X:X1X%X%X$XKXGXFXZXmXZXBXDXmXZXNXmXZXHXSXKXvXi o o o o 8 8 8 8 8 8 8 8 9 9 e 9 e r F U U D % & - & % & & o e H H D D D D t G G u H :   y 3X4XxXGXIXxX%X$XzXLXIX*X*XGXJXIXxXGXPX|.0.7.o & r r D F G H H y o - : . X AXSXdXqXdXdXiXiXdXdXdXdXyXdXcXmXVXVXVXmXmXBXmXnXmXZXCXZXmXNXBXBXBXMXBXBXBXBXBXBXBXDXmXyXyXyXyXyXyXyXrX7XyXyXyXyXyXyXyXyXyXyXuXuXyXyXyXyXuXuXyXyXyXyXyXyXyXyXyXyXuXuXuXuXyXyXyXyXyXyXyXyXyXuXtXrXyX8XrXVX| . #XJXqXNXwX0XqXgX8X8XqX5X3XwXxXPX$Xq.|.t.    | JXFXVXDXmXmXmXBXBXBXBXgXyXyXyXyXyXyXyXyXyXyXyXyXyXyXyXyXyXyXyXyXyXyXyXyXyXyXyXyXyXyXyXyXyXsXNXFXDXNXbXHX0Xa X @ p @ &XJXHXHXcXBXBXNXBXZXZXBXZXDXCXZXNXBXSXSXSXKXLXxX_.%X-X-X;X>X-X-X-X-X:X.XA 6 C C < C Z 9 -.).).).).P S 5 ,.-X~.!.^./.U.I.P.I.I.I.I.I.I.I.I.I.R.I.I.R.R.I.R.I.P.P.I.I.J.J.K.Q.P.H.4.P.K.1.,.5 R P.5.K.,.1.4.1.1.1.,.,.4.4.-.,.,.1.1.1.1.>.>.>.>.' 3.K.2.,.' R ' K K T P T T -.7.-.I U U H F Z C 4 1 4 4 4 4 9 C 9 < < * * * * * * * * * * * * * * * * * * > > $ U R L T P P Q T Q Q T T P P ",
"R R R R R R E R ` T T P I U 4 - < < < - * * * * * * * * * * > > * < 1 9 C 9 9 9 1 4 Z U A 1 < C -.I Z C M < 4 ^ ......I P K K T T L ' ,.1.1.H.5.5.4.I A J A F R K.5.>.=.,.1.,.,.1.1.1.1.1.2.1.,.>.5.' K L J J K S E >.,.5.H.1.1.4.I.R.J.1.J.W.I.I.I.U.U.U.U.U.I.I.U.Y.U.!.I.5.' 6 4 I I -.6.7.-.-.-.e 5 A E.Q.P.,.P.).Q.).:X-X>X>X<X,X:X<X<X1X4X3X3XbXDXZXCXNXNXDXDXZXNXNXVX%.+ q.O o & & o 8 8 8 8 8 8 9 8 8 8 r e Z H H D 9 2 & & - & % & & o H U H r t D r t D G r D : . u 3Xr.xXKXPXIX4X4XzXxXUX$.k =XKXGXIXGXPX|.0.7.o & u t G H H H H y o o & . X AXFXNXNXmXmXgXiXyXyXyXyX7X7XyXyXyXyX9X7XyXiXiXiXgXNXZXNXZXCXZXZXBXhXhXBXBXBXBXBXBXCXBXsXnXmXnXnXmXmXsXyXyXyXyXyXyXyXpXdXyXyXuXuXyXyXyXyXuXuXyXyXyXyXyXyXyXyXyXyXuXuXuXyXyXyXyXyXyXyXuXuXuXiXtXtXtXrXrXmX*.a &.C.C.SXbXqXqXgXgXDXbX=X=X@Xp p u w y t o . z HXbXbXZXhXgXsXhXsXsXgXsXyXuXpXyXyXyXyXyXyXyXyXyXyXyXyXyXyXyXyXyXyXyXyXyXyXyXyXyXpXsXnXnXnXnXNXBXNXCXbXHXcXw + #XPX3XAXJXAXDXDXBXBXMXMXZXZXZXBXZXZXNXDXFXFXHXKX#X3X3X%X<X;X;X;X-X-X-X>X;X-X;X).'.-XI * F U 8 A Z K R -.M S 5 1..X`.'.^.I.Y.I.U.I.I.I.I.I.I.U.I.I.R.J.2.5.J.J.P.I.J.2.5.I.I.J.4.Q.I.J.J.K.,.K S 5 K 5.,.4.4.1.-.1.1.4.,.,.5.1.' J J T -.,.,.<.=.' >.' >.,.=.' T ' =.K K R T T T ` =...U H H F F Z Z C M C M 3 1 9 C 9 3 4 < $ * * * * * * * * * * * * * > > * > > $ U R P T P P T T Q Q T T P P ",
"T T R R R R R R R P T P I U 9 * < < < < * * * * * - * * * * > > < 1 4 9 9 9 9 C 9 9 Z U A 1 1 Z -.I M 4 C 4 M ^ -.-...I I K K K J K T >.1.1.1.2.,.4.K % < I 6.4.1.,.' T ' =.=.,.2.1.1.1.1.2.2.2.>.4.1.K.=.5 6 6 5 J J J T ,.5.J.J.P.R.Y.3.Y.W.P.I.I.I.I.U.U.I.I.I.I.Y.I.I.R.Q.,.$ < 1 < Z I A A 3 < 1 5 A (.;X-X5.).<XlX,XXXXX;X-X;X-X-X;X<X<X1X|.|.wXFXFXDXNXNXNXNXbXmXFXFX .  . . o % * % ; ; 8 8 8 8 8 9 9 8 r e D U H 2 % % & & * & & - - o r H H D D t D H D D t D : o y r.} 3XKXPXIX2X2X2X|.4Xk @ #XKXAXxXGXPX|.0.7.o & G t D G G H H y o & : O . vXSXFXFXCXCXnXyXyXyXyXyXyXyXyXyX9XqXqX9XyXiXiXiXgXZXDXZXCXZXZXZXmXpXpXBXCXBXZXDXCXCXCXBXCXCXCXBXCXDXmXyXyXyXyXyXrXyXdXhXyXyXyXyXyXyXyXyXuXuXuXuXyXyXuXyXuXuXuXuXuXuXyXyXiXiXyXyXyXyXyXyXyXyXtXtXiXrXiXBXFX=X&.X a AXSXGXFXgXgXmXVX5X=Xe.O . & & o & : . | JXSXNXNXnXmXnXsXrXrXpXyXyXyXyXyXyXyXyXyXyXyXyXyXyXyXyXyXyXyXyXyXyXyXyXyXyXyXdXsXnXBXBXBXCXBXNXDXnXFXbXFXcXw . e.LXKXJXHXbXbXDXCXCXCXCXCXCXCXZXmXmXZXFXFXHXKXPXt._.%X%X<X-X-X;X-X;X-X-XXXXX;X-X<X<XJ % M C C C $ 1 < 3 6 m $ ,.;X`.^./.I.P.R.R.I.I.I.U.U.U.I.I.Y.Q.2.T ` 2.5.4.1.2.1.1.H.J.2.1.K.P.J.1.1.-.A 5 5 P K.,.4.5.5.,.1.4.1.,.,.5.1.T $ 5 J ' -.,.<.` >.1.' T P L R T -.=.K K T T T P P I I Y D F H D Z S C C S C 1 1 9 Z 9 9 C 1 $ > * - * * * * * * * * * * * * * * > $ L R P E P T T T T T T T P T ",
"R R R R R R R R R P ` T I I e $ < < < < * * * * * * * * * * > > < 1 4 9 9 9 C A Z C F U F 1 4 F -.I 9 < M 4 4 U ..-...I I P P K V V J R >.>.' =.2.4.K < 4 I -.-.,.,.=.T T R =.1.4.1.,.,.1.2.H.H.1.1.1.!.4.5 5 m S L K K ' ,.5.E.I.Y.R.U.J.P.W.I.I.I.I.I.I.I.I.I.P.Y.U.U.5.R.!.-.J Y S M I -.Y U S 3 A A K !.!.~.'.'.(.(..XXX>XXX-X>X,X>X>X>X<X<X1X%XxXJXSXSXSXFXSXFXSXVXSXHX .  O : ; o % o 8 2 8 8 2 8 8 8 9 9 r 8 Z U U 1 % ; - & & & & 1 ; o D H H D D D r D t D D H : O + G p 3XKXGXIXUXzXUXt.3X .a =XJXIXIXGXPX|.0.7.o % t r t D D H H y o & : O   3XwXcXSXNXBXnXyXyXyXyXsXyXyXyXyX9X9XyXyXyXiXyXyXdXNXZXnXmXnXnXMXnXrXyXBXmXnXNXBXmXMXBXCXCXCXBXMXCXCXhX7XyXyXyXyX9XyXsXnXyXyXyXyXyXyXuXyXuXuXuXyXyXyXuXuXuXuXuXuXyXyXyXyXiXiXiXyXyXyXyXyXrXtXrXtXpXiXpXBXcXSX&X@ c SXxXcX0XcXbXwXcX3X$X%X. : : o - & w @ } vXwXcXVXgXgXqXgXyXrXpXpXyXyXyXyXyXyXyXyXyXyXyXyXyXyXyXyXyXyXyXyXyXyXyXyXyXpXsXhXmXBXNXBXCXZXmXDXgXFXbXFXGXp X q.LXAXAXSXFXNXDXFXDXCXCXCXCXZXZXZXZXFXFXFXAXvXxX$X%X:X:X<X-X>X,X>X-X-X,X;XXX-X-X(.<X-.S Y 4 C M C S M M M A 6 5.>X!.P.I.I.I.I.P.U.U.U.U.U.U.I.I.P.!.4.J L 5.P.5.` 2.5.1.>.=.=.,.,.K.4.=.,.5.-.S $ P E.4.,.,.1.1.1.1.4.,.,.5.,.L 6 5 K =.,.,.=.T T >.' ` ` ' 1.1.,.=.J J T R ' ' T ` I U Y I ^ U Z S C 9 Z C 1 1 9 9 9 9 Z 1 % * * * * * * * * * * * * * * * * * * * F R L E P P T T T T T T P P ",
"R R R R R R R R T ` T P ' ` S 6 < 1 * * < * * < * - < < * < 1 * 4 4 9 C 9 1 < 1 8 9 F S A 3 3 F -.U e * e -...I U P I P P ` ` K 5 m T >.,.' K ' 1.P.L 5 4 A L L C J S 5 K 4.6.T S J ,.5.1.4.G.4.<.1.J.4.1.P.J.K 5 S S S I -.I K J L K 4.Q.I.Y.2.I.I.U.I.I.I.I.I.I.I.I.I.P.I.I.E.).).S 3 Z A A Y S -.-X(.).).(.'.(.W.~././..X.X-X.X;X;X;X;X-X>X,X:X1X4X+X3XGXFXSXFXVXFXbXFXPX&.  + o % & % & ; ; 1 8 8 9 9 3 8 F U U 8 o $ * % * & * * * ; 2 ; & e % D D D t D t t D D G 7 O q / g $XAXIXIXPXPXzX0.4XJXGXGXIXxXIXGXLX} : I % ; r t D t H r O & o & 8 : :     &.HXNXBXBXmXmXNXCXCXDXmXyX7XyXqX7XqX9XaXiXyXyXyX7XyX7XrXyX9XyXiXdXiXiXyXyXyXyXyXyXyXyXyXyXrXyXyXyXrXpXyXyXyXpXyXrXpXrXrXyXyXyXyXyXyXyXyXyXyXyXyXyXyXyXyXyXyXyXpXsXsXgXgXMXmXyX8XiXhXhXmXmXMXMXMXBXBXhXDXbXHX=X  @ + + @ + + @ u y H 4X+X%X+X4Xo.  : O @   B.KXcXbXiXyXiXiXyXrXyXyXrXyXyXeXpXeXuXeXyXyXyXyXyXyXyXyXyXaXyXeXyXyXyXnXDXBXZXBXCXBXBXZXZXZXmXCXbXHXAXg + i } a v.JXAXFXSXSXVXNXFXCXnXCXCXmXFXcXJX3X@ o O 1X%X:X<X-X;X,X;X;X-X-X-X;X>X>X>XR.!.(.<XE.5 C S A < C M 4 C 5 C 5 S E.P.I.I.I.R.I.I.I.I.I.I.R.E.P.!.5.S J 5.5.' P.3.P.4.,.1.4.R.R.5.,.4.P 6 J E.4.5.1.1.1.1.1.5.,.1.4 5 C 5 V m 5 6 J -.>.=.>.[ [ P ' ' T T T T ,.L M S L T T T T I I ` I F S e C Z Z C Z 9 < < 9 C M C Z 9 < 3 * * * * * * * < * * * * * * * * < * > > % 4 L P P T T T T P L P ",
"R R R R R R R R T ` T P T T S 6 > < < < < < * * * * * * $ $ * $ 1 4 9 9 9 4 1 1 8 8 F 9 Z 3 9 Z -.U Z < Z -...I U P T T P ` ` K 6 J ,.4.4.,.' =.4.K.L 5 4 A L L 4 5 6 6 K 6.6.-.4 S =.4.2.4.H.H.H.2.4.2.2.I.5.J 5 4 m S U A 3 < 4 J P K.!.I.Y.H.I.T.U.I.I.I.I.I.I.I.I.I.I.I.I.I.Q.Q.C < m 4 5 A % K -X-X'.!.!.'.W.~.~.R.!.XXXX;X<X,X;X;X;X>X,X>X;X-X%X%XxXLXJXKXbXbXHXKXLXLXq.  + O & & & & ; 8 9 3 1 2 8 8 8 Z ^ ^ e % * * % * % * - - 1 3 1 & % o t H D r t r t D D D 0 O q / q @XPXAXIXIXIXzXN.4XKXJXJXPXzX3XxXvXp + G o - t r Z r D y O O o ; t D i +   &.HXDXZXZXZXBXNXNXBXBXnXyX9XyX9X7X9X7XyXyXyXyXyXyXyXyXyXyXyXyXpXsXpXyXyXyXyXyXyXrXrXyXyXyXyXyXyXyXyXyXrX7X9XrX7X8XrX7X9XrXyXrXyXyXyXyXyXrXrX7X7X7X7XrXrXrXrXtXyXsXgXgXgXmXmXiX7XiXgXBXMXMXCXCXDXDXZXhXMXiXcXV.X X   X   . @ : w o } xX3XxX3XxXt.O = o O O 4XLXbXVXdX9XiXiXiXiXiXdXdXyXyXrXpX7XyXeXyXrXyXyXyXyXyXyXyXqX7X7XeX7XrXsXBXBXZXBXCXBXBXZXZXmXhXCXNXHXcXa   : + O $XLXKXHXSXJXFXNXNXZXCXZXgXCXFXcXLXwXO o e :X.X-X;X-X-X>X-X;X;X;X;X-X-XXXXX~.).(.;XK.5 < $ 5 M Y 4 3 C 5 3 % V Q.Q.R.I.J.I.I.I.I.I.I.I.R.E.E.!.5.A S 1.5.3.Q.P.5.2.K.R.J.,.>.T ` J.T % C !.5.4.1.1.5.J.5.4.K.1.M $ > $ 6 $ 6 6 S =.1.1.<.>.<.` =.` L ' ' ' L A M S L T P L T T -.-.-.I A 9 Z Z C C Z 9 < < 9 9 9 Z Z 9 3 4 * * * * > * * < * * * * * * * * 1 * * * % M R -.P T T P T T P T ",
"R R R R R R R R T ` T P T I A 3 3 9 1 * * < * * - * < 4 1 * * * < 4 9 9 C A F F 9 9 S 3 S A F F U F C 1 S ;.-.U Y L T ` T ] ` L J L J m S -.4.4.=.=.L m M A J A T T I I -.I K J C A ,.J.1.H.H.4.G.2.K.J.2.H.5.' S J m 5 C C 4 4 m K P 5.R.H.J.J.T.T.I.I.I.I.I.I.I.I.I.I.I.I.Y.P.P.E.m > C 4 3 -.` 1..X.X.X~.~.~.!.'..X!.!.XXXX~.R.R.XX>X;X>X,X;X>X-X:X1X3XxXwXxXJXHXJX3X4X4X}   O o % % & * 1 9 9 2 8 e 8 8 8 e F F 9 % * * = * % * - 1 2 2 2 ; - % y t D t D D t D D H 0 O q / / &XvXxXIXIXIXzXN.*XKXAXxXIXzX3XwX5Xg q / o : t r Z r D 8 o o o & t H ~ +   &.HXnXhXnXMXZXmXmXZXZXmXsXsXgXgXgXnXnXsXyX9XyXiXyXyXyXyXyXyXyXiXpXiXyXyXyXyXyXyXyXyXyXyXyXdXyXyXiXsXsXgXsXsXsXpXpXgXsXgXsXsXsXsXcXnXsXsXsXsXsXsXsXsXsXsXsXsXsXgXhXmXnXnXBXBXhXpXgXmXCXCXBXCXDXCXBXnXsXhXsXhXgX8XcXbXKXPXAXPXLX3X7 w :.o.q.o.t...& - 8 : O q.@Xe.=XqX7X9X9X9X9X9X9X9X8XyX7XyX7XyXyXyXyXyXyXyXyXyXyXyXyXaXdXdXdXsXnXBXBXZXBXBXBXBXZXZXZXbXZXmXFXSXB.w.q.+ + $XLXAXLXKXxXJXHXNXCXDXDXNXNXJXGXLXxX+ o S 2X;X:X;X>X;X>X;X-X;X>X;X-X.X X(.(.(.).-XQ.=.-.K J m C 4 4 S M 3 $ V P.K.P.Q.I.U.I.I.U.I.I.U.R.E.4.4.1.K J ' ,.3.<.Y.2.1.5.K.,.P K T ' ,.' J R P.J.,.,.1.2.J.1.P P L Y A J K K K J S K ' 1.<.<.<.>.[ >.` P =.=.T C N C J T R R P T P R -.7.-.U Z F Z C Z S 9 1 1 9 1 C F Z C Z 9 * * * * > * * > > > * * * * * * < * * * $ 9 I I L T T P T T T T ",
"R R R R R R R R T ` T P ` T K S Z A 9 * $ * * * * * 4 A Z 1 * $ < 4 9 9 Z U ^ ^ 8 8 Z 1 F ^ ^ U Z 9 9 1 D 7.-.I K L T ` ` ` ] T >.P m % 5 >.2.J m S J J J J J S ,.,.1.4.-.m $ 3 J K 1.K.4.H.H.2.3.2.Y.Y.2.2.J.4.R.P.I < $ Z Y A S J J =.1.,.Y.R.R.T.I.I.U.I.I.I.I.U.U.U.I.I.P.P.E.Q.M > S C Z Q.-X~.'.~.'.(.`.(.~.!..X.XQ. X-XP.% V !.<X;X-X>X;X>X,X<X1X1X%X%X*XKXKXAXO.  : O o & % o % - ; 1 8 2 2 e r 3 8 D U Z Z 1 % * * & * % * ; 3 8 8 8 2 ; o o & r y t D t D D H 7 O u / g #.8.@.&XxXIXzXN.4XwXB.q.4XxX3X#X@Xg / ) O 7 y e Z r H y o o o O y H i @   &.HXdXtXiXmXCXCXZXCXDXCXBXBXCXBXBXZXDXMXyX7X9XyXyXyXyXyXyXyXyXyXiXiXyXyXyXyXyXyXyXyXyXyXyXaXyXyXnXCXBXCXCXBXCXBXMXCXCXBXBXBXBXBXBXDXBXBXCXBXBXBXBXBXMXMXMXMXMXMXMXCXmXmXBXBXBXmXBXBXBXMXMXCXCXMXhXsXyXyXsXiXsXDXFXNXSXKXAXPXLX3X: O o . o . O O = ; 8 = . + . @ *XHXCXnXcXbXbXdXaXqXaXbXdXdX7XyXpXdXyXyXyXyXyXyXeX7XcXVXBXBXBXBXDXCXBXZXBXBXBXBXZXZXCXmXCXnXnXHXAXLXxXw   H ..u i w p 5XJXAXbXbXbXVXKXAXB.q.q.: & -.zX2X;X>X>X-X;X;X-X;X;X-X.X X(.(.(.(.).-X.X'.-X).,.m 5 S 4 1 3 3 4 5 J V P I.I.I.I.U.U.U.U.U.R.E.K J P P K L K K J 2.J.4.K S S m m J S K -.4.K.,.4.>.1.1.1.Y.2.S 6 m ,.6.,.2.,.1.' ' ` =.<.>.` ` T ' 1.1.=.=.` L m m C J P E ' R T P P -.-.-.-.^ U A C A S 8 1 1 9 < Z U A A F Z $ * * * > > * > > * * * * * * * * * < < $ > 4 5 J I T L T T P T ",
"R R R R R R R R T ` P P R I Y A S A 9 * $ * * * * % 1 A Z < $ $ 1 9 9 9 Z U ^ I 1 3 e - F -...F 9 4 9 3 F :.;...U L ` ' ` ` ` R =.T m % C 1.4.S % > S J J J J L ,.=.' ,.-.m 6 C J K ,.4.1.H.H.H.H.3.2.H.4.H.J.2.1.,.K 6 $ e S C C C m P -.,.W.~.R.I.Y.I.U.I.I.I.I.U.U.U.U.I.P.P.E.!.C $ S 3 4 ).XX!.'.^.'.~..XXXXX'..X-X.X-X<X!.o 5 /.<X-XXX>X;X;X>X,X,X<X:X1X2XIXLXLXe.  . o & & & o % 1 8 1 8 2 2 8 8 1 9 H ..r Z 1 * * = = * % & ; 3 8 8 8 8 & o o o e 8 r D D D D H 0 O q ( ( s q q B.IXIXzX|.3X3X .k 4XIX*X| #.h ( ! # 7 0 8 e r H r o O O O y H i @   *.HXqX9XiXnXCXZXCXDXCXBXCXCXCXMXmXmXCXmXyX7XrXyX7X9XyXyXiXiXpXyXyXyXyXyXyXyXyXyXyXyXaXyXyXaXyXyXnXBXmXZXZXBXZXZXmXZXBXBXNXmXnXnXNXBXBXBXBXBXBXBXMXMXhXmXmXMXMXMXBXCXnXnXmXBXBXBXBXDXBXBXBXBXmXhXsXiXiXsXBXDXSXHXAX3X  @ @ . : &   i O O + . 7 o o ; ; ; : 7 . a *XJXFXbXcXSXKXKXKXKXKXKXbXSXqXyXdXyXyXyXyXyXyXyXyXyXnXBXDXBXBXDXDXBXBXBXBXBXBXBXCXZXnXmXDXCXnXDXSXLX3X@   : ; ; 8 O . 3XLXLXJXJXJXJXLXxXi   o.1X<XlXlX<X;X;X;X-X-X-X;X;X-XXX X(.(.(.(.(.(.'..X-X-X.X5.L 4 C C 4 M A Z 5 6 o V U.I.I.U.U.U.U.U.U.E.Q.K V ' 5.1.-.K V ` 5.P.P.V 5 5 m m 6 $ J 1.4.4.1.,.<.H.H.2.P.K.J 6 4 ,.4.=.>.' =.P T ' >.>.' T K T ' 1.1.>.=.' I < 5 C L L T T Q P P P I -.-.-.-.I Z e Z Z 4 1 1 9 < Z U F F U Z $ * * * * > > > > > * * * * * * * * < < * $ $ % A P P L T T T R ",
"R R R R R R R R ` ` P T T K S C 4 9 1 * * * * * 1 * 1 C 9 * * * 1 4 9 9 Z U I I 3 8 e * F -.^ Z 9 9 C 9 H ;.;...I P R ' T ` ` ` R =.C $ 4 R -.L < 5 S A C M S E ,.,.,.5.,.m 6 J =.E 1.4.1.4.H.4.5.2.2.2.1.1.2.1.5.4.4.1.-.U 4 - 4 4 4 R ,.,.R.Q.T.Y.K.I.U.I.I.U.I.U.U.U.U.I.I.P.E.E.C $ Z 3 < Q.).Q.(.~.'.~.`..X(.'.>.' ,.` ' ` Y.5..X>XXX;X;X-X;X>X>X>X<X<X<X2XxXAXLX+X: ; & ; * * % * 8 8 3 8 8 e 8 8 Z Z r r 1 1 * * = & = * & & * 1 8 8 8 8 ; ; ; & ; % r H D D D H 0 O q ) z.( d q v.xXxXUX_.4X3X*.O.3XIXv.q h h k.s # q r 8 9 r U r o o o & y H i @   w.KXqXqXdXgXnXgXgXgXgXgXMXCXBXMXBXMXMXMXhXgXmXnXnXnXmXnXmXmXnXpXyXrXrXyXrXyXyXyXyXyXaXyXaXyXyXaXdXsXgXNXBXNXmXmXmXMXBXNXNXmXnXnXNXBXBXBXBXBXBXMXMXMXgXgXgXhXnXmXBXCXmXBXBXBXDXDXCXFXBXCXBXNXgXdXyXqXVXdX*X#X#X&X#Xw.  O o o o o + +X3X2X3X3X3X~ = 8 8 8 r u 7 + w w &. . .&.r.b.b.v.@XB.&XcXcXyXdX9XyXyXyXyXyXyXsXnXnXBXBXNXNXBXBXNXBXBXBXBXBXBXBXCXCXmXmXCXmXDXNXSX*X} O.~ D ..H D y %X3X$X*X*X*X*X$X%XH . 0.zXlX>X<X;XXX,X,X,X;X;X>X;X-X.X(.^.(. X X'..X(.).).!.!.-X(.K $ 4 9 3 9 Z 4 5 $ J ~.R.I.U.U.R.U.U.R.E.Q.T S ,.!.E.P.,.L ,.' R ,.M C M L =.P K ,.J.>.>.1.1.1.J.5.' ' ` S m S =.,.=.>.R T P P ' ' T T ` T ' >.' ' ` T ' R > < S R R T T L L P I ..-.....^ ^ F Z Z Z e 9 9 1 * Z U F A F Z * 1 < * * > > > > > * * * * * * , * , , * * * % S I I K T T L R ",
"E E E E E E R R ` T T ' -.L C 3 < 1 < * < * * * e 4 9 9 1 * * > 4 4 4 9 Z F U U 9 9 C * F -.^ A 9 9 C 8 F ;.-...I P E ' T T ` ' T =.J 6 5 m 4 < Z C S C C m m R ' -.,.5.-.5 $ J J.,.4.1.1.H.H.2.2.5.J.5.<.<.2.2.>.1.P.E.5.I C 3 4 3 4 E ,.>.Y.P.I.J.J.I.R.I.I.U.U.U.U.I.I.I.I.I.E.E.C - Z 3 5 R.'.!.^.!.'.(..X(.XX-XK 6 V 5 V ` >X^.-X-XXX,X-X>X>X<X,X>X>X-X;X2X_.q.t.D o & o % * < * < 8 8 1 8 8 e 8 e I F ; % % & % % * & = * = % & ; 2 8 8 8 8 2 ; % o o r ~ G G D H 0 = q ) ( f f d @XvXIXzX|.%XUX3X*XvXPXb.# h k.k.f # 7 t t r r I t o o O & y H i @   w.KXcXcXdXdXyXyXyXyXyXyXnXCXCXCXDXCXMXCXMXBXCXCXCXDXZXBXBXBXMXsXyXrXrXrXrXrXyXyXyXyXyXyXyXyXdXsXsXrXgXBXCXBXCXCXBXCXCXCXCXBXBXBXBXDXBXBXBXBXBXBXCXCXhXgXgXsXgXnXMXCXBXCXBXmXBXVXVXVXVXnXgXgXnXbXcXcXSXwXa   .   o o e t 2 - 2 & & %XIXxXxXxXzXD . & & - 0 ~ X.~ + . X . . @ + .   . .   z xXAXqXdXyXyXyXyXyX9XiXnXCXBXBXZXZXBXBXZXBXBXBXBXBXBXBXBXBXDXCXhXZXZXFXFXFXJXAXKXt.y H 2 e o ; o   . . .   . - ; o 6.lX<X<X;X-X:X>X,X,X>X,X;XXX.X`.(.(.(. X X)..X X X(.Q.!.(.~.P S A 9 9 M 3 4 4 $ S !.P.P.U.R.R.R.R.R.E.Q.K m -.Q.P.P.5.-.J 4 5 C 5 A 5 =.E.Q.P.E.Y.1.,.>.1.<.5.2.J 5 m J E =.1.4.,.,.' T -.' =.T S L 1.1.<.1.T L T R ' K 5 < S -.=.T T T T T T ` -.....~ ^ D Z Z Z S A Z 1 < C U F A A C 1 9 3 * * * * * * * * * * * * * ; * * * * < < * S R T L T T Q R ",
"E E E E E E R R T T T =.,.I C 1 4 1 < * * * * < Z 8 9 9 1 * $ $ 9 1 1 9 C C C C 9 9 9 $ S ^ ^ F 4 9 9 3 D ;.;...I T E ' T T ' ' ' =.5 % 5 5 , > 9 M M C J C 4 E 1.,.=.-.=.m < K P.,.1.>.>.4.J.4.J.4.2.1.5.Y.J.1.1.5.K.4.R A C 4 3 < 5 P =.=.P.Q.I.J.H.I.R.I.I.U.U.U.I.Y.I.I.U.R.!.E.Z $ C 3 5 R.~.!.`.^.'.(.-X.X>X>XL 6 m S 5. X^.R.XX;XXX;XXX,X,X,X-X;X<X,X<XlXt   o o o 3 % % * 1 1 1 e 3 1 e 2 e ; 2 ^ U 0 , * & * * = * & * * % % - 2 2 2 8 8 ; ; & % o H ;.H H D H r = 0 ) ( f j j n.vXxX3X%Xt.%X3XxXPXKXb.# h i.k.s O = Z F D r ^ t o o & & r H i o   r.LXvXvXcXdXaXaXdXpXrXyXmXCXBXBXBXBXMXMXMXmXnXnXnXZXBXNXBXCXMXsXyXrXrXrX7X7XyXyXyXyXyXyXyX7XdXmXnXiXsXmXCXBXBXBXBXBXBXBXBXBXBXBXBXBXBXBXBXBXBXBXCXCXMXhXgXiXiXsXmXCXBXBXnXdXdXaXyXyXqX0XqXaXVXFXKXHXHXxX@   w o & & 2 D 2 - 4 & o _.3X3X3X3X3Xu o 8 = ; 0 G ..~ : 7 = O 7 u y : O : 7   | KXLXcXdX9XdXdXaXyX9XiXmXFXZXZXZXZXZXBXZXZXZXBXBXBXBXBXBXBXmXCXMXDXZXNXmXDXNXHXLX}   O o r D e - r D e 8 2 e - - $ 6.lX<X<X;X>X,X:X-X-X;X>XXXXX X^.(. X.X.X.X^.'.(. X(.Q.).).R.E..X7.$ 1 M 9 C 4 $ V !.U.U.U.R.R.R.R.R.E.Q.L S 1.!.K.P.R.5.4 C S S 5 C % 5.E.E.5.K.P.2.,.>.1.[ 2.5.J $ m ,.-.1.,.>.=.' <.1.=.T =.R V K 5.2.2.H.' T =.,.=.S 5 $ C I T L P T R T P I -.-...^ H Z 9 9 e S F Z 1 1 Z U F A Z C 9 Z 9 * * * * * * * * * * * * * - * * * * - * % S R R L T R T E ",
"E E E E E E ` ` ' L =.P S S 9 9 9 C < $ < * * 1 C 9 1 * * * * $ 4 C Z 9 9 C C 9 9 3 9 F U ^ ..F 4 C e 1 F 7.-...I T R R R T ` ` R ' J J C 6 3 M M C 4 C Z < m 1.4.' T 4.1.m 6 L E.K.>.J E P.2.2.2.2.2.2.5.H.H.1.,.1.E =.Y S M < 4 3 3 S m J K.R.4.P.Q.P.J.I.Q.I.W.Y.T.U.P.P.~.2.,.K 3 - S 3 < !.~./.!.(.~.(.5.E.K K (.'.4.K.R.`.^. X.X:X>X;X;X>X,X-X,X-X,X,X,XlX7.o : - $ * % * % 1 3 1 8 8 2 2 * 8 H D F H * % & & & & * * * * % * % * e 2 2 8 2 8 e 2 % % 1 8 ; H H H 8 % u ) ( ( k.i.h g q u O.t.xXIX3Xg #.z.z.z.k.k.h # = G H H 8 & & O & & & t u u } H } p + c AXSXVXyX8XyXrXuXtXyXuXdXyXrXtXiXsX8XrXyXnXBXDXDXBXBXDXFXCXMXMXBXCXBXMXBXCXBXBXBXBXCXCXBXhXrXyXyXrXrXyXyXyXyXyXyXyXyXyXyXyX9XyXyXpXMXDXMXsXsXiXMXmXrXrXhXMXBXBXBXnXyXyXdXaXaXdX8XcXcXJX=X| @.@.z i u G H G t y : 8 ; % ; * o o . O & & - 1 = - 0 ; G G r 7 7 O o G ;.t o O & & . u | g #XSX0XqXqX0XcXNXnXBXZXBXZXNXNXZXZXNXNXBXCXBXBXCXCXBXCXBXMXCXZXZXZXZXZXDXDXbX=X+X3X%XO e Z : r 2 3 - - & 2 8 o 7.zX<X-X;X;X-X-X>X;X-X-XXX X^.(. X(.(..X X(..X.X~.R.!.XX(.P.5.Q.7.% 9 9 M 3 < % S !.P.P.U.R.R.R.R.R.Q.Q.P S -.).!.E.P.4.C Z S A M C 5 =.K.5.4.4.,.>.>.>.>.3.>.1.K 5 5 4.4.,.,.1.1.<.>.' >.' =.' V T T T R T ' =.R T P L 5 5 C C K K ' P T P P I ..-...^ ^ -...F Z Z F Z 3 1 C F Z Z A Z r 9 3 < * < 1 > * * * * * > * * - - * * * * * * C C m L ' L Q T ",
"E E E E E E ` ` T P =.S $ > < 9 9 M < $ * * * 1 C 9 1 * * < < > 1 C C 9 9 9 9 9 Z e Z U ^ -.-.U 4 Z Z 3 F :.;.-.I T R E R R ] ] R ' L P J < 3 3 9 C 4 C S 5 m ,.1.=.' ,.=.m 5 T R.P.-.V L Y.2.2.2.2.2.2.2.H.2.1.-.K < C m m M C 4 4 3 S C J P.Q.J.K.R.I.P.I.Q.I.U.I./.R.R.P.!.1.6 < 3 < 9 6 6 Q.~.~.!.~.Q.~.1.P 5 m !.-X(.-X'.!.^.~.^. XXXXXXX-X,X-X-XXX>X>X>XlX-.o $ $ $ * $ * , 9 8 8 8 8 8 e 8 D ^ F H U 1 & & & * & * * * * % * o * 8 2 2 8 ; 2 8 ; o o & & % D U I C = 0 / s ( z.z.z.h d d O.r.IXPX3XX j z.z.x.k.k.h O = G D D ; o O o % % & y r D ..~ H O   g AXcX0X9XrXsXtXuXuXrXeX7X7X9X7X8XyXrXsXiXBXZXNXZXDXFXDXCXBXDXFXCXCXCXDXFXDXCXFXCXCXCXCXCXmXsXyXyXyXyXyXyXyXyXyXyXyXyXyXyXyXyX9X7XyXnXBXhXrXrXrXsXyX8X8XyXhXMXDXnXdXsXsXsXdXyXaXaXKXAXAXb.@ X . + i ~ ~ ^ H u y y O . o & & o . . . o & = , 1 - 0 ; G G u G G ; o 0 ..r o o & H t u .   +XLXbXcXbXbXNXDXBXCXCXZXDXZXNXZXZXZXZXBXCXBXBXBXBXBXCXBXMXCXCXZXZXZXZXnXNXFXFXJXLX3X  O 2 1 e 3 3 3 3 - - 1 % 5.zXlXlX-X-X-X>X>XXX'.(.'.(.^.(. X X(. X).'.'.).~.~.!.!.R.P.P.~.5.$ 9 S 9 M 9 * A !.E.R.U.U.R.R.R.R.R.E.P A ,.Q.P.K.R.5.S S A A S C 6 P 6.4.4.4.2.,.1.,.<.' J J m 6 5 ,.5.,.>.<.>.>.>.' =.=.>.R m J L T T T ' =.R P L K 5 4 C 4 Z C R T R T T T -.-.X.....-.^ F S F U Z 1 1 9 9 4 8 Z 9 9 9 9 1 1 9 9 9 * * * * * * * * * - * * * * * * $ % $ K =.T T ` ",
"E E E E E E ` ` ` R =.C % $ 1 C 9 9 < * * * * < Z 9 1 * * 1 3 1 4 9 C C C 9 4 9 e 9 e U I ^ ^ A 1 e Z 3 F ;.-.-.R T R E R R ] ] R =.T =.I 3 < < 9 C 9 C S 5 m ,.4.,.>.,.' V m L J.J.' m L P.5.1.2.2.2.1.2.2.1.,.' =.T ,.-.,.K < 4 4 4 S C J K.Q.J.4.J.P.P.P.P.I.W.W.R.I.R.P.E.1.$ 3 S 3 4 5 5 P.~./.Q.'.5.' K C J K Q.'.!.-XXX(.`.~.!.(..XXX-X-X>X>X,X,X,X;X-XlX7.o $ % $ > * * * 1 9 8 8 8 8 e 2 D U t 9 Z , % & & & & * * * * * * o * 8 3 8 8 2 2 8 2 - * * o % H ^ ^ Z * 0 q # h z.x.z.i.f d g q.xXPX5X# # x.x.x.k.k.g O = G H H ; o o o & & % - & 8 X...H +   g KXSXqXbXiXiXiXiXrXrXuXuXyXyXsX8XyXyX7XyXBXmXDXBXBXBXBXNXBXBXmXnXmXMXMXmXmXBXMXmXhXhXhXgXsXiXyXyXyXyXyXyXyXyXyXyXyXyXyXyXyXyXyXyXuXhXMXnXpXsXsXhXsXrXeXuXhXMXFXnXsXsXyXyXaXyXaXbXSX*X+X~ O + . 7 ~ ~ i ~ u 7 H : y 8.~ o ..3X4X3X2X1Xt.8 O ; - r 7 G G G ~ X.0 & t ..8 o o 8 ..;...: 7 $XLXvXbXCXNXNXDXNXCXZXCXCXZXBXNXBXNXmXnXZXCXBXBXBXBXCXBXBXMXCXZXZXZXZXZXDXZXNXSXGX#X. w 2 o & & 8 2 - Y r 2 % S -.A P -X;X-X>X>XXX(.~.(.(.(.`..X'.(.(.'.'.^.R.~..X^.Y.P.U.R.Q.1.% < C 9 C 4 $ S Q.P.P.R.U.R.R.R.R.R.R.J C -.Q.P.5.R.5.S A A A A Z 6 P 6.4.4.4.1.1.2.1.1.T 6 5 5 < 5 -.4.,.>.>.[ >.>.>.>.=.=.R V K L T T T ' =.R P L K C S Z < < 5 T ' R T T T I -.-.X.X.X.^ H F F U C 4 1 1 1 < 4 r 8 9 9 9 1 1 9 9 9 * * * * * * * * * * * * * * * * * $ $ A T T ' ` ",
"E E E E E E ` ` R T =.C % < 4 C 9 9 1 * > * * < C e 1 * * 4 9 9 9 C Z A Z 9 4 9 8 e Z U U F S 8 1 9 C 8 F ;.-...R R R E E E ] ] ` =.R =.I 4 3 1 M C 4 C S 5 m ,.' ' =.-.=.K V S K L J m T J.H.2.2.2.2.1.2.2.1.<.T 4.J.P.5.E.R > 4 4 3 A S S ,.4.K.1.2.P.P.K.K.P.I.I.R.R.Q.=.K Z 5 4 S 5 K 6.5.(.~.!.P.!.=.5 5 S S P ).-X!.~.`.`..X(.~.^.`..XXX>XXXXXXX-X,X,X<XzX..% < * * * $ % * < 8 9 8 8 8 e 1 Z H 9 & - = & = & * * * * & & * * o - e 8 8 8 8 8 8 e e 9 < % * H ^ H Z < 0 q # h x.x.x.x.i.h #.b.*X5X5Xh j x.x.x.p.k.g O = G ~ H ; o & & * - ; - % - ^ ^ H : X } KXKXSXHXdXsXyXyXrXyXpXuXyXyXyXyXsXsXyXyXsX9XsXdXyXyXyXyXaXdXiXiXdXiXiXiXiXgXyXtXtXrXtXtXtXtXrXyXyXyXyXyXyXyXyXyXyXyXyXyXyXyXsXuXyXuXnXnXhXMXMXMXMXnXnXnXMXBXMXmXdXdXdXVXBXVXcXKXAX| w w u u O 0 ~ ~ ~ } 7 o 7 . 8.5X@.  @.LXvXAXxXIX3X~ o - 7 G u ~ u u G ^ O = G ..8 o r ....^ D = O u i @ cXSXNXVXNXNXZXBXZXZXBXBXBXZXmXsXdXmXCXBXBXBXBXBXBXMXMXCXZXZXZXZXCXDXZXnXNXFXSXwXxX3X0._ : - : : & : 2 ; < - o 5 >X;X-XXX-X.X(.(.(.`.(.'..X X(..X.X(.!.R.^..X^.P.I.U.Q.R.-.5 C 9 9 C < * I ).Q.!.R.R.R.R.R.R.R.E.J m ` Q.E.5.E.1.S A A S Z C > R K.5.4.4.1.,.1.<.2.T 6 5 9 4 3 =.1.>.>.>.[ [ >.=.1.' L R L ' T L T T ' ' T L P L S S S < > < I ' T T T P P ..-.-.;...U F F F U C 9 3 4 1 1 Z H S Z D M < 1 4 9 3 $ $ $ * * * * * * * * * * * * * , < $ $ < S T K ",
"E E E E E E E E T P ' m % < 1 4 9 9 1 * * * * - e e 1 * * 4 C 9 9 C Z F F 9 1 9 Z F F I F 9 e 4 9 9 9 9 F ;.;...T R R E E E ] ] R =.T =.R 4 3 3 M C 4 m S 5 V ,.L R E =.=.=.R T R R R T >.J.2.2.2.2.2.2.2.2.1.<.=.,.,.J.6.K.L > 4 4 1 A S C P Q Q.J.H.E.E.P.P.E.K.K.E.E.K.m 5 e C 9 9 6 ` .X).Q.Q.(.4.1.L m m J P -.).-X(.Q.~.'..X`.^.~.!.^..XXX-X>X;X;X;XE.U :.Z % - $ $ % * $ < 1 9 e e e D D D U X.D % % = = = = * * * * * * * * % 1 e 8 8 2 ; 2 3 8 Z Z < % % U ^ H r 1 0 q # h x.d.d.x.z.z.h g g q #.z.z.x.d.x.i.k.g O O G ~ H ; o & & & * * * & - U H H t w w q.@.@. .p %.aXyXyXyXqX8X8XaX8X0X0XqXyXyXyXdX9XyXsXdXqX0XqX0XdXdXqXaXbXsXyXiXiXyXtXrXrXrXtXuXrXyXpXpXyXyXyXyXaXaXyXyXyXyXyXyXsXdXyXuXgXgXhXMXMXMXnXnXMXMXMXBXBXCXsXdXsXdXcXcXwXKXvXg + O.8.~ o 7 G i ~ } 7 & o o 3XvXv.| r.wX3X#Xq.t.t.u = ; 8 ~ ~ ~ u u u ~ 0 0 u H : & ~ ;.;.^ u y y 7 o   cXDXSXNXZXZXZXZXZXBXCXCXCXCXmXyX9XnXCXZXBXBXBXBXCXCXCXBXDXZXZXZXBXDXDXDXSXFXHXJXLXIX2X_.S o o - - 4 % * < < % S <X>X.X^.(.(.).(.(. X(.).(.(.(.'.).!.~.).~.R./.^.W.P.I.E.5.-.1.A 3 C 4 3 Y 6.,.R.Q.W.R.R.R.R.E.I.' J K -.=.1.Q.1.S K J A S M 6 E E.5.4.4.1.,.,.>.1.' 5 4 C 4 5 =.1.>.>.>.=.' =.' E J m P ' -.T T R T T ' T P P P A S S 1 > 3 R T T T T T P ` -.;.;...U H F F U C 3 3 4 4 3 F I F U U Z < < 4 9 9 > > * * * * * * * * * * * * , * * > * % % 4 R P ",
"E E E E E E E E =.R -.C % 5 3 M 4 3 1 < * * * - e e 1 * * 9 C 9 9 9 Z U F 4 < 9 F U U U S 1 8 9 C 9 9 3 D -.;...T R R E E E ' E T ` T -.' 4 5 3 4 C 4 4 C 5 m -.T ' =.E R =.1.4.K.J.4.2.5.5.1.2.2.2.2.2.2.2.2.,.=.,.4.J.K.Q.T $ 9 4 < S S M L L R.K.K.K.K.K.P.P.P.P.E.!.5.3 4 Y A 4 4 $ J !.Q.Y.I.~.J.4.I 4 5 -.).E.E.(.~.Q.(.'.'.'.(.(.!./.^..X X-X-X>X>X-.o o & o - * * % 1 9 9 8 8 e 2 y H ^ ^ ^ ^ G = O = = = = = * * * * * * * % 1 8 2 8 2 ; 2 2 8 Z 9 * % % U ^ ~ D 8 0 7 # h x.d.p.d.p.z.z.h # X f n.c.z.d.d.i.k.g X O G H U ; o & & % * % & & & H ^ X.;.:.: O   .      .JXSXcXcXbXcXaXcXdXcXaXbXVXcXdXNXNXsXdXdXdXcXcXaXqXbXbXcXbXsXiXsXpXiXtXtXrXrXrXrXyXpXdXdXpXyXyXyXaXaXaXyXyXyXyXyXMXBXMXMXBXBXMXBXMXMXsXpXpXpXpXsXnXBXnXsX7X8XcXSXvXJXxXw + o.o.7 = 0 ~ ~ i u & ; o y PXLXvXGXKXKXJXAX4Xq.u o ; 7 0 ~ ~ ^ ~ ^ ^ o.8.~ 7 = o & ^ ..G ^ G 8 u u = O AXFXDXNXDXNXZXZXZXZXCXCXBXCXNXyXqXnXCXZXBXCXBXBXBXMXCXBXCXZXZXZXBXBXZXDXDXSXKXJXKXxX$X2X:X-X.X-X:X).e - 9 9 % 4 lX<X.X~.~.^.^. X(. X).!.!.~.).(.E.E.)..X!.5.I.(.~.J.J.J.P.E.E.C $ M 4 3 5 3 3 ,.W.W.U.U.U.U.E.I.4.-.S 5 4 =.R.1.J L K A A C > =.P.5.1.1.1.1.1.>.,.` 5 5 4 < - =.4.<.>.<.<.<.>.=.V V 5 L T ' T R R P P R R R T P A S A 3 1 9 -.I T R R T P -.-.-.;...^ U F F U C 1 1 4 1 1 H ^ H U ^ Z * * 1 3 9 M 9 9 1 > * * * * > > * * * , , * * > 1 * 4 R E ",
"E E E E E E E R E K L m > 9 9 Z 1 1 < < * * * * 9 e 4 $ * 9 C 9 C 9 A I U 4 < 9 U U U U F 4 8 9 9 9 A S H -.-...T T E E E E ' E T R P =.T 5 5 5 5 4 3 4 C 5 m E L ' =.T T ' >.>.>.,.,.1.2.2.3.5.3.2.2.2.2.2.1.,.=.1.4.,.4.).,.5 4 4 1 Z S C R ,.K.K.K.H.1.5.P.P.K.1.5.E.6.9 3 1 4 < Y Y ` R.Q.!.R.R.R.Q.T 6 $ 6.(.!.E.).'.(..X^.'.'.'.'.(.~.^.].,X>X.X-X>X-.o - o o - * - & e r e 8 8 e ; 8 D ^ ^ Z 0 0 = = 0 = = = = = * * * * * * % - ; - 8 8 8 y 8 8 Z 8 * $ $ A Y H D r r ; # h x.x.d.x.d.x.x.h j j ( k.i.i.d.p.i.k.g X O t U ^ 1 o - * & * ; ; * & D D H ....t : O : + 7 O.wX=X&X5XAXKXSXSXFXKXSXSXVXDXnXaXmXyXyXVXVXVXDXFXFXHXSXbXNXVXiX9XrXrXrXrXrXyXyXrXpXsXhXsXdXaXaXaXaXaXaXaXyXyXyXyXBXBXBXBXCXBXMXMXhXhXpXrXrXuXrXrX8XrXyXdX7XaXSX0XSXPX5Xp u ~ ~ 0 ; 0 X.o...r o 8 O 7 AXJXbXAXAXvXvXvX3X{.8 o 9 Z t ^ ^ | | O.....o.G = = = 0 X.X.G o.~ u H u &   AXFXSXNXDXNXnXNXCXCXCXMXsXnXBXsXdXNXCXMXBXCXBXBXMXMXCXBXCXCXZXZXBXNXNXNXSXFXKXAXLXUX_.%X:X<X<X>XlX:X< % 9 Z $ C lX<XXX^.(.^.^. X(..X).Q.Q.Q.!.).E.Q.!.!.R.P.R.!./.J.J.5.K.K.K.A C A 4 M 4 > , 6.Q.W.I.P.I.I.I.P.1.4.K V S ' P.4.` =.K J A S 6 R K.4.2.2.1.2.1.>.1.` < 5 4 5 $ -.1.>.>.3.1.>.R J 5 L J T P E ` ' R L L ' =.=.T P J A A 3 > 4 -.T T T T T T -.-...-.......U F U C 4 4 4 < < F ^ F U U Z $ * 1 1 3 Z Z 9 3 < * * * > > > * * * , , = % * 1 $ 3 I L ",
"E E E E E E R R S 6 < $ > C 9 4 < > * - * * * * 9 C 4 * * 4 M 3 Z C F ^ I 9 < C U U U ^ I Z e 9 9 Z ^ ....:.;...R T R E E E E E E ` L ' P 5 5 3 6 3 1 4 C 5 5 T L ' ,.,.,.4.1.=.R ,.2.2.2.2.2.1.1.3.3.3.2.4.2.,.=.,.5.K.6.[.J $ 1 3 1 S A A ,.E.J.K.P.4.,.5.R.E.5.J 5 5 C 5 Z 4 9 C E.).Q.Q.K.R.Q.E.!.E.L m < -.).(.!.).!./.`.^.(.(.'.'.`.^.~.~.`..X(.-X<X6.o & o % - % & % 8 e e 8 e r 2 8 D H ~ ; = q 0 B G 0 = = = * * * * * * % % * * & 8 8 2 y 8 3 e 9 - * 6 4 - y H ~ H 7 O h x.x.d.d.p.x.x.h j d h j # h z.z.i.k.g X O t U ^ 1 % - * % * & & & & D e ; ; & H 7.:.:.:.o.} @     + p p a p p p a p c 5XBXVXVXyXcXqXV. .c  . . . .e.5XNXbX8X9X9XyXuXpXsXsXpXsXgXhXhXsXdXaXdXaXaXaXaXyXyXyXyXyXaXyXyXuXyXrXuXrXiXrXeXuXsXuXyXyX7X8XqX0XvXwXg w g | + i ~ ~ ;.G 7 G ~ ~ r O D 7 w AXAXB. .O.@ @ X + u = % ^ H H X.} | | o.u 7 : 7 0 ^ ^ G ..^ ~ ..u r ~ u O . AXFXNXNXDXNXmXCXZXCXCXnX7XiXNXnXnXDXCXmXmXZXZXBXCXCXCXBXZXZXZXZXDXZXZXSXSXFX0X#X*X%X|.;X.X-X-X-X-X:X< $ Z M % C <X>X.X`. X(.^.(.(..X(.!.Q.Q.!.!.(.).I.5.P.).^.U.Y.J.I.J.J.4.E.4.K.,.M C S 3 < 6.Q.R.I.P.P.Y.P.P.=.5.,.4.5.1.K.5.E.5.P C C M $ P P.4.2.2.1.1.,.>.4.-.< 3 Z 9 5 =.>.' >.3.<.Q m $ S 1.>.=.P =.>.=.T K L ' =.=.E L A A A 1 * 3 -.T T P T T P ` -.I -...;.7.I F U e C C 9 < < F ^ H U U Z * * 1 1 3 C M 9 1 < * * > * > > * * * * * < * < * % M -.P ",
"R E E E ` R T =.S % $ < 1 C 4 9 < * * < < * * < 9 9 3 * $ 4 C 4 C e F U I 9 % 9 U U U ^ F 9 C Z 9 8 I ....;.-.-.I T R R R E E E ` R T =.P 6 % < $ 3 4 1 M 3 4 =.' K T 1.J.4.,.T >.4.J.4.1.1.4.4.1.2.3.3.G.2.3.2.` >.J.J.J.[.M $ < 9 < F S C K.I.K.P.Q.!.Q.Q.E.Q.E.Z < 4 4 4 5 5 < 5 E.!.Q.E.Q.E.R.R.E.(.P 6 $ =.(.E.Q.!.Q.(.`.`..X'.~..X(..X!.^.`.;X-X>X2X6.o o * % % & * * 1 Z 9 Z 9 r r 9 H ^ ;.7 O q ! q u q = = = * * * * * & * * = % & e 8 9 8 8 8 9 8 - % % % o ; H ~ H = O h x.x.d.d.d.x.x.i.j g #.j # f z.z.i.k./ O O r ^ ^ 1 % * $ * * & * & & * % & D ; H :.:.:.t.:.H   . .   O . o . . @ X     cXSXFXcXaXVXbX@.    .   +   @ =XHXNXdXDXaXDXhXhXeXgXgXrXiXgXCXyXdXqXaXyXyXyXyXrXrXuXrXyXyXyXyXrXeXeXeX7XeXyX7XdXrX7XyXyXyXdXHXAXJXKX# 7 7 u 0 y u 8.t...G G O r r o 7   X AXJXe.| O.. o o & o ; o G ~ ~ | O.O.8.8.u O o & H ;...~ ......o...G ~ G : + LXKXHXDXVXNXmXmXMXBXCXgX7X9XnXDXBXBXZXZXZXZXZXCXNXDXnXCXMXDXCXZXDXbXFXFXJXLX3Xt.%X%X-X-X-X-X-X-X,X-X$ o C > > Z lXlX-X)..X.X(.(.(.(.).!.(..X'.(.!.R.R.R.U.R.U.P.J.P.J.5.J.P.P.P.6.-.4 S C m $ E.'.R.Q.R.Q.J.I.I.2.1.K.P.K.E.P.5.5.P.P C C C > -.E.4.1.,.<.2.<.2.,.T 5 4 9 4 I =.>.=.' >.,.K 5 5 M ,.R =.=.-.=.=.T R T T =.=.T I Z S F 3 > 3 -.R T T T T T T I I -.-.:.;.U U U C C C C 5 1 F ..H F ^ 9 = , < 1 1 Z N 9 9 , $ * * * * * * * * * * * * * * $ m R P ",
"R E E E ` T T =.S % * < 1 C 4 9 < * * < < * * < M M 3 * $ 3 C 4 C Z F U I 8 % C U U U ^ F 9 C Z 4 9 I ....-.-.-.R T R E R E R R R ` R ' T S S S $ 1 4 1 M 3 4 =.' T =.4.1.1.>.T ,.4.H.4.2.4.1.>.2.H.G.G.G.G.3.2.1.<.1.,.,.K.A > 1 9 * S C V P.Q.2.1.>.R R =.=.I I 3 4 C 3 5 4 K -.I Q.Q.Q.E.Q.Q.R.R.R.(.P 6 $ =.).P.E.R.R.~./.Q.~.'.`..X!.(.^.`.Q.(.-.6 3 - o - & % % & * * < 9 3 9 < 9 Z Z H H G 0 q d ! ! ! q O = & * * $ * * & * * = % * e 8 8 8 8 9 e 8 ; * 1 % o = H ~ H ; X s z.x.p.d.p.p.x.i.j j z.h j i.z.z.i.k./ O O t ^ ^ 1 % * * * * * , * % * % % 8 H H ........} .._ H ....H & y r r o   X a KXJXxXcXAXvXAX+X} +.O.O.O._ O.*XAXAXcXqXcXcX=XhXhXsXiXiX9XgXgX8XcXbXcXbXiXiXiXdXyXrXyXaXaXaXyXyXyXyXyXyXrXyXyXsXyXaXdXyXnX=X5X0XxXxX| ~ ~ ~ 0 u ~ o.o.H t G 8 ~ t . : w z cXxXe.O.~ o o o o o 8 o H X.| O.o.~ ..X.G 8 G 8 r ~ ~ ^ o.....X.~ u ~ G 7 7 +Xe.&XVXDXnXZXDXCXCXBXnXiXiXnXNXBXBXZXZXZXZXZXZXZXFXBXCXmXZXmXZXmXNXHXbXxXIX3X%X:X:X;X;X;X;X;X;X,X.XA 4 S $ 3 Z -X~.).XXXX(.(..X).).!.!.!.~.!.Q.Q.R.R.R.R.R.I.P.J.P.J.J.P.I.J.5.E.5.S J M 4 > -.=.=.E.J.4.H.Q.~.G.1.K.P.5.5.6.P.1.5.K m C 4 $ I 5.1.H.4.1.1.>.1.4.T 5 3 C C I ' ' ` ` >.,.K < > M ,.R ' E E T E T R R T T ' T I S F F 4 > 3 ' T T T T T T T P I -.-.:.;.U H U e C C C < < Y ^ F F ^ Z 1 9 1 < 1 9 1 9 9 1 * * * * * * * * * * * * * * * $ m R P ",
"R E E E ` T T =.S % * < 1 C 4 9 < * * < < * * < C 9 3 * * 3 M 9 C Z U I U 9 $ C U U U ^ F 9 C Z 3 3 U ....-.-.^ I T R T R E R R T ' ` ` ` T ' I $ 1 3 1 9 4 m =.' ' 1.1.=.-.-.` =.,.>.' =.1.J.4.<.G.G.3.3.3.>.<.` =.4.4.T -.S < 1 8 < Z S A E.(.P.E.1.J 6 6 < $ < $ 4 4 < $ C ,.).E.).R.Q.E.R.R.W.W.R.(.P 6 $ =.!.K.I.R.Q.^.!.R.`. X'..X!.'. X(..X>X7.o o o o & % % % & & & * * * * % 9 U ^ D ; q u q d ! ! ) u O = = & * % $ $ * * & = % * e 8 8 8 8 9 e 9 8 2 e * % = G U H = O g z.p.p.d.p.i.p.i.j j z.z.z.x.x.d.i.k./ O O t ^ ^ 1 % * * = * = - = * 1 3 8 r D y e r y 2 y ..0.7.:.:.H o & o 8 O O.r.q.$Xt.p i | z 4XIXIXLXPXPXPXLXIXr.a a g a p @ a 5XBXmXDXNXbXFXNXDXFXFXCXZXBXmXhXnXnXdXnXyXaXyXyXyXyXyXyXyXrXpXyXpX7XyXaXcXAX .X p p g u ^ ..H O O O y u u ~ ~ 7 ~ y O w.vXxXHXGXcXwX&.@ ..H H H ~ o H o.~ X.G O o O ; H ^ 8 ; 0 G ..;.X.o.o...u ~ ~ u i +   | AXFXdXnXgXnXnXmXmXmXZXDXDXZXZXZXZXZXZXZXZXNXZXmXZXmXDXZXHXGXGXAX*X|.%X%X|.;X;X>X>X>X;X;X;X;X>X-X<X5.< 1 $ < % P .X.X~.(..X'.'.).).).!.Q.R.R.R.R.R.E.R.E.P.5.P.P.K.K.K.K.E.E.P.S J m 5 > 3 $ S E.R.J.4.I.J.J.<.5.P.P.5.5.P.1.5.K 4 C 4 $ L 5.,.,.1.,.,.<.,.5.T 5 5 C A -.-.` ' ' >.>.J 5 > M 1.=.=.T R R E R R R T P T T R S Z F 1 > 5 ` T T T T T T T P P -.-.:.;.U H U e C C 9 < < F ^ F F U Z 8 M 1 * < * * 3 N 9 > * * * * * * > > * * * * * * $ m R P ",
"R E E E ` T T =.S $ * < 5 C 4 9 < * * < < * * < 9 4 3 1 < 4 M 9 9 Z U I U 9 $ 9 F F U ^ F 9 C e 3 3 I ....-.-.^ R T R T R E R R T ` T T T ` =.U $ < 3 1 9 4 m E T ' 1.>.T =.>.` =.1.1.' R =.1.2.1.G.G.3.<.>.[ [ K ' 5.5.S M 3 < 1 3 < Z A Y 5.P.K.E.4.J 5 3 m 4 3 3 3 5 5 5 m ` '.~.).P.Q.R.R.Q.Q.Q.E.(.P 6 $ -.!.P.R.Q.!.(.~.!..X X^.-X.X>X>X.X.X-X-.% % - & - - ; - * & & * & % & & 9 ^ U 8 % = ! ! ! ! ! ! u = = = & & % $ $ * * * = % * e 8 8 8 9 9 9 9 e e Z * & , G H H = X d z.p.p.d.p.p.i.i.j f z.x.x.x.x.p.i.k.( O O r ^ ^ 1 % * = = = % = = * 9 D D D r 8 8 e t y y ..:.7.o.:.o.u u 7 . + 3XLX3X} : a o w w |.PXPXIXPXPXPXLXPX@.  X q.+ @   X 8XFXNXZXHXFXHXFXJXAXFXHXNXZXDXhXnXBXNXBXyXyXyXyXyXyXyXyXrX8XtXrXrX7XnXdXSXLXw.+ p u ~ o...^ G = . o 0 G ~ o.~ O y O . *XLXAXqXqXbXGX*X@.e.q.q._.t.; ~ ;...o.G O o o ; ~ ~ r 8 r H X.;...o.X.~ u ~ ~ ~ ~ u   @.JXJXAXFXgXiXhXZXZXZXZXZXZXZXZXZXZXZXZXZXZXCXZXNXCXDXHXSXKXLXLXIX$X|.%X:X1X;X;X>X;X;X;X;X;X>X;X<XlX6.% 4 < m < ,.>X<X-X;X;X-X-X-X-X'.).).).!.!.!.~.!.!.!.E.K.P.P.P.P.J.5.K.E.P.C J S 4 4 < % m Q.).R.K.K.2.Y.<.1.P.R.P.5.P.1.5.L C Z M $ U E.,.-.,.2.4.H.1.4.E 4 3 M A -.-.' ' =.' T S 5 < m 1.=.=.R E R =.R R T P L P R R Z Z S 1 * 5 R T T T T T T T P P -.-.:.;.U H H e C C 9 < < F ^ F U U Z Z Z 1 * > * * 9 Z 9 > * $ * * * * > > * * * * * * $ m R P ",
"R E R R ` T T =.S $ * < 1 C 4 9 < < < < < < - < 1 < 1 4 9 9 M 9 9 C U ^ U 9 $ 4 F F U ^ F 4 C 9 4 4 I ....-.-...I T T T R E R R ` R T R T P T A $ < 3 1 M M M T L ` -.' T =.,.R ` 1.H.1.<.<.<.[ 1.2.H.G.1.<.<.>.1.<.,.4.C < 3 3 4 4 1 Z A S K J A S 4 < 5 4 4 5 4 3 5 K 5.E.E.!.E.R.Q.5.R.I.W.~.Q.Q.E.(.P < $ -.Q.P.R.R.Q.~.~.~././.R.'.E.5.6.,.R I < o $ - & - o % % % = = * * % * * 9 U G 7 = q ! ! ! ! ! ! d O = = & % % = * * * & = % = e 8 8 9 9 9 8 8 8 e e * % = r D G = O s z.p.p.d.d.x.x.i.j j z.h f i.x.p.i.k.( # O t ^ ^ 1 % * * = = = = * $ < 8 8 ; - ; ; - e t y D D H D H H 7 & y : p 3XLXxXw D 2XzXxXzXzXIX2X|.|.|.0.t.t...i &.3X*X*Xe.%.qXFX9XC.b.r.r.e.e.$.5XFXZXmXZXnXnXBXCXmXgXsXsXsXsXsXsXsXgXtXtXrXrXyXnX5X@X*X8.g ~ ~ ..o.~ 7 0 ~ H ~ ......X.~ y ..+   3XAX=X#XC.e.5XbXwX*X#X#X*X+X+ u ..X.:...~ ^ ~ 0 0 8 ; D D t G G G ..^ ~ r u ~ ~ ^ ~ + ~ $XB.#XFXbXgXgXmXmXmXmXBXmXZXZXZXZXZXZXZXZXZXmXNXZXFXKX3X3X3X3X2X%X:X1X:X,X;X;X;X;X;X;X>X>X<X-X.X<X6.- F F C 5 Z I L Y U L I I I U Y A J Y A S A A S A A S L I =.K.).Q.E.E.E.E.5 C A 3 9 3 < 4 E.Q.K.5.J.K.J.<.1.P.R.P.2.K.1.5.K C Z C $ K 5.,.>.,.' P R T T K M 4 C J -.=.' =.=.R J m , > m ,.' E P T T R R R R T L P ' R A Z A 3 > 5 R I I I T T T I I I -.X.:.;.H H F e Z Z 9 < 1 U -.U U ^ Z r Z < * < * * 4 Z 9 > * * * * * * > * * * * * * * $ m R P ",
"R E R R ` T T =.S $ * - < C 4 9 < < < < < < < < > * 1 M M M M 9 Z Z U I U 9 * 4 F F U ^ A 3 Z 9 9 4 U ....-.-.-.I T T T R E R R ' R T ' R T T A 6 < 3 3 M M m L L T ' T T >.1.R ` =.>.<.2.H.<.' >.<.2.2.1.<.1.1.H.4.4.J.S > 4 9 1 1 3 C S Z m 5 m 3 5 3 4 4 4 4 3 < 5 -.)..X).Q.P.P.E.5.P.J.R.!.!.!.E.(.I < $ -.Q.E.R.P.R.W.W.~.R.~.E.!.=.m 5 4 M C < % - - & & ; - * & = % % % 1 % o 8 ;.^ 7 O q ! ! ! ! s ! ! = = = & % % = * * * & = % = e 8 9 9 9 8 8 8 8 8 e * % = 7 7 D ; X d z.x.p.x.x.x.x.i.j h z.j j h x.i.i.k.( # O r ^ ^ 1 % * $ * = * * & % % * & o o o o o o e r e ; e r t t + . :.xXxXPXLXIXy t lXxXIXIXzXzX2X|.|.t y : + } *XAXKXGXLXwXb.0XFX=X.     X @   a wXJXFXDXNXDXDXBXBXnXCXCXCXBXBXBXBXBXMXMXCXCXDXFXBX&XX O 7 i ~ ~ ..o.H O = o.X.X.o...H G ~ ..8.w   3XJX3Xe.e.x 5XJXAXKXxX3X3X_.. u ..~ :.O.:.8.o.H 8 O & Z r 7 7 7 r o...~ 0 y ~ ~ ^ t : O 7   g AXFXNXZXmXnXZXCXCXCXCXZXCXZXZXZXZXZXnXnXDXFXHXKX$X_.|..X.XXX,X>X-X>X;X;X;X;X;X;X>X>X-X;X,XlX5.* e 4 C M 4 < < 3 3 1 < > * * * $ * < < $ * < $ * < < 3 S R 4.5.4.6.E.).E.M m S < 4 4 $ 4 E.Q.E.J.1.H.4.2.J.J.J.5.2.P.,.4.K m Z 4 % Y 6.1.5.4.J 6 5 5 5 m m C S L -.,.=.>.,.E J M 1 > M ,.=.' T T T T R T R T L P R I A S F 9 < < I I I I T T T I I I -.-.:.;.H H F e Z Z 9 < 1 U -.U U ^ Z 9 C > * < * * 1 Z 9 > * * * * * * > > * * * * * * $ m R P ",
"R E R R ` T T =.S $ * - < C 4 M < < < < < < < < > * 1 C C M 9 9 F Z U U U C < 9 F A U ^ S 3 Z 9 4 3 U ^ ^ -.-...I T R R R E R R ' R R ` T T ' K $ < 3 3 M M m J P T ' ' R <.1.T 1.>.' >.1.1.>.` >.>.1.2.1.1.1.,.<.4.>.,.C > 4 4 1 1 4 C Z Z 4 3 < 3 4 9 1 * 1 9 9 3 4 -.E.E.E.E.K.P.!.I.R.P.Q.Q.!.!.R.'.I < $ -.).E.E.P.R.Q.R.Q.)..XP.P.=.J S L F A 4 % % & & & & % * 9 Z D F F S % o 8 ;.^ = O q ! ! ! ! s ! ! = = = & = % * * * * * = % = e 8 9 9 8 8 8 8 8 8 9 * , = = = 9 7 O d z.p.p.x.x.x.x.k.j f z.j # h z.k.i.z.( # O r ..^ 3 % $ $ $ * * * & % % % & & & & - o & D H H D D H r 2 O   t.LXPXPXPXIXt t lXzXzXIXzX2X0./.|.0.7._ : i $XAXAXGXJX3XB.xXSX=XX + @ a | } q.@X=X5XHXSXSXFXnXCXmXCXCXCXCXCXCXBXBXnXCXFXBXBXFXKX#X. + u o.o.^ ~ ..~ + : o.o...~ ..8 & t y w p p 3XFX=X*.#Xb.xXJXvXJXAX3X3Xr.O ..o.~ o.O.o.} ..o...= = D G 9 0 7 G ^ ^ ~ u u ~ G ~ ~ ^ u y   g KXJXSXFXCXZXCXCXBXCXCXCXCXZXZXZXZXZXZXDXHXSXKXLX2X1X<X,X;X-X;X;X;X>X:X>X>X>X>X;X;X;X(.-X,X<X,.% 4 5 C C Z C M Z M 9 M 9 8 e 9 4 9 C 9 4 e C 9 C C C S L R R A 3 C R E.4.A S S 9 S M > 9 6.1.E.E.4.5.5.P.R.J.4.5.2.P.,.6.Y m C 9 % Y E.1.1.,.A 5 V m m m M M C L =.,.>.>.=.T J S 9 > C ,.=.E R R T T R T T R L P R K C N Z 4 < < I I I I I T T I I I -.-.:.;.H H F e Z Z 9 < < U -.U U ^ Z 9 M < * < * * 1 Z 9 > * * * * * * * * * * * * * * $ 4 R P ",
"R E R R ` T T =.S $ * - < C 4 M < < < < < < < < 1 * 1 C C 9 9 9 U A F U F Z 1 C F S U ^ S 3 Z 9 4 3 H ^ U ..-...I T R R R E R R R ` R R L T ' J $ 6 3 3 M M 4 A T ' -.=.' >.<.R >.' =.1.G.2.<.<.<.1.H.J.1.,.1.,.1.,.A A < < 9 * 1 1 4 4 9 4 3 4 4 4 4 4 1 1 3 9 1 < > 9 1 % m K 1.5.!.!.).!.'.!.!.!.Q.(.I < $ -.).E.K.J.E.E.P.P.Q.E.A S A A A J 3 1 * % * - & & % % , r F F F U F 8 * 8 G r = ! d ! ! ! s s ! d # = = = = % * * * * & = % = e 8 9 8 8 8 9 9 8 8 8 1 8 0 , % 9 7 O d k.i.p.x.x.p.x.z.j d z.j # h x.z.i.z.( # O 0 ..^ 3 % $ $ $ * & % & & % % & ; & o & & % 2 r e e 2 r & : y o |.PXxX3X3X3Xw t zXzX2X2X2X0.6 Y { %X0.0.0.O.#XUX4X#X#X&.r.vXxXwX#X3XB.+XxXvX5Xa   &.AXvXxXAXcXDXDXNXNXmXmXnXhXhXhXpXnXdX=X#X3X0Xb.+ u ~ G ~ H r ~ G = + o.:.o.} ;.G & r O X w.&XbXbX0XV.&Xg @ @ w + w w ....o X.o.g } ~ i p ~ 8.;.; = 9 N 9 8 ; r r G H G G ~ G G 8 H G ~ O i 5X3X0XbXSXCXCXNXBXDXCXCXCXZXZXZXZXZXNXSXGXwXxXIX1X:X>X,X,X>X>X,X<X:X:X:X>X>X;X-X-X-X.X.X-X<XP.Y 6.-.m 4 C S M M Z M 9 1 1 4 4 3 1 1 3 1 9 C 9 9 9 4 3 1 4 C C 3 4 Y A m 1 4 4 M F 9 1 * C % S 1.4.E.E.Q.Q.5.2.J.5.P.,.6.Y m C 9 % Y E.I V J S J T P -.T J m 4 A T -.,.=.P J C Z 9 > 4 -.I T T R T T R L T R P I T J 1 1 9 1 * < I I I I I I T I I I -.-.:.;.H H F e r r 9 > < U -.U U ^ Z 9 C 1 * < > * 3 Z 9 * * * * * * * * * * * * * * * $ m R P ",
"R E R R ` T T -.S % < * 1 4 9 9 4 1 < * < < < * > * 3 C M 9 9 9 U I A < 3 S F F F Z U -.F 3 4 9 < 4 U F ^ ^ ^ I I T R E R T T R T T R R R T T T S K 4 < 4 > < S =.R R L R 1.1.' R ` >.` =.H.1.>.>.>.4.J.1.,.2.4.J.=.5 % < < 1 1 1 1 1 3 4 3 1 9 9 9 4 4 3 3 1 3 9 3 3 3 < 3 4 5 > L E.-X(.!.(.'.'.).(.).-.$ 5 -.Q.P.E.E.K.E.E.=.m S C 4 S 5 5 -.(.5.1 % 1 = = = = * & % = & & < U -.;.Z o o 0 ! ! ! ! ! ! ! ! ! ! ! q = = & % * * * = * & * ; 2 8 8 8 8 8 8 8 8 e 8 8 8 & o o o O d z.i.p.p.p.p.i.i.j g z.z.i.x.x.i.i.k.( X O u ^ ..1 % * * , = O & % & & & & & & & & & & & & % % * ; o : xXIXxXIXIXi   7.:X1X2XzX|.|.oX%X7.0.0.UXxXxXIXxX#Xp k +.a i O.%X4X3XGXAXxX*XxXxX#X+Xw.a   + +   c SXSXVXNXCX9XiXgX6XiX8XFXbX  . @ X i | ^ o.~ 0 0 0 7 r 7 ; 9.o.o.~ ..u o 8.UX3X3XqX0XdX0XB.&X|   + . X o . o o 8 ..~ } ~ } O.~ | o.X.= * 9 Z 9 7 7 - 7 0 r 0 0 ~ X.^ G G 7 O : : .   z GXJXbXNXnXDXDXDXDXBXmXZXCXCXFXSXKXJX3X_.|.-X,X>X,X,X>X>X;X;X;X,X-X;X,X-XXX.X~. X X.X X.X,X,X).< C S M M M M M 9 4 4 4 4 4 4 4 4 3 4 5 9 1 Z < 4 M 4 4 S Y A A A M 4 4 M C Z M * 9 < % Y E.Q.P.E.E.P.2.1.J.I.P.,.1.U 4 Z 9 $ S E.L % 6 K ,.K.1.5.K.T 5 5 5 V ,.,.=.S m M M 9 4 m P =.T T ' T T T R I P T T L K > * 9 9 % < L ' T I T T T T I I -.;.:.;.H H H 8 Z Z N < 1 U -.U U ^ S 9 C 1 < < * * 4 Z 9 3 1 * = = * * * * * * * * * * $ 4 R P ",
"R E R R ` T T -.S % < $ 1 4 9 4 4 1 < < 1 1 1 < > * 1 C M 9 M 9 U I A < 1 S F F F Z U ..F 3 4 C 4 8 H D U ^ ^ I R T R E R R T R T T R R R R T T T -.C < 4 3 3 C ,.E E T T ' ` R ' ' ' R ' 2.1.1.1.2.1.2.,.2.4.4.1.-.m > 3 1 1 < 1 1 1 4 9 4 4 9 4 4 4 4 4 9 9 9 3 3 3 1 , 3 4 3 3 m A K A S J J J A K I S < 4 -.).Q.).).Q.).!.1.< 4 4 5 S -.6.Q.).5.3 % < = = = % & % % & * ; 8 U ^ ^ r O = q ! ! ! ! ! ! ! ! ! ! ! q = = = * * * * = * = * ; ; 8 8 8 8 8 8 8 8 e 8 9 8 ; & % o O d z.i.p.p.p.p.i.i.j j z.z.z.x.p.i.i.i.( # O 0 ..^ - % ; = = = O O o o o o & & & & & & & & * * & & ; o : xXIXxXIXPX_ o 7.:X2X2X2X|.|.:X%X0.3XPXxXxXxXxXe.a w @.q.i : t $XIXIXxXxXxX4X@Xq.r.IXPX7 O 7 : X @.JXJXJXNXFXbXgXhXgXZXFXFXvXg w w 7 ~ ~ ~ X.~ 0 7 r r t r 7 o.X.:.X.o.i   ..xXPXGXVXqXbXwXB.+Xg   X   . .   + O & ..X.X...} O.} o.o.o.= * 0 N 0 7 7 - 0 0 8 7 u X.;.X.~ ~ G 0 u y O . r.KXKXSXHXFXFXNXNXmXNXZXZXNXFXFXKXKXLXUX%X:X>X>X>X,X,X>X;X;X>X>X:X:X,X:X.X X X X.X X X X X-X-X!.% $ > > 6 6 6 $ $ $ $ $ $ $ $ % $ $ 6 $ 3 * 4 < 3 5 3 M Y I L Y Y Z M M C C Z C 4 9 < < I 5.E.Q.E.K.K.5.5.J.K.P.,.,.U 4 C 9 * Z E.` 5 5 L =.1.,.=.>.L m S S J =.>.=.C 4 M M 9 4 C T -.I T R T T R R I P I L J Y 1 $ 4 M $ 5 K L T I T T T T I I -...7...H H F e Z Z N 1 9 ^ -.I U ^ S 9 C 1 * < * * 9 Z C 9 9 1 = = * * * * * * * * * * $ 4 R P ",
"R E R R ` T T ` S % < $ 1 4 9 4 4 1 < 1 4 9 4 1 > * 1 C M 9 9 9 U I Z < 1 Z F F D Z U -.F 3 9 Z A Z H D ^ ..-.^ I T R E R T T R T T R R R R T T ' -.M * m m 4 M S C I =.=.' T ` ' ` ` ` =.1.2.4.1.4.1.,.,.,.=.K J J 3 < 4 1 1 < 1 4 1 9 Z C 4 4 4 4 4 4 9 9 M M M M M M M N Z M S M M m 4 m m 4 4 3 5 9 C 4 C U ,.-.=.-.-.-.-.K m A -.,.6.).(.).!.E.9 % - * * = % % = = = * * ; 3 9 9 7 q q d ! s s ! ! s s s s ! d q = = = = = * = = = = * * * 8 8 8 8 8 8 8 8 e 8 r r 8 ; * o o d z.i.p.p.d.d.p.p.j j i.x.x.x.p.p.p.i.( q O 0 ..^ - & , = q / / # O : ; & O o & & & & * * * * * * - o ; xXxXzXxXIX{ 2 0.oXoX,X,X|.R.|.0.t ..:.r.+XB.B.&.a +.+.+.0.t._.2X2X2X2X$X3X4X|.p +.IXIX: : u t w ~ @XB.#Xb.wXNXgXgXqXwXB.z q.i ~ G u X.^ ~ ~ H 0 7 0 r r 8 ; ..X...~ ..7 . O.5XcXbXbXdXFX0X=X*XB.r.e.e.B.B.q.r.o.7 ^ ^ ^ ^ ~ X.X...y 0 8 1 9 N 9 9 0 ; 0 0 0 0 r H H 0 ~ ^ ~ ~ ^ H : O i +Xr.=XHXDXDXVXDXNXCXDXZXFXAX3XwX3XzX2X-X<X,X,X>X>X>X;X;X>X>X;X:X-X-XXX^.^. X.X.X(. X X(..X.X!.1.,.4.J.6.4.4.,.-.-.-.-.-.-.=.-.-.-.,.1.1.Z C S 5 5 4 M Z S A S C m 3 3 1 < 1 3 F Z < < C A A L 1.,.1.K.K.4.4.1.L L S 4 9 9 < C Y S 6 S =.,.,.1.-.>.' T =.=.=.>.-.-.C 4 M 9 9 4 J R =.R T R T E P P P I K Z 3 4 4 > C U Y L R P P P T T T T T I ..I -...F I ..H Z Z 9 9 9 Z F F I ^ S 9 C 1 * * * * 9 A Z C C 9 * = * * > * * * * * * * $ 4 R P ",
"R E R R ` T T ` A % < * 1 4 9 4 4 1 1 1 9 9 9 1 > * 1 C M 9 9 9 U I Z < 1 Z F F S Z U -.F 4 9 Z U F U D ..-.-.-.R T R E R T T R T T R R R R T T P R m * 4 M m 5 , 5 L ,.=.T L ` T K ` >.1.1.>.1.' -.-.,.2.4.,.J 6 5 > < 4 < 1 1 4 1 1 9 Z Z 4 4 4 4 4 9 9 M C C M M M M M Z Z M M M C S C C C C A A S Z S Z Z Z 4 5 5 5 5 4 m 5 6 5 -.E.E.!.R.E.Q.E.Z % < * , = & * = = = % o o o o & 7 u d ! ! s ! ! ! s s s s ! d q = = = = % * * * * = & & & 8 8 8 8 8 8 8 8 e 8 0 r 0 8 1 = o d k.i.p.d.d.x.x.x.f j i.x.x.x.M.x.x.i.k.# O N ..^ ; & = = ) b.}.q X . o O : O & & & & * * * * * = , o - lXlX2X3XzX_ Y |.|././.Y.|.|.:X7.. o . i +.a $.IXPXIXq.  _.xXxX%XH H 7.0.t.|.|.i _ IXxX: y ....~ 7 7   @ X &XJXFXFX0XC.z . 7 ~ ^ ~ ~ ^ ^ ~ r 0 0 7 ; = 7 = = X.;.G = u u q.xXKXSXFXdX=X=X=XwXwXwXKXAXJXKXGX3X3Xt.O u u G ~ G ..:.X.= o r 0 9 9 0 9 9 , - = = = 7 G ^ ~ G ~ ~ ~ ^ G ; + . 7 X e.SXSXSXDXDXNXZXNXSXJXvXN.%X|.-X%X-X,X,X>X>X>X>X>X;X>X>X;X>XXX.X^.^. X X X X(. X.X X X.X(.-X(.-X-X.X'.XX'.!.!.!.!.!.!.!.!.~.!.!.(.).S $ 5 4 m m 4 6 $ 3 5 Z C M 4 3 < 1 4 I A 4 1 4 < > 4 6.1.K.E.K.5.1.' 5 3 9 4 9 9 3 1 % 5 m K ,.1.,.1.4.,.=.=.=.>.=.=.=.R M 3 M 9 9 4 I E R E R T T E P I R I U 4 $ * * % 4 I ' ` T P P P T T T T T I I I I I U ..;...Z Z 9 1 1 1 1 3 I ^ S 9 C 1 * * * * 4 Z Z C C 9 * = * * > > * * * * * * $ m R P ",
"R E R R ` T T ` A % < $ 5 4 9 4 9 4 1 1 9 9 4 1 * * 1 C M 9 M M U I Z < 4 S F A F Z U ..F 3 9 A U F H D ..-.-.-.R T R R R R T R T T R R R R R T E -.C 5 4 m m 4 4 3 Y R P K P =.P K ' 1.4.>.' =.=.,.=.=.-.,.,.K > 5 3 4 3 < 1 1 1 1 1 9 Z Z 4 4 9 9 M M C Z C C Z Z C 9 C Z C 9 Z Z C M 9 9 M C 9 A S Z Z S S Z S Z Z Z C C C S J m ' 4.5.5.6.E.Q.Q.S % * * * * - - , = = % % % & o = 0 ! ! s s s s s s s s s s ! ! d q q q = = = * * * = & % % 8 8 8 8 8 8 8 8 e 8 8 0 8 0 8 = O d z.p.p.d.d.d.x.x.f j i.x.M.x.M.x.x.l.k.# O S ..^ ; = = = ) b.#.# O 7 . . : O & & & & * * * * * = ; % - 2X2X:X2X2X_ Y |.|.U.U.U.^./.0._ t i + ..0.i q.PXLXPXO.@ B.$X3X%X+._ y 0.0.U.|._ _ PXIX+ u X.^ ^ u 7 + + + &XLXJXKXcXV.| . 7 X.^ ~ ~ G H G 7 O : ; = 7 : : ; ..:.G = u D t.4X#X3XJXbX&X#X=XwXwXwXGXqXAXGXAX=X3X8.o u u G ~ ~ X.;.X.7 - Z 0 0 0 1 1 0 = - = - - ; 8 t u G ~ ~ ~ ~ G r r u 7   e.JXSXVXSXDXZXFXFXAXKXIX%X1X-X:X;X;X,X;X-X>X>X>X;X;X>X;X-X;XXX(.^. X.X X(.(.'..XXX X`..X.X~.!.(.'.Q.R.W./.I.E.E.I.I.I.I.I.U.R.E.!.Q.J 5 C 5 5 4 4 6 6 m 5 C Z C 9 9 1 1 M U A M 9 9 4 9 Z 6.6.E.5.1.5.5.' 3 4 M C 9 9 4 < $ A T E -.1.,.1.,.-.=.' ` ` ' R =.E M 3 Z 9 1 9 I I I R I I I I R I I I U 8 < 3 3 < C I ` P T P T T R T T T T T I I I U F ^ -.^ Z Z 9 9 9 1 ; 9 ^ ^ Z 9 C 1 * * * * 4 Z M M M 4 * = * * * * * * * * * * $ m R P ",
"R E R R R T T ` A % < $ 5 4 4 4 4 1 1 1 9 9 4 1 * * 1 C M M M C U I Z < 3 A F A F Z U ..F 1 9 F U F U D ..-.-.-.R T R R R R T R T T R R R R R T E E C < 3 5 M M 4 3 A L U P T >.T P =.>.-.' L ' 4.4.,.,.E J S 5 5 4 3 4 3 < 1 1 1 1 1 9 Z Z 9 4 M 9 4 M S A S C S S C C Z S Z C A S C 9 C Z C Z 9 A F Z Z Z Z S S A A A A C C A Q.J.R.I.E.5.I -.Q.Q.S % * * * * < - , = % = 0 9 e & = 0 ! s s ! s s s s s s s s ! ! ! d q r 0 0 = * = * * & % % 8 8 8 8 8 8 8 8 y 8 8 8 7 0 8 = O d z.i.p.d.d.d.x.p.f j i.x.x.p.i.i.p.x.k.# O D ..U - = ; = d g q w.xXxX~ . + o & & & & & * = = , * 1 & & 2X2X:X:X2X_ S |././.|.U.3.Y Y q.UX3X&.+.%X3X3Xr.p +.+ e.3X#X3X+X+.0.7.|.|.0.0._ _ xXxX+ w X.~ ~ u g / | u 8.+Xr.B.+Xq.g + 0 ^ ~ H G r 8 G 8 O & O 8 X.;.:.......u o : y t 7   &.FXAX#X&X&XB.C.3XGXAXAXAXvX3X3Xt.7 ~ H ~ ^ X.^ 0 r = ; D 8 0 0 1 0 0 * ; , ; 8 1 8 8 7 ~ / ~ ~ / ~ ~ ~ H y   r.LXFXSXFXNXNXFXAX*X$X2X:X<X,X,X,X,X>X;X;X;X>X>X>X>X>X;XXXXX.X X(. X X'.'.'..X.X X^.^.^.(.~.~.(.~.Q.I.U./.R.R.R.R.R.R.R.R.I.!.Q.I.Q.K.P.P.Q.E.P.E.1.1.1.S 6 5 1 1 3 > > 9 F S C 4 3 3 3 9 F F U A S ,.E.-.4 M 9 M 9 9 9 < 6 J 1.,.=.=.' ' ' ' =.' ' ' ' =.=.R 4 3 Z 9 1 9 R I I R R R R L J A Z C 8 < < 9 I K U I T P T ' T T R R T T T T T I I U U ^ -.^ 9 Z 9 9 M 1 * 9 ^ ..Z 9 C 4 < 1 < * 9 Z C M M 9 * = * * * * * * * * * * $ m R P ",
"R E R R ` T T ` A % < $ < 3 4 4 4 1 1 1 9 9 9 1 * * 1 C M 9 M C U I A < 4 A F A F S U ..F 1 9 A F S I H ..-.-.-.R T R R R R T R T T R R R R R R T P m < 5 1 M M 4 4 S A J P P P ` P ` ' T P L T ,.1.,.5.R 5 5 > 3 5 1 3 3 < 3 1 4 3 1 9 Z Z 9 9 M 4 4 M A J J S S Z e 4 Z S Z Z e e 3 3 C Z e Z F F F A S Z e S 3 9 C C Z 9 Z I Q.R.!.R.!.5.m K ).).A % < * $ * - - 1 , = , Z H G & O q ! s s ! s s s s s s s s ! ! ! ! ! ! B q = * = = * & % % 8 8 8 8 8 8 8 8 8 8 0 0 7 7 8 = X d i.i.d.d.x.d.M.d.f j i.x.z.j j j z.z.( # O Z ^ ~ * % ; O q # X w.LXLXH   O O o o o % & & * * 1 , ; * % 1X2X2X1X2X{ V /._.|.|._.0.7.t O.vXwX&.k $XLXLX_   i y @.5X3XxXN.y oXzX2X2X7.Y _ _ xXIX: 7 X.~ ~ ~ ~ ^ ~ y 7 O   + p i o.o.~ o.^ G : ; ; D 8 & & o 7 q.:.q.o.~ o.H : 8 8 e 7 + V.JXvX#X5X@XX   w w w + + : + t : o G H ~ ~ X.G o - , 7 Z 8 8 8 0 9 9 1 & % = % o o o o u ~ ~ G ~ ~ ~ G u 7 . r.LXKXFXFXFXFXJXAX$X|.:X;X-X-X-X;X>X>X>X>X;X>X>X>X>X>XXX.X(..X.X X X'.'.XX'.'.(.~.^.^.~./.(..X`.W.W.W.U./.W.R.W.R.W.U.T.U.I.Q.Q.P.Q.Q.`.Q.!.!.R.!.Q.!.!.L $ < 5 3 9 3 1 M Z C M 4 3 9 9 9 * $ > $ $ I 6.-.< M 3 3 9 4 M 1 6 S J.K.' L J J L R E ` ' ` R ' =.R 4 1 Z 4 1 M I I I R R -.R Y C C 3 - * * * 3 -.R I P P P P T T T T R T T R T P T R I I ..-.^ 9 Z 9 4 9 < * 8 ^ ..Z 8 Z 9 4 9 * * 4 Z C M C 9 = = * * * * * * * * * * $ m R P ",
"R E R R ` T T ' S % < $ < 1 4 1 1 < < 1 9 9 9 4 * * 1 C M 9 M C U I A < 4 A F A F S I ..S 1 9 A 9 9 U F ......I T T R R R R T R R R R R R R R R ' T M 4 M 1 1 1 9 3 4 5 m P ` T P P ` ` P L L E ,.1.,.5.I > m C 4 4 1 3 3 1 4 1 9 4 1 4 C C 9 C M 4 3 M J L J S J J Z C A K K U I U S C C C Z Y A C 9 9 Z C C S Z S S A U I ,.R.R.I.R.P.!.5.J E.(.).F % 1 * * * * ; 8 0 - ; D G H = O q ! ! s s s s s s s s s s s s ! ! ! ! q q = * * = * & & % 8 8 8 8 8 8 8 8 8 0 q q q q 7 O X d z.i.d.d.x.d.M.x.h j i.c.z.# # j z.x.h # O r I ^ ; O = = q # # w.LXPXz   @ . . . o O O & & , 1 ; ; % o 1X2X2X<XlX{ V |.|.|._.|.:X|.i } xXwX&.O.%XIXIX} _ :.y t.3X4XzX|.7.2X2X2X2X_ 2 H y UXIX7 O u 7 t ^ ^ ^ ^ X.~ 0 7 u ~ o.~ :.G H H r & r & 8 O o : . O :.:.8.o.~ o.H O 8 o O . . b.JXAX3XwX&X    @   O o o o o o o & H ^ H G o.~ O D U F 0 1 8 8 0 8 9 1 = r X.8.o.D y y u ~ ~ ~ ~ ^ ~ G ~ G O {.LXPXAXAXbXvXAXxX2X:X<X-X>X,X;X;X>X>X;X-X;X;X>X>X>X>XXX X(..X X'..X'.'..X'.'.~./.^.`.~.R.(.XX~.I.W.W.Y.W.U.U.U.U.U.U.U.U.R.I.R.R.W.Y.W.J.R.E.P.E.5.P.R.J % 6 < 3 C 9 3 Z Z M 9 9 4 4 9 9 Z 9 Z 3 > I 6.L > M 4 4 9 9 9 1 < C 5.E.=.L T =.T =.' ` =.` R =.' R 4 1 Z 4 1 M U Y K U L I I Z C Z 9 1 1 1 1 3 I R P P ' ' T R T T T R T T T T P R -.I U I I U 9 Z 9 4 C 1 * Z ....Z 9 Z 9 9 9 * $ 1 Z M M C 9 * = * * * * * * * * * * $ 9 R P ",
"R R R R R R R T J S A $ $ < 4 1 < $ 1 Z M C Z 3 * * 3 C C M M 9 U U Z 1 9 F F F F Z H ^ F 1 < Z A F F F H r Z I T R E E E R R R R E E E E E E R T ' =.R -.m 3 4 3 4 5 5 m K E =.L T R R ' =.=.T 5 3 5 5 5 3 3 5 3 5 4 4 3 3 3 3 1 1 4 9 9 C e e C S K I =.>.,.=.5.P.E.E.E.P.P.!.E.P.J.5.Q.I 5 m 4 1 5.).Q.).Q.Q.Q.Q.Q.Q.R.R.E.R.I.P.U.R.I.R..X1.% * * * * * * * ; & & r t r G G G = O q ! ! s s s s s s s s ! ! ! ! ! ! ! ! ! q = = = * * * = = 9 9 9 8 8 8 8 2 e : # z.n.n.g X X d z.i.d.d.d.x.M.x.h j i.x.k.j j j k.z.( # O u H U * % ; = q q X w.KXPXxXvXbXcXAXSXAXAXPX... 8 ; & 8 % ; |.:X-X|.|.J P 5.5.!.0.|._._.0.0.0.r.7.7.Y 2 y 0.t.0.7.Y _ { _ 6 oX2X:X:X_ Y H 8.:.5XxX7 o o & t r 0 ^ ~ ~ G 0 7 0 H ..^ X.u : r = r : o 8 o O 4XvX8.w :.q...~ H 8 & 8 xX3X5X3XcXFXxX3X3X&X@   w o y ; ; ; = = = ; t ^ G O & 7 7 G ~ G 9 0 9 0 0 0 8 8 O y PXLXAXxXKXxXo ; 7 ~ u ~ ~ ~ ^ 0 - 8 7 o O.2X$X2X%X%X-X<X,X;X;X;X>X>X;X;X:X-X;X;X-X X(. X X(.^.(. X.X.X.X.X'..X`.~.~.(.`.'..XR.R.R.R.R.R.R.R.R.R.R.R.R.R.R.U.R.R.R.R.R.R.R.R.Q.P.I.R.I.P.P.J.2.5.T 5 M 4 M Z A M M C 3 4 C 9 9 9 4 1 1 < > > 3 3 4 4 4 4 4 4 > C -.-.J C J >.' ' ' ' R R R T -.I Z 9 9 4 9 4 1 > 9 ^ -.9 $ 1 1 C C 4 C Z C S T T T T T R R R T T T T T T T I I I I I -.F 1 C Z F 8 1 e 5 $ C ^ U F Z e 8 9 9 * * 4 Z M C Z 9 * * * * * * * , , $ * 1 $ 4 ^ I ",
"R R R R R R R R ' T I 5 < < 1 < < $ 1 Z 9 M Z 3 * * 3 Z Z M C 9 U U Z 1 8 D F F F Z F U F 1 1 Z A U U U F Z Z I R R E E E R R R R E E E E E E E R ' ' E R 5 > < 3 3 5 5 m S J L =.=.>.=.-.,.,.-.3 3 3 3 5 5 5 5 3 5 4 4 4 3 3 3 1 3 4 4 4 4 C Z C m V S L ,.K.K.E.E.R.R.Q.Y.1.<.P.J.J.4.E.I S S 3 C E..X!.~.R.Q.R.R.E.R.R.R.U.I.U.P.U.U.P.P.).-.% $ * * * * & * - & & e D r G G H = O q ! ! s ! s s s s s s ! ! ! ! s ! ! ! ! q = = * * = * = % 9 9 9 9 8 8 8 2 2 7 # z.n.n./ # X d z.i.p.p.p.d.x.d.h j i.x.i.j j j i.k.h # O y ..H o o = = q # X v.LXLXKXHXNXmXDXFXFXJXLXO.  O o o o o - _.t.7.0.0.6 % 6 5 6.|.|.|.|.|.t.0.0._ S 7.Y 5 Y Y 7.{ 6 Y.oX/.5 _.:X2X1Xo . +.r.+XIXxX7 O & 2 y ; 8 ^ ~ ^ H G Z G ~ ^ ^ ^ G 0 G 7 & O O +   @ 3XLXr.X i ..~ D G ; & 8 LXKXJXVXAXSXAXwXcXcXwXvX3X+ O : O : 8 H ..H t H H O O = 7 u G G 0 0 0 Z 0 0 0 7 o + vXJXSXcXGX3X  o 7 o.o.~ ~ G ~ G D 0 - o :.lXlXlX-X;X<X<X,X,X,X>X;X;X>X>X,X,X;X>X-X X(. X X)..X.X.X.X.X X`.(.~.^.`.'.`.~.!.!.R.R.R.R.U.R.R.R.R.R.R.R.R.R.U.R.R.R.R.R.R.R.R.R.R.E.R.E.I.Y.I.P.R.I.R $ 5 4 C C Z M C S 4 1 1 < 9 4 3 1 1 1 1 1 3 3 4 4 4 9 9 4 M S I Y S J L >.' ' E E R R R T T L C e C 9 C 8 9 3 9 U U Z 1 8 3 4 < 5 Y I P L T T T T R R R R T T T T T P I I I I I I I A 1 C S F 8 1 C 4 < C -.-.I F S Z C C * * 4 C M C Z 9 * * * * * * * , , * * > % 4 ^ I ",
"R R R R R R R R =.` R 5 < < 1 < < $ 1 Z 9 M Z 3 * * 3 C Z M C 9 U U F 8 9 D F F F Z F U F 1 1 D Z F F S S Z S P R R E E R T R R R E E E E E E E R R ' ' R 5 < 3 3 3 3 5 4 4 m C -.=.=.' ' =.=.E 3 3 4 4 4 4 5 3 3 3 3 3 3 3 3 3 1 4 9 M C C Z Z Z K K L ' 4.P.J.J.5.2.J.W.I.H.1.P.J.K.4.K.=.E L $ C E.).E.Q.P.Q.I.I.I.U.I.I.I.P.U.P.U.I.P.P.).-.% $ * * * * * * * & & e D r G G H = O q ! ! s s s s s s s s ! ! ! ! s ! ! ! ! q = * * * * * & % 3 3 3 8 8 8 8 3 8 7 q #.#.#.g # X d z.i.p.p.p.x.p.s.h f x.x.p.h i.i.p.x.k.# O 8 H r % ; ; O q q # #.&X#XwXFXCXBXDXVXVXSXvX .@ w w 7 7 y t 7.7.0.0.7.e - - 2 6.%X|.0.|.|.|.|.|.7.Y 7.{ _ { _ 0.J 5 oXlX<X0.:XlX2X%Xw   0.4X%X+X_.: O : 8 : & : G G H G t r 0 Z G Z Z G 0 u : . O       @ #XKX@X  y ..~ H G & & 8 PXwXSXNX0XbXHX0XqX5XxXAX#X@       . + ~ :.~ u ~ u o O 7 0 G Z r 0 0 r G 0 0 0 7 o O xXJXFXVXSX5X+ + + ~ ~ ~ ^ ^ ~ ~ ~ D 8 ; _.lX:X2X;X<X<X,X-X,X,X;X-X;X;X-XXX-X-X-XXX X(. X(.). X(.(.(.(.`.`.(.Q.^..X.X^.W.U.U.R.R.U.U.U.U.R.R.R.R.R.R.R.U.R.R.R.R.R.R.R.R.U.U.I.I.R.I.Y.Y.I.Y.J.J.,.J P A C M M 4 C Z 4 4 9 9 4 4 4 4 4 4 9 9 4 4 4 4 4 4 9 9 Z Z A S J P R >.' ` ` R R T R T R P A F S 9 e 9 M M 9 9 Z Z C C C Z 4 4 Y ` ` ' T T T T R R R R T R T T T I I I ` -...U U Z 1 Z F F 8 ; e 4 < 4 ^ I U F Z e 9 9 * * 3 C M C Z 9 * * * * * * * , * * < 1 $ 9 ^ U ",
"R R R R R R R R T T I < > < 1 < < * 1 Z 9 M Z 3 * * 1 M M 9 M 9 U ^ F Z Z F F F F S F ^ F 1 1 Z A F Z Z H ..I P R R E R R T R R R E E E E E E E R R ' ' E 5 3 4 3 1 5 m 4 3 4 m S A C M m C C m 5 3 4 4 4 4 4 3 3 3 3 3 3 1 3 3 M C C Z Z C 4 5 A =.4.4.4.J.4.,.1.1.1.2.J.J.J.Y.R.J.J.4.J.1.4.P < 3 P K =.E.Y.R.R.I.I.I.R.I.I.I.I.I.U.I.P.P.).,.% $ * * * * * * = & & e Z r G G H = O q ! ! s ! s s s s s s ! ! s s s ! ! ! ! q % = * * * * = & * * ; 3 8 9 8 8 e 8 # q q u u 7 X d z.i.i.p.p.x.p.p.h j x.M.x.x.M.x.x.c.z.d q 8 : ; r ~ G O q d d d # X @XSXNXnXnXnXNXFXJXAXAXJXLXKXLXLX+X. . r.%X|.|.|.%Xt.H : t : 0.|.0.|.%X7.Y _ 7.|.2XlX2X_ 6 oX2X|.Y Y _ i +.xX3XxXPX$X  + 7 O = 8 7 : 7 8 r u t 0 8 0 0 0 8 8 t 7 7 7 + r.KXAXAXwXbXJX#X  w } H D H r r D ~ p =XSX0XbXAXB.$.*.3XxX5X3XwX3XxX3X$X4X$Xo.7 ~ u o = r G Z 0 0 7 0 r r 7 7 7 7 O X wXHXDXDXFXdXxXwXw.w + 7 ~ G ~ ~ ~ r 7 o 8 r t -X2X<X;X,X>X,X>X;X;X>X>XXX X(. X X X(.(. X X X(.^.!.!.~.~.^.^.~.(.`.^./.Q.Q.Q.R.R.R.U.U.U.R.R.R.R.R.R.U.U.R.R.R.R.R.U.U.U.U.U.I.I.Y.J.Y.I.I.J.1.5.R.E.R.L 4 m 4 4 Z S M 4 4 4 1 1 1 4 4 9 9 9 9 9 9 4 4 9 9 M 3 4 S Y R ,.=.=.` ` R R R R R R E ' R I S < 3 4 C C 4 1 9 Z Z Z 9 C 3 3 A P P ` T T T T R R R R T T T T T T I I -.-.-.Y F Z 1 Z ....F 8 C 9 1 9 9 9 9 9 9 9 9 9 * * 3 C M C Z 4 * * * * * * * , * * > > $ 4 I I ",
"R R R R R R T R T ' R < > < 1 1 1 * 1 M 9 9 Z 3 * * 1 M M M Z M U U U F H F F F D Z U ^ U 9 1 Z F S r D I -.-.I R R E E R T T R R R E E E E E E R R ' T I 5 5 < 3 1 3 4 4 3 3 m 5 5 5 < < 5 5 < 5 3 3 1 3 3 4 4 3 3 3 3 1 1 4 9 Z Z Z Z C 4 5 5 J 1.P.4.1.1.1.2.<.2.2.2.2.3.J.T.I.2.2.1.J.J.K.J C < 6 % J W.R.P.R.I.I.I.R.R.I.I.I.I.U.P.I.P.).,.% $ * * * * = * = & & e t r G G D & O q ! ! s s s s s s s s ! ! ! s s ! ! ! ! q % = & = % & & & % % & 2 8 8 8 8 4 2 & + o 7 r 0 O d z.i.p.p.p.p.p.d.h j x.M.M.M.M.M.M.c.z.d u 7 O ; H ;.G O q s d d X . #XJXSXnXBXBXDXVXDXFXHXHXFXSXJXLXe.  . +X4X|.$X|.r.q.+     o 7.:X_.|.|.0.- $ _ |.lXzXoX5 5 oX2X|.y   .   . PXLXxXLXxX. . = O = 7 ; ; ; & t G t 0 9 9 9 9 0 7 o .     X V.FXbXFXSXSXFX#XX w ~ r 0 D r F G o   *XKX0XgXbX .p b.AXPXGXKXHXGXKXvXwXxX3XO.y o.G & = 0 r 0 ; 7 ; 0 t t 7 7 7 : O X wXFXNXZXDXmXSXKXB.  . ; ;.X.^ G G 7 y y 8 o o |.2X<X-X,X,X,X,X>X>X,X,XXX`.^.).(.(.(. X X.X.X X(.~.!././././..X(./.W./.^.^.~.R.R.R.U.U.U.R.R.U.U.U.U.R.R.U.R.R.U.U.U.U.U.U.U.I.I.J.H.Y.T.I.H.2.J.E.E.E.J 5 5 5 4 C S S 9 4 1 3 3 3 3 3 4 9 9 9 9 9 4 4 4 9 M > 3 C J -.1.' ' R R ` R R R R R T ' -.-.S < 3 1 M C 4 4 9 C C C 4 3 $ < J ' E T T T T T R R R R R R T T I T T R -.-.-.A Z Z 4 S -...H e e 3 1 9 1 1 3 8 9 C C C * * 4 C M C Z 9 * * * * * * * * < * % % % 3 I R ",
"R R R R R R T R T ' I 6 > < 1 1 1 * 1 M 9 9 C 3 * * 3 M C Z Z Z F U U U U H D Z 9 9 F ^ U 9 3 S Z S D F U ....I R R E E R T T T R R E E E E E E R R ' T R S S C 3 3 3 4 3 3 3 4 M m 4 4 4 4 m m 4 3 3 1 1 3 3 4 1 3 3 3 3 4 9 e Z Z Z Z C S K T L 1.J.1.>.>.1.H.<.1.2.2.J.G.J.I.I.H.4.4.K.P.E.J < 4 P J R W.R.I.I.I.I.I.I.I.I.I.U.U.I.P.P.P.!.-.o $ * * * * = * = & & e t r G G D & O q ! ! s s s s s s s s ! ! ! ! s ! ! ! ! q % * & % % % & & % % & 2 8 8 8 e 4 4 : 8 ; e S 0 O d z.p.p.d.d.d.d.x.h j d.M.x.M.x.x.M.x.z.d g 0 O & y D 8 O # s d g q X #XKXNXBXBXmXCXBXBXZXBXNXFXDXAXAX#Xw.r.q.N.q.3X*XB.*XB.B.r.|.:.0.0.0.0.t.0.U.0.0.lXzXoX_ _ U.0.t.|.&.e.q.q.+X+.+.$X#Xa + O ; = = = & - & 8 0 8 8 9 9 9 8 ; : + O.O.| z &XHXgXmXNXZXFX#X  y ..t 7 ; & 8 8 7 @ *XKXwXqXAX%.g  .4XwXPXPXAXAXGXvXxXxX3XO.y H 8 & = 0 Z 0 ; ; 7 r G G 0 0 8 : o   0XFXmXhXZXmXbXJX5X+ : u ^ ~ ~ u G 7 7 r u & o -X<X;X;X,X,X:X>X>X;X-X.X X X`.(. X X X.X.X.X.X(.(.(.^.~.!.!.~..X^.Q.R.!.'.`.~.R.R.R.U.U.R.R.R.U.U.R.R.R.R.R.R.U.U.U.U.U.U.I.I.R.I.J.J.I.T.I.J.J.Y.E.4.K.>.T L R J S M M M M 9 4 4 3 3 3 3 4 4 9 9 4 4 4 4 9 9 1 3 4 m L =.R ' R R R R R R R R E T T ' L J Y M 1 4 4 4 9 4 1 1 S A A S L ` T R T T T T R R R R R R T T I T R R -.7.-.Z C Z 3 Z ^ ^ H D S 8 1 9 4 9 8 9 C C C 9 1 1 9 C 9 M Z 9 * * * * * * * , * * * 9 M S I P ",
"R R R R R R T T L ' I $ * < 1 1 1 * 1 M 9 9 C 3 * * 3 M M M Z Z Z F F U I F D D 8 8 F ^ U 8 8 D F F I ^ ^ ^ -.` T R E E E R R T R R R R E E E E T R E T =.I -.L < 3 3 3 3 3 3 1 3 1 1 1 3 3 5 3 1 1 1 1 3 3 3 3 1 1 4 4 4 9 C Z Z C 9 m J T ,.H.' 2.4.1.G.3.<.<.H.H.G.H.K.J.G.H.J.J.J.J.P.J.E.K % S E.R.K.W.P.R.I.I.I.I.U.U.I.I.I.U.I.P.I.P.!.-.o $ * * * * * * * & & e D r G G D & O q ! ! s s s s s s s s s s ! ! s ! s ! ! q % & & % % & ; 1 1 - - ; 2 2 8 e e 8 8 r 0 r Z , O d z.d.d.d.x.d.d.x.i.j p.x.x.M.x.x.d.x.z.j / u = * & & & O # d d s q X @XSXVXDXDXnXBXCXMXBXmXNXNXDXNXHXSXLXAX .  + vXJXGXHXFXHXJXPXi . a o & _ |.oX7._ oX2X|.Y { Y . +.PXLXJXJXLX}   O X     # q g 7 + O O & & o & & * ; ; & & : O ~ PXLXFXAXFXDXgXgXgXmXHX&X  7 ..t ; & o = O O . *XJXwXqXbX .X   . 7 O.O.i p i z } +.} w o & & & 8 0 G G 7 = 7 0 G G 0 8 7 = O   0XFXZXZXZXZXqXKXvXO.t...8 t 7 7 ~ H ~ ~ G & o :X<X;X,X,X,X,X>X>XXX X~.^.`.`. X X X.X.X.X X X~.(.'.`.^.~.^.^.^.^.!.Q.!.(.^./.R.R.R.R.U.U.R.R.R.R.R.R.R.R.R.R.R.R.U.U.U.I.I.I.Y.I.I.Y.I.J.J.I.Y.W.Q.J.Q.Q.E.J.E.,.J m 4 4 4 4 4 4 3 3 3 3 4 4 9 9 4 3 4 4 4 9 3 3 3 < J ' T ` R R R R R R R R ' R T E R E -.S * 3 3 < 1 < > * Y -.-.E T P T ` R R R R R R T T T T T T I T E -.^ 7.-.C e Z 8 r -...^ ..^ D 9 C 9 9 9 9 9 9 9 9 9 4 C Z 9 9 Z 9 $ * * * * * * * $ $ 3 I R I I L ",
"R R R R R R T T T =.R $ > < 1 1 1 * 1 M 9 9 M 1 * * 1 9 9 9 C Z Z D F U I F D F 9 8 D I F 3 1 S Z D H ^ U I I I T R E E E R R T R R R R E E E E R R E T =.E ,.I 6 3 4 4 4 9 9 3 3 1 1 3 3 3 5 5 1 1 4 4 3 3 1 1 1 1 4 4 4 e Z S A 4 5 4 K =.,.1.1.2.>.>.J.J.<.>.2.2.3.G.K.K.J.K.1.J.Y.J.J.,.K.L 6 m P.!.I.R.Y.R.I.R.E.R.R.R.U.I.I.U.I.P.R.E.!.7.o % = * * * = * * & & e D r G G D = O q ! ! s ! s s s s s s s s ! ! s ! s ! ! q O & & & * 1 9 r r 3 ; 2 2 ; 2 e 8 7 7 q = ; Z 8 O d z.d.d.d.d.d.d.d.h j p.M.M.M.M.c.x.c.z.j h g 7 ; & o = O # s s d # X &XJXSXnXCXnXBXBXMXCXBXmXZXCXVXFXcXJXSX|   @ AXHXqXDXiXZXSXAXa   +   o ..|.-X7.7.:X,X|.S 7.7.o } JXKXcXGXLXy + i + X # X q g # .       . o & & & ; & o . O   a KXHXDXFXbXgXMXDXgXbXFX&X  7 ~ r 7 & . O   .   $XHX0XqXbXz   X @     . o o . .     o O o o 7 8 0 8 0 Z ; = = 8 Z Z 0 8 ; O O   wXSXZXZXDXFXGXKXAX+X3X6.o r 0 8 ~ u G H t & o 2XlX2X,X;X-X,X,X<X,X X~.^.`.^.(.(.(..X.X X X X^.'..X.X^.!.!.~.!.^.^./.W././.W.R.R.R.R.R.R.R.R.R.R.R.R.R.R.R.R.R.R.U.U.U.I.I.I.2.I.W.I.J.3.2.T.Y.Y.P.2.K.4.5.5.5.E C m C S M M 4 4 3 3 3 4 4 9 9 9 4 3 3 3 4 4 < 1 < < J =.T R T T T R R R R R R R T R T R -.S < e Z 1 1 3 1 < A I ' T ' R T R R R R R R R T T T T T T I T E -.I 7.-.e 9 Z 8 e ..^ U ....Z - - 1 1 4 9 9 9 C C Z 9 C Z 9 9 C 9 $ * * * * * * , , $ 1 I R P R I ",
"R R R R R R R R T ' R $ $ < 9 4 1 * 1 M M Z M 1 * * 9 Z 9 Z U U * 1 F U D F U F 9 9 F U U F F Z Z D -.;...7.7.` T R E E E R R T R R R R R R E E R R R T T T T T 6 4 3 < 4 9 3 4 9 9 9 3 4 4 4 4 1 4 1 , 3 3 3 3 9 9 C C 9 9 C S A S P ,.1.5.J.>.<.1.H.J.G.3.G.H.Y.Y.J.H.H.3.3.H.` W.I.H.J.K.4.L 6 m P.5.5.I.Y.I.I.I.U.W.R.U.U.U.I.I.P.I.^.,.P.7.% % & * = * * * * & % e D t u H H = O q ! ! s s s s s s ! ! ! ! ! s ! ! s ! ! q = % - & % 1 r 3 2 e y 8 y r e e r q / g / u ~ 7 O d x.d.d.d.d.d.d.x.i.j p.x.x.i.i.h x.c.i.h h g = * % & = O # d d d q X @XJXbXZXNXNXBXNXBXBXBXBXnXZXnXDXVXHXSXc   @ 0XDXnXDXhXZXZXbX=X*X3X3X3Xt.t.0.0.E.|.-X_.0.0.H . z AXJXbXSXAXp   p X g b.b.q X p e.&.&.q.w.y o o 7 : O o.3X+XB.=XvXSXVXNXCXNXnXZXmXNXFX&X  7 G y : O } #X@.*.e.=XFX8XwXqXB.p | | 7 y 7 & 8 8 y : t : : ; o 8 G 0 D G G = = ; 0 F 9 Z 8 . | }  .wXDXDX0XwXxXwXxX3X2XlX;.o 8 & 8 G H ~ ~ 0 ; 2 7.0.6.<X>X>X<XXX X^.^.`.^.]..X X X X X(.^.^.^..X/.R.'.XX~.I.I.!.W.U.U.W.Q.U.P.R.R.R.R.R.R.R.R.W.R.R.R.R.R.U.U.I.R.R.R.R.R.I.I.J.W.J.2.W.W.J.G.Y.Y.P.J.1.2.K.E.=.E R L m m S S 3 1 9 M 4 3 4 1 M M 4 3 3 M 9 1 3 1 < < J =.R ` T T T T R R R R ' R ` R P =.' S * 8 9 < * Z -.I R T T T R R R E R R R R T T T T T T T T T T ' -.-...F Z C e e y ....^ -.^ e 4 4 4 4 4 9 C 9 9 9 9 9 9 9 M C M 9 $ * * * * * * * * * > I P I P I ",
"R R R R R R R R T ' R $ * 1 9 4 1 * < 9 9 M M 1 > * 9 S M S U U < < Z F Z F U F 9 9 F U U F F F Z D X.;...7.7.-.T R E E E R R T R R R R R R E E R R R R T T T T T R A 1 < 1 < < 9 9 9 9 4 4 4 4 4 4 3 1 3 9 9 9 9 9 C C C C Z A A K -.5.1.1.2.<.<.<.<.H.G.3.3.3.H.>.1.J.G.<.1.3.H.~.Y.H.K.E.P.P $ 5 5.1.1.P.Y.I.R.I.I.U.U.U.U.U.U.I.P.5.1.% $ o % % & = = = * * * & % e D t u H H = O q ! ! s s s s s s ! ! ! ! ! s ! ! s ! ! q O o & % o ; r 8 e r y y r r y 8 7 q z.n.z.g ~ = X d z.i.p.p.p.d.d.d.h j i.c.c.j # # i.x.z.i.#.g = - * - & O # d s d q X #XJXNXFXNXZXZXNXBXBXBXBXZXZXNXDXbXSXHX5X=X*XCXDXnXmXhXhXDXFXNXHXJXLXLX} 2 y e S U _ H t : %XxXxXKXSXcXSXLXg . # X #.cXVXg X &.SXHXHXKXJX} +   @   @ +XLXLXGXFXHXDXNXNXmXNXnXZXNXNXFX&X  + u y : + v.JXbXSXVXbXSX8X5XbXqXFXKXxXO..   o o & ; & y ; & = & 8 F D D 0 0 ; 7 = 0 G N 1 O O *XJXbXHXFXGX=XN.@X%X%X$X2X2X;.e H D D ~ ^ ^ ~ 0 7 - & % A <X-X(.(..X X^.`. X`. X X X X X X X(.(.(.!.R./.^.~././.U.R.U.U.U.R.W.R.U.R.R.R.R.R.U.R.R.R.R.R.R.R.U.U.U.U.R.W.U.U.U.U.U.W.J.3.2.I.I.K.W.5.J.R.P.J.4.4.5.5.,.1.4.-.Y A Z M 4 4 M 4 9 M 1 M M 4 1 3 9 M 3 4 3 < < J =.R E T T R R R R R R ` T ` ` P ' -.A - 8 9 < * S R I T T T T R R R R R R R R T T T T T T T T T T E -.I U F Z e e 9 8 ....^ X.^ Z 4 9 4 4 9 9 9 9 9 C 9 9 9 9 M C M 9 * * * * * * * * * $ > I P I P P ",
"R R R R R R R R T ' R 6 * 1 e 9 1 * 1 9 9 M M 3 > * 9 S Z S U U 1 < Z F S F U F 9 M F U U F U F D D X.;.X.:.7.=.T R E E E R R T R R R R R R R R R R R R T T T T ' -.J 3 3 9 3 1 0 0 9 9 4 4 4 4 M m 4 1 3 9 M M 3 9 M C C Z S J K L >.1.,.,.2.1.<.[ >.3.3.G.3.<.>.V T P.G.3.J.2.J.W.K.J.J.J.4.K 6 C E.I.P.U.I.J.U.U.I.I.I.U.U.U.I.Y.I.R.5.o o o % % & = = = * * * & % e D t G G H = O q ! ! s s s s s s s s s s ! s s s s ! ! q = % = & % 1 r e r e 8 y r e y r 7 g n.n.z.g g 7 X d z.a.p.p.p.p.d.d.h j i.c.c.j # # s.c.x.i.s.d = - 1 3 - O q d d d q X @XJXVXDXZXZXNXNXBXBXBXBXBXZXZXDXNXVXDXFXHXFXDXBXBXhXMXMXgXmXnXFXbXSXPX@     o o o o o +   $XLXAXFXFXFXFXSX&.g | X | 5XxXg .  .SXSXbXVXSXp X   X   @ e.SXKXSXSXDXVXNXDXmXBXVXDXNXSXHX&X  7 ~ y O   @.cXwXdX0X5X5X=X=XbXAXSXxX0X&.@ g O.+ ; e 1 8 ; ; = ; 8 H G r 7 7 7 0 ; 8 Z 9 1 . X 5XJXFXZXbXHXwX+X4X%X%X:X2X).e e D H t G H ~ H 0 r F - o A <X.X!.(. X X`.^.`. X X X.X X(. X X'.'.'..X~.`.'.Q./.~.R.I.U.U.U.U.U.U.R.R.R.U.U.U.U.R.R.R.U.U.R.U.U.U.U.R.R.R.I.I.I.U.W.W.R.Y.2.H.W.R.J.H.J.K.J.>.T K K T K T 1.,.L S C S M 4 9 M M M 3 M M 4 1 3 9 M 4 4 3 < < J =.R R ` ` R ` R ` R R R T ' ` P ' ' J < 9 M < * S R R T T R R T T T T R R R R T T T T T T T T T T T R Y Y A Z e r r e ^ ..^ ....Z 9 9 3 4 9 9 9 9 9 9 9 9 9 9 9 C e 8 * * * * * * * * * $ , R P P P T ",
"R R R R R R R R T ' I 6 * 4 C 9 1 > 1 9 9 9 M 4 > * 3 Z Z S U F 1 > M F F F U F M M F U F F F F D D X.;...7.7.-.T R E E E R R T R R R R R R R R R R R R T T T T T E J < 5 4 1 1 0 0 9 3 4 4 4 4 m m 4 3 3 M Z Z > 4 C S S J J K ,.-.,.>.>.,.>.>.1.[ [ <.G.J.G.>.>.5 K I.J.2.K.2.G.I.P.E.5.,.4.T 6 V E.I.Y.I.U.Y.J.I.I.I.U.U.I.U.I.Y.U.!.P.% 6 3 & & = = = = * & - & % e D t G G H = O q ! s s s s s s s s s s s ! s ! s s ! ! q = & & & % ; 8 8 2 ; - ; 2 ; 2 D : u n.n.z.g u 7 X d z.i.p.d.d.d.x.d.h f i.i.z.i.j j s.x.d.i.s.j O - 1 8 * O = d s s q # &XLXFXHXFXSXNXCXCXCXCXCXNXNXZXZXDXZXnXmXnXBXnXBXCXnXCXBXZXCXmXNXbXNXJXV.+X$X$X$X$X4X*X3X*XxXSXbXFXDXBXnXJXAXKXwX# X g c a . &.FXNXsXBXFX0X5XwXqXwX5XcXHXVXVXSXCXBXFXDXNXCXNXDXNXSXHX&X  X u 0 O X w.bX5XqXwX0X0XwX3XcX#XV.C.GXbXwXKXAXO.  O o o o ; = 8 7 G G r = 7 7 0 0 0 9 9 r .   =XGXGXFXGXLXxX%X1X<X1X1X2X6.o 2 r t ; 7 r G G r G D 2 - K ,X.X(.XX^. X`.^.~.`..X X.X(.^.(.`.`.`.`.^.U.W.^.~.W.Q.Q.U.U.R.U.U.U.U.U.U.R.U.U.U.U.R.R.R.U.U.U.U.U.U.U.U.I.I.I.I.I.I.I.5.I.W.Y.Y.~.W.1.!.~.Q.J.=.L J J K J L -.-.I I U S M 9 9 M M M 9 M M 4 1 1 4 M M 9 3 < < J =.T R ` ` ` ` R R R ` R T ` ` T ' ' J 1 8 C < * A -.T T T R R T T T T R R R R T T T T T T T T P P T T Y Y Y A Z S Y D ....^ ..^ Z 9 9 1 9 M 9 9 9 9 9 9 e M 9 9 C 9 8 * * * * * * * * * $ , R I P P T ",
"R R R R R R R R T ' I $ > 3 C 9 1 * 1 9 3 4 9 3 > * 3 Z Z S F F 1 > 9 F A Z F S M 9 Z F Z Z S Z D D X.;...;.7.-.T R E E E R R T R R T T R R R R R R R R T T T T ' R S 6 > < 1 4 1 1 3 3 4 4 4 4 4 5 4 4 4 C A Z < M S S S J R =.J.1.1.>.<.2.=.>.J.>.>.1.2.J.G.>.4.5 L W.5.1.2.<.1.Y.P.R.1.P ' P 5 S E.P.2.J.T.Y.3.Y.U.U.U.U.I.T.U.U.U.U.P.% % % & & = & = = & * - & & e D t G G H = O q ! s s s s s s s s s s s s s s s s ! ! q % % & = % & * & & % o % % o & t 8 0 / ( / u u 7 X d z.p.d.d.d.x.d.x.i.h i.h i.x.x.x.c.x.x.i.z.d O - 9 9 * O q g d d d # }.vX0XKXFXSXSXCXSXCXCXDXDXVXZXNXBXDXmXBXmXmXBXCXmXmXBXCXMXMXBXnXDXSXHXFXJXLXLXLXLXLXLXJXJXFXSXNXFXNXBXDXNXFXJXwX@ . X X     e.FXVXmXBXBXFXFXFXHXHXDXNXNXDXDXDXCXBXDXDXBXBXNXDXNXSXHX&X  O y ; o   q.bXwX$XB.#XB.=X3XwXa   @ wXJXFXHXcXw.w i u + : D O O ; G G r = 7 0 0 0 Z N 0 0 o X *XJXKXJXKXLXzX%X-X-X<X;XlX6.o y H H r r r u u 0 G Z - o Z :X.X`.`.]. X X~.!.^.`.`.(.^.~.(.'.(.~.!.Q.Q.W./.^.W.I.W.R.U.I.U.R.R.R.U.R.R.R.R.U.U.R.R.R.R.U.U.U.U.U.U.U.Y.J.P.I.I.Y.J.H.5.I.!.R.R.I.4.J K L L K K K P J S A K J A A A M M 9 9 9 9 9 M 9 M 9 1 < 3 M M 9 3 < < J =.R R ` ` R R R R R R ' T R ' E =.-.Y 4 9 C < 6 A -.T T R T T T T R R R R R R T T T T T T T T P P T T L K U Y S Y I ^ ..;.^ ..I e 4 4 9 9 M 9 9 9 C C 9 C e 9 9 e 9 8 * * * * * * > > > * , R P P Q T ",
"R R R R R R R R T ' I $ $ 1 9 9 1 * > 1 > > 1 > 1 * 3 Z Z F U F 1 1 9 Z Z Z Z Z N 9 Z Z M 9 Z Z F D X.;...;.7.-.T R E E E R R T R R T T R R R R R R R R T T T T T T J V C 4 1 9 1 1 3 3 3 3 4 4 5 5 4 M 9 Z A C 3 C S C C K =.2.>.>.1.=.<.1.' 1.K.,.<.2.3.G.G.' <.5 L Y.5.2.2.2.1.Y.K.R.4.S m 5 5 S E.I.J.J.T.J.<.Y.U.I.U.U.I.T.I.U.U.R.R.6 % % & & = & & & * * - & % e D t G G H = O q ! s s s s s s s s s ! ! s s s s s ! ! q = & * = & & % O & % % % o o & r D 0 q q q 7 u r O d z.i.d.d.d.x.d.x.i.i.i.h i.x.x.d.d.d.p.i.z.d O ; r Z ; O q g ! s s d d q @ e.HXFXSXDXDXCXSXDXDXnXZXCXmXnXMXCXCXMXCXDXnXZXmXMXCXgXCXmXDXZXNXDXNXSXbXbXSXSXbXbXNXbXZXnXBXnXBXBXNXSXSX0Xe.e.B.e.B.@XwXHXnXBXBXnXmXnXmXnXnXBXDXNXNXnXnXNXBXBXBXBXCXNXDXNXSXHX&X  7 H t O   q.GXcXi p i a &XxXbXa X a *XxXwXwX0XAXPXKXAX3X$X%Xy O 7 G G r O 7 0 0 0 G N 9 8 o   +XxX3X3X3XUX2X1X<X:X<X:X2X7.o 8 ^ ^ ~ ~ G u t 0 t F & o S ;X.X^.^. X X].~./.~.^.^.!.!.^.'. X^./.R.W..X`.W./.W.P.U.U.I.I.I.W.Q.W.R.R.R.R.U.U.U.R.R.U.U.U.U.U.U.U.U.I.Y.J.I.I.P.J.4.H.J.I.I.K.P.R.K.S J K L K J V V 5 5 5 5 5 4 4 4 M C M 9 9 4 4 M 9 M M 1 , 3 M M 9 3 < < J =.R ` ' ' ` ` ' ' ` ` R T T ' ` ' R Y 4 C C < 6 A ' T R R R R T T T T R R R R T T T T T T T T T T T T I U U Y S Y ......;.^ ^ I e 1 4 4 4 4 4 3 1 4 C 9 C e 9 9 e 9 8 * * * * * * > > > $ < T P P Q T ",
"R R R R R R R R T ' I $ $ 1 9 9 1 * > 1 * * > * 3 * 1 Z M S F S 1 1 9 M Z F F F Z 9 M Z 9 9 M C H H X.;...;.7.-.T R E E E R R T T T T T R R R R R R R R R R T T T ` T I L m * < 1 3 3 3 3 3 4 4 3 3 M Z C Z Z 9 3 M S C J Q =.<.>.>.1.' >.>.T >.J.>.>.2.1.1.1.' =.m T J.H.4.1.J.P.R.4.K.1.C m J V J K.P.J.Y.W.2.2.I.Y.J.I.U.I.U.I.I.P.R.E.$ % % & & & = = & = * - & & e D t u G H = O q ! ! s s s s s s ! ! ! ! s s ! ! s ! ! q = = , = = = & & & = & & - * ; r Z r y u u u t 8 X d z.i.d.x.x.x.d.x.i.h h j i.x.x.d.d.d.s.i.z.d O ; D G 3 O = d d s ( f s # X #XHXFXSXSXDXCXBXZXnXZXNXCXCXhXmXBXBXmXnXDXNXCXmXmXZXhXCXmXDXZXBXNXDXDXDXDXFXDXZXZXCXZXDXnXDXZXFXnXCXZXGXHXGXJXJXHXJXKXFXFXsXBXBXDXBXmXmXnXnXmXBXmXDXDXDXDXDXCXBXmXCXNXCXNXZXFX&X  O r 9 &   q.FXAXi : 7 @ 3XFXHXz     + @ @   w 3XAXGXAX5X3X*X7 . 8 G H r O 0 r 0 r t 9 9 9 o o :.<X%X%X|.%X%X:X:X;X;X-X2X7.o ; ^ H ~ ^ u y u r r r % o S -X(.(..X X X X].~././.~.(.(.(.(.^.!.Q.W.U.^.~.P.P.I.U.R.I.I.I.U.U.R.R.R.R.R.R.R.R.R.R.R.U.U.U.U.U.U.U.U.I.I.I.U.I.J.5.J.2.P.I.4.,.4.4.-.J K L L L K K K L J J J K K Y Y S S M 4 9 9 4 M 9 C M 3 , 1 9 M 9 3 < < J =.R ' E E E E ' ' ' ` T R ' T K A S Z 4 C C < 6 J ' T R T T T T R R T R R R R T T T T I I T T T T T T L K U Y S Y ......;.^ U U e 1 4 3 3 M S Z 4 1 9 9 M e 9 9 e 9 8 * * * * * * > > > $ , I P P Q T ",
"R R R R R R R R T ' R $ $ 1 9 9 1 * > 1 * * > * 1 $ > 9 9 Z F Z > 1 9 9 Z U ^ ^ Z 9 M M 4 4 M C U H ;.;...;.7.-.T R E E E R R R R R T T R R R R R R R R R R T T R R T R I m < 4 3 1 3 3 3 3 4 4 4 4 Z A Z Z Z 1 3 C A J P ' >.' <.<.1.E <.1.R 1.1.' =.1.>.1.2.=.4.P ,.K.4.,.T >.P.P.T L L 5 K I.P.4.Q.P.2.J.T.3.Y.U.J.1.Y.U.I.I.U.U.Y.R.E.% % - & & & & = = = * * & % r D r u D H = O q ! ! s s s s s s ! ! ! ! ! s ! ! s ! ! d = = = = = = = * & & & * 1 1 2 e r r y y y t r 8 O d z.i.x.x.x.x.x.d.i.h h h p.x.x.x.x.x.x.i.z.d O ; G H 9 % = q ! f f f ( d X v.JXSXSXSXDXBXNXZXnXDXnXnXCXCXCXmXmXDXgXDXBXZXZXZXmXDXCXBXDXnXDXDXNXBXBXBXDXZXNXCXCXnXmXnXDXnXBXDXZXZXbXFXNXSXNXSXSXDXCXDXBXDXnXZXCXmXMXCXCXBXBXBXNXBXBXmXBXCXCXBXCXBXCXNXSXHX&X  + t y & . q.KXAXu o O X 3XAXHXz X       w   w PXAXAXGXxXxX5Xw . 7 G ~ r o 7 u 0 r t Z Z 8 * % E.2X:X<X;X<X;X<X;X:X-X:XlX:.o : D 0 ~ ^ u 0 r r r r * % Z -X X'.`. X X.X.X]./.Q.!.XX X^.!.Q.W./.~.XX`./.U.P.I.R.R.I.R.W.R.I.P.I.U.R.R.R.R.R.R.R.R.U.U.U.U.I.I.I.I.I.I.W.W.I.5.5.P.R.R.P.5.' S 5 5 K K K K P ' 1.5.K.-.T ` =.L A Y Y A 9 3 9 M 4 9 9 C C 3 < 1 4 9 9 3 > < J =.R ' ` ` ` ` ' ' ' ' T ' ' P Z 3 5 < 9 C C < 6 J ' T R R T T T T T T R R R R T T T T P T T T T T T T P L I U S Y ......;.I U U 9 1 9 3 9 F -.^ S 9 9 9 M 9 9 9 e 9 8 * * * * * * > > > * , I P P Q T ",
"R R R R R R R R T ' I $ $ 1 9 9 < > > * > > > > < * < 9 9 Z Z 9 * 4 9 9 Z I ^ U 9 C C Z Z 9 4 Z F D X.:...;.7.-.I T R R R R R R R R R R R R R R R T T T T T T T T Q L =.R 4 < 1 1 1 1 1 1 1 1 3 9 Z S S S Z F F F F S P =.' ' ' E E >.>.' 1.5.>.' ' E ' 3.2.<.1.K.,.,.-.' ,.5.P.-.V m m 5 5 J K.R.R.R.2.>.J.I.I.Y.J.1.1.I.Y.H.W.W.U.P.R.Q.$ % - & & & & & = = * * % - e D u t D D & O q ! s s ! s s s s s s s s ! s ! ! s ! ! q = = = = * * & % 1 9 9 8 9 9 8 8 e 2 y y 8 r D 0 O g z.i.i.i.i.i.i.i.h k.h j x.i.j j i.z.i.i.z.j X = ~ F * = q q d s ( f f d X r.KXGXSXSXZXZXZXZXMXMXMXMXZXZXMXMXBXBXBXBXBXBXBXBXBXBXBXBXBXBXBXBXBXBXBXBXBXBXBXBXBXBXBXBXBXBXBXBXBXNXNXNXNXNXNXSXCXSXBXZXBXBXBXBXBXBXBXBXBXBXBXBXZXBXBXBXBXBXBXBXBXBXCXNXFXKX#X  w . q.3XwX+X+ ~ 8 o : + + @X5X&X#X3Xp . a + 7 p p p i i i p O o 8 H G G 0 0 G G G 0 Z Z 9 * o t.2X1X<X<X1X<X:X;X<XXX:X2X6.o ; D u G ^ ~ 0 0 t r Z 1 o S :X(.`..X(.~.~.^.^.~.~.'.W.!.^.~.T.T.W.Y. XT.Y.I.T.I.I.T.I.I.I.I.I.I.I.I.T.U.I.I.W.T.I.W.W.U.I.I.T.Y.H.2.Y.T.T.2.K.Q.J.2.W.Y.R 4.-.4 J 4 4 S L =.>.1.2.1.K.1.,.>.L A Y A I A 4 < 1 1 3 3 9 M 9 3 1 < 1 4 1 1 5 5 J ` R ' ' R T R R E ' ' ' =.L 5 3 m 4 4 Z S C 5 $ A ,.P R R R R T T T T T T T T T T T T T T T T T T T T ' T I K Z D ^ ..D 8 S F Z M 1 9 9 < F ;.^ M 9 Z M 9 9 9 9 e e 1 * * * * * * * * > * < R I P P P ",
"R R R R R R R R T ' I $ $ 1 9 9 < > > * > > > > 1 * 1 9 M Z F M < 4 9 4 Z I ^ U C Z C Z Z 4 4 Z U F X.;...;.7.-.I T R R R R E E R R R R R R R R T T T T T T T T T T T -.R m 5 1 1 3 1 1 1 1 4 4 C S Z C C C Z Z Y K J P =.' ' ' >.>.>.>.' <.2.<.>.1.1.>.' E [ 1.K.1.=.J m J J S J m L ' =.=.' P.Y.I.J.<.4.U.J.H.J.I.J.1.H.W.U.J.J.I.R.Q.Q.$ % * & & & & & = * * % % & y G u t H D & O q ! s s s s s s s s s s s ! s ! ! s ! s q = = = * * * & % 1 9 9 8 9 9 8 8 8 8 r r 8 9 r 7 O d k.h a.i.i.i.i.i.h k.h j z.h X # f ( h i.s.h # q ~ G 1 = q d d d f f f d O r.LXFXSXFXZXmXmXhXMXMXMXZXZXZXBXBXBXBXBXBXBXBXBXBXBXBXBXBXBXBXBXBXBXBXBXBXBXBXBXBXBXBXBXBXBXBXBXBXBXBXBXBXBXBXBXBXBXBXZXZXBXBXBXBXBXBXBXBXBXBXBXBXBXBXBXBXBXBXBXBXBXBXDXNXFXKX$X  : . q.3XUX$Xw D o & - o u 3XcXAXHXcXa   X   . X .   . . X O . . 7 ~ G G 0 0 G G G 0 Z Z 9 * o 0.2X1X;X;X;X<X;X>X;X-X;X2X7.o ; y y G ~ ~ u r r 0 9 - o Z -X(.`..X!.(./.R.^.`.~.'.U.!.(.~.T.U.T.I.^.U.Y.I.T.I.I.T.I.I.I.I.I.U.U.I.T.T.T.T.W.W.T.T.I.W.~./.I.J.I.W.T.T.I.H.K.T.H.2.W.W.K V m 6 m 3 4 K ,.J.1.>.>.' 1.=.=.=.P K K S Y A Z C C 9 9 9 9 M 9 9 1 1 1 9 9 1 6 < K -.R R ' ' =.=.' ' ' T L T J 3 4 C C C 9 4 4 3 < C T L R R R R T T T T T T T T T T T T T T T T T T T T T T I I H ^ ;.7.F C F F Z M 0 9 9 1 F -.I 9 3 M 9 9 9 9 9 Z Z 1 * * * * * * * * > * < I I P P P ",
"R R R R R R R R T ' I $ 6 3 9 9 < > > * > > > > < * 1 9 9 Z F Z 1 4 1 < e U ^ U Z Z C C C 4 4 Z U F X.;...7.7.-.I T R R R R E E R R R R R R R R T T T T T T T T T R L P J m 3 1 1 1 4 4 3 4 9 9 Z S C 4 9 M C Z Y L J T >.=.[ [ >.>.<.[ E ' >.' 1.H.1.' R E [ <.J.-.R S 5 m 5 5 6 5 ' Y.W.Q.J.I.2.I.Y.3.J.Y.1.H.I.Y.I.I.J.Y.Y.H.2.I.R.Q.E.$ $ * & & = = & & * * % % & e u t r D H = O q ! s s s s s s s s s s s ! s ! ! s ! s q = = = * * * & % 3 9 9 8 9 9 8 8 9 8 r r 8 9 9 7 X d z.i.p.p.d.p.p.p.i.z.h j z.h # # h z.i.s.z.h d q q 0 0 * = d d s f f f d X w.JXSXNXSXSXNXZXCXMXMXBXBXBXBXNXBXBXBXBXBXBXBXBXNXZXZXZXBXBXBXBXBXBXBXBXBXBXBXBXBXBXBXBXBXBXBXBXBXDXZXZXDXDXDXDXDXBXCXBXBXNXBXBXBXBXBXBXBXBXBXBXNXZXZXZXZXBXBXBXBXBXBXCXNXFXKX$X  : o o.4X3X{.: 8 o 1 8 o : } g #XGX=Xz | @.| | | } w + + O : : 8 7 ~ G G 0 r G G 0 0 9 9 9 * o 0.lX1X;X;X;X<X;X>X;X-X;XlX6.o y ~ u ~ / ~ ~ G r r 8 : o e -X).(..X~..X!.Y.].XX^.(.I.W.^.~.U.U.T.U.T.Y.Y.U.T.I.I.T.I.I.I.I.I.I.I.I.Y.Y.Y.I.I.W.W.T.Y.Y.Y.I.I.I.T./.I.K.J.J.I.I.H.H.2.H.K 5 T 4.,.-.K -.J.J.<.' >.<.1.1.4.1.' I P Y Z Z A F S 9 3 3 9 9 9 4 1 < 1 1 1 1 < < J ' T R T R ' T P R =.E C J C 3 9 S C C C 4 4 4 3 S =.' R R R R T T T T T T T T T T T T T T T T T T T T T P I ......:.:.F C A A Z 9 1 9 < * F -.^ 9 1 3 9 9 9 9 9 Z Z 9 * * * * * * * * > * < I I P T T ",
"R R R R R R R R T ' I $ 6 3 9 9 < > > * > > > > > * < 9 9 Z F Z 4 9 1 < 9 U ^ U Z Z C C C C C S U F ..;...:.7.-.I T R R R R E E R R R R R R R R T T T T T T T T T T S m 4 5 1 1 1 1 1 1 1 4 9 9 S A 9 3 M S F L Y K J E >.>.>.>.[ [ <.>.' ` ` T 1.2.<.` ` [ >.>.1.' =.=.' T L =.T P ,.4.2.J.5.5.3.Y.I.2.H.J.3.H.Y.J.Y.W.I.J.J.J.H.I.I.E.Q.6 $ * * & & = & & = & 1 ; 2 r D u t D H & O q ! s s s s s s s s s s s s s s s s s s q = = = * * * & % 3 9 9 8 8 9 8 8 9 9 9 9 8 r Z 0 X g z.x.x.d.d.d.d.x.x.x.h j k.i.# j h z.z.z.x.i.h d O = 0 ; = u d s f f f d X q.JXDXDXFXDXNXZXmXBXBXBXBXBXBXNXBXBXBXBXBXBXBXNXNXZXZXZXBXBXBXBXCXBXBXBXBXBXBXBXBXBXBXBXBXBXBXBXBXDXDXZXZXDXDXZXDXBXBXBXBXNXNXBXZXBXMXMXMXMXMXNXNXZXZXZXZXZXZXZXZXCXBXZXNXFXKX$X  2 & 0.zXzX+X7 8 & - 1 * &     5XJXGXAXJXKXHXHXAX} + O     + O o 7 ~ G G 0 u u G 7 ; 0 9 0 * o E.lX1X;X;X;X<X>X;X<X-X;XlXt.o r o...~ / / ~ ~ G r G ; o 8 :XXX^.W./. X~.T.^. X^.(.U./.~./.U.I.U.U.I.Y.I.T.T.I.I.T.I.I.I.I.I.I.I.U./.W.W.W.I.I.W.I.W.Y.H.J.I.W.T.T.J.J.J.J.I.R.Y.H.W.2.J 6 P E.K.K.,.,.4.1.' <.3.2.' <.4.>.T L P K Z C Z A Z 9 1 1 M M 9 4 1 < 1 1 1 1 1 5 A ' R ' T ' ' ' T -.' L 4 C m 3 4 C M 4 9 8 < $ $ S =.T R R R R T T T T T T T T T T T T T T T T T T T T E T I ` ..-.;.;.F C S A Z M 9 9 9 9 F -.^ Z 9 9 M M M M M M 9 9 * * * * * * * * > * < I I P T T ",
"R R R R R R R R T ' I $ 6 3 e e < > > * > > > > > * < 4 4 M F Z 9 C 4 < 8 U ^ I F A Z C C M C S U F ..;...:.;.-.I T R R R R E E R R R R R R R R T T T T T T T T P T M 6 < < 1 < 3 3 3 1 1 3 4 9 S F 9 1 Z F L I K L K E >.' ' ' >.>.1.1.>.' ' ` ' 1.,.' ' ' [ <.>.' 1.H.H.2.4.W.W.Y.H.>.` <.H.H.2.3.1.<.2.I.Y.J.<.Y.I.J.Y.W.T.I.U.I.J.R.Q.6 % < * * = = & & % & 8 2 8 r G t r D H = O q ! s s s s s s s s s s s s s ! ! s ! ! q = = = * = * & % 3 9 9 8 8 8 8 8 9 9 8 9 e Z r 7 X g z.x.d.d.d.d.d.d.x.x.h j k.k.k.i.z.x.x.x.s.i.k.h q q r = = G q s f f f d O @.SXVXNXSXNXBXCXnXMXMXMXBXBXBXCXCXCXBXBXBXNXNXNXZXZXZXZXZXZXBXBXCXCXCXCXCXCXCXCXCXCXCXCXCXCXCXCXCXBXBXBXBXBXBXBXNXZXZXZXBXBXBXBXZXNXNXNXNXNXNXBXBXBXBXBXBXZXZXZXZXBXBXZXNXFXKX$X  & % H _._.:.; 8 - % < 1 ; o + wXAXvXvXwX=XcXbXwXC.q.q. .O.q.H o 7 ~ ~ G 0 u u G 0 7 9 9 9 - o E.lX;X;X1X;X<X;X-X:X-X:X:X6.o r ....u u ~ u G H r = & % 9 ).Q.W.~.W./.~.^././.~.(././.W.U.I.I.Y.Y.Y.I.U.T.T.U.I.I.I.I.I.I.I.T.T.I.H.2.Y.W.I.I.W.I.Y.J.J.Y.T.I.K.J.H.K.J.J.Y.W.W.H.4.T J m J ' T 1.4.-.4.1.>.2.3.<.2.2.1.=.P P P K Y S Z Z M C C 9 M M 9 9 9 3 1 1 9 4 1 1 L -.E ' ' E =.=.=.,.-.J 5 9 M 4 9 M 9 1 4 4 5 1 3 J E P R R R R T T T T T T T T T T T T T T T T T T T T E P P I -.-.7.7.U Z A A Z C 8 Z ^ H I -.U C 9 M 9 9 9 9 9 4 1 < * * * * * * * * > * < I I P T T ",
"R R R R R R R R T ' I $ 6 3 e e < > > * > > > > < * < 4 3 M F Z C Z 9 < 8 U ^ I I U A C C M 9 M A S ..-.X.:.-.-.I T R R R R E E R R R R R R R R T T T T T T T T P R C < 3 3 3 < 1 1 1 1 1 3 9 M A F 9 < Z U U I I R P E =.R E E >.<.<.>.' ' >.<.' ' ` ' <.1.<.<.>.,.4.<.<.1.1.J.H.4.J.2.<.J.I.H.1.>.3.<.<.H.Y.J.2.J.J.Y.I.Y.J.I.W.I.H.R.Q.6 % > * * = = & % & % 8 8 y t G D t D D = O q ! s s s s s s s s s s s s s ! ! s ! ! q = = = * * * & % 3 9 9 8 8 8 8 9 9 9 9 e Z e 8 O X d z.x.d.p.d.d.d.d.d.x.h j i.i.z.x.d.d.d.x.p.i.i.h # # 0 8 ; 0 q s f f f d X o.JXFXSXSXnXNXDXMXMXMXMXBXBXBXCXCXCXCXCXBXBXNXNXZXZXZXZXZXBXCXCXCXCXBXCXNXCXBXCXBXCXBXCXBXCXBXCXBXNXNXNXNXNXNXNXNXZXZXBXBXBXBXBXZXNXNXNXZXNXBXBXBXBXBXBXBXBXZXZXZXBXBXDXNXFXKX$X  & o o & o % o ; * < 5 % o &   w + X @   a 3XdXwXcX0XxX5X3X3X8.o 7 ~ ~ G r u r G Z 0 Z Z 9 < o E.lX:X:X;X:X>X-X.X.X-X)._ r o H ..~ 7 7 u 7 r H r = & - r ).!.W.`.`.!.`.XX~.I.Q.!.!./.I.I.U.U.Y.Y.U.U.U.I.I.U.I.I.I.I.I.I.T.T.T.U.V V ' I.I.T.W.W.H.H.J.I./.W.I.J.J.K.J.H.J.W.!.J.J J 1.J.=.V 6 L 1.-.K.4.>.1.<.<.1.>.' ' ,.J.K.5.R U A Z C F U F 3 3 1 3 1 3 1 1 3 1 1 1 S J J R -.K A S A J A m 3 4 M 9 M M 9 3 * $ 1 U R P ' ' R R R R T T T T T T T T T T T T T T T T T T T T T P P ` 7.;.7.6.U Z S S M 9 3 e ..^ ^ ..U Z 9 9 9 9 9 9 9 > * * * * * * * * * * > * > I I P T T ",
"R R R R R R R R T ' I $ 6 3 e 9 < > > * > > > > < * < 1 1 9 Z Z Z A C 1 4 F ^ I ^ ^ F C C 9 9 9 C Z ^ X.X.:.-.-.I T R R R R E E R R R R R R R R T T T T T T T T I -.C < 4 4 1 1 1 1 3 3 3 M C Z S F 9 < A I I I T R L R =.T E E ' >.>.=.' ` =.,.=.T K ' H.H.<.>.' <.1.' [ 1.>.>.' <.J.Y.2.J.Y.<.>.2.Y.2.<.1.2.Y.W.1.2.I.I.1.1.Y.Y.Y.J.Q.Q.> % * * * = = & % % o 8 y r t G G D H D = O q ! s s ! s s s s s s s s ! s ! ! s ! ! q = = = * * * & % 3 9 9 8 8 9 8 9 3 9 e e e 8 7 + # f x.x.x.d.d.d.d.x.d.x.h j i.i.x.x.x.d.x.x.p.i.i.h j # q r 0 , q s ! f f d # o.LXGXSXFXZXnXZXhXMXMXMXMXBXBXBXBXSXBXCXBXBXBXBXZXBXBXCXCXCXCXCXCXBXBXBXBXBXBXBXBXBXBXBXBXBXBXBXBXBXBXBXBXBXBXBXBXBXBXBXBXBXBXBXBXBXBXBXBXNXBXBXBXBXBXBXBXBXBXBXBXBXBXDXNXDXKX#X  ; 1 $ - % - * - * 5 * % % 8 & . O   .   g xXcXwX3X5XwX=X3X3Xo.. 7 ^ ~ G u u r G G r G D 9 - o E.lX:X:X:XXX-X-X(.(.;X!.o % y ^ o.^ y y u y 0 r 7 = o o 7 1X<X>X>XXX^.^..X].T.I.T.T.T.I.I.T.U.Y.I.U.T.I.Y.J.I.W.T.U.U.I.I.W.W.W.W.J V >.W.W.Y.W.I.I.Y.Y.I.T.T.I.I.J.K.H.J.J.K.P.>.m J >.P.1.V 6 -.,.=.K.2.' <.<.3.H.1.' =.,.1.,.-.-.I I A 9 A I A 3 3 1 3 1 1 1 < < < 9 3 3 1 4 P -.S < $ $ $ * $ 4 9 M M 9 M 9 1 $ $ 3 I -.P T T R R R R T T T T T T T T T T T T T T T T T T T T P P I -.7.-.-.7.U M C C 9 9 8 Z ^ U U I U Z 9 9 9 9 9 9 9 > $ * * * * * * * * * > * < I I P T T ",
"R R R R R R R R T ' I $ 6 3 9 9 < > > * > > > > > * * 1 < 9 Z Z Z A Z 1 3 F I I ..^ F C C 9 9 M 4 e ^ X.X.7.-.-.I T R R R R E E R R R R R R R R T T T T T T T T I ^ 4 $ 1 1 1 1 1 1 3 4 9 M S A Z F 9 1 Y -.I R I T L T ' R ' >.E ' >.>.=.' ' >.=.E R =.1.>.` >.' ` [ >.2.H.<.1.<.<.2.1.' 3.Y.1.>.H.H.3.J.Y.3.Y.Y.<.2.Y.2.2.Y.J.3.Y.I.Q.!.< $ % * * = & % % o o o O & : 7 ; ; 2 r & O q ! s s ! s s s s s s s s ! s ! ! s ! ! q = = = * * * & % 3 9 9 8 9 9 8 9 9 e e 8 8 7 7 q d h x.p.d.d.d.x.d.x.d.x.i.h k.i.i.x.d.p.d.x.x.x.i.z.h d q 0 r q q d s f f s d 9.@XB.=XVXDXZXZXZXZXBXNXBXBXBXBXBXBXBXBXBXBXBXBXBXBXBXCXCXCXCXCXCXBXBXBXBXBXBXBXBXBXBXBXBXBXBXBXBXBXZXZXZXZXZXZXZXBXBXBXBXBXBXBXBXBXBXBXBXCXCXBXBXBXBXBXBXBXBXBXBXBXBXDXNXDXKX#X  & < % 4 < - * * * % % 4 $ $ % - & o :   i *XB.e.V.#X$Xv.%X4Xo.O 7 ^ ~ ~ u u r u G r G D r < o E.lX-X-X-X.XXXXX(.).>X(.o 2 H ^ ..X.~ u ~ G 0 = O = u g u :.^ -.E.(.Q.I.W.]./.Y.T.Y.U.U.U.T.U.Y.U.U.U.Y.H.J.I.W.W.U.U.I.T.W.W.W.W.K V >.W.I.H.Y.Y.Y.W.W.G.E K [ J.Y.I.J.I.J.<.=.J L ' >.5.5.S $ P =.T J.4.>.2.<.>.>.>.=.>.>.=.=.,.T -.R A 3 Z F 4 Z C e 9 9 4 1 < 9 1 3 3 9 1 < Y A 3 < 4 4 4 M C 9 M M 9 3 3 1 > S A A T ' T R L R R R R T T T T T T T T T T T T T T T T T T T T I I I ..-...U ^ Y M S S Z Z S U ;.^ F Z 9 1 3 Z 9 M M M M 1 $ * * * * * * * * * > * < I I P T T ",
"R R R R R R T T P ' I % $ 3 e 9 < * * * > * > > < < * * * 1 9 9 F U A C Z 1 1 F ;...9 8 Z F ^ F 4 A -.;.....-.-.T R R R R R E E R R R R R R R R R T T T T T R T I A 4 < 1 1 1 < 1 3 3 3 9 M C S S S Z Z A L I T T T R T E E E E ` ' ' ` ' =.=.=.=.=.>.1.>.T R ,.3.Q K >.1.>.<.H.3.<.K.H.[ 3.3.G.' 2.W.I.>.>.J.Y.>.H.P.2.J.Y.H.Y.Y.3.4.Q.E.5 % 1 * 3 % % ; o o o . . . . . . o O - o = ! ! s ! s s s s s s s s s s s s ! s ! s q = = = * * * & % 1 9 9 9 9 9 8 8 8 9 t 7 7 X q #.( k.i.p.d.d.d.d.d.d.p.p.x.x.z.h j i.p.d.p.d.x.x.x.x.h h g u ~ = = d ! f ( k.( s X   p SXHXVXSXSXSXNXCXCXCXZXmXBXBXBXBXBXBXBXBXZXNXNXBXCXCXCXDXBXBXBXBXBXBXBXBXBXBXBXBXBXBXBXBXBXBXBXBXBXBXBXBXBXBXBXBXBXBXBXBXBXCXSXCXCXBXBXBXBXBXMXBXBXDXnXCXmXDXNXNXDXNXKX#X  & * % < $ - $ * * $ 1 $ 5 > $ % * o o o ..%Xt.} z g O.O.:.t.~ o 7 ^ ^ u r u u u G G G D 9 - o Q.lXXX<X.X.X.X(. X(.-X!.$ ; D ^ o.^ ~ ~ ~ ~ G ; = # b.&Xw.O o % E.Q.Q.^.Y.W./.Y./.T.T.T.T.I.I.I.I.Y./.1.J >.W.~.I.I.W.W.I.I.W.W.W.K m =.~.I.H.I.H.R.I.W.H.S 6 T W.I.K.P.Y.<.' R L R 2.4.K.1.S m V 5 L <.<.>.>.1.3.` R <.2.>.>.-.J P ` R I I C 3 S Z 4 9 4 < < 4 1 9 1 9 9 4 4 3 1 , 1 1 1 3 4 4 4 9 1 9 1 < < > > I -.-.I T T P T T T R R R R R R R R R R T T T R T T T T T T T T I P I 7.6.U 8 Z M C C M S -.6.-...-.F ; 3 8 3 9 9 9 9 M M > $ * * * * * * * * * > $ > I I P P T ",
"R R R R R R T T P ' I % $ 3 e 9 < * * * > * > > > > * * * 1 9 9 F U A Z Z 3 1 F -.^ Z A F U ^ Z 3 C ^ ....X.-.=.T R R R R R E E R R R R R R R R R R T T T T R T Y Z 3 < 1 3 1 1 3 3 3 3 4 M C S Z Z Z Z A U I I T T T T E E E ' E ` ` R ' =.=.' >.>.>.>.=.` >.H.3.K K >.H.H.2.>.<.<.J.2.<.3.<.3.>.>.2.H.1.3.J.J.2.J.H.1.H.Y.5.J.J.4.J.Q.K.< % > * & & & o o &             . O : 7 O q q q ! ! s s s s s s s s s s s s s s ! s q = = = * * * & % 1 9 9 9 9 9 8 9 9 9 0 ; q # q ( k.k.i.p.d.d.d.d.d.x.p.x.z.z.h h j i.p.x.d.x.d.d.x.s.h h / g G = = q ! f ( k.( s q O O.KXLXGXKXKXKXKXKXSXFXFXCXDXCXDXDXCXCXCXDXDXDXCXNXSXCXBXBXBXBXBXBXBXBXMXMXMXBXBXBXBXMXMXBXBXBXBXBXBXBXBXBXBXBXBXBXBXBXBXBXBXBXBXBXBXBXBXBXMXBXCXCXmXBXmXDXNXBXBXDXSXVXKX#X  & * $ 3 $ < * * - % * % > $ < 1 * % y t ..+X+Xq.  O O o & ; = o 7 ^ ^ u u u u u u G G Z Z 9 * 0.zX;X2X-X(.^.(. X.X-XR.o * D ^ o.X.~ ~ ~ ^ H ; O # b.&Xb.q = 0 E.Q.6.(.!./.T.I.J.T.T.T.T.I.I.I.I.Y.I.>.R 2.I.Y.I.Y.T.W.I.I.W.Q.R.K V >.!.Y.J.U.J.Y.Y.W.Y.J 5 E /.Y.G.H.J.4.,.=.T T 1.5.K.>.J S K T =.1.1.1.<.[ R ' ' >.>.=.>.=.L =.=.-.` I S 4 S S Z Z e 1 1 3 1 4 1 9 9 9 9 3 1 4 4 9 9 4 9 4 4 M 4 M 3 > < < 3 L -.' I T T T R T T R R R R R R R R R R T T T R T T T T T T T T ` I I 7.6.U 8 Z 9 C A C S -.:...^ ..F 1 9 e 9 M 9 9 9 M M > $ * * * * * * * * * > $ > I T P P T ",
"R R R R R R T T P ' I % 6 3 e 9 < * * * > * * > > > * * * 1 9 9 F U F F F 8 3 F -...H U ^ ^ ^ Z 3 9 U ^ ^ -.-.I T R R R R R R R R R R R R R R R R R R R T T R T C 4 5 < 1 1 3 1 4 9 4 3 3 9 Z Z Z S S A Y I T T E R T T E E E ' R E R R T ' ' R =.=.' ' R ' <.1.1.K Q 1.G.J.H.' >.3.2.<.<.1.3.G.Y.>.' >.<.3.4.1.5.J.H.1.5.Y.4.J.I.Y.I.Q.E.4 % * 3 % H 6.:.%XzX2X4X4X2X3X3X3X3XzXUX3X3X9.q ! ! d s s s s s s s s s s s ! s ! s q = = = * * * & % 1 9 9 9 9 9 8 9 9 9 0 q g d f k.i.i.p.p.x.x.d.d.d.x.d.x.i.h d # # j h x.x.x.d.p.d.s.i.z.( q 0 = = q ! f f ( ( ! q . ~ UX3X4X3X2X4X2X4X$XwXAXVXVXNXNXNXnXnXVXVXVXNXNXSXCXDXDXZXDXCXCXCXCXBXBXBXBXCXCXCXCXBXBXBXBXCXZXZXZXZXZXZXZXZXZXZXZXZXZXZXZXBXBXBXBXBXBXBXBXmXBXBXnXBXbXNXVXbXVXSXVXSXJX@X  & * * 1 % < $ % % - 3 * < $ 4 < % % H 8.0._.+Xq.t.t.& . - o O O 7 ~ ^ u u G g G G G 0 0 Z 9 < I -.U ).(.!.(..X.X!.-X).$ 1 F ^ X.o.~ ~ ~ ^ ~ 7 = q / #./ = = Z {.E.U 5.Q.W.I.W.W.I.I.I.T.I.I.I.I.Y.I.J.J.H.T T I.W.T.I.Y.I.Q.Q.E.J V >.~.I.H.T.T.4.=.[ ' K J ' Y.I.2.1.J.J.,.' K P ' 1.P.H.>.<.1.<.<.1.3.2.2.[ T >.>.' ` ` ' ' ' -.-.' ' ` K Z A Z Z Z Z 4 4 4 3 4 1 9 9 1 1 9 1 3 3 3 3 3 3 3 3 4 4 Y K K I L L P T T T T T T ' T T T T R R R R R R T R T T R R T T T T T T T T I I I 7.:.U 9 Z 9 C Z M Z -.:...D H r 1 9 9 9 9 9 9 9 9 9 > $ * * * * * * * * * < * > I R P P T ",
"R R R R R R T T P ' I % 6 3 C 9 < * * > > * * > * > * * > 1 4 9 U U U U U 9 2 D -.-.I ^ ^ ^ -.F 4 9 U ^ ^ -.-.I T R R R R R R R R R R R R R R R R R R R T T R T 5 5 1 1 1 1 1 1 M M M 4 3 M S Z Z A Y Y L I R T E R T E E E T W T E R R T R R T T R R T T ' >.=.1.K T 3.>.<.G.<.<.3.<.[ 3.2.2.J.Q.2.' ` ' 2.5.<.>.2.Y.H.J.J.2.J.Y.H.5.E.E.5 o % o o t t._.3XLXLXPXLXLXLXLXLXLXLXLXLXLXb.# d s ! s s s s s s s s s s s ! s ! s q = = = = = * & % 2 9 9 9 9 9 8 8 9 0 r q ) ( h k.i.p.p.p.x.x.d.d.d.d.d.x.h s # X # X d n.x.x.d.d.d.d.i.z.g X = % = q ! f f ( ( ( q o ~ 2X%X{.).).%X%X_._.3XKXKXFXHXHXHXFXFXFXHXHXKXHXJXKXFXDXnXNXBXBXBXBXNXNXNXBXBXBXBXBXNXNXNXNXBXNXNXNXNXNXNXNXNXNXNXNXNXNXNXNXSXNXNXNXBXBXBXBXCXDXFXDXHXSXFXFXFXSXFXSXKXLXv.  ; * % % % 3 & o o & o o % o 1 o % o D _.1X2X3X2X3X4X: o 2 % - O 8 ~ ^ G ~ ~ G G G G 0 0 0 9 1 3 o % Q.XX^.(.`.~.!.XX!.% * D ^ ;.^ ~ ~ H ~ ^ 0 0 q q O q = o 9 -X6.% % m J.W.Q.R.I.I.I.T.T.I.I.I.T.T.T.~.J.V m I.W.W.Y.I.Q.!.(.Q.J V >.~.T.2.Y.W.I.P m J =.H.J.H.K.1.2.Y.J.,.' K P R 2.I.2.>.1.<.>.<.1.1.3.3.<.[ <.<.' E ' ' ' =.=.=.E T T K S Y C Z Z Z 9 4 3 1 4 1 9 9 1 1 9 9 1 1 1 1 1 1 3 3 < < J R -.,.-.T P T T T T T R ' T T T T R R R R R R T T T T R R T T T T T T T I I I U -.:.U 9 Z M C C 4 9 ^ :...1 e 3 * 9 9 9 9 9 9 9 M 9 > $ * * * * * * * * * < * > I T P P T ",
"R R R R R R T T T ' I % 6 3 C 9 < * * * > * * > * > > * > 1 1 1 A F F I U 9 1 r ^ I I ^ ^ ^ ..F 1 M ^ ......-.I T R R R R R R R R R R R R R R R T T T R R R R T < < 3 3 1 1 1 1 Z M C 9 4 Z F S C A Y U I R T R E R E E ' R L J T R E R T T R T T R E P L ' ,.=.<.K R 3.' E 1.3.<.3.[ ' 1.2.1.2.<.1.>.R ' H.I.J.>.1.J.J.J.J.2.H.J.3.2.R.E.< o 8 D e ..t._.:XzXzXxXxXIXIXPXPXPXLXLXLXPXv.q d d ! s s s s s s s s ! s ! ! s ! ! q = = = = = * * & 2 9 0 9 9 9 8 8 r 0 0 q ! ( k.k.u.p.p.x.x.x.x.d.d.p.x.z.s d = = = O s z.k.x.d.d.d.x.i.z.g O = * = q s s f ( f f q O X.3X-X1X<X<X:X;X-X%XUXPXPXPXPXPXPXPXPXPXPXPXPXPXPXAXSXHXSXSXDXDXDXSXSXSXSXSXCXCXSXSXSXSXSXSXDXDXSXSXSXSXSXSXSXSXSXSXSXSXSXSXSXSXSXNXNXNXBXBXVXDXSXxXAXAXPXPXGXAXPXAXPXPXt.+ & - % & o & . O o .   O : o 2 % & & : O.+X+X+X+Xr.t.2 O & o ; O 8 ~ ^ ~ / ~ u r r t 0 0 Z 0 Z 1 % $ (.-X^.(.`.^.`.XXQ.$ 3 G ^ X.^ H H G G G 0 0 0 0 , 0 G 9 Z ).).^ 8 % 6.E.E.E.I.T.T.T.T.T.T.T.W.I.Y.~.R.S m K.W.T.Y.W.R.K.E.K.T L <.I.I.J.Y.Y.Y.K m J 2.W.R.J.,.>.J.R.K.1.-.' S K 2.P.1.<.H.2.<.3.1.>.' ' [ [ >.1.>.' <.' E =.' ' ' R P J A Y 3 4 C Z C 4 3 5 4 4 4 4 1 1 9 3 9 4 3 1 3 3 3 4 4 4 K T P R T I T T T T T T T T R R R R R R R R R T T T R R R R T T T T T T T P I _ ^ X.:.~ 9 Z M M Z M C ^ :.^ 1 9 9 1 9 M 9 9 9 9 9 9 9 > $ * * * * * * * * * < $ > I R I P T ",
"R R R R R R T T T ' I % 6 3 e 9 < * * * > * * > * > > * > < 1 < 4 9 Z U U 8 1 e Z Z U ^ ^ ^ ^ F 1 M ^ -.^ ..-.=.T R R R R R R R R R R R R R R R T T R R R R R T < < 3 3 1 1 1 1 Z Z Z 9 4 Z F A 4 Z Y U I I T T E R R ' ' T J M Q R ' R T T E T ' E E K J T ,.>.<.K T <.` E >.<.<.3.' [ 3.3.<.' V R >.' ' H.I.J.5.1.2.2.J.Y.2.1.H.2.5.R.E.< % I 2X1X1X|.t.0.0.7.7.7.7.7.0.0.t.r.0.+.O.g d ! s ! s s s s s s s s ! s ! ! s ! s q = = = = = * * & 2 9 0 9 0 9 8 9 Z ; ; O s h k.k.k.p.x.x.x.x.d.d.d.d.z.h # # = 0 , = q d j k.x.d.p.x.i.z.g O * * = q s s f ( h f q o ^ 2X-X>X>X,X,X,X;X|.-X2X1X4X$X$X$X$X$X$X$X$X$X$X$X$XwXKXGXSXSXSXSXSXSXAXVXVXSXSXSXSXSXSXSXSXSXSXSXSXSXSXSXSXSXSXSXSXSXGXSXSXAXAXVXNXVXNXNXNXSXKXxXB.+X+X+X_.+X|.%X+X%X%X:   o * & & o O u $X*X*X4XxX%X& ; & - - o . O O     O O o o o o 1 & 8 ~ ^ / / / r 0 0 0 0 0 0 0 Z 1 o % !..X!.'. X.X^.XX!.$ > 0 H X.X.~ ~ G r G N 9 0 G N 0 -.E.[.)._._.:.$ 1.Q.Q.E.I.T.T.T.T.T.T.T.T.T.I.~.I.J m Y.~.W.T.W.,.J J J K.K.J.J.I.W.U.H.>.` ` =.2.J.J.K.1.1.K.I.1.' P J J S R >.<.2.<.E 1.3.<.` T ' ' ` ' <.>.<.<.[ E ' ' =.=.' P K A Y 6 < 5 4 Z S Z Z e 4 4 1 1 1 9 1 9 9 3 1 1 1 1 5 5 4 R =.P P T ' ' T T ' T T T T R R R R R R R R T T T T R R R R R T T T T T T P -.-...-.:.^ 9 N M M F L U -.;.H 8 e 9 9 9 9 9 9 9 9 9 9 9 > % * * * * * * * * * > $ > I R P P T ",
"R R R R R R T T T ' I % $ 3 e 9 < * * * > * * > * < < * * < < > * > 9 U U 8 1 9 8 9 U ^ ^ ^ ^ F 3 C ^ ..U ..-.=.T R R R R R R R R R R R R R R R T T T T R R R T < 1 3 3 1 1 1 1 S Z Z 9 1 Z U F 4 Z Y I R T T T R R T E ' T J m L T E R T T T T R R E K m J =.>.>.R R R T ' <.<.1.<.` ' >.<.1.` 6 P 1.<.<.1.2.<.J.<.1.1.J.I.4.3.H.1.<.5.4.$ % H 2X1X2X%X|.0.0.7.7.7.{ _ _ _ ..O.o   . # d ! ! ! s s s s s s s s s s s ! s ! ! q = = * * = * * & 8 e r 9 0 0 8 8 Z & O O s h k.k.k.i.x.x.d.d.d.d.d.p.i.d X = = 3 < = q # # k.x.x.d.d.i.z.g O % $ = q s s f ( ( ( q X ^ 3X;X>XXX-X-XoX;X-X%X:X-X-X:X:X:X:X:X:X:X:X;X1X:X%X3XLXKXKXHXHXJXHXHXHXHXHXHXHXHXHXHXHXHXHXHXHXHXHXKXKXKXKXHXHXHXHXHXHXHXHXHXHXHXHXHXHXHXHXKXJXxX%X%X1X-X-X:X%X1X%X:X%X: o & o o . .   p xX3XwXxXLX3Xo o o - % y & . + 7 y w o - 1 * < $ % 8 ~ ~ / / / r 0 0 7 r 7 0 0 0 1 % % )..X~.'.~.~.]. XE.% % , F ;.X.H H D r D 0 0 , 0 0 = ^ _._.6.%X)._.3 1.R.Q.1.I.T.T.T.T.T.T.T.I.W.W.~.P.V m P.~.W.W./.' 6 m J Q.Q.I.Y.Y.Y.H.2.>.2.J.P.J.2.4.K.J.J.K.J.>.T J 5 m 6 5 V ` J.1.E ' <.<.E T [ >.' ' [ >.<.>.' R ' =.' =.=.T L K A 3 3 < 3 S A S A C 4 1 1 1 3 3 1 3 1 1 1 1 1 3 3 > 5 I -.P T R T ' P T ' T T T T R R R R R R R R R T T T T T T T T R T T T T T P 7.7.-.-.:.~ 9 9 9 4 F -.^ -.;.H 8 9 9 9 9 9 3 9 9 9 9 9 9 * % * * * * * * * * * * % $ I I P P T ",
"R R R R R R T R T ' I % $ 3 e 9 < * * * > > * > * < < * * > * * * * 9 U U 9 < 9 9 e ~ ..^ ^ ^ F M Z I I H ..-.-.I T R R R R R R R R R R R R R R T T R R R R R T < 1 1 1 1 1 1 1 Z Z Z 9 1 Z U F 4 Z U I -.' ' R E T T T E T J m L T R R T T T R T R =.L V J E =.<.,.=.K J R 1.2.H.>.R ' >.1.J.<.m ` H.J.2.2.1.<.3.>.1.2.J.Y.H.H.W.J.>.1.1.6 % D ).0.|.:X|._._.0.0.0.0.0.0.0._.|.0.q.8./ ! s ! ! s s s s s s s s s s s ! s ! d q = = * = * * * & 8 e r 9 0 0 8 8 r o o = / ! h h h i.i.x.d.d.d.d.p.i.h d O 1 , 1 < & = # # ( h i.x.x.h #./ O % < = q d d s f f ( d X X.lX<X<X-X,X,X.X:X;X:X<X<X,X,X,X<X<X<X<X<X<X<X<X<X%X3XIXxXxXxXxXxXxXxXxXxXxXxXxXxXxXxXxXxXxXxXwXxXwXxXwXxXwXxXxXxXxXxXwXxXxXxXxXxXxXxXxXxXxXxXIXzX%X1X;X-X<X,X-X<X-X<X<X2 o & o + q.#X&.z 5X3X3X*XxX3X} 7...o o _.3X+X$X4X$X..o ; - % 1 % 1 0 H ~ ~ ~ / r 0 r 7 G 7 Z 9 0 9 o $ ).'.(.XX~.~.^. X~.K -.-.^ G ~ D t 8 8 9 9 = 1 ; r 0 0 U ^ H ~ ~ :.- S P R.W.I.T.T.T.T.T.T.T.I.W.I.W.R.J m J.W.I.I.~.>.m >.R.K.K.Y.I.J.` R 2.1.1.2.4.H.2.<.<.J.4.H.H.1.>.P m S V J J T 2.3.<.T <.3.` T ' <.>.' ' [ >.' E E ` ' R ' ' ' I K A K A 4 3 Z S C C Z 4 1 1 1 3 3 < 1 1 1 1 4 9 C Z Y S I ' P ' ' P ' P T ' T T R T R R R R R R R R R T T T T T T T R R T T T T P P -.;...X.;.~ 9 9 M 3 F -.^ ..X.H 1 9 9 9 9 9 9 M 9 9 9 9 9 * % * * * * * * * * * * % $ I I P P T ",
"T T T T R R R T T E P $ * 1 9 9 * * $ $ > * * > > > > > > > * * < * 1 C 9 9 3 1 e 3 U ..H ^ X.^ -.-.C C 9 r r -.6.1.-.I T E E E R R R R R R R R R R R R T R R T > < 3 1 < 1 3 3 C S Z 9 3 M A F C A I I I I T ' ' E R E E T J m K =.R P T T T T T T T T T K S m K ' ' P T ' >.<.>.=.' R ' 2.2.' 5 T 1.4.1.,.1.H.5.5.J.Y.4.>.<.J.2.3.3.5.,.$ % o % o _ |._.R.|._.|.oX|.|.|.|.2XxXxXPXLX8.X ) ) ! s d s s d d s s s s s ! d ! d q = * = - * = & & 8 r 9 8 r Z 9 8 - * = & O O O # # j k.z.x.x.d.a.k.j # O = = , , < 3 , = = O q z.z.n.s X = 1 < < % * = # q d s d f s ) / G (.<X-X-X-X:X;X:X;X;X;X,X,X<X<X<X<X<X<X<X,X>X;X:X-X%X|.|.|.|.|.|.|.|.|.|.|.|.|.|.|.|.|.|.|.|.|.|.|.|.|.|.|.|.|.|.|.|.|.|.|.|.|.|.|.|.|.|.|.-X:X;X>X>X>X,X>X,X>X<X<X2 . +   . wXJXGXAXcXGXAXUX3X3XUXIX|.  o {.IXxXxXxX2X..o & & & 8 o , ; 0 0 ~ ^ ^ q u 0 q 0 r r 0 9 1 o % Q..X(.(.~.~.~.!.!.lXIXPX% - * * & & ; ; , , = = * D ..Z , 0 7 ..;.U $ m ~.R.I.I.I.I.I.T.T.T.W.W.I.`.W.V V K.W.R.R.'.=.6 >.`.I.Q.K.R.P.S m ` >.>.1.G.J.J.2.[ G.1.G.<.<.2.1.J.H.P.T.J.<.<.3.G.3.<.1.' ' =.R ' [ ` >.<.' ' >.' T T ` ' =.R I P K A C 5 e A F Z A 1 < 1 3 3 9 4 1 4 1 9 < 1 R -.-.E T T R R R R R E E R R R T T T R R R R R R R R T T T R R R R T T T T T I P U ..X.....;.^ 9 Z C 1 I ;.;.H Z Z 9 9 Z F N 9 9 9 1 1 9 N 9 , * * * * * * * * * > M C A J P T T T ",
"T T T T R R R R P R P $ * 1 8 9 < < * * > * * > > > > > * * * * > * < 9 9 4 4 3 e 8 H U H ^ ..^ -...M M 9 e e -.6.7.-.T T R R R R R R R R R R R R R R R T R E T > < 3 1 < 1 3 4 Z Z M 9 4 M S S C A I I I P T R E E E ` ' T J m J ' T P T T T R ' T T T R P J m L -.,.' T E >.1.>.>.<.>.' 1.3.=.5 L 1.4.4.2.2.J.1.2.5.2.3.3.2.3.3.3.5.P.1.$ % % % o I )./.U.|._.|.:X%X%X%X%X2XzXxXzXzX..= u q ! ! s s s s s d s s s s ! d ! d q = * , , * * & & 8 r Z r Z 9 1 - * * * * & & & O # g z.i.z.z.s.i.z.d # O = ; 1 1 9 M 1 1 0 = q / z.z.g = * * $ % * * = = q d s d h f s q O E.<X-X;X:X;X<X;X;X;X:X,X,X,X<X<X<X<X<X<X<X<X<X<X,X>X>X>X>X>X>X>X>X>X>X;X;X;X;X>X>X>X>X,X,X<X,X,X,X,X,X,X<X<X<X,X,X,X,X<X;X;X;X,X,X,X,X-X:X;X>X>X>X;X;X>X>X,X>X,X<X2 .   + X #XcXcXxXqXcXxXUX3X4X$X3Xq.o + r.xXxXxXxXUX~ o : 2 . . o o = O 0 ~ ~ ^ 0 = u 0 0 0 0 0 9 3 % % E.'.^.'.`..XR.^. XlXzX2X: o o o o o o o o o O & & Z F , * , G ;.;.G % C Q.P.Y.I.I.I.T.I.T.T.T.W.I./.I.K J ' J.4.4.Q.=.5 =.!.K.R.J.R.P.S 5 K J.H.H.J.J.G.G.<.G.3.2.<.<.2.2.J.J.I.I.H.<.<.<.<.G.>.' T ' >.' ' ' ` >.<.' ' >.' T T ' ' =.' I P L K Z 4 4 S Z M Z 1 < 1 1 1 1 3 1 4 1 9 < < I -.-.E R T R R R T R T R R R R T T T T R R R T R R T R T T R R E E ` ` ` ` ` ` P I -.O.o...;.U 1 9 C 3 ..:.;.F 9 C 9 9 Z F Z 9 1 9 1 1 9 N 9 , $ * * * * * * * > > I I P T T T Q Q ",
"T T T T R R R R T T L $ * 1 8 e 4 3 < * > > * < * > * * * * * * < * 1 C 9 9 C Z D S D Z F ^ ^ ^ -...M 9 9 M e -.6.7.-.I T E R T R R R R R R R R R R R R R ` ' T > < 1 1 < 1 3 4 Z Z C 9 9 Z Z Z e A I I R I T T R E E ' ' T J m J ` P P T T T T ' R T T ' ` K m J P ' P T ' =.>.R E =.=.' ` T K m L ,.4.4.2.1.2.>.3.3.>.<.J.H.<.[ <.4.P.,.% % $ $ o _ |._.U.|._.2XlX2X2XUXUXUXzXzXzXxX2X4X$X~ q ! s s s s s d d s s s s s ! d q = = * * * = & & 8 r S S Z 3 & % = * = * * & & O O q g j h z.z.h d q O O ; 8 8 ; Z 9 , * 7 = O q # q = 7 Z S 9 3 - - = = q d s s f f ( # o E.<XXX;X;X,X<X;X;X;X;X,X,X,X<X<X<X,X,X>X,X<X<X,X<X,X,X>X>X>X>X>X>X>X>X;X;X;X;X>X>X>X>X>X>X;X;X>X>X>X>X>X>X,X,X>X>X>X>X,X,X;X;X,X,X,X>X,X,X,X,X>X>X>X;X>X>X,X>X<X<X2 . ..5X=XqXqX=X#X#X$X#X$X4X4X4X3X|.    7 H w a w : y O o.3X*X$X3XxX3X7 O ^ G ~ ~ ~ ~ u 0 0 0 0 9 3 % % E.'.~.~.!.~.P.P.3.P.0.0.zX3X3X3X3X3X3X3X3X3X4X%X:.~ - O ; O 7 G ~ r o 3 1.P.I.I.I.I.I.T.T.T.I.W.W.W.R.3.>.' K P ' R.>.m ' E.K.R.=.J K R ' >.Y.2.3.G.G.<.<.[ I.G.<.>.<.2.<.>.1.2.G.<.>.[ [ [ G.' T K ' 1.=.R ' E ' >.` ' >.' T R ' ' =.' T P I P K S C Z Z C Z 9 3 4 1 < 1 3 1 4 1 9 * < I -.E R R T R R T R T T T T R T T T R R R R T T T T T T R R R R R R ` R T T P P P U ;.o.....X.I 9 Z 9 2 ..:.;.e 1 M 3 9 C S Z 9 1 1 1 < 3 M 9 * * * * * * * * * * * I I R T T T T Q ",
"T T T T T R R R T R P % * 1 9 C M M 1 * > > * > * * * * * * * * < > 4 C C C S F F F e 1 D ~ H ~ -.-.C M M Z e -.6.7.-.I T E E E R R R R R R R R R R R R R ' ' T > < 1 1 < 1 4 9 S Z Z C Z S S S Z F I I R T T T R E E ' ' T J m L ' T T R T T P R R T T ' ' T S m S S J T -.=.R <.=.>.1.1.=.K V S R 4.H.1.>.>.' >.1.1.>.1.H.H.<.<.<.3.J.>.% % $ - % _ |._.R.|._.2XzXUXUXzXUXUXUX3XzXIXxXLXIXX.o ! s s d s s s d s s s s s ! ! q = * = * = * * * 8 Z S Z 9 ; % % % $ = , - * & & o O X # h n.z.h X O O = 8 e 8 7 r 8 * = 1 , O O O O = 1 9 9 9 e ; & o O q d s s f f ( q O Q.<X.X>X>X,X<X>X;X;X;X,X,X,X,X,X,X,X,X>X>X;X;X;X>X;X;X>X;X>X>X>X;X>X;X>X>X>X>X>X>X>X>X>X;X;X;X;X;X;X;X;X;X;X;X;X;X;X;X;X;X;X;X>X>X>X;X>X>X>X>X>X>X>X>X>X>X>X>X<X1X: . } LXFXGXbX=XC.#X4X$X$X4X4X2X4Xq.. X O .     . . .   i xXPXwXPXKXxXO . ^ H G / / ~ G 0 0 0 r 0 1 % $ !..X!.!.W.~.(.!.5.S 5 y LXLXLXJXJXJXHXJXKXKXLX3X} y o O ; o 8.r.r...& e ` 6.Y.I.I.T.I.T.T.T.T./.W./././.Q.1.m S L 1.R m =.R.R.Q.P $ m 1.R.Y.J.1.<.3.3.<.<.<.I.G.>.>.3.2.>.R E ' [ [ [ [ [ [ <.E T T ' =.' P ` E ` ` R ` ' R T R ' ' ' ' T I R R I K S Z Z C Z 9 9 9 1 1 1 4 1 4 1 4 < 1 I -.E R T T R R R T T T T T T T T T R R R R T T T T T T R R R R R R R T T T P P ` I 7.:.X.....U 3 C 8 1 U ;.-.3 < M 3 9 M Z Z 9 1 3 < < 4 M 9 * $ * * * * * * * * * I I P P Q T T T ",
"T T T T R R T T T E P $ > 1 9 C M M 3 * * > * > * * * * * * * * * * 1 9 9 9 S F F F 1 * D U H ^ ;.;.Z 9 Z Z e ;.6.7...I I T E E R R R R R R R R R R ` E R ' ' T > 1 1 1 1 3 9 9 Z M C Z S A A A A Y I R R T T T E ` ' ' E Q J m K T P T ' T R T T R T T R ` R L J S V J P =.=.R >.' ' ,.,.' T J K >.J.J.,.>.>.[ <.<.3.2.2.2.3.3.H.1.<.J.1.$ $ $ 6 o _ |._.R.|.R.oXlXzXUXzX2X2XUXIXzXzXzXIXzX..o d d d d s s s s s s s s s ! ! d = * = - * * * * 9 Z Z 8 1 * % & % * - 1 1 1 - - : O O # / 9.#.g O ; 8 8 8 y y y r 0 8 8 9 9 1 * , * 1 4 4 3 8 r e ; O O q d s s k.( s # o _.lX>X>X>X>X>X<X<X<X,X<X<X,X,X,X,X>X>X,X,X>X>X>X>X;X>X>X>X>X>X>X>X>X>X>X>X>X>X>X>X>X>X,X,X,X,X,X,X,X,X,X,X,X,X,X,X>X,X;X;X;X;X>X>X>X>X;X;X;X>X>X>X,X>X;X>X>X;X<X;X:   p AXwX5XqXwXC.B.+X$X4X%X%X3X4XN.+ p w + a t t D i w p #XwX3XwX3X$X. : ^ G ~ / ~ ^ ~ r 0 r 0 1 * o $ Q.(.R.Q.~.'.]./.Y.J J Y PXKXPXGXAXAXAXAXAXAXAX$Xw.8.: o O & ~ r.r.u o ..6.P.Y.I.I.I.I.I.I.I.W.W.R.I.I.R.Q.4.Q L J Q J m =.R.>.=.T K ' H.J.J.H.3.2.J.J.J.K.K.G.3.3.3.2.3.<.>.E ' >.>.>.<.<.>.' R ' ' P L E ' ' ` ` ` R ` ' R T R ' ' ' ` T T I I R I S 4 M C Z Z Z Z 3 1 3 3 1 4 1 1 < 1 U R E T T T R R T T R T T T T T T T R T R R R R T T R R R R R R R R ` T R ` I ` -.-.-.-.-.....F 1 9 F r H -.-.3 1 C M Z M Z Z 9 < 3 < < 4 M 9 * $ * * * * * * * * * R R T T T T T T ",
"T T T T R R T T T E P $ > 1 9 9 9 C 3 * * > > * * * * * * * * * < * 1 9 9 e S F F F 1 ; Z D F ^ ;.;.r 9 M Z 9 ;.:.;._ U P T R R R R R R R R R R R R ` E R ` E P > 1 1 1 1 3 9 M 9 9 M Z S Z Z S F U I I R T T R E ` ` E R T J C J K K P ` R ' R T T T T T T R ` T P Y S S K ' =.K J J K J K L K T >.H.H.,.1.2.2.<.<.2.H.2.<.<.2.H.3.>.4.,.$ % $ & o _ |._._.|._.:XzXzXzXzX2X3XxX|.y y %XIXIXlX3Xq d d s s s s s s s s s s ! ! d = = = = & & & & 9 D r - & * * * % - 1 8 8 8 2 2 8 8 0 7 u q d q = 9 Z r e 8 ; ; t r e 9 9 9 3 * * * 4 C M < & 8 D ; o O q d s s k.( ! q O _.<X-XXXXX.X-X>X<X,X<X,X<X<X<X,X,X>X>X>X>X>X>X>X>X>X>X>X>X>X>X>X>X>X>X>X>X>X>X>X>X>X>X>X>X>X>X>X>X>X>X>X>X>X>X>X>X>X>X;X;X;X;X;X>X;X-X>X>X;X>X;X;X>X;X;X>X>X;X<X:X&   g vX8X8XqX5XB.B.%X$Xr.w w B.*XwXAXKXxX4X3X3X3XzXUXxX3X5XwXwX3X*X*X. . r G G u ~ / ~ 0 0 r 0 , * o $ ).'.Q.!.Q.~..X]./.>.1.U :.} | | | | | | } | i r.wX$Xy r & o H :.:.H 3 7.5.2.P.Y.I.I.I.I.I.I.I.I.K.Y.K.J.P.H.J.1.Q J S S T >.m J >.1.H.J.4.4.3.1.2.J.J.K.I.K.' <.G.G.>.E ' >.>.<.<.<.>.>.[ ' Q R =.=.J S ' 1.>.' ` ` ` ' ' ' R R ' ` ` R T T T P -.R A 4 C Z Z Z Z Z 1 < 1 1 4 4 1 1 < < C A E T R T R R T T R R T T T T T T T T T T R R T T R R R R R R R R R P T ` P ` 7.7.-.^ U F F D 9 F ..U ..;.;.8 4 Z S A Z Z Z 3 * 1 1 < 4 M 9 * * * * * * * * * * * R R T T T T T Q ",
"T T T T R R R T P R P $ > 5 3 4 9 M 3 * > < > > > > > > * > * * 1 * 1 9 C C S A F F 9 8 r 9 Z H X.X.9 3 M M 9 -.:.;...I I ' R T R R R R R R R R R R E E R R R L > 1 1 1 1 3 9 C 3 9 C S Z C C Z U I I R R T R R E E E R E E P L V J J L T T ' T R T T R R L T ' ` I I A 5 m P =.J S S J J Q ' ' ' >.1.1.<.2.J.H.<.<.1.G.2.>.<.3.1.[ ' 2.-.% % $ $ o _ |.|._.|._.1XzXlX3XzX2X3XxX1X2 y 2XzXzXIXxXq d d s s d s s s d s s s ! ! d = & & & & = = * 9 D r & % - - % & - 3 9 9 8 8 8 8 2 e ; 8 & 7 7 ; 9 r r r e : - t e 8 9 1 3 1 $ * $ > * * ; ; H H 8 O O q d d s f f s q O 9.{.Q.(.(.).'.;X,X>X>X,X,X,X,X,X,X,X,X>X;X;X;X;X;X>X>X>X>X,X,X,X,X,X,X,X,X,X,X,X,X,X,X>X>X>X>X>X>X>X>X,X,X,X,X,X,X,X>X,X,X,X,X,X,X,X>X,X,X>X>X>X>X>X>X;X>X;X;X<X:X& . i 0X0XgXqX=XB.+XN.4X$X} +.3X=X0XGXFXwX#X$X4X3X3XxXxXIXxXxXvX0XxX4XO o 7 0 0 u ~ ~ ~ 0 0 r 0 , 1 $ < ).'.!.(.).~.I.`.XX>X-XE.:   . . . . . . o .   q.xX$X_ %X-.o % o - :.7.K.P.E.Y.Y.Y.I.I.I.I.I.I.I.J.Y.R.K.P.K.I.K.' K J J J S m K 1.2.1.H.2.1.1.1.3.<.<.G.H.3.[ <.3.<.' Q ` ' >.>.' ' [ [ E Q L R =.=.A m E 1.>.' ` R ` ' ' ' R R R T R R T T ' I -.-.A 4 C S C M Z C 3 1 3 1 4 1 1 1 < < 3 C -.E R R R R R T E R E E T T T T T T T T R R R R R R R R R R R R T L T R P ` 1.6.-.^ F 8 8 8 8 F ;.X.X.;.;.9 9 Z Z F Z Z S 9 * > 1 1 9 C 9 * * * * * * * * * > > P I P P T T T T ",
"T T T T R R R R L T P 6 6 < 3 3 9 M 3 * > 1 < > > > > > > > * * < * > 9 9 9 Z Z S F 9 Z r 1 Z ~ ....9 1 9 9 3 -.:.;.....=.=.' T R R R R R R R R R R E ` R R T L > 1 1 1 1 4 M C 9 9 Z A S M M Z I I I R R T R R E E R R E =.' T V S S L P L T P ' T T ` R L L R P I I J 5 m P -.K J J K R <.2.1.1.<.>.>.>.2.J.2.<.<.<.3.1.<.>.<.<.[ >.5.,.% % - & o _ |.|.|.|.|.2XzX2X2XlX2X2XxX1XD Y _.0.|.zXUX= q d s s d d s s d s s s ! ! d = = = - ; 1 0 8 8 G Z & % ; ; % & - 3 8 8 8 8 8 r 8 8 2 D r H D D D r 8 r e 4 e Z 2 9 9 9 9 9 1 > < 4 1 1 ; & G ^ y o & q q d d h f f # X 9.{.).).).!.'.>X<X<X<X,X<X<X,X,X,X,X,X,X>X>X>X>X>X>X>X;X;X;X;X;X;X;X;X>X>X>X>X>X>X>X>X>X>X>X>X>X>X>X>X>X>X>X>X>X>X>X>X>X>X>X>X>X>X>X;X,X>X,X>X>X>X,X,X:X,X>X;X<X:X% . y *X*XwXqX5X#X+X+X$X:.  + +XC.5XbXGXwX&X*X*X*XUX3Xr.B.v.+X@Xr.*X4Xr.+XD o 7 ~ ~ ~ ~ 0 0 u 0 0 9 * % 6.5.5.Q.).(.J.~.I.~.E.!.H O.8.O.@.@.@.8.@.O.i +XIX%XD Q.L % 5 % $ E.E.K.K.P.Y.Y.Y.Y.I.I.I.I.I.W.Y.R.Q.R.P.K.K.K.=.J C J J C S J >.K.J.1.' 1.H.J.J.<.>.3.G.[ <.<.[ <.>.' <.' ' E R E >.<.' Q L T =.>.J m R -.>.' R T R R R R R R T T T T T T ' P R R C 5 9 C C Z S Z 9 3 9 3 1 1 1 1 3 1 3 m R E R R R R R R E E E E E T T T T T T T R R R R R R R R R R R R ' T ' -.I =.6.6.U F Z 9 M 9 8 D ..X.X.;.-.8 9 C M Z Z Z F 9 > 1 1 1 9 C 9 * * * > * * * * * * * I I I T T T T T ",
"T T T T R R T T T T T T -.J % $ 4 M 9 9 9 1 $ > * < > * > * * > * * * * * * * < A Z U -.U < 1 F ..^ ^ -.I 1 1 U ;.;...6.7.P T R ` ] ` R R R R R R R R R T R ' J $ < 1 < < 1 9 C Z 4 C F Z Z A Z ^ ^ I I R T T T E R R R T T T T T S 5 5 L E L L P L K L T ` E T I P I P S m V V m J R =.>.,.2.2.<.>.>.<.>.1.2.<.T <.3.3.H.2.<.<.' >.' 2.=.6 % $ & o _ 2X2X|._.|.1XzX|.t |.3X3XIX1X. $ e Y :XIXUX+ O q d d s s s s s d s ! s ! q = , , = ; 9 Z D , = % % * ; 1 & % 1 8 8 8 8 2 2 t r r D H H H H e t 0 r r e S S V Z Z 9 1 * , 1 * 1 - ; D H D H H 2 o * = q q d d f f s d # _.-X.X).'.(.XX(.XX.X X.X.X'.'.'.'.^.~.~.'.~.(.(.~.XX;X;X;X;X;X;X;X>X>X>X>X>X>X>X>X>X>X>X>X>X>X>X>X>X>X>X>X>X>X>X>X>X;X;X>X>X>X-X.X(.`.].^.~.~.~.~.^.].].`.~.-X!.o & : . #X0XwX5Xe.B.N.%X0.. o $X*X5XGXZXbXwX3X*XwXq.0.t   @ @     +X4Xr.%Xt o 7 ~ ~ ~ ~ 0 0 r 0 N N 9 9 * % % R.'.(.I.P.~.H.'.6.3XIXAXvX5X5XxXvX3XwX4X} H ..1.E.T % $ % S 6.P.K.Y.Y.P.I.Y.I.P.J.I.P.P.J.J.Y.E.P.K.P.H.1.4.4.J 5 S J V V 1.K.J.1.J.G.H.H.1.1.3.3.<.>.3.3.>.<.2.1.>.K m K ,.R ' ' ` E E T E ,.A 5 P L ' ' R R R T R R R R R R R R ` R R P E E Y S A Z M Z S Z Z S C > 1 1 1 1 4 1 > S -.E R R R R R T E E E E E E R R T T R R T T T T T T T T R R R R ' T P =.1.-.^ ^ Z 9 9 9 Z Z 9 D ;...X.:...e 1 M M C 9 3 4 < > 4 C 9 9 Z C < $ * > > * * * * > 6 R I T P T T T Q ",
"T T T T R R T T T T T T -.J % $ 4 M 9 9 9 1 $ > * < > * < > * 1 * * * * * * * < S Z U -.U 1 9 H ..^ ^ -.^ 1 , U ..-.7.6.7.U T T R ` ` R R R R R R R R R T R ' J $ 1 1 < < 1 9 C C 4 C F A Z A Z I I I R R T T T E E R R T T T T =.J m m L =.T R J J J K T R T P R I I P S m V S J P E =.>.<.<.1.1.1.1.,.<.1.2.<.K >.3.>.' ' ' <.Y.J.>.1.T $ % $ % o { 2X1X0.0.|.2XzX|.t |.zXzXxX1X& : - S :XxX2X  = q d ! s d ! s d s s s s ! q = , ; 1 9 Z Z D = = % & * ; ; & & 1 e e 8 2 2 e 8 8 8 e t D S S y t r t Z 9 S S A F F Z 0 ; ; ; ; 1 ; 8 H H D H D r y D ; O O d d f ( ( ( d G ^ -X X.X(..X^. X X(.'.'.(.(.`.(.~.(.(.'.~.(.(.~..X;X;X>X>X;X;X>X>X>X>X>X>X>X>X>X>X>X>X>X>X>X>X>X>X>X>X>X>X>X>X>X>X,X,X,X,X>X-X.X(.`.`.^.^.].].^.].].].`.~.-X!.o & o w 5XKXAX0XC.e.+X$X:.o : 4X4X3XFXbX0X5X5X3XxX+X..D & & . O + +X3X|.%Xt o 7 G ~ ~ ~ 0 q r 0 0 0 F N 1 % 6 Q.'.!.4.'.Q.T -.H %XKXGXcX3X3XwXwX#X*X3Xp + H 0.R.2.<.1.=.4.E.R.I.I.I.I.Y.P.P.U.U.Y.J.Y.P.Y.I.P.5.4.5.R.5.5.J.T C J S m J J.I.J.<.<.' 1.H.K.J.2.<.3.J.G.3.[ >.1.1.<.L 5 J ,.R ' R E R T E ' =.A 5 T R ' ' R R T T R R R R R R R R ` ` ' P T T L U F M M Z S Z Z Z M < 1 1 1 1 4 1 > S -.E R R R R R R E E E E E E R R T R R R R T T T T T T T R R R R R T I -.1.-.U F Z 9 9 9 M Z 9 D ....;.:.;.F 9 8 9 9 1 < 1 * * 1 Z C C C C < * < > > * * * * > 6 T I T P T T Q Q ",
"T T T T R R R R T T T I -.J % $ 4 M 9 9 M 1 $ > * < > * < > * < , * * > * * * 1 A Z I 7.U 1 1 F ^ U U -.^ 1 1 U ^ ..;.:.7.-.-.=.R ` ` R R R R R R R R R T R ' J > 1 4 < < 1 9 9 9 4 Z F F A F Z I I I R R T R T E E R R T T T T =.J C C L E L L S J J L T R R T R R ' I A m S S R ' ' ' ' =.>.>.>.<.<.<.>.<.<.' K 1.2.' ` ' >.2.5.5.<.4.' < % % - o { 2X:X7.0.:X2X2X|.y 0.2XxXxX%X7 8 - 2 _.lXxXo.8.g q ! s s s s s s ! ! s ! q = = ; 8 r r 9 9 & % & * * ; - & & ; 9 e 2 - e U H H H H H H H t y t t D Z 9 N M S Z N 9 ; = = & 8 8 ; r _ _ D D H G D ^ 7 O O d d f k.( k.) O r -X~. X^.'.).'.).`.`.(.~.^.`.(.~.(.(.'.(.(.(.~..X>X;X>X>X>X>X>X>X>X>X>X>X>X>X>X>X>X>X>X>X>X>X>X>X>X>X>X>X>X>X>X>X>X>X>X>X;X-X.X(.`.`.`.`.`.`.].].].].].].-XQ.% * - y r.#XB.3XxXwXxXxX0.o : $X4X3X0XwX3X5X3XB.$Xt.o & y : 7 +X$XxX4X_.%Xt o 8 H ~ ~ ~ r r u 0 0 0 0 9 3 > 5 ).(.R.E.(.E.1.: y @XGXwXcX0XwX3X3XB.e.3X@.i _ 6.P.Y./.W.Y.P.E.I.Y.Y.H.Y.K.Y.P.Q.I.' T ` T L L J J L ' K.,.1.5.I S J S 5 S 4.H.H.H.K.K.1.>.>.1.3.<.<.G.2.<.' ' >.>.>.L 6 S >.' ' T R R T =.T P S m T =.E R R R T T T T R R ` ` ` ` ` ` ' T I T R -.I 9 9 Z F A Z Z C < 1 1 1 1 4 1 > S -.E R R R R R T R E R R E R R R T T R R R R T T R R T T R R R R R T T -.7.-.F Z U U U Z N M 1 Z ....U U H Z 9 9 9 C 1 * < > * 1 Z Z 9 9 4 < * < * * * * * * * * R I T P T T Q P ",
"T T T T R R R R T T P P =.J % $ 4 M 9 9 M 1 $ > * < > * * * * * , * * , > * < 1 F A ^ 7.U 1 1 Z D F U -.^ 9 3 U 7.-...X.;.6.6.-.R R ` R R R R R R R R ` T R E J > 1 4 1 < 1 9 9 C 9 Z F F F F A I ^ ^ R R T T E R R R R T T T T E J A A K L C V S J L T ' ' R R E R E P S m S A -.=.=.E E ' [ ' ' ' >.>.=.E R R [ 2.<.' >.2.2.2.' >.<.J.,.S 4 $ & o _ 1X:X{ Y 7.t.2X1Xt e 7.zXxX%X7 r 0 - y t.zXLXIX9.q ! s ! ! s s s ! ! ! ! q = = - 0 Z 0 & & & % & * * * * * & ; 8 e 2 - r ..;.;.;.......~ D r t t D 0 1 3 > 1 , > = = = & = 0 0 8 r U H D H ..H u ~ : o O d d s k.f ( s X ~ 1X^.(.!..X.X-X'.`.'.`.(.(.'.'.`.'.(.`.(.(.~.~.'.`.'..X.X.X.X.X.X'.'.'.'.'.'.'.'.'..X.X X X X X.X.X.X.X.X.X.X X X.X.X.XXXXX.X'.(.`.`.`.`.`.`.`.].].`.].].-XE.% * % o O @   e.KXwX5XxXt.+ t 2X4X4X$X#X4X3X#X+ 2 2 D 8 u O w vXKXPX$XN.%Xt o 8 H ~ ~ / G G G 0 0 0 0 Z 9 $ $ Q.!.5.E.Y 7.PXxXIX3Xi z wXNXwX=X3X+Xq.*XwX3Xt.7.P.T.J.Y.Y.I.R.R.I.Y.4.5.5.R.U.!.I.K J J V V m 5 5 m S J L ,.5.L C J A m J 4.,.,.H.I.E.<.K J T >.<.<.<.3.>.E ` E ' ' J 6 S -.=.' L R R P R J m m C L T T T T T T T T T R R ` ` ` ` ` ` R T T T -.,.I 9 9 Z F A C Z C 1 1 1 1 1 4 1 > S -.E R R R R R T R R R R E R R R T T R R R R T T R R R T R R R R ' T R -.-.-.F S -.-.-.U Z 9 < r -...Z 1 1 8 8 9 Z Z 3 * * > > 1 Z C 1 < < * * < * * * * * * * * R I T P T T Q P ",
"T T T T R R R R T T P P =.J % $ 3 M 9 9 C 1 $ > > * > * * * * * , * * , > * < 1 F F ^ -.I 9 9 A 8 Z I ..H 1 9 U :.......-.6.6.=.T R ` ` R R R R R E R ` T R R S > 1 4 1 < 1 9 4 A Z A F F A F F ^ ^ ^ I I T T ' R R R R T T T T E J J J J J m m S J P R ` R R T ' R T L S V S J =.=.' ' ' ' E E ' R ' <.>.Q K ` >.1.' ` <.J.2.<.' =.[ H.1.' -.I % o ..2X2X7.2 : 7.2X2XY o D zXIX%X+ y u ; o O :.t.8.d d s d ! s s s f ( f ! ! q = & - 9 D 1 % % & % & * & & - 1 0 8 - 1 4 3 e I ............~ t r Z t D 9 ; , % > * $ & * ; ; 1 Z r 8 r D D D H ^ ~ ~ } + . = ! d s ( f h f q / 2X-X-X X(.).).).'.`.`.`.`.`.`.`.`.(.(.`.(.~.(.(.~.~.^.^.~.~.^.^.~.~.~.~.~.~.~.~.~.~.~.~.~.~.~.~.~.~.~.~.~.~.~.~.~.).(.'. X X'.`.`.`.'.`.`.`.`.].]..X].'.-X5.o - - % o o   e.LXwX3XwX&.  + $X3X4X*X*X*X3X$X: 2 D y .     + xXKX3X$XN.$Xt o 2 F G ~ / ~ ~ ~ r 0 0 0 F 3 % , {.-X(.:   H LXLXLX3X    3XHXwX&X*Xr.O.B.GXKX%X_ 7.U.3.Y.Y.I.I.I.U.I.4.4.5.R.R.W.U.>.=.=.>.,.,.-.L S m 6 S ,.P.R C A S 5 S J.1.1.4.2.1.=.J S T >.,.3.2.1.>.' ' R R ' J 6 S =.=.' L ' R ' R V < S K P T T T T T R R R R R E ` ` E E E ` T T R T -.,.I 4 4 Z F F Z C e 1 1 1 1 1 3 1 > S -.E R R R R R R E E E R R R R R T T T T R R R R ` ` T T R R R R T R I ..-.-.F Z ^ -.-.F Z 9 < Z -...Z < 9 9 8 8 Z S 1 % * < > < Z C 1 * * * $ * * * * * * * * * I I P P T T Q P ",
"T T T T R R R R T T Q P -.J % $ 3 M M M C 1 $ * * * * < * 1 9 9 * * * * * * < 1 Z Z F I U Z Z Z 4 Z ^ ^ F 9 e F F D H ^ ..6.6.-.T R ` ` R R R R R ` R ` T R R S > 1 1 1 1 4 9 4 A A A A A A F F I ^ ^ I I I T ' R R R R T T T T E J J A S J J K L P R ' ' R R T ' Q K J C C J J =.=.' ' ' E E E ' E ' >.' K J R ' <.[ ' <.3.>.>.>.>.>.G.1.,.K.-.o o ..1X%X7.Y e 0.2X2XY o D xXxX+X# u q q q X 7 . # q ! ! d ! s f f f ( f ! ! q = & ; Z D 0 = & & % & * % % 1 8 Z 1 o & Z S r F D D D D H o...u r Z Z G 0 1 0 * * * & & - 1 1 9 Z t r r e y D ..~ ~ } ..7 : q q q d d ( k.h s g ^ -. X.X(.).'..X~.^.(.(.~.~.~.`.`.(.~.`.(.~.`.^.`.`.'.'.`.`.`.'.'.'.'.'.'.'.'.'.'.'.'.'.'.'.'.'.(.(.(.(.(.(.(.(.(.(.'.'.'.'.'.'.`.`.'.`.`.].`.`.^..X!.'..X6.o & o o ; 7 + r.LXAX3XwX*.p z *XUX*X$X4X4X4X4XH U H O + p  .*.cX0XB.%X|.$Xt o 2 D Z ~ / ~ ~ G 0 0 0 0 N 1 > 4 ).!.6._.r.r.3X3X3X3X&.$.wXqX3X*X*Xt.~ B.0XxX|.t Y I.Y.I.I.P.J.H.Y.I.P.P.K.Y.J.1.2.I.R.Y.I.Q.W.E.,.L S J P -.,.I S A A 6 m 5.1.4.H.1.<.R S S ' 4.J.G.<.3.<.=.>.R T R S 5 S ` =.' P ' L ' T V 4 L =.E E T T T T R R R R R E ` ` E E E ` T T ' ` -.-.I 4 4 Z F F Z Z e 1 1 1 1 1 1 < > S -.E R R R R R T E E E R R R R E T T R R R R R R ` ` T T R R R R I ` ^ ^ -...S 2 H ....F M 9 1 Z -.-.Z < 9 Z 9 9 Z A 3 % * 4 3 3 Z Z 1 $ * * * * > * * * * * * * R I T P T T Q Q ",
"T T T T R R R R T T Q P -.J % $ 3 M M M C 1 * * > * * < * 1 Z Z * * * * * * < 1 9 9 M A F F F Z 1 Z U ^ H F F F 9 3 H ^ ..6.6.-.T R ` ` ` R R R R ` R ' T T T C > 1 1 1 1 4 9 4 Z Z A A A A A A U U ^ R R T T ' R R R R T T T T R J J A S J L E E E ' ' ' ` ` R ' K S C V S S S =.' ' ' ' E ' =.' ' ` T K S S K ' 1.1.>.>.[ ' >.J.H.1.2.>.=.1.Y o o S 7._ S e 2 0.2X:XA o Y IXxX{.# d d d ! d d g g ! ! s ! ! ! ! f f ( f ! ! q = = 1 Z D 1 = = & % & * % % 1 e Z 2 o % A F Z G r D r t _ :.O.H Z Z D D 0 8 9 * $ $ & & - - 1 3 Z r r e y 2 t ....H H _ t D 0 = 0 q # h y.f ( d O e ).XX).E.E.!.!.~.`.`.~.W.W.].`.].~.`.`.~.`.^.^.^.(.(.^.^.^.(.(.(.(.(.(.(.(.(.(.(.(.(.(.(.(.(.(.(.(.(.(.(.^.^.'. X'.'.(.(.'.'.'.'.`.(.~.~.`.'.^. XW.'..X,.o & 2 r U H u O.v.w.qXFXdXbXqXbXwX4X#X4X$X4X%Xt e : } wXcXFXSXSXwXe.+X|.1Xt o 2 D r G ~ ~ ~ ~ q 0 0 Z N 9 1 % J 6 o PXLX3Xi w . #XPXxX3XB.C.wXwX+X~ #XqXxX%Xt Y !.U.I.I.I.J.J.Y.T.W.Q.I.K.H.T R W.W.J.J.K.J.4.1.>.=.2.-.K A Y A Y Y m S 5.,.2.H.<.,.L S J >.4.J.2.' 1.>.=.>.R T ` S 5 S ' ' =.T ' J J S m V K T P T T T T T T R R R R R ` ` E E E ` R T ` ' -.-.I 9 9 Z F F Z Z e < 1 1 1 1 3 < > S -.E R R R R R R E E E E R R E E R R R R R R R R ` ` ` T R R R R T ' R I ..^ Z ; H X.-.F Z 9 1 Z -...Z * 9 Z e r Z A 3 $ 1 Z Z M Z Z 4 * * < < * > > * * * * * - R I T P T T Q Q ",
"T T T T R R T T T T Q P R J % $ 4 M M M C 3 * * < * * * * 1 M Z * = * * * * < 1 Z 9 M Z F I U Z 1 Z H U U ^ ^ U e 8 H ....:.:.-.T R ` ` ` R R R R ` R ' T T T C > < 1 1 1 4 9 4 9 Z Z Z A F A A A U I -.R R T R R R R R T T T T I C A A S J P ' ' R T T T R R R E J m m m S S C =.' ' E R E ' >.=.,.' K S S J K ' 1.3.1.<.` R >.J.2.>.<.' =.5.P % % t _ S e e - 0.2X;XY o t IXxX+XX d s d ! d s s s ! s s ! s s f f f ( f ! ! q = = 1 0 9 , O % & % = , & % 1 r r 4 $ $ Z A Z G Z D r t _ :.O.H Z Z D D 8 ; 8 = % % * * * - 1 4 Z e e r y y t H } H H H 8 D D ; = q # ( y.f ( s O 8 !. X).Q.~..XW.~.`.`.~.T.W.~.`.].~.`.`.~.`.~.^.(.(.(.^.^.(.(.'.'.'.`.`.`.'.'.(.(.(.(.(.(.(.(.(.(.(.(.(.(.(.(.(.(.(.(.(.(.(.(.'.'.`.^.~.~.`.`.~. XR.(..X-.o & . o : w i p O   wXqX5XmX9XwX=X#X#X#X#X4X+X@ @ . @ GXFXFXbXcXwXB.+X|.2XS o ; r 8 G / ~ ~ G 0 q 0 0 9 1 9 % < o % IXPX3Xi ... $XLXLX$Xz e.wXIX$X~ *XGXKX$Xe L `.3.3.J.J.K.J.J.Y.I.R.I.J.P.T K W.J.H.J.H.2.2.H.P.R.4.>.S m K A A A 5 m 1.>.H.J.<.,.J J ' 1.>.>.1.1.1.=.' =.T T ` S 5 S T ' =.T ' V 5 V S J P R T ' T T T T T R R R R R ` ` E E E ` ' T R ' -.-.I 9 9 Z F F Z Z e < 1 1 1 1 3 1 > S -.E R R R R R R E E E E E E E E R R R R R R R R R ` T T R R R R ' =.I U I I S 2 H ..^ S N 9 1 A ....Z < M S r Z 9 Z 1 % 1 Z Z M C Z 4 * * < < $ > > > * * * * < R I T P T T Q Q ",
"R T T T T T T T T T P P -.J 6 6 < 4 1 1 Z Z 9 M * * * * * * * * < < * * * * * 1 Z 9 A I F Z Z Z 3 Z U ^ I ..^ U 8 3 Z ^ ;.6.:...I ' ' R E ` ` R ` R ` ` R R K S > < 1 1 1 4 9 9 3 1 9 F F F F C Z A ^ -.R E T T E T T T E R T L C Y K L R R T ` R R R T R R ` R =.J 5 m S S S J =.R T ' =.E T Q P K J S K ,.<.>.<.<.1.1.2.2.1.1.[ =.<.1.=.=.1.P o & - - o e 0._ |.1X2Xy o y zXxX%X+ u ! d ! s s s s s s ! ! ! f k.k.k.f f s ! q = = ; 8 = = q q q O % = % % < Z e < o & Z S Z S D D Z D ..:.o.D D r r t 8 8 9 * % * * * * * < 3 Z r e r y 2 t ..H } H H H ..H % = = # f y.y.h d = 4 ).(.E..X].]./.^.W.I./.^.(..X(.(.^.~.^.'.^.U.~.Q.~..X(.(.(.!.~.'.~.(.~.!.(.~./.^.~.~.`.^.~.`.^.`.^.~.'.'.^.~.!.Q.!.'..X~.R.R.!. X X^..X`.!./.].]./.W.).-.o O +X+X@X3XvXq.. + 3XqXqXVXbXbX=X9X9X8XbXwXqXwXwXqXwXwXwX*X*X3X3XB.|.t.6.H - % O & r r / ~ G 7 0 0 0 Z 0 9 , 3 % o IXAX4XO.....0.).t.:.} p 3XIX} w 8.q.O.:.-.S I.I.5.J.Y././.J.G.H.J.P.R.J.4.J.J.T.Y.>.<.H.K.I.J.H.I.P.K J L A J J 4 J 1.>.1.4.J.>.J J E 4.,.>.<.` >.>.=.>.R L P S C K I ' L 4 m m m J L R ' T T P R R R R R R R R R R R R R R R R R R R T -.-.I 9 9 Z F A Z Z 9 < < 1 9 9 3 1 1 1 5 5 K ' T T R R R R R R R R R R R R R R R R R R T T T R E E R P ' 1.1.U e F -.-...^ ^ F C A U F 3 8 Z F A Z Z Z Z C 3 $ < C Z 9 Z C 1 * * * * > > * * > * * * $ I I T P T T T Q ",
"R R T T T T T T T ' T T E S $ % < < < 4 Z C 9 9 * * * * * * * * 4 9 1 * < * * < 9 4 A U F 9 9 4 9 S U ^ ^ ..^ F 9 e A I -.6.:...P T R T R ` ] R ] R R ` R R L S > < 1 1 1 4 9 9 9 1 Z F F F F Z Z A ^ -.R R T R E R T T E R T P A J J L R R T ` ` ` ` ` R R R T =.J 4 C A J J L =.-.R R ' ' T L J C V m J >.>.>.>.>.>.<.<.1.1.1.<.<.1.1.>.=.>.K % % & & o ..2X1X0.|.|.: . t zXxX%X. o u d ! d ! s s s s ! ! s f k.l.u.f ( s ! q = O = = O = r ! q = = - * % < C e 1 o & Z S Z D D D t D ..:.o.D D t t D r 8 9 = % * * * * * - 2 Z r e r e 8 t ......H ......H y 7 = # f y.y.k.f X 9 -X>XR.Q.I.].`.(.I.J./.`.^.^.^.~.^.(.(.(.(./.(.~.'.'.~.~.(.Q.!.(.(.'.(.Q.(..X`.`././.(..X(.~.Q.`.'.^.^.^.^.^.~.Q.Q.(.'.).!.R.). X X(.^. X].T.~.~./.!.(.-.. + $X3X5XAXKXq.  + vXAXxXwX=XZXgXgXgX9XgXqXqXqXbXbXFXxX3X+X%X*X3X#Xr.o.e o o - & o ; 7 ~ ~ ~ 0 0 0 Z N 9 F 1 & o O IXLX$X: %XIX7.o D o . y 2XxXH   u 2 : 8 Z K Q.I.P.Y.T.].].T.J.Y.2.5.U.I.U.U.J.H.Y.2.J.J.J.Y.J.J.Y.H.J S K A A S < S J.4.2.<.2.=.J S E 5.2.1.1.>.=.>.=.>.R L P S m L -.-.A 6 m J L P T T T T T T R R R R R R R R R R R R R R R R E R R T -.-.I 9 9 Z Y F Z C 9 1 < 3 9 9 3 1 1 3 5 < K ' T T R R R R R R R R R R R R R R R R R R T T T R T R T P ' 1.1.U 9 F ..-.-.F F F M A I Y < 3 Z F U A Z Z 9 9 1 $ - e Z 9 Z C 3 * * > * > > > * > * * * $ R I T P T T T Q ",
"R R R R T T T T P ` T T ' J m V 5 * 1 Z Z 9 4 4 * * * * * * * * 9 Z 9 < * < < < 4 1 Z U A 9 9 4 C S F F F H U S 9 C A F ..6.6.;...` T T R ` ] R ] T R R T R P J > < 1 1 1 4 9 9 9 3 Z F F Z S Z S A ^ -.R R T T E R T R R R T P J S S L ' R P ` T R R R R R R T =.J 4 C A Y K P =.=.E T R ' T J S S K L T =.` ' >.[ >.>.>.<.1.1.1.1.1.4.>.>.1.K % % & o o U |.|.7.|._.e . _ zXIX3X:.o./ q s d ! s s s s ! ! s f k.l.l.y.( s ! q = % = = = q ! ! q = = = % % 1 e e 1 o * Z S D D Z D t t ..:.o.H D D t D r 8 9 * % * * * * * - 1 Z r e r r y t H H ........H I H H O # ( h f l.( # u {.-XR.R.Y.].`.`.W.I.~.'.^.~.~.Q.!.(.^.~.^.(.~.(..X(.Q.~.'.~.~.~.~.'.'.!.!.~..X`./.W.^..X(.!.I.(..X^.!.~.~.^.W.Q.~.~.~.~.~.~.(./.!.'.(.(.].W.W././.~. X... + 3X0X8XqXAXq.o D y 7 w @ a wXbX9XtX9XdXbXAXAXGX=X=X%X|.8.q.t.q.+.:.} y & & ; & o O ; H ~ ~ r G 0 Z N 0 r o O o   xXPX$X  _.LX7.1 -.:.t.o.i O.t.r.u } 4X%XU L P.R.P.U.T.I.I.J.Y.W.2.2.I.I.U.I.<.' 2.2.J.G.3.G.2.2.H.2.L K L S S S 5 C ,.4.J.2.H.1.M m P 4.1.,.1.>.' >.>.>.T L P S m A S S m 5 C K =.' ' T P P T R R R R R R R R R R R R R R R R R E R R T -.-.I 9 9 S F F Z C M 1 1 4 9 9 1 1 1 3 5 < K ' T T R R R R R R R R R R R R R R R R R R R R R T T T P T =.1.1.U 9 S ..-.-.Z Z F 4 S I A 1 8 Z F U A Z M 1 3 - % - e Z M C C 1 * * > * > > > > > * * * $ R I T P T T T Q ",
"T R R R T T T T P T P P ` T P -.< % < Z Z 9 9 9 * * * * * * * * 9 C 4 * * * < < 1 1 9 A C 9 Z Z A S Z Z r H F S C C Z S ^ :.:.:.7.-.' T R ` E T ] T T R R R T K > < 1 1 1 4 9 9 3 1 Z F S M Z Z Z A I -.I R T T E R R T R R T T L M m L =.T P ` T T R R R R R T =.J 4 C A Y K K J L K J J K J S S J =.>.=.R T ' >.>.>.>.>.>.<.<.1.1.1.4.<.1.2.P o & - & o - H e r _ ..0.0._.0._ |.lXxX_.q d ! s s s s s ! ! s f k.l.l.k.k.f s q = = 7 0 r d d d q q = = % % 1 e Z 1 o * S F D r r D t t ..:.o.H D D t t 8 ; 1 * % * * * * * * 1 r r e r r e r D u H ....H y H ....O = ) f f k.y.f s / U 1.~.W./.W.!.~.~.^././.`.~.U.U.~.~./.~.`.!.~.(.~.!.~..X'.(.!.Q.(.'.(.!.I.(.~.!.!.~.~.~.~.W.~.~.~.~.~.!./.W.(.`.~.Q.Q.^. X(.P.I.'.'././.`.W.T.W.~. X..o + xXSXqX0XbX&.o Z - o :   @ xXFX9X9XdX5X=X3X3X$Xz     .   o . . . . o % o o o = ; O ; G ~ ~ G G G 7 9 0 = y $X3X4Xi ..8.: %XLX7.8 0.IXLX4X. y xXLX+ H LXxXH P I.Q.Y./.T.G.3.H.I.W.P.J.Y.J.H.J.3.<.<.<.2.2.3.2.3.<.<.H.,.1.E S A A C A ,.,.,.T K K C m L ,.,.=.>.' ' ' =.>.T L P S m m 6 6 m J K P R R T T T T T T R R R R R R R R R R R R R R R R E ` R T -.-.I 9 9 Z U F C C M 1 1 4 9 9 1 1 1 3 5 < K ' T R R R R R R R R R R R R R R R R R R R R R R T T P P P R -.-.A 1 r ..7.-.F Z 9 1 Z I S A S S A A Z Z Z - < * $ - 9 Z 9 9 9 1 * > > * > > * * > * * * $ I T T T T T T Q ",
"T R R R T T T T T T P L P P P =.$ % $ 9 9 4 C C * * * * * * * * 9 C 1 * $ * < < < < 4 9 4 4 C A F A S C Z F U S A M C Z I -...:.6.7.-.R ` ` R R ] R R R T R R L > 1 1 1 1 4 9 9 3 1 Z U S 9 M Z Z A ^ -.I R T E E R T T T T T T L m m L =.R P R R R R R R R R R =.J 4 m S Y K J J J J J J S J L J J ' ' R P T ' <.<.<.<.>.>.>.>.<.<.,.1.,.1.1.U o & ; & o & e 2 r - - E._._.t . _ zXIXt.. q ) ! s s s s ! ! s f k.u.u.k.k.f d q O O q q d ! ! ! ! d 0 7 & o 1 r Z 2 o - D D D e r D t t ..:.o.D D D t r 8 ; 1 * % * * * * * * - e r e e r e y t y H ....H 2 t ^ ^ O O g d j y.k.k.! = o `  X^.W.Y.I./.`.~.J.I.(.`.U.I./.~./.!.(.(.!.Q.~.(.'.(.~.~.~.~.!.!.(.~.!.R.W.~.'.!.I.W.(.(.W.R.~.(.~.Q.U.~.`.(.!.R.R.~..X^.R.R.^.'.W.W..X/.T.T.!.(.-.o + 0XDXgXqXcXO.  o o o ; . w vXGXwXwXqX+X+.O.:...} +   .   +     O & & & * & & * < % = G G H G G N G ^ 0 o u xXLXLX7 D } : %XLX:.% ..IXLX%X+ q.KXxXu w KXzXe -.(.J.Y.W.T.Y.Y.Y.J.Y.I.J.Y.3.>.4.Y.I.3.<.>.G.Y.J.2.3.<.J.J.K.=.A K K 4 J K.J.=.m 5 5 L J T ,.>.' [ >.' ' ' >.R L P S 5 V S S J L T =.T T T T T R T T R R R R R R R R R R R R R R R R R ` R T -.-.I 9 9 Z U F Z M 9 1 3 9 9 9 1 1 1 3 5 < K ' T R E R R R R R R R R R R R R R R R R R R R R R T T T T L U U C 1 r ^ 7.^ F M 9 4 9 A U I U F Z C Z Z Z * * * & < 9 C 9 4 9 < * - - * * * * * * * * * $ I T T T T T T Q ",
"T R T R T T T T T R T T T P P P m 4 3 3 1 4 Z Z * * * * * * * * 9 9 4 < < * * < < 1 9 C 9 4 9 Z Z Z S Z Z F U Z F M C Z U ^ H :.6.7...I E E E E ] E R R T R R P > 1 1 1 1 4 9 4 9 1 Z U S M M Z Z S ^ -.I R T E E R R T T T R R P m 5 L =.R T R R R R R R R R R =.S 4 m S K P K J J J J J J L =.T L R ' ' ' T ` <.<.<.<.>.[ >.>.1.,.,.1.-.,.,.Y % & * & % ; 0 r 1 & r %X%X0.e & t.zXlXt.: y g q s s s s ! ! s f k.u.y.k.k.s d q O O q d ! ! ! ! ! ! ! q O O 1 Z Z 8 & ; r D D e r D t t ..:.o.D D D t r 8 ; ; * % * * * * * & - 2 e e y e r y y e H ..o.H y t H H ; ; q # d f k.k.( q o ` ^.~.E.W.U.W./.W.Y.I.~.(.W.R.!.^.^.^.~..X~.R.!.'.(.!.I.Q.(..X!.I.Q.(.XXI.U.^.'./.I.R.^.'.W.I./.^.~.Q.I.`.~.Q.Q.Q.!.~.~.^. X(./.~./.W.^.W.T.W.!.^.` o + 5XdX9X8XqXB.@.q.:.t...O w 3X3XwXwXxX%XH : & & t.3X4X*X$X*XO.O : - * % ; ; - * * = ; G Z H G H 0 0 G 0 & r 4XUX4X: ..H 7 %XLX0.: ..xXIXq.. 8.PXvXw w KXxXt -.(.H.W.Y.3.Y./.Y.3.K.J.4.J.1.' <.H.Y.2.<.[ H.T.J.H.G.2.H.1.5.=.A U Y 4 S ,.=.R m m C =.R =.>.=.` ' ' ' ' ' >.R L T J 5 S R T R ' R =.E R T T T R E E R R R R R R R R R R R R R R R R R ` R T ` -.I 9 9 Z U F C M 9 1 4 9 M 9 1 1 1 3 5 < K ' T R E R R R R R R R R R R R R R R R R R R R R T T T E -.I U F S Z H ^ -...F 9 C C 1 9 I I U F Z Z Z Z Z % * * * 1 8 e 8 < 1 * * * - * * * * * > * * * $ I T T T T T T Q ",
"T T R R T T R T T R ` T ` T P P P I S < > 4 C C * * * * * * * * 1 1 1 4 4 * $ < * 1 C C 9 9 9 Z M Z Z Z Z F U F C 9 9 9 U ..U :.0.7...I T R E E E E E E R R R P > 1 1 1 1 4 9 4 9 1 Z U A M M Z Z S ^ -.I R T E R R R R T R R ' P m m L ' ` R R R R R R R R R R =.S 4 m S L P J S S J J J J L T P K T P T T P R [ >.>.>.' ' <.<.<.>.>.,.=.,.,.Y % & & & & & ; 0 G 8 e :.:.X.y O :.2X1X1X%X$Xt.q d s s s ! ! s f k.u.y.y.k.f d q # q q d ! ! s s s d d q O O 8 r 0 9 1 8 8 9 D D t D t t ..:...H t D t t y ; - & % * * * * * & - & 2 8 8 e r r r t ..o.o.~ t u H G G 0 = O q f k.h ( # o -.!.E.E.~.W.W.U.Q.~.~.W.Q.Q.!.^.).(.(./.~.~.~.!.!.!.Q.Q.!.~.'.Q.R.!.~.'././.!./.W.Q.!./././.~.!.W./.~./.~.W.I.Q.~.~./.R./. X(.U.R.^.`.~.I.T.!.~.!.U . + 0XcXiX7XdXwXxXIXxXAXt.    :   z 4X2X1X..% % o _.LXAXAXAXKXv.. o & - & ; ; % * $ = ; 0 7 G H ~ t r r G 7 & 0 o o o r 8.$XIXLX:.o ..xXLXr.o O.AXLXw H LXIX_ ` ~.K.W.J.>.4./.Y.3.J.H.<.H.2.>.1.1.>.2.H.<.2.J.2.G.H.2.3.,.5.E S L A A C J V C 5 5 m =.=.=.=.' ` ' E ' ' ' >.R Q T J 5 J ' E =.,.E T =.E T T R E E R R R R R R R R R R R R R R R R R R ` R T ` -.I 9 9 Z U F C M 9 1 9 9 C 9 1 1 1 4 5 < K ' T R E R R R R R R R R R R R R R R R R R R R T T T E ,.,.-.U U ^ ^ ^ U F U Z 9 C 9 9 A U I U A Z Z Z Z 9 % * - - 1 8 9 9 * * * * * * * * > > * > * * * $ R T T T T T T L ",
"T T R R T R R T P T T P P T P P T -.A % % 3 C Z * * * * * * * * * * < 9 9 < $ < % < 4 9 4 4 9 Z S S S C Z U ^ U 1 1 9 4 U -.^ 6._.6...I I R R T E E ` E R R R P > 1 1 1 1 4 4 3 9 < M F S 9 M M Z S ^ -.I R T E R E R R T R R ' P m m L ' ' ' R R R R R R R R R =.J 4 m C Y L S S J Q T ' =.E P V V J m m S K ' E ' ' ' ' ' <.2.>.=.=.,.-.,.1.U % = - & = = q q q q 7 = o = = O _.xXlXzXlXIX%Xo d s s s ! s s f k.u.u.y.k.f d d q q d s ! s ! ! ! ! d q O = 8 r 8 r r r 3 1 t D D D t t ..:...H y D t t e ; * % % * * * * * % * o ; 8 8 e r r t e ..X...~ D u t D ..H = O q f h k.k.# X :.).E.E.Q.W.W.Y./..X`.I.P.R.^.(.(. X(.R.5.~..X~.I.I.~..X'.W.Q.Q.(.'.R.P..X~.W.I.R.`.`.I.P.~..X~.Y.R.(.^.Q.Y.I.!.(.!.R.P.R.R.Q.U.I.`.XX^.J.U.].^.!.H   @ 0XcXcXqXqX5XwX3X*XxX:.o ; 2   t.UX2XlX1.% 2 o r.PXcXwXwXbXe.  + o o   . o . % % = = ; = 0 G ~ G ~ Z Z D 8 9 - D D o q.UX3XxX0.t ..3XxXq.: q.3X*Xw y 3X%Xe ` ~.K.2.P.J.J.W.T.4.H.4.>.4.J.J.Y.2.` H.I.J.2.3.<.H.J.<.1.4.K.E C Y A S C J m m 6 5 C =.>.<.=.' ' ' E ' ' =.>.R T T J 5 J >.=.=.,.=.>.E R E E E E R T R R R R R R R R R R R R R R R R R ` ` T ` -.I 9 9 Z U F C M 9 1 9 M C 9 1 1 1 4 5 < L ' T R E R R R R R R R R R R R R R R R R R R T T P I -.7.6.-.I U -.;...D 1 9 9 9 9 3 U -.I I U A C C Z C 4 $ * - - 2 8 8 8 & * * % * * * * * > * * * * * 6 R T T T T T T L ",
"R R R R T T R R R R T T T T T P L =.A $ $ 3 9 C 4 9 < * < < * * * * 1 C 9 1 < * $ < 9 9 9 9 4 F -.I 4 * F ^ U F F U 4 9 U ..:.:.:.:.....` T R E E ' T E R R ' P > 1 1 1 3 3 3 9 4 1 M U F 9 4 9 Z Z ^ -.I R I I R R R R R R R R J S S K K L =.R T P T ' E R R ' =.J m m Z A J J J K R ' R =.E J V S J J S J T ` E ` ` ' ' [ >.>.=.=.>.1.1.4 5 9 * = = & O q ! d d d d d d u u u o.:.:.:X2X<X|.8 q ! ! s ! ! s s k.y.u.y.k.f d s s s s s s s s s s ! d q O O ; 8 8 0 F D 1 & ; e D D t t _ ........H y e e 2 8 % % * * % * * * & & - ; 1 9 r t D e H o.......~ i D ..H & o q d h y.y.d # X.%X).Q.J.I.I.I.U./.!.R.I.R./.~.!.R./.(. X~.R.U.Q.~.~.~.~.W.P./..X~.I.W.`.^.W.I.Q.^.!.I.U./.!./.W.W.W.R.~.(.~.U.P.R.(..X~.R.I.I.Q.R.R.R.P.R.R.!.6...a @ 0XVXwX&X3X&X#X#X#X4XO.O - ; & i D D U 1 & ;   e.KX0XgX8XgX=X| @ } xX3X3X3X$X: o - = & O r ..^ H ~ G Z 0 N Z Z Z r ; y q.u H ....O.t.o D H ..xXAX+ t IX2X& C P./.1.2.U.Y.3.J.J.J.2.<.H.U.P.2.1.1.1.5.H.1.<.1.3.3.<.<.4.K.=.K U C S S M M < K L J E ' ' ' ` E R ` ` =.' =.' P L J 5 L =.=.P K J L L L J J K R ` T R R R R R R R R R R E R R R R ` T T T I -.7.^ 3 9 A U F C M M 9 8 8 8 4 4 3 3 1 5 < K ' T R R R R R R R R R R R R R R R R R R R T T R T I -.7.7.^ F U ^ -.-.D 8 Z Z Z Z M F -.I U F A Z C C C C % * 1 8 8 9 9 3 & * * * * * * * * > > * * * * $ I P T T T T T T ",
"R R R R T T R R R R T T T T T T L =.A $ $ 3 9 C 9 9 1 $ < 1 * > < * 1 C 9 4 1 1 * 1 C 9 C 9 9 U -.I 4 * C U F U -.^ 4 4 S F ^ ..;.;.-.7.7.E E R E ` T E R R ' P > 1 1 1 3 3 3 9 1 1 M F F 9 3 9 Z D -.-.I R R E R R R R R R R R ' E P J m C T T R T T T T T T P =.J m 4 C S A J J L R ' R ' E K 5 S T ' R T T T ' ` ' ' ' [ >.>.>.=.=.,.-.6 % $ * = = = O q ! d s s s s d s g g = o o _.zXIX1X& q ! ! s ! ! s s k.y.u.l.k.f d s s s s s s s s s s s s d q q ; ; ; r H F & o & e r D t t H _ } ..o...t D D r D - % * & % * * * * = * = & 2 r Z D t ..o.........H H ..X.D y 7 # # y.y.f ( / r 8 6.P.I.I.I.P.I.Y.5.R.R.R.R.R.U./. X.X/.P.I.~.'.~.R.Q.U.Y.U.~.Q.P.U.Q.W.U.Y.I.W.R.P.I.R.Q.W.U.U.U.I.~.(.~.W.I./.(.'.!.R.I.I.R.R.I.R.R.R.5.E._.2X3X=X0XNXwX&X3X#Xr.B.+.O.t o & & o : o o % o o O . e.LX0XVX9X9XC.g   O.xXwXwX3X3Xy o - ; - & 0 G G G H F N 9 9 N N 9 % o ..LX2XH _ 8 3XIXD H ^ H xXLX: y PXzXe P I.Y.J.3.I.I.J.4.2.H.[ J V V V V J P 1.5.4.<.<.<.<.<.<.<.4.K.=.L I S C Z m M 4 R ,.-.=.=.=.' E R ` ' ' =.' =.P V V V 6 K -.-.P V 5 5 $ 6 6 5 V Q ` R R R R R R R R R R E E R R R R R ` ` ` I -.-.^ 4 9 A U F C M 9 3 8 8 4 4 3 3 3 3 3 5 L =.R R E R E R R R R R R R R R R R R R R R R T T T I I -...^ F U I ....S 9 Z F F U U ^ -.U A Z Z Z 9 4 < < % * 1 e e C C 8 % * * * * * * * * * * * * * * 6 I T T T T T T T ",
"R R R R R T T T T R R R T T T T L -.A $ $ 3 4 e 8 Z 1 $ > 1 > > < * 1 C 9 8 9 9 * 1 9 9 C C 9 U ^ U 9 < 9 Z Z U -.U 1 8 F S U ..;...;.6.1.R E T R ` R ` R R ' P > 1 1 1 3 3 3 9 1 4 Z F A M 9 9 Z D ^ I I R R E T T R R E E R R T ' T J 5 m T =.T R T T R ' E P =.J 4 4 C Z S A L P E ' E E R P m J T ' T T R ` ' ' ' ' ' ' ' ' =.' =.-.=.$ % * * = = = O q ! s s s s s s s ! ! ) u 0 _.<X1X_.0 q s ! s ! s s s k.y.u.l.k.f f s s s s s s s s s s s ! s d u q & - 9 H D & o & e e D D t D t H ..o...t D D D D 3 = * = = & & & * * - % O 1 Z D D D ^ ..^ ..o.....o.....H t : X # f y.k.k.! o o 0.I.I.P.I.P.P.P.U.W.R.I.I.U.I.R.^.^.W.P.U.~.(.!.I.I.U.P.P.W.U.P.I.I.R.R.I.P.I.I.I.I.U.R.U.I.I.I.I.W./.Q.I.I.R././.R.I.I.I.R.I.I.I.P.E.5.7.0.xXKXbXcXVX=XB.$XO.w w & o o & - - & & : o & & ; : O O.*Xe.8XiXgX8X=X*X*XwX3X*X#X4Xa o % & * % = , * N U F Z 9 0 0 0 0 r o H LX%X: 7.t 2XPXD D U t xXLXy 8 PX3X- L W.T.U.4.J.Y.J.1.<.G.] V 5 V V m S L 5.5.4.1.<.3.<.<.3.1.4.5.=.I I S C S M m 3 R ,.-.' ' ' ' R R R R ' ' ' =.K 5 m J K L K J S V S K K K J J K T T T R R R R R R R R R R R R R R R R ' ` ` I ` -.^ 8 8 S U F C 9 9 1 4 4 4 3 3 3 3 3 < 6 K ' T E E R E R R R R R R R R R R R R R R R ' I -.-.-.I ^ ^ ..H H U ..^ S 9 9 F F I -.^ I S Z C C Z C 1 * * * * 4 C C C e 8 % * * * * * * * * * * < > * > < I T T T T T T P ",
"R R R R R T T T T T T R T T T T P ' J $ $ 1 1 4 8 Z 4 $ * < > > * * 1 9 9 9 9 4 * < 9 9 C C 9 U ^ U S S A 4 8 U -.I Z A U A F U :...;.0.7.P E T R E R ` R R ' L > 1 3 1 3 3 1 3 9 M C M M 9 9 9 Z S U U U R R T T T R R E E R R T ' R J 5 m J K J T ' T E =.=.E =.J 4 4 C C C A T T E =.' T T T 5 J P ' ' ' R T E E E ` ` ` ' ' ' R ' -.-.< $ 1 * = = = O q ! s s s s s s s ! ! s d q 0 = O q = d ! ! s s s d s k.y.u.l.k.y.f f s s s s s s s s s s ! ! ! ! q O & 8 D t ; % - e r D D t t y y ..o.} y t D t D 2 % = % = & & % * = ; & % 1 Z D D t H D D ~ ......H y u ~ H w O # f y.k.( s O ; 6.P.P.I.U.U.P.I.R.U.U.I.U.R.U.I.W.R.U.U.U.R.R.U.U.I.R.I.P.U.U.I.I.I.R.R.U.I.U.U.U.I.U.R.U.U.I.I.I.P.I.I.P.P.I.I.I.I.I.I.U.I.I.I.P.5.!.R.-.;.UXvX=X5X8X#XB.*X}   . & % % < - - & O O : & & O o o O + . Z.gXtX8XgXbXqX3X*X4X4X2Xy % & * 1 = * $ $ N ^ U G 9 0 0 0 0 & o ..LX%X: 6.e 2XLX....^ t xXKX2 S LXxXS ` W.W.I.Y.J.G.1.1.2.H.H.<.>.<.` J J K 5.4.4.5.G.2.3.<.3.1.1.4.=.R R A S J M 5 < I -.-.' ' =.=.=.=.' E ' =.=.R J m S P ,.T J J L P L P -.>.=.R T R R R R R R R R R R R R R R R R R R R ' P T I -.-.^ 9 8 S U F C M 9 1 4 3 3 3 3 3 3 3 < 6 K ' T R E E E R R R R R R R R R R R R R R R T I -.6.6.-.^ ^ ..^ ^ I -.-.Z 4 9 A Z F ^ I F Z A A Z Z C 4 * * * - 4 C C e 9 1 % * * * * * * * * * * * * $ $ 6 T T T T T T T T ",
"R E E E R T T T T T T R T T T T T ' J $ $ < < 1 8 Z 4 * * > * * * * 1 9 9 9 9 1 < 1 9 9 C C 9 U ..U H ^ U 1 4 ^ ^ ^ U U U F U ^ :...7.6.-.U ' T T R T ' R R E L > 1 3 1 3 3 1 3 C Z 9 1 1 3 4 C S Z S Z U -.R T T T R E E E E ` T ' ' K S S M 5 C I =.T T E R T =.J 4 m C M C A =.E R ' R L K P J L L L R ' ` R E E E E ` ' ' ' ' R ' =.=.$ % > , = ; = O q ! s s s s s s s s s ! ! d d d q ! d s s s s s s d s k.y.u.l.l.k.k.f s s s s s s s s s f s ! ! ) q O & 8 F Z - % * e t D D t t y y ..7...t t D t D 1 & = & * , = % - & ; * & ; 9 Z D D D y y ~ ........y y } H : o # f f y.k.s # = :.E.5.5.I.R.U.P.I.I.U.U.R.Q.R.I.I.P.U.R.U.P.P.I.R.P.R.U.P.I.U.U.U.I.I.I.I.I.U.I.I.U.U.U.U.U.I.I.I.I.I.U.U.U.U.I.I.Y.I.I.R.R.I.E.I.R.Q.6.H } xXAX5X&XwX#Xr.$X..O 2 * < * * = & & & & ; ; - ; - - o X   =XDXtX8XgXbXwX*X*X*X3X2X; o - * < > , $ $ Z ^ ^ G 0 0 0 0 8 ; o ..xX).r _ : 1XPX..7.-.D xXPXe S xXlX-.1.I.W.3.Y.J.<.<.G.K.G.H.J.J.4.>.T J J =.' <.H.G.G.L.<.<.<.,.1.=.R R A C A C 4 3 R ,.-.-.-.=.=.=.=.' E E =.T J S V S P =.P J J R ' P L L T T T T R ` ' R R R R R R R R R R R R R R R R ' P I ..-.7.^ 8 4 S U F Z C 4 < 1 1 1 1 1 1 1 3 3 5 P =.R E E E E R R R R R R R R R R R R R R T P I -.6.6.;.......^ U H I I Z 9 9 Z 4 Z ^ U F Z A A Z M C 1 * * * > 4 C C C 9 4 * * * * * * * * * * * * * > > 6 P P T T T T T T ",
"R R E E R T T T T T T T T T T T T ' S % $ < * < 8 C 4 < 1 > $ > * < 4 9 9 9 9 4 4 9 9 9 Z Z e U ..U I ..U 1 4 ..I ^ ^ ^ F S H ..7.;.7.6.7.I =.T T ` T ' R R E L > 1 3 1 3 3 1 3 Z S 9 1 4 4 9 Z F Z Z Z U -.E T R T R E E E E ` T T ' P T P C < C T =.T E R T T =.J 4 m C 4 C A =.T T E T J J L >.=.J V J ` ` ` E E E ` ` ' ' ' ' ` ' =.-.$ % * , = ; = = q ! s s s s s s s s s s s s ! ! ) ! d s s s s s s d s k.y.u.u.l.l.k.( s s s s s s s ! s ! s s ! ) q O % e H Z * o % e r D D t t t y ..7...t t D t D ; = & * 1 1 & % , = ; * = & < 9 G D D 8 y ..o.......w 7 i i 7 O q ( f f k.f X O t.(./.P.P.U.R.R.R.U.R.U.I.R.U.I.U.U.U.U.I.I.I.U.R.I.U.U.I.I.I.I.U.I.I.P.I.U.R.U.I.U.I.I.U.U.I.I.I.I.I.U.U.U.U.I.I.Y.I.I.I.R.R.R.I.'.Q.6.D | wXSX0X3XwXw.+ y : o % % * * % & = = - = O & & ; & - & X   =XNX8X=XwXwX3X*XUX$X+X%X9 % * * * * , * $ 9 ^ ~ G r 0 0 0 9 1 o o D U ....r %XxXU I I D UXLX..$ 7.6.2.K.J.Y.' Y.J.L.G.J.K.3.' <.<.3.2.,.T J J J R 1.3.3.3.<.<.<.=.-.=.-.^ A 9 S m 4 4 I R -.-.P K J J J J J J J J m m C S L L K J J L T ' =.T T R R T T R ` R R R R R R R R R R R R R R R R ' I -.-.-.-.^ e 4 Z U F Z Z C 5 1 1 1 1 1 1 3 3 < < K ' T E E E E R R R R R R R R R R R R R R T T I ..-.;...^ ^ ..^ H Z F F M M 9 9 1 Z U F A e S A Z M C 1 * * * < 4 C C Z Z M * * * * * * * * * * * * 3 S F J P P T T T T T T ",
"T T E E T T R T T T T T T T T T T ` S % $ < * < e Z 9 9 9 < $ > > * 1 1 1 4 9 9 C 9 9 9 Z Z 9 F U U ^ ..F 1 4 U U U ....D 2 e U ..;.7.7.-.-.-.` T ' T ' ' T E L * 1 3 1 3 1 1 1 9 Z 9 9 C 9 9 A Z S S Z U -.E E R R R E E E E ` ' T ' T E T C m S T R I E E T R =.J 4 m C 4 C J =.T T E R J S L ' ' J S L ' T K ` E E E E E R R ' ` ' =.=.$ $ < , = - ; = q ! s s s s s f s s s s ! ! s s s s s s s s s ! s d f k.u.u.u.u.l.k.( s s ! ! s s s ! s f ! s ! ) q O % 3 e 8 1 - - 8 8 r D e t D y ..7...y t D t S - % & , 9 9 & O * * , * = * * 1 Z D D y t ..o.} ....t i ~ H 7 o O / s f ( ! q q 9.Q./.R.I.P.P.I.U.U.R.U.I.I.I.I.R.R.U.I.I.U.R.U.U.I.I.I.U.I.I.I.I.R.I.I.U.R.R.U.U.R.I.I.U.U.I.I.U.I.I.I.I.I.P.P.I.I.I.I.Y.E.E.R.I.P.).1X%XV.0XqXwXxXxXq.  o % $ > * ; = & = = $ * , $ ; & ; o & O .   wXSX8X&X#X#X$X_.$X..; D 1 * - * , * 1 ; - r ~ ~ ~ G G G N 9 * ; ; & F ` 9 & 3XzX..I Y Y 3XLX6.4 e U I.T.H.1.>.3.3.J.I.J.H.3.[ <.3.2.J.2.' T S S T 1.3.<.3.<.<.<.' =.=.-.I Z C A M M 3 S S A A S m 5 4 4 4 4 m m m 4 m S V L K P P P T T P P R T T R R T T T R R R R R R R R E E R E R R R R T R -.-.I ^ U Z 4 Z Y Y S Z C 5 1 1 1 1 1 1 1 3 5 < K ` T R E E E R R R R R R R R R R R R R R R =.-...^ ..^ H H ^ ..^ S F F M C 9 1 1 A U F A e A A M 4 9 1 * < 1 1 9 C M C C 9 * * * * * * * * % * * * C ^ -.E P T T T T T T T ",
"R R E E T T T T T T T T T T T T P T V % $ < > 1 C Z C Z Z 1 $ , > * * * * 1 9 9 C 9 9 9 C C 4 A S F ^ ^ F 4 3 Z 3 e I -.F - 8 ^ ..;...^ -.-.-.-.I ` T ' ' T E L 6 1 3 1 3 1 1 1 > 1 1 9 Z 9 1 C e S F Z U -.R ' T T R R R E E ` R P T P T T J J S L J J E ' T E ' J 4 m C 4 C J =.T T =.' J J T =.=.J m K =.' ` E R R T T T Q Q ' ` ' =.` $ % = = = , ; = q ! f ! s s f f s s s s s s s s s s s s s s s s s s f k.l.l.y.u.l.l.y.s s s ! s s s ! s s ! ! ! ) q O = & o * D H r 8 ; e D e t D y ..:...t D D D D 1 o O - 9 9 = o = * , ; 1 1 < 1 e r t y t ....H ..H y y i D i t G # d d d f ( s g * U P.!.E.P.I.U.I.R.R.U.U.I.I.I.I.I.U.U.U.I.I.I.U.I.I.R.U.I.I.U.U.I.I.I.I.I.I.U.W.U.I.U.R.U.U.U.I.I.U.U.I.P.P.I.I.I.P.P.E.Q.E.P.$ t.IXKXqXqX3X=X{.2Xt.e e & % > * & & = = = > * $ $ 9 o & O o o     3XFXqX*X#X3X3X|.1X..o & < * * $ * = * = & 8 G H ~ G G G N 9 1 Z r o * $ 9 Q.0.0.K 1.K A %X3XR.1.1.7.4.>.2.5.5.3.[ K.W.G.3.2.[ <.<.<.2.,.,.5.J J ` 4.3.>.3.3.<.<.' ' ' -.I Z A F C C 3 M 3 4 C m m m C C m 4 m m C C S V 4 K T ' T L T T T P T T T R ` ` ` ` R R R R R R R R E R E R R R R E T T -...F F F Z 4 Z U Y S S C 1 1 1 1 1 1 1 3 3 A C R -.R R E E E R R R R R R R R R R R R R R T ,.7.-.^ ^ ~ D D ~ X...H U U M C S 3 4 F U F Y C A A 3 * < * * 1 4 3 9 M 9 4 4 1 * * * * * * * * * < * $ 9 ^ -.L T T T T T P T T ",
"R R R R R R R R T T R R R R R R T T L K Y 3 % * C 9 9 Z M , * > * * * * < 3 4 4 9 9 9 9 9 4 4 Z S F ^ ^ A 9 9 9 8 8 U -.F 3 e F U ....X...6._.7.U I R E T T P K $ $ $ * < 1 < * 4 1 1 9 Z 9 4 C C C A F U I -.-.-.T R ' R R R R T T T T R R E E E m 6 J -.P I K -.K m 4 Z S m K ' T R ` R =.=.L S I C 4 L ' ' R T R R ' R S m J ` T ' I -.% % = , = , , O q f f ! f s s s s s s ! s s f s s s s s s s s s s s s k.k.l.l.y.l.l.y.f f f s s ! ! ! s ! s s ! ) q = = = % & D H H = o e Z r D r r ..:...t t D D D - o * 9 Z 0 = O = ; * ; ; = * 1 1 & e r y ~ ......H t 8 8 t H } H 7 # d d f k.k.d O S !.Q.E.E.R.I.T.T.R.U.I.I.I.I.I.I.I.I.I.I.U.U.U.U.I.I.I.U.U.U.U.U.U.I.I.I.U.U.U.I.I.I.I.I.I.U.I.I.I.I.I.I.P.P.Y.5.U./.H.P.).1.- 8.IXxXwX0X3X3Xo & 5.(.A < % = , 1 1 ; - = * * < $ % & ; ;   7 a p =XSXqXC.3Xq.t e & o ; ; * < * * * * * * * * * O G ~ G 0 7 0 0 0 r ; - % 9 -X6.Y ` K.4.=.C 6 R I.P.J.G.1.1.>.2.H.H.3.<.<.3.H.2.3.2.3.<.>.<.1.J S T 4.<.>.3.3.<.<.=.T E ` U A C Z Z C 4 C C V C C 4 5 4 4 4 < 3 5 > 5 K R I I T P L P R T T R R R R T R R R R E E R R R R R R ` ` R ` R R E E ' P E R L A Z 9 1 S U F Z Z C < 1 1 < 1 3 1 5 4 ` ` T T R ` E E R R R R T T T R T T T R R T T ` 7.-...-.-.^ r ; H ^ ..^ ..^ Z 9 3 9 9 9 C C C S S Z 4 1 < * * 4 C M 1 $ * * $ $ * * * * * * * * * * , $ M R T T Q Q T T T P P P ",
"R R R R R R R R T T R T R R T T P T P L L 4 % * C 9 M Z N , * * * * * * < 3 4 4 9 9 9 9 9 4 4 Z F F ^ ^ F e 9 9 8 9 U -.F 1 3 e S U ^ -.-.0._.-.U ^ -.R E E R P J K J C 9 1 1 < 3 1 1 9 Z 9 1 9 C Z F U A F I R R I T E E T R ' T T T T R R E E L C 5 J R I -.R I A m 4 Z C 4 K ` T ` ` T E E L m K A A R -.=.=.,.,.=.=.' J S L ` T ' I -.% % & * = , , = d f f f f s s s s s ! s s f f s s s d s s s s s s s s k.k.k.l.u.l.l.k.f f f f ! ! ! ! s ! s s ! ! q = = ; * & D D F * o e S r Z e r ..:...t t t t D e % ; 8 0 , = = = = & ; 8 1 < 1 - & e r r ~ ..} ..} H Y Y H H } H ; = q d f k.k.d X D ).Q.E.E.U.Y.T.T.R.R.I.I.I.I.I.I.I.I.I.I.U.U.U.U.I.I.I.I.U.U.U.U.I.I.I.I.U.U.U.U.I.I.I.I.I.I.I.I.I.I.I.I.P.P.W.W.Y.J.J.E.E.:.: t.AXwX3XwX3X3XD S P.Q.C < = - , 1 ; ; * * * * % & - & O O O @.JXqXgXbX0XB.$XH % * % % - * * - * * * * * * * * = % G ^ H G 0 0 0 0 r ; ; - e E.5.1.K.P.K.K.H.1.<.I.H.2.H.G.1.<.1.2.H.2.<.<.3.2.2.2.2.3.<.>.,.2.K J R 4.1.>.<.>.>.>.' P T I Y Z Z S Z 4 4 C S C 4 M C C C C M 4 M M 4 M Y I L L R T P T R P L R R R R R R R R R E R R R R R R R ` ` ` ` ` ` E E ' T -.-.I I U C 1 F U F Z Z C 1 1 1 < 1 3 < 5 9 ` ` T T T R R R R R R R T T T R R ] E ` ` ` T I -.:.-.^ ^ U 9 8 U ^ ..~ ^ I C C 4 C C C Z C C S S Z 4 < < * > 3 C M 1 * * * * * * * * * * * * * > $ > % m T Q Q Q Q T T P P P P ",
"R R R R R R R R T T T T T T T T P T P T I m % > M 9 C Z M 1 * * * * * * < 3 4 4 9 9 9 9 9 4 4 C Z Z I ..F e 9 9 4 Z I ..F 3 1 1 9 Z F ^ X.6.t.-.^ ^ R R T R R P E =.-.K 4 5 < 1 < 1 1 9 C 9 3 4 4 C F U A A I -.I R R T R T R ' T T T T R R E E L J S J S S A S J S 9 4 Z C 5 J R T R E T R E L 4 A K L L K L L L K J J K S S L ` T ' T =.% % = = = , 0 = d ( ( f s s s s s s f f f f f f f s s s s s s s s s s f f y.l.l.l.l.k.f f s s s ! ! ! s s s s ! ! q = = = & % t D D & o e S r Z y r ..;...I I H t D D t t 0 7 0 u r 0 & = - 1 < < < - % e r t ~ ......} ...._ H H H H ; ; q d h k.k.d # H ).R.P.P.U./.U.T.R.R.U.I.I.I.U.I.I.I.I.I.I.I.I.I.I.I.I.I.U.U.U.U.I.I.I.I.I.I.I.I.I.I.I.I.I.I.I.I.I.I.I.I.I.I.3.I.H.Y.Q.E.7.... q.vXxX0XwX4X:.- V J.E.m - & ; 1 1 ; ; * * * * * & & % & O   O.JXqX0XqXqX*X4XH o * < * * * % * * * * * * * * * = % G ~ G G r r r 0 0 ; ; 8 4 U C R 1.=.,.J.K.K.H.J.<.1.H.H.3.3.<.2.G.2.<.<.<.<.4.2.3.1.<.>.,.2.J S R 2.,.>.>.' >.>.' T T I Y S S Z C 9 m C S C m J I R I L K K U L I I R R I ` ' ` T T T K K T R R R T R R R R R R R R R R R R ` ` R R R R E E ' T ' -.-.-.I C 9 F U F C e e 1 1 1 1 1 3 < < 9 ` T T T T R R T R R R R T T R R T ] ` R R ' ` I -.:.-.U ^ U 9 1 H ....U U F 9 9 4 C C C Z C C Z Z C 3 < > * > 3 M M 1 * * > * > * * * * * * * * > $ 1 > M T L Q Q Q T T T T P P ",
"R R R R R R R R T T T T T T T T P T P T I m % > M M C Z M 1 < < * * * * < 3 4 4 8 9 4 4 9 4 4 9 1 8 U -.F 9 e C 9 Z U U Z 4 1 < 4 8 Z Y ^ :.t.;...-.-.I T E R T T E E J 4 > > > < 1 1 4 9 9 4 4 1 9 A U F F ^ -.I -.-.T T T T R R T T R R R E E =.E T J m 5 4 4 C m m m Z C 4 A ` P R ' R E ' L m C J K S m V V m 5 6 5 V S J Q ` T ' T =.% % * * = 0 0 q ! k.k.f s s s s s s f ( ( k.( ( ( f s s s s s s s s s d f y.l.l.u.l.k.f f f s s ! ! ! s s s s s s d q = = & & D D D & o 3 e r D r e H ^ ....;._ t t D H D 7 = 0 ~ ! r = & = , < < < - % e t D H H H H ~ ...._ t t D H ; 7 q d ( k.k.f X ~ ).(.!./.Y.I.U.U.U.U.U.I.I.I.U.I.I.I.I.I.I.I.I.I.I.I.I.I.I.I.U.I.I.I.I.I.I.I.I.I.I.I.I.I.I.I.I.I.I.I.I.I.I.I.I.R.Y.P.5.6.t.q.g e.wXxXwX3X4X;.S T P.E.S 4 & & 8 8 1 ; , > * * & o o % : :   @.GXwXwXwXwX*X4Xy o 1 4 < * * * * * * * * * * * * - = t H G G G G r 7 8 8 8 9 ; * o ^ 6.,.4.K.4.H.2.G.1.2.H.3.3.2.<.1.2.1.<.<.<.<.G.2.3.3.<.>.,.2.J J T 2.1.>.<.=.>.=.` P I I Y S Z C C C C C C m S K R ' R I I P I I R T R I I I T T T T L S S P R T R R R R R R R R R R R R R R ` ` R R R R E E R I -.-.-.-.^ 9 9 F U F e 8 4 1 1 3 1 1 3 < 5 9 ` T T T T T R T R R R R T T R R R ] E T T -.,.-...-.U U -.^ e ; H ^ ..U U F 4 1 1 9 C C Z C M C 9 9 1 > > > < 4 M 9 1 * * * * * * * * * * * * * * * Z A J -.Q Q Q Q T T P P P P ",
"R R R R R R R R T T T T T T T T T T P T P m % < C M M C M 4 4 9 * * * * < 4 4 4 9 9 4 1 4 9 4 9 < 8 I -.F 9 e Z 8 Z S Z 4 3 3 1 9 9 Z D ~ :.0.:.:.6.-.I E =.E ' T T T L C 4 3 < 1 4 1 1 4 e 9 C 9 M F U F F U I I -.-.T T T T T E E T T R R R R T Q T L C m m S m m C C Z C 4 K =.P T ' ' =.' L V m S J S S J J J J S J K K Q E ` T ' T =.$ % * * = 0 r q ! k.k.f s s s s s s f f k.y.y.k.( f s s s s s s s s s d d h l.u.u.l.y.f f f s f ! ! ! s s s s s ! s d u = = & S F D 8 & 1 1 2 Z t y t y t ..7._ y y D H G ; O q / ! q = = - ; 0 0 1 < - e Z r t t y y D } ..H y t H H ; 7 q # h k.y.f d ) 9.6.K.!.Y.I.U.U.I.I.U.U.I.I.U.U.I.I.I.I.I.I.I.I.I.I.I.I.I.I.I.I.I.I.I.I.I.I.I.I.I.I.I.I.U.U.I.I.I.I.I.I.I.Y.J.Y.I.5..._.xXxXAXwXxX3Xq.w I S E.I.P.4.Z 4 * % 8 0 1 1 1 , > > % o 8 O o .   &.HXwX=X#X4X+X%X& o * < * $ * * * * * * * * * * * = = D H G H ~ G G 8 0 r r r 0 , 9 ;.[.6.K.K.4.H.2.1.1.2.H.1.>.<.3.2.3.<.<.3.3.<.2.2.1.3.<.>.,.1.J J T >.>.=.-.=.' ` L J K A S Z C C C C C M m m P T E R T T T P P L P P T T P L T T T ` K V V P R R R R R R R R R R R R R R R R R R R R R R E E =.-.-.-.^ -.U 9 9 Z H F 9 4 1 1 1 3 1 1 2 - < m ` T T T R R R R R R R R R R T T ` E R T T 1.5.6.^ U I ^ U S e 3 H ^ ..I ^ U 1 * 1 9 M C Z C C C < 1 > * > 1 1 9 M M 1 * * * * * * * * * * * * * $ > U I I R P T Q Q T T P P P P ",
"R R R R R R R R R T T T T T R R T T L T P 4 % 5 M M 9 M M M M C * * * * < 4 4 4 C C 1 < 4 9 4 4 1 e U ^ F e Z Z 8 e 8 1 < 1 3 4 M C F H ^ :.6.:.6.6.7.I R E R E E T E E P L L S < 4 1 < 4 C Z Z C C S F A F F A F -.-.I T E E E E E T T R R R R Q L T L J S C S V m C 9 Z Z 9 Y -.I T =.R R T K C m S J J P P I R T T T T T T R E T E T =.$ % * * = 0 0 q s k.k.f s s s s s s f f y.y.y.k.( f d s s s s s s s s s f y.l.l.u.l.l.y.y.f s f ! ! ! ! ! f s ! ! ! ! ) q = O 8 8 9 9 8 3 % & y t r r y t ..7._ t y H H D 7 = q ) ! q O = = , 0 1 < < 2 r S Z t e 8 7 D _ .._ t H H ~ y 8 = # f k.l.l.z.( d = A Q.R./.U.U.U.U.U.U.U.U.U.U.I.I.I.I.I.U.I.I.I.I.I.I.I.I.I.I.I.I.I.I.I.I.U.U.I.I.I.I.U.U.I.I.I.I.I.I.I.I.Y.I.E.-.: q.vX0X5X=X5XxX_.o -.E.J.I.P.5.S 3 % & 0 8 1 1 1 1 1 < - o ; . O i @ x FXwX*XB.*X+X_.r o % * * * > * & * * * * * * * * = = 7 0 0 G ~ G t 7 8 0 0 0 0 0 N U F A L R ,.1.K.1.,.1.2.1.' [ H.G.3.[ <.3.3.<.3.<.<.<.<.<.,.1.J J K P L L L P T P J S S S Z Z 9 9 M C C M C S =.=.' T T R R T T P P T ` ' ' T T P T ' L V V T R R R R R R R R R R R R R R R R R R R R R R R E -.-.-...U U F 9 9 Z F F 9 1 1 < 1 3 1 1 2 < 5 S ` ` T T R R R R R R R R R R T T ] T T P I 7.6.6.I U ^ I 4 * e H U ^ ..I I U 4 < 4 C C C Z C C Z * > * * > 1 4 M Z C 1 * * * * * * * * * * * * * % * U I U P L T P Q T T L L L L ",
"R R R R R R R R R R T T T T R R T T L T T m % 5 M M M M M M M M * * * * < 4 4 4 Z C 1 * 1 9 4 4 9 9 F F Z Z F Z Z C 8 1 1 1 1 1 M M F F ^ :.:.;.6.6.-.I I T Q T E T E ' R ' -.L < 3 1 < 4 Z Z Z M M C C Z F F S S -.-.R E E E E E T T T R E E R =.E >.R T R J V S S C 4 C e 9 Y -.I ` -.P J J S C V J J L R P T T T R T T T T T E T E T =.% % $ * $ 0 0 q s k.k.f s s s s s s f f y.y.y.k.k.f d s s s s s s s s f f y.l.l.u.l.l.y.y.f f f ! ! ! s ! f s s ! ! ! ) = = o * % , r F 8 % % 8 D r r t D ;.:._ D y H D G 7 O q ! s q = = = = < < - < 1 e r Z Z t r t H _ .._ _ _ } D H D ; X s h l.l.x.k.d O A ).E.P.U.U.U.U.U.U.U.I.U.I.I.I.I.U.U.U.I.I.I.I.U.U.I.U.I.I.U.U.I.I.I.I.U.U.U.I.I.I.U.U.I.I.I.I.I.I.I.I.Y.P.6...y &.0X0XwX0XxXPXlXU 2.W.1.I.R.E.P 4 % $ 9 9 1 1 1 1 1 ; & o & O 8.AXwX0XbX0X3X+X$XH : o % % * < > * * & * * * * * * * * , = = = O 0 H G r 0 8 0 0 0 Z D N 1 % * 3 J 1.4.K.,.,.>.<.<.[ <.J.G.3.<.<.3.3.<.<.[ >.<.<.<.,.1.J S S S S S A K L K A S A S Z Z C 9 9 9 M M J I R R T P P T T P T L L T T T R P P P P ' L m V ` R R R R R R R R R R R R R R R R E E E E E E E E -.-.-...S e Z 9 r r Z F M 3 1 1 1 1 1 1 3 < 3 S T T T R R R T T R R R E R R T T R K I -.-.-.7.-.^ U U S 1 - S ^ ^ ..^ H Y F 3 3 C Z Z C C M 9 C $ < > * 1 4 9 C M 9 1 * * * * * * * * * * * * * $ $ F I L P L P P P P T L L L L ",
"R R R R R R R R R R T T T T R R T T P ` R m % 5 4 M M M M 9 9 9 * * * * < 4 4 4 Z C 1 * < 9 4 4 4 3 8 8 8 F U F D Z e 9 4 3 1 1 9 9 F S H ;.;.;.t.t.7.I R R T E E W T R L P T J $ 5 1 < 4 Z Z C M C C 9 M F U F S -.-.I E E T T E R T T R R R R T T ' L L =.K 5 S S C 3 4 e e U -.I -.-.J S C C V S K J P =.L T T R ' R T R R T E T E T =.% % $ * $ 1 0 q s k.k.f s s s s s s f f k.y.y.k.k.f d s s s s s s s s f f f l.l.u.l.u.l.l.f f s f s ! s s s s s s s ! ! = = = * o = Z F e & & y D t r y D ;.7...H y D D D 0 = q d s d q q = & * < 1 8 < 1 8 e r e e y H _ ....} ..H y H H 7 O s f y.u.l.l.d = G '.Q.E.R.U.I.U.U.U.I.I.U.U.I.I.I.I.U.U.U.I.I.I.U.U.U.U.U.U.U.U.I.I.I.I.U.U.I.I.I.I.U.U.I.I.I.I.I.I.I.I.J.R.E.%X+XC.5XwX0XwXw.:.0.J J.Y.T.Y.>.>.K Z $ $ 9 9 1 , , 1 < ; ; & 8 . | KXAXqXqXcX3X+X$X: o ; % % * * * * * - * * * * * * * * ; = = & O 0 H G r D r 0 0 0 Z Z ^ 9 * 9 Z -.E.5.5.,.1.-.E >.<.K.J.G.L.<.<.3.3.<.[ ' >.<.<.<.,.,.J J S S C S Y I K Y A A A S e e Z 9 4 4 4 C L ,.T ' ' ` R R ` R T P T T L T T P P K L ` L m V ` R R R R R R R R R R R R R R R R E E E R E E E E -.-.7...D 8 Z Z Z 9 Z A C 4 3 1 < 1 1 1 3 < 3 S T T T T T R T T R R R R T R R R ' P =.7.7.;.-.....I r 1 e D U ..^ ..I Z e Z 3 e Z A Z C M 4 3 4 * 1 < > 1 9 9 C 9 9 > $ * * * * * * * * * * * * * % F ^ I R L P P P L L L L L L ",
"T T R R T T T T R R T T T T T T P ` P P E m % < C 3 3 9 M 9 9 9 * * * * * < 1 9 M 9 < * 1 < < 9 3 8 8 9 F F F F F F 1 1 4 1 3 4 4 4 Z Z U ;.:.:.X.;.7.-.-.I Q E E T Q R T P T K < 5 5 4 C 4 1 C S Z 4 < M U U S F ^ U I -.P P =.R R R R R R E E T T E E E E K m m 5 4 C Z Z Z S Y S J K S V C C m J T ' ' R R E R R R R R R R R E E E =.' 6 % * * * , 0 q s k.k.f s s s s s s f f k.y.y.y.y.f s s s s s s s s s f f y.l.u.u.u.u.l.l.f f s s ! ! f s s s s s s ! ! q O = - o = Z S 8 o % r Z 8 D e D X.:.H t D H I ..; = q ! d d d / q % 1 1 < < 0 , , 1 4 Z D 8 i ..} _ } } ~ t ..D t G q # f l.l.l.d # ~ 0.5.5.E.!.W.I.U.U.Y.U.I.R.U.P.Y.I.U.I.R.I.I.I.I.I.U.I.I.I.W.W.I.I.I.I.I.I.W.Y.Y.I.Y.R.I.I.I.I.I.Y.Y.K.K.-.-.3XvXwX=X5X5XwX} o =.P.J.J.Y.I.=.1.K.S % * 9 9 9 < 1 1 ; ; 1 & O . | KX0XcXbXwX*X$X4Xe o o & % & * * % - 9 Z 9 * $ > > * * , * = = & 8 G D G ~ ~ 0 0 0 0 ; 7 N F F F F S Z 5 -.6.-.,.1.<.1.<.>.>.<.<.>.<.<.<.<.3.<.>.<.2.<.,.-.J m S J A S S C Y Y Z Z Z e < 9 4 M L R R E T T R ' P T T P K T T P R P K T T P S V J L L P T T T T R R R R E R E E R R E E R R E E E E E R -.-.-.^ D e 9 Z Z Z F A 9 4 3 1 1 1 1 1 1 < C I T T T T T T T T R R R R T T R R T I -.7.:...~ ..^ ..Z - F -.U -...^ ^ 4 1 4 C 3 C M S U A 9 3 3 1 > * $ * Z A 3 * > > > * * * * * * * * * * * * * * 9 C S L P P L L L L L L L L ",
"T R R R T T T T T R T T T T T T K T L L I m % 5 9 4 9 M M 9 M M * * * * * > < 1 Z C 1 * 1 < < 9 9 9 8 e S F F F F F 1 1 9 1 1 1 9 M A S U ;.:.:...X.;.:.-.R T E E R T ' R T -.L < 5 5 4 9 4 4 C Z Z M 3 Z F F F A U A L -.R P =.R R R R R R E E T T E E E E P S J V 4 9 Z Z Z S Z 3 4 m m m m m S J R ' ' R R E R R R R R R R R E E E =.' 6 % * * * , 0 q s k.k.f s s s s s s f f k.y.y.k.k.f s s s s s s s s s f f y.l.u.u.u.u.l.y.f f f ! s s f s ! s s s s s ! q = = = o % 9 H e o o e D r D e H ;.:...t t H _ ..; = q ! d s d ! = O & * * 1 1 , , 1 8 S D e D } } } } } H y H H H ..u # d y.l.l.f g ^ 8 4 Q.Q.R.Y.Y.U.I.Y.U.R.U.I.I.U.R.U.I.I.U.W.W.I.I.U.U.W.I.I.W.W.W.W.Y.R.Y.I.Y.I.W.W.W.I.R.U.I.Y.I.T.I.-.D H 3XwX3X0XqXvXxXH o ` Y.T.I.J.U.1.1.5.S % 3 9 9 9 1 1 1 ; 8 o ; 0 o O.KX0X8XqX=X+X+X%X; o o & & * * * * ; 8 N 9 * $ * * * * = & = = = 0 H G G ~ ~ G 0 0 0 ; 1 9 D F F F 9 = % I 6.6.5.K.4.=.>.>.>.<.<.<.<.<.<.<.3.<.>.>.<.>.<.>.K V S J A J A A L U S Z S e 3 9 4 9 L R R ' =.T T T T T ' T V K P T R L J L T K V m J T T R T T T T R R R R E R E E R R E E R R E T R R R -.I ....I D 8 9 Z Z Z F S 9 1 3 1 1 1 < 1 1 < C I T T T T T T T T T R R R R R R T P I -.6.:...~ ^ I I e & F ..U ..-.^ R 9 4 4 C 4 C M A U A 9 1 1 > * * * < Z A 1 * > > > * * * * * * * * * * * * * * * * 4 J K L L L L L L L L P ",
"T T R R T T R T T T T T T T T T P ` T T T m $ 1 3 4 9 9 4 9 M C * > > * * < < 1 Z C 1 * < < < 9 8 8 9 8 Z S S F F F C Z C 4 9 4 9 9 Z e F ......X.X.7.6.7.I I E E ` T R T T R A $ 5 1 1 4 9 M C M C M 9 Z Z Z F F F C F ,.-.R T R R R R R R E E E E E T T E E L T J 3 3 C Z Z S Z 9 4 4 C J P P K Q R ' E R T R R R E E R R R R R E E E -.6 % * * * , 0 q s k.k.f s s ! s s f f f k.y.y.k.k.f s s s s s ! ! ! s f f y.l.u.u.u.u.l.y.f f f f ! s ! ! ! ! s s s s ! d q = = & = 9 D e & % r D r r r H ..X.H t D _ ....; = q ! s s ! ! q = ; & * 8 , = * < 8 Z S e t u H ..} } H y H H H ..u # d k.l.l.y.( ) = % 6.!.E.5.5.U.W.I.Y.I.Y.I.R.U.P.Y.I.I.I.R.U.P.I.U.I.I.Y.I.R.I.I.I.I.W.R.W.I.Y.I.Y.I.I.I.I.U.I.Y.P.E.5.H O.xXxXwXqX=X&X4X:.U 1.2.J.<.Y.W.5.5.5.C o < 9 9 9 1 0 8 ; 8 r 8 y   | KXdX8XxX3X+X+Xt.o o - % & * * * * ; 1 9 1 > * > * * * * * * = = 1 0 0 G ~ ~ G Z Z 0 7 ; 0 G G Z Z 9 0 1 U -.-.-.-.=.=.' =.>.>.>.<.1.<.3.<.<.<.[ >.>.[ >.<.R J J J J Y A A K U S C e 4 9 9 1 4 L R R E =.T R ' ' ' ' T S P ` T L J S J K K S S K T T T T T T T R R R R E R E E R R E E E E E T R R -.-.F ^ ..I Z 8 9 Z Z Z A S 9 1 1 < 1 1 1 1 1 < C I T T T T T T T T T T R R R R T R ` -.7.:.;.....^ ..^ e & D -.^ ..^ F U 9 4 4 C M C M A L A 9 1 < $ $ > 1 4 S S 3 * * > > * * * * * * * * * * * * 1 * $ % 1 J K L L L L L L L P P ",
"T T T T T T R R T T T T T T T T P T P T I 4 % * < 4 1 < 1 9 M M * * > < < < < 1 Z 9 < * * < < 3 4 9 3 3 8 9 C A F U F F S 4 9 8 9 9 C 4 Z U H H :.;.7.6.-.I P =.T ` T T T T R A $ 5 3 1 3 M C C 3 4 9 M M 9 9 F U U Z U ,.-.R P T R R R R R E E E E E T T E =.R =.J 5 3 C S Z Z Z C m 4 S P -.E T T R R R R R R E E E E E E E E R ` E E -.6 % * * * > 7 q d k.k.f f s ! s s f f f k.y.y.k.k.f f s s s s ! ! ! s f f y.l.u.u.u.u.l.l.y.f f s s s s s ! ! s s s s ! ! q = = & = 0 8 e 2 2 D F Z r r D H H D e D ......; = q ! s s ! ! d u 0 & = 1 * * = ; 8 Z S r e y H ......} t ^ D t ~ u # d y.l.l.l.k.) q 0 -.K.E.I.5.J.U.U.5.4.4.P.U.Y.1.5.U.R.P.5.4.J.R.U.5.2.J.W.R.H.2.Y.W.Y.J.J.J.Y.I.Y.Y.2.<.4.R.W.J.5.E.7.y } xXAXwX0X@X  H 7.5.5.2.Y.G.J.I.4.5.5.S o * 9 N 9 0 0 1 ; 8 ; o i + $.VXbX0XxXUX+X%Xt.& % * % % & & & * - * * , 1 9 3 * * * * * * & % = = % G G ~ ~ H H G G G r 0 8 0 D G D H 9 < 1 $ * K ,.=.>.>.' >.>.>.>.1.<.<.<.>.<.<.[ ' <.>.' E T L J S S Y Y Z 9 9 1 9 9 1 4 L R T T P P T ' =.' L J m K T P J m 5 m 5 J P T T T T T T T T T R R R R E R E E R R E R E E R R R -.-.-.F I ..^ S 9 e A S Z A Z 4 1 1 < 1 1 1 1 1 < M T T T T T T T T T T T R R T T T I 1.6.7.........^ -.I e * D ;...-.F 9 Z 3 3 1 C Z C C A U F 9 1 < $ $ 1 Z Z A S 4 * * > > * * * * * * * * * * * * ; * * $ 4 Y K L L L L L L L P P ",
"T T T T T R R R T T T T T T T T T P P ' ` 4 $ 1 1 4 * % < 9 M 9 * * * > * * * < Z 9 < * > 1 1 9 4 4 1 1 9 9 9 S Z F U U Z < 3 4 9 9 C 4 Z U H H :.;.;.:.-.I I =.Q ` T T ' ' R Y $ 1 4 < 1 M S Z < 1 9 C 9 1 9 F U U S U -.-.R R T T T T R R E E E E E E T T E R =.J < 5 Z A Z Z C Z C 4 S P T P R T T T T E E E E E E E E E E E R ` R E -.> % * * $ * 7 # d k.k.f s s ! s s f f f k.u.y.k.k.f s f s s s ! s s s f f y.l.u.u.u.u.u.l.l.y.f f s s s s s ! s s s s s ! q = & & = , * e t D D D Z S r t r t D r D I ....; = q ! s s s s s ! q O O = ; - < 1 e Z D A e e H ..} } ..H H H H ..G # d h l.l.l.l.( # q [.6.P.R.5.3.J.U.Y.2.4.Y.I.J.<.5.U.R.J.3.3.J.U.I.3.1.J.W.I.2.1.J.W.Y.2.<.H.I.W.Y.H.J.H.Y.I.I.5.7.7.|.t.e.wXvX0XcX$X  Y 5.I.J.J.W.G.2.J.3.4.R.I % * 9 9 9 9 8 ; , 1 = : 3X5X5XAXcXwXxX3X} u t o o o * % % & & * * % $ * 9 N 9 * * * * * * * = & & & H H ~ ^ ~ ~ G G ~ 0 = = 0 H ~ F G ; o % o % I 6.1.1.,.>.1.2.2.1.<.>.>.<.>.<.<.[ [ >.>.>.>.' P J S S J Y S C 9 4 4 4 1 C P R P P ' R R ' =.' K S m K E R K S 5 5 5 S T ' ' R R R T T T R R R R R E E R R R R R R E ' E ` -.-.-.-.F I ^ U Z 9 C S S S A Z 4 < 1 1 1 1 1 3 < < M T T T T T T T T T T R T T Q T R ^ 6.6.7.~ H ..-.U U F 8 - D ....-.F 1 9 3 4 4 S F Z Z F L A 9 3 1 $ $ 3 S Z Z C 3 * * * * * * * * * * * * * * * * * * - $ 4 J J L L L L L L L L P ",
"T T T T T T R R T T T T T T T T T P L K U C 1 e 9 9 * % < 9 9 9 < < < 1 1 * * < 9 9 < * < 9 9 9 9 8 3 3 9 3 8 F Z F U U C - 4 8 4 3 9 4 e U U U ..^ ;.6.7.^ R -.T ' T ` ' K A Z < 1 4 < < M S Z 1 3 9 Z Z 3 9 F F U A U ^ I R -.T T T T R R E E E R E E T T E T =.S < 3 Z Z Z Z 9 Z Z Z K R E T T T T T T R E E E E E E E E E E R ` R E -.> % * * * * ; # d k.k.f s s ! s s f f f y.u.y.l.k.f f f s s s ! s ! s f f y.l.u.u.u.u.u.l.l.y.f f f f s s s s s s s s s ! q = = = & * % 8 D D e 3 e F D D r t D t t H ....; = q ! s s s s s s q O = = * < 1 1 8 8 r F e e H ~ H ......H ~ ~ ^ u = d f y.l.l.l.k.# = E.Q.P.5.Y.J.Y.I.H.J.J.Y.P.P.Y.Y.Y.Y.J.J.P.Y.P.Y.5.J.J.Y.Y.H.H.K.P.J.J.J.Y.P.5.J.J.U././.Y.J.5.7.U xXAXxXwXwXwXxX$Xo L 2.4.>.<.J.<.2.H.<.H.Q.` % % r 9 9 9 9 ; , 8 o . vXJXcXqXcXwXxXUXw . o & Y I 4 $ % & & * * * * * 9 N 1 * * < * * * * = = & & 9 9 Z G ~ G G G G r 0 0 7 8 r 8 8 r 0 r 0 Z I F Y K K T 4.H.2.4.>.' ' >.>.>.<.[ >.[ ' ' >.' T J S A J J S C 9 9 1 4 1 C I R P T =.E L K P L J S V J K J J J L L L L P T P T ` T T T T R R R R R E R R R R R R E T ' -.-.-.-.-.-.I I U A C 9 M Z S S S C 1 < 1 1 1 1 1 1 < > m T T T T T T T T T T R T T P T R -.6.:.X.H U ....D Z C C e F ..^ -.F < M 3 4 4 S A Z Z A F Z 4 3 1 $ $ 3 S C 3 1 < * * * * * * * * * * * * * * * * - ; - % 1 J K P L L L L L L L L ",
"R R R R T T T T T T T T T T T T L P S 6 5 4 4 4 e C < % ; 1 ; 1 N 9 9 N 9 , * , 1 , * * 1 9 Z 9 4 9 9 8 8 1 8 F U U F F 9 < 9 8 3 2 9 1 9 U U H H H -.6.7.-.-.R R ' T ` P C 5 < 1 1 3 1 < 9 S S 1 3 9 Z Z 9 M F F F S F U F -.,.T T T T R R E E E E E E T T E T =.S 5 3 C Z Z A 3 C Z S L T T T T T R R R T R E E E E E E E E ] T ` E E -.> % * * $ * ; # d k.k.f s s ! s s f f f y.u.y.l.k.f f f s s s ! ! s s f f y.l.u.u.u.u.u.l.l.y.f f f f s s s s f s s s s ! q = = = = ; % 2 D D 2 & 1 S D D t D D t t H ....; = q ! ! s s s s s d q q = % - < < - * 1 Z 4 e u u H ....;.H ~ H ~ r q d s f y.y.l.( q , -.E.1.1.Y.Y.I.I.2.H.Y.P.Y.P.R.I.4.J.J.I.W.P.5.J.I.W.J.G.J.K.I.I.G.3.K.I.R.J.<.J.W.Y.U.I.Y.P.P.6...3XxXxX#X#X*X*Xt.C >.Y.J.2.<.1.<.3.J.H.H.R.P o o 8 9 9 9 9 1 1 9 & . vXbXwXwX0X*X+X$X: + O e 6.6.Z * % * & & * * * * 9 N 1 * * < * * * * = = = = = = ; G ~ G G ~ ~ ~ ~ G = o o o = u G G G t r o $ $ > J ,.1.>.,.>.' ` >.>.>.<.[ [ [ E ' [ ' T L J A J A Z 9 4 4 1 1 1 C I I P R R L C 5 m m m C m m 5 5 m L =.-.=.` T P L T R P T T T R R R R R E E R R R R E E T ' =.-.-.-.-.-...I A C 9 M C S S Z Z C 5 < 3 1 1 1 4 4 < 6 m T T T T T T T T T T R T T T E -.6.;.X...^ U -...Z 4 e U I ^ ..^ ;.G < M 1 3 3 Z Z Z C Z Z 9 1 1 < * $ 3 S 9 * * > > > * > * * * * * * * * * * * * 1 3 - % 4 K L T L L L L L L L L ",
"T R R R T T T T T T T T T T T T ' =.S % % C A C e Z 1 * * * % = Z N N Z 9 , * * , * $ * < 9 Z 9 1 3 3 9 9 1 3 S I F Z Z 1 - 8 4 8 8 9 3 9 U U H D H X.:.-.-.-.R T ' T ' I M 5 5 3 1 3 3 < 4 S Z 1 3 9 C Z M C F U U F F F F -.7.R T R T R E E E ' T T E T R E T =.J 5 4 C C Z A Z F Y K I T P T T T E E T T T R E E E E E E E ] T ` R E -.> % * * $ * ; = d k.k.f s s ! s s f f f y.u.y.l.k.f f f s s ! s s s s f f y.l.u.u.u.u.u.u.l.y.f f f s s s s s s s s s s ! q = = = = * * 8 F H 8 & - S Z D t r D r D ......; O q ! ! s s s d s s ! ! = & - 1 - * & , Z Z r r 7 u ....O.H u u ~ ~ G / d s j u.x.f d q 0 Z K 3.P.3.4.W.I.<.J.I.J.J.I.P.1.Y.J.I.W.Y.4.J.R.W.H.1.H.K.T.Y.3.I.I.J.I.K.1.2.2.P.J.Y.I.U.6...H vXAXqXC.V.B.t.H 7.Y.H.3.G.3.2.J.>.H.H.G.K.K o o 8 9 9 9 9 1 1 r o X AXbXqXqXxX@Xt.|.+ : o 8 6.7.F * % * * % * * $ $ 9 Z 3 * $ * * * * * = = = , $ = 1 G ~ ~ ~ / ~ G G G ; = = & = t r G G t t & 1 1 9 R E.[.,.2.,.' ' >.>.<.>.[ [ ' [ >.>.' T L J K K J S M 9 9 1 1 1 C L I I -.-.E J m C S J K L J S S J T E L P P ` ` T R ' R T R R R R R R R E E E R R R E E T ` -.-.-.-.-...-.I S 9 9 C S S S Z Z C 1 < 3 1 1 1 4 3 < 6 m T T T T T T T T T T T T T T -.;.6.......^ U ..^ Z - 8 ^ ;.-.^ ~ -.U 1 C 3 3 4 A Z Z C C M 1 < < > 1 * 3 S 4 $ $ * > * > * * * * * * * * * * * * * 1 1 * % 4 L K K L L L L L L L L ",
"T T T T T T T T ` T Q R R P L L Y A M 4 3 4 9 C C C 1 * * * * * Z 9 9 Z 9 < * > * * * * > 9 Z 9 3 8 3 4 8 - 1 F F U F C 9 9 3 9 8 3 9 3 e I U F D H -.;.-.7.:.-.P =.P =.I 5 5 3 1 3 1 < 1 9 C Z M M 3 < 4 4 1 9 4 9 F F 9 e I -.-.-.R T E E T R E R R R R R R R =.J < 5 4 4 9 S F F U I T P P T T T R R R R R R R R R R E R E E E ' E E ' > % * $ $ > , = d k.k.f s s ! d d f f y.l.u.u.l.l.f f f f ! ! s s s s f f y.l.u.u.u.u.l.y.y.y.y.f f f s s s f s ! ! ! s s s d q q = = = 9 A S 9 * < D e D D r t r D ^ ..H r 0 0 q q d s s s s s s q q = ; ; - * * 1 Z D t r r t ..X.......D r ^ 9.X.q q d k.u.y.y.( d = F E.R.Y.1.I.P.1.2.H.J.Y.Y.I.U.2.H.I.I.J.Y.I.1.P.J.5.K.I.P.2.<.W.W.<.2.Q.J.1.5.R.R.P.5.P 0.:.} 0XSXqX#X3X..: 6.Y.1.<.H.K.K.I.T.K.3.>.<.>.' P P 1 1 4 Z 1 9 * &   @ 0XFX0X0XxX$X_.%Xy o - 4 1.6.S % $ $ % - % $ $ * 4 Z 1 * * * % % & * * * = , * = 7 G G G / ~ ~ G G u u G 0 u 0 = = & - r D G G G G ^ ^ U L A L ' R =.>.[ <.>.[ [ [ ' =.=.=.' E P J Y S C Z e 3 8 4 9 S Y S 4 m S C J =.-.` ' =.=.=.` ' ` R R R T T T T T R R R E E E E R R R E E E E E E E E R -.-.-.7.-.-.I A A Z C C Z Z C A Z 9 9 9 1 1 1 * 9 9 * M m J P T T T T T T T T Q T T I I -.6.:.^ ....^ U ..^ S 8 r ^ ;.-...^ ..F 9 3 9 4 9 Z A Z Z C 9 4 * * 1 > < 4 Z C > % * * * * * * * * * * * * * * * * 1 8 8 < * < I P L L L L L L L L L ",
"T T T T T T T T T T T T T T J C 4 3 3 1 4 4 9 9 C C 1 * * * * * C 9 9 Z 9 < * > * * * * < C Z 4 1 3 1 1 8 1 3 F F U F Z 8 1 - 1 2 3 9 3 e U U H F H ^ ....7.7.^ I =.P -.I 5 5 3 1 3 1 1 1 9 C Z M Z 3 < 4 3 1 9 9 9 F U e C I -.-.-.-.R E E E E E R R T T T R R =.S 5 5 4 4 e D F F U I R T P T T T R R R R R R R R R R R R ` E E ' R R ' 6 % * = $ * ; = d k.l.f s s ! s f ( h y.l.u.u.l.l.f f f f ! ! s s s s f f y.l.u.u.u.u.u.u.u.y.y.h f f s s s s ! ! ! ! ! ! ! ! d q = = * 9 F S 9 % , Z 8 t r r t e t ^ ....H H u = = q s s s s s s d q = = & & * * 1 r Z r t Z D ..;.X.o...u t ^ :...8 = d y.u.u.u.l.s O 0 5.P.K.2.1.>.1.2.5.5.5.J.I.W.1.2.J.H.<.H.I.H.J.1.J.J.4.H.Y.4.Y.I.2.2.Y.J.5.5.Y.U.5.P S 3XPXAXAXcXwX*X3X_ % 1.K.G.3.J.G.<.3.3.2.<.<.1.2.2.2.4.$ $ < 9 4 1 % ~ i p wXVX0XxXvX$X_.%XD & * 4 1.7.I J R Z % $ % - * * 9 C 1 & * * * * - ; ; * = = 1 * % , 0 7 G ~ ~ G ~ ~ G ~ G G r = O o & 0 G G G G G 0 = % % % 5 ,.5.>.=.>.>.' ' [ ' ' =.=.=.' =.T K Y S C Z C < 1 4 e S S C 5 6 5 5 C R =.' =.' ' ' ' ` R R R R R R T T T R R E E E E E E R R E E E E E E E R I ` I -.7.-...I Z Z C e e Z Z Z Z C 4 4 4 1 1 4 1 1 1 > L P R ' T T T T T T T T T T P I I ..6.:.^ ....^ ^ ^ U 8 8 9 U ....^ U -.F 9 1 3 3 9 Z Z Z 9 4 4 < * * < 9 9 9 Z C < * * * * * * * * * * * * * * * * * 1 8 8 < * < T P L L L L L L L L L ",
"T T T T T T T T Q R T T T T A < < 1 3 4 9 9 9 9 C C 1 * * * * * 9 9 9 Z 9 < * * * * * * < Z Z 4 < 3 1 1 9 3 4 S F F F Z 9 - * - - 1 8 3 e U U U U H I ^ ..;.7.^ I =.K I L 4 3 3 3 3 1 1 1 9 e C C Z 3 < 3 3 1 9 Z C U I 9 Z ^ -.-.-.-.R E R R E E R R R T T R R =.J 5 5 3 3 e D D F U I I T T T T T R R R R R R R R R R R R ` E E ' E R ' 6 % * = * * ; = d k.l.f d s ! s f k.k.y.l.u.y.l.l.f f f s ! ! s s s s f f f l.u.u.u.u.u.u.l.l.l.y.f f s s s s ! ! ! ! ! ! ! ! d q = , * 9 F Z 1 % $ 9 2 r r r t e t I H ......H O O q ! s s s s s d q q 7 = % - 1 0 e e r D D D I ....O...u t ~ ;...7 O d h u.u.u.k.f O = ,.5.J.J.2.1.W.J.2.1.H.J.2.1.H.H.J.2.>.2.I.I.J.1.J.H.=.2.T.J.3.J.Y.Y.4.2.I.W.] K.I.` e 3XPXwXwX=X3X#X4X:.S >.J.G.J.K.G.>.>.<.G.H.G.1.<.<.1.,.% o - 3 e 1 & {.PXwXDXbXwX5XxXt.D ..2 & % 4 6.-.,.,.1.S % % % - * * 9 9 1 * * * ; ; 1 8 1 , = * % * = = 1 0 G ~ ~ u ~ ~ G ~ ~ u G ; = & & 8 t G H H G 0 0 0 1 * 4 1.5.-.>.=.=.>.' ' ' ' ' ' ' ' =.' K Y S C S Z 1 1 4 C C 4 4 3 < 5 5 S T =.' ' R R R R R R R R R R R R T T R R E E E E E E R R E E E R E E E R I ` I -.7...^ I 3 9 e e e C Z Z C 4 1 1 1 1 1 4 0 1 > < R ' E R T T T T T T T T T T T ` ..-.6.:.~ ^ ^ H H U S 1 1 1 H ....H r D Z 9 1 1 1 9 Z Z Z 9 < < < * $ * Z Z C M 9 < * > * * * * * * * * * * * * * * * 1 8 8 - * < I P L L L L L L L L L ",
"T T T T R T T T T R T T T I A 5 3 4 9 M C C 9 9 9 9 1 * * * * * C 9 9 Z 9 < * * * < * $ < Z A 4 1 4 3 1 4 4 8 C C S S Z 9 - * < - ; 9 3 e F F U U U ^ ....-.7.-.R =.J J J 4 3 1 1 3 3 1 1 4 8 e Z Z 3 < 3 3 1 9 Z C U U 3 C -.-.^ -.-.R E T R ` R R T T T T R R ' J 5 5 3 3 e D D F U P I T T E T T R R R R R R R R R R R R ` E E ' E R ' 6 % * = * * , = d k.k.f s s s s f k.k.u.l.u.u.l.l.y.f f f ! ! s s s s f f h l.u.u.u.u.u.u.u.u.l.y.f s s s s s ! ! ! ! s s ! ! d q = ; ; 9 S S 1 % % 9 2 r r t D e t I H H ~ ..G O O q ! ! s s ! ! ! d d q = % ; 2 1 0 8 r D D D D H H o...u t ~ o.^ 7 = d ( y.u.u.l.f # O -.2.1.4.=.K.H.2.1.5.Y.I.J.1.Y.Y.Y.H.1.H.Y.P.K.5.J.1.=.2.I.J.[ >.2.J.<.>.5.Y.K.G.>.U a 3XLXAX&X*X*X} ..0.5.J.2.3.G.J.G.<.3.G.<.G.2.1.=.>.<.>.Z S Z < e 2 o $XKXcXbXdXwX=X5XO.. & & - % 4 6.-.=.-.,.C % $ $ $ * * 9 9 1 * - - ; 1 8 9 9 < = * 1 U F 1 , 7 0 H ~ u G ~ G G G 0 u 0 r r 7 ; 8 8 8 0 0 D G ^ U F Y Y S I ,.' T >.' ' ' ' ' ' ' ' =.' K K A Z A Z Z 8 9 e 3 5 4 S S A J K E ' E E E R E E R R R R R R R R R T R R E E E E E E R R E E E R E E E R ` -...-.;.^ U U 1 4 C C C Z Z C 9 3 < 1 1 1 1 1 1 3 3 1 P T T Q T T T T T T T T P T ' 1.7.7.6.:.~ ^ H r 9 r e e 8 9 H ....D - 1 9 4 1 1 3 M Z Z A 9 < < < * * < Z Z 9 1 < * $ * * * * * * * * * * * * * * * * 1 8 9 < * < I P L L L L L L L L L ",
"T T T T T T T T T T T T R I A 9 1 3 9 C C 9 4 1 < 1 < * * * * * M 9 M M 9 < * * * * * % * C A 4 < 1 1 1 3 3 3 9 8 Z Z Z 9 * * < * ; 8 3 9 Z Z F ^ ^ I U ^ ;.;.-.-.-.J S A 4 3 3 1 1 1 1 1 3 8 8 Z Z 4 < 1 1 1 9 Z C U U 4 C ^ ^ ^ -.,.R T T R R R R T T R R R R ' J m 4 4 3 9 A S F L P T E E E T T R R R R R R R R R R R R ` E E ' R R ' 6 % * = * * ; = d k.k.f s s s d f k.y.u.l.u.u.l.l.y.f f f f ! s s s s f f f l.u.u.u.u.u.u.u.y.l.y.f s s s ! s s ! s ! ! s ! ! d q q = , 9 Z S 4 % = 8 2 r t t D r t I ..^ H ..G O O q ! ! ! ! ! ! ! ! ! q = % - ; = & 3 r S Z r r D D ....u t H o.^ = O d ( y.u.y.u.f # = 6.R.5.2.E J.2.J.I.I.J.2.2.2.J.J.Y.J.H.H.H.1.P.E.J.1.2.J.1.>.2.<.<.2.2.5.5.1.K.P U t.&.*XcXvX*X3X3X2 - 5.P.H.<.>.<.3.<.<.3.3.[ 3.H.2.<.<.1.1.1.6.I $ 1 ;   v.cXqXbXVXqX3X5XO.o ; 8 8 * C 6.,.-.-.,.A $ * * * * * 8 9 9 1 0 8 1 8 8 9 8 * $ % U 6.-., o = 0 ~ G G G ~ G G G r u G ~ ~ 8 & = * O = 0 U H F H ^ H % % ` 5.=.' =.>.' ' ' ' ' ' =.=.' L K K S A A F C e C 1 < m A T R T T ' E W T E E E E ` R ` ` R R R R R R R R R R R R R R R R E E E R R R E R -.-...-.-.U F F 4 9 Z S Z Z C 9 9 1 1 1 1 1 < < 1 3 3 3 R E R R T T T T T T T T P P ` 6.6.:.6.;.^ ^ F 1 < 1 9 F ^ U U ^ ^ D 1 9 1 3 3 3 M Z Z Z A 9 < < < < * < Z Z 1 * * * * * * * * * * * * * * * * * * * * 1 9 9 < * < I P L L L Q Q L L L L ",
"T T T T T T T T Q T T I L Y S C < 3 9 C C 9 1 * * < * $ * - * * 9 9 9 9 1 * * * * $ $ $ * 9 Z 9 - < 1 3 1 1 3 9 9 Z Z C 8 * % - * ; 8 4 9 e 8 F -...F e H ;.:.-.-.,.A m S 4 3 1 1 1 1 1 1 2 2 2 Z Z 4 < 1 1 1 9 Z Z U U Z Z F S ^ -.-.R T T T R R R T R R R R R =.J m m m 3 4 S Z A L P T E E T T T R R R R R R R R R R R R ` E E ' E R ' 6 % * * * * , = d k.k.f s s s d f k.l.u.u.u.u.u.l.y.y.( f f ! s s s s f f f l.u.u.u.u.u.u.u.y.l.y.f s s s ! ! ! ! s s s ! ! ! d q q = * 0 Z S 9 % % 9 8 r t t D r t ^ ....H ..G O O q ! ! s ! ! ! ! ! ! q = & * - = = 1 e Z Z D r D H ....i i H ..~ ; . q h y.u.u.u.f # q ;.E.4.J.=.2.,.2.J.J.5.5.J.I.2.2.5.H.J.J.2.,.' ,.>.2.R.Q.J.2.4.I.I.5.J.5.1.1.< o } wXxXbXbXcX*X*XUXD C 4.1.K.H.<.<.<.<.<.<.<.<.G.J.J.2.1.<.<.1.J.P % $ ;   r.AXqXbXqX=XB.$X~ & 8 8 1 * Z 6.1.=.1.,.S % % * < = * 9 9 9 9 9 9 8 8 9 9 0 * $ % U -.I < % , 8 H 0 u G G G u ~ ~ G G ~ ~ 8 o & & = = 0 U H G H ^ U 2 1 I -.R =.=.=.>.' ' ' ' =.=.=.=.L K K A A A F 9 4 C 3 3 S A T T T E E E E W E E E ` ` ` E ] R R R R R R R R R R R R R R R R E R E E R R E R -.-...-.-.S 8 e 9 C Z Z Z Z C 9 9 4 1 1 1 1 < 1 9 3 1 < E ' E T T T T T T T T T I P I 6.6.7.:.;.U ^ F 9 3 1 9 I -.^ ^ U I F 8 e 1 1 1 9 Z Z Z Z Z 4 < * < * * < Z Z 1 * * * * * * * * * * * * * * * * * * * * 1 9 9 < * < R T P P L Q Q L L L L ",
"W W T T T T T T P R I A 4 9 M C 4 4 4 4 4 1 < * $ * * * * - * * 1 < < < * * * * * $ * < 1 9 C 9 9 3 8 9 3 - 1 8 C Z C e 8 * % * * < 8 8 C 9 3 F -...S ; Z ;.:...R ,.A 5 M 3 3 3 1 1 1 1 ; 2 1 1 Z Z 9 < 1 1 1 9 Z Z Z F F U A 3 U -.-.I I T T T R R R R R R R T =.A 3 4 9 4 4 C e S Y L I E E T T T R R R R R R R R R R R R ` E E E R R ' 6 % * * * * , = d k.l.f s s s d f k.l.y.u.u.u.u.u.u.l.k.f s f s s s s f f y.l.u.u.u.u.u.u.u.y.l.k.f s s s ! ! ! ! s s s s ! s d q q = = , 9 Z 3 % % 9 9 t t t t e t ^ ^ ^ ~ ..H = = q ! ! ! ! ! ! ! ! ! q = O - ; = = 1 C Z S S D t H o.} H H H H H t 7 q s f y.u.l.f # q 0 J J J.4.>.P.H.1.,.1.4.4.2.1.1.2.2.H.J.H.4.2.H.4.H.J.4.<.>.>.Y.K.1.2.P S 6.xX3X3XAX0X0X0X0X*X4X3X8 9 P.4.W.J.G.3.3.<.<.<.<.>.<.3.G.2.1.3.3.>.1.J % % : . b.HXcXbXcX=Xr.+Xt o 8 1 - 1 C U L P ,.,.J 3 4 4 * = = 8 9 8 9 9 8 9 8 9 9 0 < * > S M S F U F * & - r 0 r u u ~ ^ / G r G 0 ; 8 ; 0 1 0 9 9 9 F ^ H H D 2 3 C E =.=.=.=.=.' ' =.=.' =.P U U A S S A 4 3 4 3 C K L Q Q T W W E E E E E R ` ` E E E R R R R R R R R R R R R R R E E R R R R R R R T -.-.^ -.-.Z 3 9 Z Z e 9 C Z C 9 C 4 1 1 1 1 1 9 N 9 , > R ' R L T T T T T T T P I U I 6.6.;.:.-.U ^ F 9 9 3 4 U ^ ^ I F U F 1 1 1 1 1 9 S Z M Z C 1 * * * * * < Z Z 3 * * > < * * * * * * * * * * * * * * * * 1 9 9 > * < R T P L L Q Q Q Q P L ",
"W W T T T T T T T -.L < % * 9 M Z 9 1 * $ $ * * $ < * * - - $ % * * * * $ $ * * * * 1 9 9 9 Z Z S Z Z S 8 * - 8 C e 9 e 8 - % - $ < 9 8 C 9 3 F ..-.H 1 r -.:.-.-.,.A 5 M < 3 4 1 1 3 1 1 2 2 1 Z Z 9 < 1 1 1 9 F Z 9 C U I A 1 U ..-.I I R T P T T R R T T T T -.A 3 4 e 4 4 e 4 S Y L I ' ` I T T R R R R R R R R R R R R ` E E ' R R ' 6 % * * * * - O d k.l.f d s s d f k.u.y.u.u.y.u.u.l.l.k.f f s s s s s f f y.l.u.u.u.u.u.u.u.u.l.y.f s s s s ! ! s s s s s ! ! s ! ! q O = 1 e 3 o % 8 9 Z t t t e t ^ ^ ..^ ..G O = q ) ! ! ! ! ! ! ! ! q = O = - = , 1 C Z S A Z t D o.~ H ..D y H H o.~ d # f y.l.h f s = o 6 K.!.H.J.2.,.<.,.1.1.1.1.1.1.<.,.1.4.J.H.2.2.4.>.>.2.2.1.1.' >.P.J $ 7.PXGX0XAXwXqXqXdX#X3XzX& < R.>.[ 2.3.3.3.<.<.3.<.3.<.<.2.2.3.<.<.2.4.K $ % o   e.SX8X0XxX3X%X2X:.& r Z 9 9 4 $ % S -.4.,.7.6.U % % = 8 9 0 8 8 8 0 0 8 8 9 0 9 9 > o > -.E.1.1 o $ Z 9 0 u y ~ o.o.~ 0 u G u G 0 Z Z 9 * o o 9 U e ..U - o 4 R ,.-.=.=.=.=.' =.=.=.=.P P P S Z S Y 4 5 5 5 S R ' Q W E E T T E E R R R R E E E R R T R R R R R R R R R R R R E E R R R R R R R I 7.7...-.-.Z 1 M A Z 4 3 9 Z Z C Z 9 < < < 1 9 M N 9 3 5 R =.' R T T T T T T T P I U ..6.6.;.7...U ^ Z 1 M 3 3 U -...H r S S 1 3 1 1 1 M S Z 9 Z C 1 < < < * * < Z Z 9 * * < > * * * * * * * * * * * * * * * * 1 9 9 > * < R I P L L Q Q Q Q P L ",
"Q W W T T Q L T R I I M $ 3 9 9 9 9 1 > * * * * * * * * * * * * * * * * > < > * < 1 4 9 9 C C C Z 9 C Z 8 * < Z 8 e S e Z % % - * < 9 9 9 C 9 F -.-.Z % Z 7.6.-.-.-.C 3 M , 1 3 4 1 1 < ; ; 1 3 Z Z 9 1 1 1 1 9 F Z C Z F U A 3 F ..I -.-.I ' T R ' R T R R T T -.A 3 4 e 4 4 e 4 Z A I R I T R T T T T R R R R R R R R R R ` E E E T T ' 6 % * = & * - O d k.l.f d s s s f y.u.u.u.u.u.u.u.l.l.k.f s ! s s s s f f y.l.u.u.u.u.u.u.u.u.l.y.f f s s ! ! s ! s s s s s ! s ! ! = = = 8 8 * % & 8 9 r G Z r r D ^ H H ~ ..H & O 0 ) ! ! ! s ! ! s ! q q q = O * 1 < M Z Z F Z t H ..} H } H y t ....~ q # f y.u.y.f s q % M 5.J.!.,.J.1.<.J.P.2.,.1.2.K.K.1.,.4.4.I.2.2.H.2.1.2.1.,.1.>.=.K.' % :.vXqXcXxXAXcXbXbX=X3X4XD - 1.>.<.1.3.3.3.<.<.<.<.<.<.<.<.1.1.3.<.>.P.L o o t.g C.DXwX*X3X4X: H e 8 7 8 9 9 9 1 % A 1.,.-.,.6.C % * * 1 9 8 0 9 9 0 0 0 0 9 9 9 9 * $ * -.,.I 3 $ > < ; G G 7 / 9.^ ~ G u G ~ G 8 9 0 % 9 U Z 1 1 D ^ H 2 & C -.,.I ,.' T =.=.=.=.-.` L L U A A Z A 4 3 3 5 J E P L R R T T T R ' ` L R =.>.L ' P R ` ` R T R R R R R R R R R E E T ' E T T R R ..-.-.^ ^ ^ Z 1 9 F Z 9 4 9 9 C 9 9 1 > 1 1 1 9 Z Z 9 < 4 L E T ' P R T T ' ' T L -.-.-.7.:.;.-.;.Z 3 9 Z S 4 < U ....F e F F 1 * 3 < < 9 S M 1 1 < * 9 1 4 * $ < Z Z < % * * * * * * * * * * * * * * * * * * * * < 1 1 > 4 J L J P P L L L L L L ",
"W T Q T T Q T R C > > * * 9 Z M C M 4 > * * * * * * * * * * * * * * * * * > * * < 1 4 9 9 C C C Z e Z Z 8 * < C 9 9 S C Z % % - * < 9 9 9 C 9 F -.-.Z % r :.6.-.-.,.S 9 M 1 3 9 1 1 1 < ; ; 1 3 9 M 9 1 1 1 1 9 F Z 9 9 C Z C 1 F -.I ..-.I -.P T R R T R R T R =.A 3 4 e 4 2 2 8 Z Y U T =.' E T T R R R R R R R R R R R R ` E E E R R ' 6 % * = & * * O d k.l.f d s s d f y.u.u.u.u.u.u.u.l.l.k.f s ! s s s s f f y.l.u.u.u.u.u.u.u.u.u.y.f f f s ! ! s ! s s f s s ! s ! ! q = % , ; 1 e 8 8 ; 8 D Z r t t ~ H H ^ ..D = O 0 ) s s s s s ! s ) ! d B 0 % , 0 3 M 9 9 Z t r D o...H } H y t .._ ~ q # f y.u.u.f ( d O N K.K.P.,.J.4.1.K.P.4.1.4.4.K.J.1.,.1.,.J.2.2.4.2.H.H.,.=.>.5.1.5.T % :.AXcX3X&.O.B.=X=X3X=XxX_.Z 7.1.Y.3.<.3.3.<.<.<.<.<.<.<.<.1.1.1.1.[ 2.K o w PXGXbXcX3X#X$X{.. ; e 8 8 8 9 9 9 1 % C ,.,.,.1.6.C % % % $ * < 0 0 0 8 0 9 0 8 9 9 9 1 * * ^ -.-.R -.I 1 o 1 t u ~ o.^ ~ ~ u G ~ G 0 , , = U 6.-.F < r ; ; r U I Z 3 U ,.,.=.>.E ' ' -.=.P P U A A S A 4 4 3 5 J E T P R R T R R T R T ` =.K I Y ` -.I ` ' ` R E E R R R R R R R E R T ' ' R -.=.-.-.-.-.I F F 9 < 9 A Z 9 4 9 9 9 9 9 1 < 1 1 < 3 Z S C 1 1 C S S L R R T P T P L U -.;.-.-.;...^ ^ 9 1 M F F 4 > F ^ ..F e F Z 1 * 1 < < 9 S Z 1 , 1 < Z 9 9 * * 1 S S 3 * > * $ * * * * * * * * * * * * * * * * * > < * $ > 3 5 > T T T P Q Q L K ",
"W W T E E R E -.C % % * 1 9 M Z 9 9 3 > * * * * * * * * * * * * * * * * * > * * 4 4 9 9 9 C C Z Z e Z Z 8 * - 8 1 9 S Z Z % % * * < 9 9 M C 9 F ^ -.Z % Z :.6.7.-.,.A C Z 1 3 4 < < < < < < 1 3 9 9 3 1 9 4 3 9 F Z Z Z M M M 1 F ..I ^ -.^ -.P P R T T R R T R >.J 5 5 2 e t H H 2 H I T =.E E E R R R R R R R R R R R R R ` E E E T T ' 6 % * = & * * O d k.k.f s s s d f y.u.u.u.u.u.u.u.u.l.k.f s f s s s s f f y.l.u.u.u.u.u.u.u.u.u.y.f f f s ! s s s s s s s ! ! ! ! ! q = = * & 1 D t - o ; D Z t t t ~ } H ^ ..D & o q ) s s s s s ! s ! ! ! / 0 % = , $ < 1 9 F D D D o...H H H t t _ ..H 7 # d h y.y.y.k.s = N [.J.2.>.H.H.2.K.K.4.1.H.4.H.H.1.1.,.>.1.2.2.1.2.J.J.,.1.' 2.1.5.-.% ;.SXAX*XO . r.3X3XwX3XIX:.% I.~.T.<.<.<.3.<.<.<.<.<.<.<.1.1.1.1.1.G.2.I & @ AXHX0X5X5X$X$X%Xo - e 0 0 0 9 9 9 < % S 6.1.,.,.-.m $ % $ % % 1 9 9 9 9 9 9 9 9 9 9 9 * % * R -.-.=.,.,.5 o * r H ~ ;.o./ ^ / / ~ ~ ~ 8 , % Z 6.1.I C 1 o o r ..I 1 o Y -.,.,.>.' ' =.-.=.P P U A A A F 9 4 3 5 J E T T R R E E E T T ` U _ t 7.0..._ U I ` ' ` E E E R R R R R R R R T ' E ' -.-.-.-.-.-.U C Z 9 1 9 Z Z C 9 9 9 9 9 9 1 < 1 < > 3 Z Z M 1 < 4 5 m P E T P T ' P P =.7.:.;.......^ ^ 4 < M U U 9 * F ^ -.H e Z Z 1 < 1 < < 9 F Z 1 > < < Z C C < < 1 Z Z 3 * > * * * * * * * * * * * * * * * * * * * * * * $ $ > $ % L P P L L T Q K ",
"W T T R T J A U M > > 3 3 3 9 Z 1 1 < * * * > * * * * * * * * * * * * * * < < < 9 9 9 9 9 C Z Z Z e Z Z 4 * - 3 1 3 S Z Z % % % * < 9 9 9 M 9 F ..-.Z % e ^ ..-.-.-.F Z C < 3 1 < < 1 1 1 1 1 3 1 9 8 1 9 9 9 9 A A F F M 9 C 9 A U U ^ ^ I -.P P R T T R R P P P J 4 4 D } O.q.} : D _ Y E E E E R R R R R R R R R R R R R ` ` E E T T ' 6 % * = & * * O d k.k.f s s s d f y.u.u.u.y.y.u.u.u.l.k.f s f s s s s f f y.l.u.u.u.u.u.u.u.u.u.u.y.( f s s s s s s s s s s ! ! ! d q O = = & ; D r * o - D D t t D ..} } ....G O o q ) s s f s s s s s s ! ! 0 % = , * > < 3 Z r e t ~ H H H D y D ....H = O d f y.u.y.k.f # N 6.4.>.>.1.4.1.4.H.2.1.2.1.1.2.4.4.1.,.1.1.1.1.2.J.H.1.K.>.,.=.4.,.$ 7.vXAX3X2 2 $X3X$X3X*XxX:.C I.J.[ L.<.<.<.3.<.<.<.<.<.1.1.1.1.1.1.G.H.5.H + xXFXwX=XwX+Xt._.- 2 r 9 0 0 8 9 9 < % S 1.,.-.-.,.P K I I < % < 4 3 9 9 9 9 9 9 9 9 9 1 % $ U R P E =.=.6 % * 8 G H ;.^ ^ ^ / / ~ u G 0 - % F 7.-.I S Z e 8 4 4 e e 4 A I -.=.=.=.>.>.-.=.P P U S F A F 9 4 5 5 A E T T R T E E E T P Y S +.i +.q.+.+._ _ ` ` R R E E E R R R R R R R T T T ' -.-.^ -.-.-.U 8 9 C 9 M C C C 9 4 1 4 4 4 1 < 1 < < 9 S A Z 9 M M 4 C T E T T ' -.I T 7.7.6.;.U H U U U 4 > M L U 1 * F ..-.U 9 M 9 1 1 < < < 9 A Z 1 > * < Z C C * * < 3 4 > * * * * * * * * * * * * * * * * * * * * * * * * * < < < > L P P L L T T L ",
"W T T T J 5 % $ > * > 1 1 4 C Z * * * * * > < > * * * * * * * * * * * * < 1 9 4 9 9 9 9 9 C Z Z Z Z Z e 3 < < 1 < 1 A S Z % % % * < 9 9 9 M 9 F -.-.r % 1 9 9 U -.-.F Z C < 1 1 < 1 1 4 4 4 3 3 1 8 1 1 9 9 9 9 9 C F F 9 4 9 4 Z F F ^ ..I R R T R R T E T K A 3 Z S H } +. .$.*.&.O.i t -.` T R R R R R R R R R R R R R R ` ` E E T T ' 6 % * = = * * O d k.l.f s s s s f y.u.u.u.y.u.y.u.u.l.k.f s s s s s f s f f l.l.u.u.u.u.u.u.u.l.l.l.k.f f s s s s s s ! s s s ! ! d q = = = = ; r t ; o 1 D D r t D ..} H ....G O o q s s f ( f s s d s s s ! q = = , , > * = & * 8 G t i H H D y D ..;.H & O d h u.l.u.l.f # 0 -.,.2.>.1.1.,.,.1.1.4.2.1.,.1.H.J.4.1.4.1.,.1.2.1.1.2.H.1.4.=.,.=.6 6.LXPXlX- & 1XxX3XxX+.w : 8 P [ K.G.3.3.3.3.3.3.3.<.<.<.1.1.1.1.3.[ 1.I : + xXJXcXwXxXO.& 2 o & - 8 9 9 8 9 9 1 $ A 6.,.,.,.1.-.-.1.-.6 o % % * 1 9 9 9 0 0 9 9 9 0 % > I ,.=.>.' T $ % % * 9 G ;.X.^ ^ / / ~ u u G ; * U 1.-.E P K I I 3 o % Z U S Z A L R =.>.' =.=.P P K S F A F 9 9 5 5 J R E E E W E E T L U H +.4X#X*.$.+.O.+..._ ` ` R R E E R R R ` ` R R R R T ' -.I U I -.-.H e 9 Z C C 4 4 4 1 < < < < 1 1 1 1 < < 9 S F A A A S 4 M J -.=.E R R L I -.7.6.-.D 8 Z Z M 4 1 M F F 1 * Z -.-.F 1 1 3 < 1 < < < 9 Z Z 1 > * < C C C $ * * * > * $ * * * * * * * * * * * * * * * * * * * * * * * - < * * > -.I R I L P Q K ",
"Q T E E L 3 % $ > 1 1 3 9 M Z 9 * * * * * * * * * * * * * * * * * * * * < 9 M M 9 9 9 9 9 9 C Z Z Z e 8 3 1 1 1 < 1 F S Z % % * * < 9 9 9 9 9 A ....e * 1 - 1 U -.7.F Z M < 9 1 < 1 4 9 9 4 4 3 < 1 1 1 9 9 9 9 1 9 F F 9 3 M 3 A F U I I I -.' T R T T ' T A 9 < Z H _ +.c c c e.*Xe.a t ..I P R R R R R R R R R R R R R R ` ` E E T T ` 6 % * = & * & O d k.l.f s s s s f y.u.u.y.u.u.y.u.u.k.k.f s s s s s f s f f l.l.u.u.u.u.u.u.u.u.u.l.l.f f s s s s s s ! s s s ! ! s q q , O & 8 r t - o 3 Y D r t D ~ H H } ..G O o q s s ( ( f s s s ! s s ! q = * , * > , < < 1 r H r t H H D t D H ..H * = d f y.u.u.u.h q 0 ^ ,.4.,.1.1.,.,.2.1.4.2.1.2.1.H.4.1.1.5.1.,.,.1.<.<.2.2.4.,.>.1.,.m -.IXIXlXZ 2 ).3X2XUXt   + 2 Y =.H.L.3.3.3.3.3.3.3.<.<.1.1.1.1.1.1.G.<...o. .qXSXwX*X3X..- 3 e Z $ < 8 8 8 9 9 1 > A 5.,.,.-.=.' ' ` ` m 4 C $ $ 1 9 9 9 9 9 9 9 8 - % 9 I -.E >.T =.S C 4 % & H 9.^ o.X.~ / / u ~ ~ 8 - U -.=.>.-.T I I S * < A Y S 9 S K T >.>.' -.=.L L U S F S S 9 M 4 5 J =.E E R T T R P U _ w k C.C.*.$. .+.O..._ _ ` R T T E E R R ` ` R R =.' ' -.-.K A U ....F 8 9 C C C 4 4 1 1 1 < < < 1 < 1 1 < 1 9 Z Z S F F S 4 m C R -.R L I I R -.7.:.^ r 1 9 9 4 3 1 Z S S Z 9 D X.-.F ; 1 1 > 1 < 1 1 9 Z N 4 1 1 1 C C C $ < * * > * * * * * * * * * * * * * * * * * * * * * * * * * < < * * > L A Y P L L Q L ",
"Q Q R =.P M 1 9 3 M 3 M Z Z Z 3 * > , > * , , * * * * * * * * * * * * * < 4 9 M 9 9 9 9 9 9 9 C 9 9 9 1 1 1 1 1 1 1 F F Z % * * * 1 9 9 9 9 9 A -.-.r - 4 3 3 U ;.7.F Z 8 < 9 1 < 1 9 9 9 9 3 1 1 1 1 1 9 9 9 C 4 C U U 9 3 M 9 A U U F S U -.T T T T T =.R S 5 3 S D i } +.c $.k &.+._ _ U I T E R R R R R R R R R R R R R ` ` E E T T ` 6 % * = & * & O d k.l.f s s s f f y.u.u.u.y.y.y.u.u.k.k.f s f s s s s s f f l.l.u.l.u.u.u.u.u.u.u.u.l.( f s s s s s s ! ! ! ! ! ! ! d ! q O % ; t r & o 2 F D r t t H H H H ..G O o q s f k.k.( s s s s s s ! q = = < , 1 Z F S r r r t y i H H H D t D D 1 ; d d f y.u.u.h q B ^ 1.4.1.1.2.,.,.2.1.2.,.4.2.1.4.1.,.1.1.1.<.>.1.<.<.1.2.1.=.1.1.H.T T & e -.S Y -.:.H e 8 r.3X4X_.-.=.2.3.<.<.<.<.<.<.<.<.1.1.1.1.1.1.<.U |.PXvXFXSX=Xe.%Xo...-.,.,.Y * 1 1 1 9 9 4 1 S 6.>.,.-.' ' =.>.1.' 4.-.< $ < 9 9 0 0 9 9 9 9 0 * < 1 3 5 =.>.>.>.,.^ * o r ^ u ^ ^ ~ ~ / u ~ r ; 3 U I P =.R =.E -.-.I ..I e 3 1 A I T >.>.>.-.=.L L U A F Z Z 4 M M 5 J =.=.E R T T R U H } N.%.%.v x c  .} +._ Y U ` ` E T E E R R ` ` ` ` =.=.-.=.R A Z F ^ I D 8 4 C C C 9 4 1 1 1 1 1 1 1 1 1 1 1 < 1 4 < e F F C 4 m m S K J C Y -.7.7.;.:.^ r 9 Z M 9 M M S M Z U I ^ X.-.F < 1 1 * > 1 9 9 9 Z M M M 9 9 C 9 Z * < * * > < > * * * * * * * * * * * * * * * * * * * * * * - 3 1 * * < 3 $ m L L J L L ",
"L L L P Y 3 > 9 % > > 9 Z 9 C 9 * > , > , , , * * * * * * * * * * * * * * 1 9 9 9 9 9 9 9 9 9 9 4 3 1 * * < 1 < 1 1 F F Z % * * * 1 9 9 9 9 9 A 7.7.Z * 9 4 1 F ;.-.Z 9 1 * 4 < < 1 9 9 9 4 1 1 1 3 1 1 8 9 9 C 9 C U U 3 1 C 9 A U I Z 4 U -.P T T L T =.' S > 5 e 2 : w i p k k a k %Xt.S I ' ' E ' ` R R R R R R R R R R ` E R R T T ' < % = = * * * O d k.l.f s s s f f y.u.u.y.y.y.y.y.u.k.k.f s s s s s s s f f l.l.u.u.u.u.u.u.u.u.u.u.l.y.f f f f s s s ! ! ! ! ! ! ! ! ! q O O ; r D - o 1 D D r t t D H H H ..G O o q s s k.k.f d d s s s ! ) 0 = * 1 * , 9 F F D D r t y y H ....H y & 0 0 0 d d f u.u.u.h q d ^ 1.1.1.,.,.2.1.1.1.,.<.2.4.1.1.,.,.2.>.2.1.>.1.3.<.<.<.<.>.J.=.1.2.E 4 % 5 r D D ^ ..o O |.xXIX$XZ ,.1.3.1.<.<.<.<.<.<.3.1.1.1.1.1.1.K o q.LXbXgXbX#XB.+X..I A L >.=.$ < 1 1 9 Z 9 3 L E.4.4.,.' ' >.>.>.' 5.E % % > N N 9 9 0 0 9 0 7 - 0 $ % % R <.>.,.,.-.4 o % o 7 ~ o.~ / / g ~ u r 8 4 $ 5 ' >.>.' =.=.-.7.Y % % $ A R T =.=.=.,.-.U I U F F Z C 4 9 M 5 J =.' ' R T T I H _ +.C.e.$.c c k +._ H t e A T ' E E E ` R ` R R R R =.=.-.-.R S C F ..U Z 3 4 9 C C 1 < * * < < < > 1 1 1 < < , , < * 9 U F C 4 4 4 > M 4 * 9 -.6.7.:.:.^ Z 9 9 9 1 I U Y 1 4 I -.-.-.-.F 1 9 3 * * 9 Z Z 9 M M M Z M 9 9 9 C $ < * * * < > * * < * * * * * * * * * * * * * * * * * - * < 8 3 * % $ $ % 5 L P J L L ",
"P L P L Y C 9 9 * 3 9 8 Z Z 9 9 * * * * * * * * * * * * * * * * * * < < 1 4 9 9 9 1 9 C 4 C C * > * 1 1 > 1 9 1 1 9 F U 3 * * * - - 9 3 4 e 1 S 7.7.F < 9 1 1 I 6.-.Z 9 4 < 9 1 < 1 4 9 9 9 4 < 1 < 1 3 1 4 9 9 9 9 U U 9 9 9 4 D U I C < A -.I R J Q ' E T S 5 4 4 8 ; 2 p k i k k c e.O.y H -.-.E ' ' T T R T E E R T T T R R T T R R -.< % & = & $ * O d k.l.f f s f s f y.u.y.u.u.u.u.u.u.u.l.f f f s ! ! ! f f h l.u.u.u.u.u.u.u.u.u.u.u.u.y.y.f f s f s f s s ! s ! ! s s ! q = O 2 D r - o 3 e y D H H H H H ....u O O q ! s ( k.f f s s s s ! ! q = * 1 4 < 1 3 8 Z D 8 y 8 D H D D D y ; 8 r u d s f y.u.u.h d ! ^ 1.1.,.,.1.1.G.G.<.<.2.2.2.2.2.2.1.1.2.1.1.1.1.1.2.2.1.2.1.<.1.2.1.' S - :.q.t.t.2 D %X%X@X*XwX|.Z -.,.2.,.1.1.>.G.<.3.J.1.<.4.1.1.-.q.O.#XGXNX8XNXC.N.4X_ Y T L =.>.R ^ 1 > 4 3 M 9 U ^ Y I 1.>.=.>.,.>.=.>.' L P A 1 1 9 N 9 9 9 9 0 9 1 < % < =.,.>.1.1.=.S 3 r - * F ^ ~ / / ~ u u t D < o V >.' ' ` ' =.=.` Y Z 3 C Z A L -.=.-.-.R I I U Y Y C 4 4 M m 5 J >.R ' ] ` ] U H _ z N.*.c z z i i t e Y U P I R ` ` ` ` T ` -.R E R E R I U Y A F F U U Z 3 9 Z Z M < < C 9 1 C 9 < 1 4 < > 1 < > 1 < 9 Z 9 9 C 9 C M 9 C 1 e :.6.7.U ^ U Z M 9 4 3 F I F 1 - U 7.^ U I F Z 9 3 * * 9 C Z C M M C M C 9 M M 9 < * < < < * * * * * * * * * * * * * * * * * * * * * * * % * e 9 1 1 1 > % 4 U L L I L ",
"J J S Z M 4 9 9 * 1 3 1 3 3 < < * * * * * * * * * * * * * * * * * * < < 1 4 9 9 9 1 9 9 9 C C 1 > * 1 1 1 3 9 1 < 3 F U 9 % % * * - e 8 Z F Z U -.-.S * 1 1 1 U ;.-.Z 9 9 < 4 < 4 4 1 < 1 9 9 9 9 1 1 3 4 9 Z 9 9 9 U U 9 9 9 4 D U I C < A -.^ R J Q E E Q C 3 4 4 9 1 ; t _ i k k c e.+.w H ..-.-.' ` ` ` ` R T R R R T T W W T T R R =.< % & * * $ , O d k.l.f f s s s f y.u.u.u.u.u.u.u.u.u.l.f s f ! ! ! ! f f k.l.l.l.u.u.u.u.u.u.u.u.u.u.y.y.f f s s s s s f f ! ! ! ! ! ! u = O ; D r - o 2 8 8 D ......H H ..X.G O O q ! s k.k.f f s s s s ! s q = * * = * * * - 3 9 1 ; ; e t y e y & & 7 u d s s f y.l.l.h d d / 6.6.5.4.4.1.<.G.<.L.L.2.2.2.2.1.3.3.2.2.2.1.1.1.2.2.1.2.1.,.1.2.1.' J 1 %XxXxX%X+ w xXxXwX=XwX+Xe ,.=.1.<.1.2.1.<.<.<.3.3.4.K.-.A D LXKXSXFXZX9XgXC.B.4X..U =.E >.>.,.U < > M Z Z > < 4 1 A ,.>.=.,.>.>.>.1.>.=.,.R $ * 9 N 9 9 9 9 9 9 1 1 $ 3 >.1.>.[ ' 1.,.1.7.A 9 Z G ~ ~ ^ ~ u u t D 1 o C >.' ' ' ` ` =.=.R I I R C $ Z -.-.L -.R I U F A A 4 4 4 4 4 3 J -.` ` Q P I _ o. .c *.*.c z } i H S C Y I ` R ' ` ` ` ` ` T T R E -.-.I U S S A Y U U U Z 4 9 S Z C 3 4 F Z C A C < < 1 < < 1 1 > < 1 1 9 1 1 4 1 4 1 1 9 - 8 -.6.7.8 Z C 4 4 9 4 3 L U Y 1 - U 7.^ 3 9 9 9 9 3 * * 9 C Z C M M C M Z M M M 9 * * * * * * * * * * * * * * * * * * * * * * * * * * * * & < 9 8 9 9 4 > % > 9 9 Z U F ",
"A S C 4 3 1 9 M < 1 < * * * $ * * * * * * * * * * * * * * * * * * * < < 1 1 9 9 9 1 4 C 9 9 9 1 > > 1 1 1 3 3 < < 1 F U e % % * * * e e F I U ^ -.7.F * 1 < 1 F ;.-.Z 4 C 1 1 1 9 4 1 < 1 9 C C e 3 < 1 1 9 C 9 9 9 U U 4 9 9 4 A I I C < A -.^ I J R =.R I Z 3 9 9 9 3 8 t H i k k c *.+.a t D U ` ` I ` =.-.' T T R R R R W E R R R R ' < % * * * * , = d k.l.f f s s s f y.y.u.u.u.u.u.u.u.u.l.f f f ! ! ! ! f f k.l.l.l.l.u.u.u.u.u.u.u.u.u.u.y.y.f f f s s s s ! ! ! ! ! ! ! q = o - S Z * o 1 e t H ..~ H ^ H ~ ..G O O q ! f k.k.f f d s s s ! s q q 0 , & * * * * ; 2 8 2 8 t D y t t & o = u d s f f y.l.u.y.j s ) 9.6.,.,.4.1.<.G.<.G.L.2.2.2.1.1.3.3.2.2.2.2.1.2.2.2.1.2.1.,.1.2.1.>.V $ %XIXIX+X@ + UXwX5XC.3X+X& I ' <.>.>.1.3.<.<.<.<.H.1.-.U & @ AXZXbXgXiX9XqXC.C.$X..U >.=.>.=.,.-.,.L , $ > > * < > K 6.4.,.2.<.<.>.1.>.,.1.R % $ 1 N N 9 9 9 9 1 * * % 5 =.,.<.<.<.3.>.-.-.S F 9 7 Z ~ ^ ~ u u G D 1 % S ,.' >.' ' ' ' =.=.-.I -.4 % C ,.=.I I I U U A M C 5 4 4 4 9 4 A -.' ' ` P U 7.q.&.c %.$.k k _ D D S S Y I I R R T P ` ` ` T T R ` ' E I A 9 C F U ^ F F C 4 9 Z Z C 1 4 F F Z A 9 < * < < < 1 1 < < 1 < < * < 1 * < * 1 Z Z F ;.6.-.1 9 9 3 9 9 4 4 F U F 1 - U -.U * 1 3 3 9 3 * $ 9 C Z C M M C M C M M Z 9 > * * * * * * * * * * * * * * * * * * * * * * * * * * * * - 1 1 9 9 9 > $ * * > Z I F ",
"A A S C 4 1 1 1 < < * * * * - < * * * * * * * * * * * * * * * * * * > > > < 1 1 9 1 9 C 4 1 1 < < 1 1 1 1 1 1 * < 1 F U Z * % * * * e e F ^ U ^ ^ -.S < 4 1 < F ;.-.C 1 9 4 4 9 9 4 1 1 9 9 9 9 8 3 1 1 4 9 9 9 9 9 U F 4 9 9 4 S I I e - Z -.^ R P =.R L F 9 1 4 4 4 3 8 t t y k k c $.$.$.&._ S L L K P =.-.E R T T T T T R E R R E R ' < % * * * * , = d k.l.f f s s s f y.y.u.u.u.u.u.u.u.u.k.f f f ! ! ! s f f f f y.y.u.u.u.u.u.u.u.u.u.u.u.l.k.f f ! s s f s ! s d q q q q q = & ; D r & o - r D ....H D H D D ~ G = O d ! f h k.f f d s s s ! s ! ! B * , - < - * ; 8 r e e D t y D t & o = d ! s f f y.u.y.u.f ( ( 9./ F I 1.1.<.G.<.3.L.2.2.2.2.1.3.3.2.2.2.2.2.2.2.2.1.2.1.1.1.2.1.<.1.P t.%X|.+XB.B.=X=X5X&XwX$Xo 4 1.2.3.>.<.3.<.1.<.1.J.T I 1X3X3XbXiXiX9X8XtXgXC.B.#X..C P ' >.=.=.E ,.-.J J 4 3 4 * % J 4.,.>.,.1.1.<.<.>.,.1.I $ > 9 N N 9 9 9 9 1 4 A C J ,.1.' [ <.1.' =.1.,.R 1 % 0 ~ ^ ~ u G G D 3 % S ,.=.' ' =.=.' ' ' ' E ' J C K R I I U I U I A M M 4 4 4 3 4 3 S -.E ' ' P H +.e.*.c $.x k i i t Y Y U I ` ` E E ' ' T ` ` ' =.' ' ` I I S 4 Z F U ^ F F C 4 9 M 4 9 < 1 A A Z A 9 < 1 1 1 1 1 1 < < 1 < < * 1 1 * 9 1 e U I ^ -.7.-.9 Z C 9 M M 4 4 F I U 1 < U -.F < 4 3 1 1 1 * $ 9 C Z C M M M M M 9 M Z 9 < * * * > > > * * * * * * * * * * * * * * * * * * * * * * * * < 9 M 9 1 1 1 * * Z I F ",
"S S Z M 3 1 < < < * * * > < < - * * * * * * * * * * * * * * * * * * * * * * * * 4 4 C C 1 * * * 1 1 1 < 1 1 < * < 1 Z F 8 * * < * * e e S I U I Z Z 1 * 4 1 3 U 7.-.Z < 1 1 1 9 9 9 9 9 9 9 4 4 8 e C C C C C Z 9 9 U F 4 9 9 4 A I ^ r - D -.R R T E K C C 4 5 5 4 4 3 8 y y a i k c v $.*.N.O.y K K J L ' ' R E E E T T T T R T R E E ' < % * * * * , = d k.l.f s s s d f y.u.u.u.u.u.u.u.u.u.k.f s f s ! ! ! ! s f f f y.l.u.u.u.u.u.u.u.u.u.y.l.k.f s ! s ! s s ! ! q = = = = = = 1 8 F t = o - 8 r H ....H D t D ~ G = = d ! f y.l.k.f d s ! s s ! ! / r O , < < - < 1 r D Z r D r e D D & o = d ! s f f y.u.u.l.u.l.k.( q = A 2.2.<.<.<.<.L.2.2.2.2.2.3.3.1.1.1.2.2.2.1.1.1.1.<.1.<.2.1.1.<.' C % . q.IXxXwX5X=X#X5X@X. o 5.3.J.1.<.2.<.1.1.1.J.Z - 3XLXSXVXqXdXsX8XgXqXV.B.@X..& S ' >.>.1.-.>.' ,.,.A M A > % A 1.,.=.1.<.3.<.3.<.1.5.' % > 9 9 9 9 9 9 1 > F 1.,.=.1.>.G.<.<.>.' =.>.=.-.1 o 9 ~ ~ G u G G G 0 % S ,.>.' ' =.=.' ' ' ' =.' =.=.-.I I R I I I U Z 4 9 3 3 4 4 m m J =.>.E ' ` H +.e.*.c v  .k i t t H H _ ] ` ` E ` ' ' ' E E ' >.-.-.I I I Z 1 Z U U ^ F F Z 9 9 3 3 4 1 4 F F Z A Z 9 9 9 4 1 < < < < < * < < 1 1 1 U ^ ..-.-...-.;.:.4 M M M M 9 3 3 F ^ F * - I -.U < 1 > * > > * * 9 C Z M M M M M M 9 M C 9 > * * * * * * * * * * * * * * * * * * * * * * * * * * * * * $ > 9 M 9 9 9 3 $ % 9 F 9 ",
"S S C 4 1 1 4 9 1 * * * * * * $ * * * * * * * * * * * * * * * * * * * * * * * * 1 4 C C 9 1 < 1 3 4 1 > 1 1 1 1 * < 1 9 < * * - $ $ C C S ^ I ^ Z Z < * 4 3 4 F -.^ A 9 4 1 1 3 9 9 9 9 9 1 1 4 3 e Z Z C 9 9 C 9 9 U F 4 9 9 9 A I ^ r ; Z -.' E E R J m M 9 4 4 e 8 8 e e y w i k  .c c *.e.+.t I P K P ' ' ` R E W W T T T ` T R E E ' < % * - = * , = d k.k.f s s s d f y.l.u.u.y.u.u.u.u.u.k.f f s s ! f s s s s f f y.l.u.u.u.u.u.u.u.u.u.y.l.k.f f f s ! s s ! ! q = = = % = 8 Z r Z r ; % - 8 t H H H t e r D G 0 = q d f f k.l.l.f f s f s s s ! / B % = * * < 9 9 Z F D r D D r H D ; % = d ! s f f y.y.y.l.u.u.k.( q o S 4.4.<.<.<.G.2.2.2.2.2.2.3.3.1.1.1.1.2.2.1.1.1.1.1.1.<.<.2.2.H.K.P Z 8 r.IXUX3XwX=XC.3X*Xq.t.I J ,.G.<.2.<.3.1.<.P.P o 4XKX0XFXAXbXcX0XbX7X=X=X*Xq.- C [ >.>.` >.<.=.1.,.=.,.-.5 % J 5.,.>.2.<.<.<.3.<.1.5.=.$ 3 9 1 9 9 0 9 < $ S 1.,.=.1.[ <.[ [ [ ' >.=.=.-.< o 0 ~ ~ G u G G G 9 % A ,.=.=.=.[ ' ' ' >.>.E T =.=.R -.-.R I I U U C 1 8 2 3 M M M M J >.2.>.,.-...O.N.*.c v  .k i t t H H U U P ` ` R T R -.-.R E =.=.-.R ^ ^ Z > M U U U F A Z Z C 3 < 3 1 4 U Y Z Z Z Z Z 9 9 1 < < 1 < * * < < 1 < 1 ^ ;.;.7.:.7.^ ..-.9 M M M 9 4 1 1 F U Z * - H ^ F ; 1 < * > > * * 9 M C M M M M M Z 9 9 M 3 * * * * * * * * * * * * * * * * * * * * * * * * * * * * > * * < 9 9 9 9 9 1 % % < 9 9 ",
"S S C 4 1 4 M Z 1 * * * * * * $ * * * * * * * * * * * * * * * * * * * * * * * * 4 9 9 9 Z F A A Z Z 1 * < 1 < 1 > < < ; * * * * % * Z Z S ^ I ^ -.-.Z > 3 9 4 C F A U U F A Z C 4 9 C C 9 < 1 4 1 8 8 9 9 4 1 9 9 M U F 3 9 M 9 F I ^ Z < A -.=.=.-.I 9 , 8 3 8 8 8 8 ; 8 e e y t k  .x c *.N.+.w H Y S U I I I K P T T T T T T T R E R ' < % * - = * , O d k.k.f s d s d f k.l.l.u.u.u.u.u.u.l.l.f f f s s ! s f s s f f k.l.u.u.u.u.u.u.u.u.u.y.l.l.f f f s ! ! s ! ! q = = = , ; Z D 8 1 8 ; - 2 r D H D r ; e e 8 7 q q d s f ( y.l.y.y.f f f s s s d u r = * * * 1 9 9 8 9 3 ; 8 r t D D - % = d ! s f f f f f u.u.u.l.k.d O A 4.2.<.<.<.<.2.2.2.2.2.2.3.3.2.1.2.2.2.2.1.1.1.1.1.2.2.1.2.2.<.H.1.1.7.6.t.+.+.3X=X#X=X=X3XxXe $ ' J.<.2.1.1.1.<.4.I o $XJXbX%.|  . .&.5XcXbXqX3Xr.2 U 1.<.>.1.2.>.>.<.>.=.T =.5 % J 5.,.=.<.3.<.<.3.<.<.2.=.J I F < , 9 0 9 9 $ A ,.>.=.2.<.<.[ G.3.>.>.' =.` < % e ~ ^ ~ u G G G 9 % A ,.=.>.>.[ ' ' [ >.>.' ' ' E R -.I Y K K F A 8 ; 2 2 1 M M 9 1 9 U ..-....._  .*.*.x v  .} i t t H H ~ H U I ^ ^ ^ ^ ..^ -.R R R I I ^ -.S < Z U U F 9 M C Z C 3 < 4 < 4 U U e 9 9 C C 9 9 4 < < 1 < 1 < < < 1 * 1 -.-.-...7.-.F Z C C Z C M M 4 1 3 U U F e Z S D r 1 9 1 > 1 > * * 9 M C M M M M M Z 9 9 M 9 < < 1 1 < > * * * * * * * * * * * * * * * * * * * * * * * * $ > < < 1 9 9 1 * * ; 3 3 ",
"C S C 4 1 4 9 M 9 * * * * * < * * * * * * * * * * * * * * * * * * * * * * * < < 9 9 1 9 F ^ ^ I U F 9 > < < * < < 1 < * * - * * * * S Z Z I I ^ 6.6.U > 1 9 3 3 * 1 U -.-.-.^ U < 4 Z Z 9 < < 4 4 8 3 1 9 9 1 4 9 M U F 3 9 M 9 F ^ ..Z < A -.-.-.^ H ; O O O = # # # O : 7 7 y t i +.x x *.*.z X a 7 + w u y u u Y U T R R T T R R E R ' < % * , = * = O d ( k.f d d s d f k.k.k.u.u.y.y.u.u.l.l.f f f s s ! ! ! s s s f k.l.u.u.u.u.u.u.u.u.u.y.l.l.f f f s s ! s ! ! q O * < 9 9 D D - % * ; 8 8 r r r t r 2 H e o o q ! ) ! f k.y.y.l.y.y.k.f f ! s q q ; % * * * 1 9 1 % % - % 2 D D H D ; $ = d ) s s s f f f u.u.u.u.( q % A 4.1.<.G.<.<.2.2.2.2.2.3.3.3.2.2.2.2.2.2.1.1.1.1.1.2.2.<.2.H.H.2.4.H.K.=.- o + xXxX*X3X&X=X3Xy % -.E.,.2.<.<.<.2.4.` o $XJXbXp a p p p =XcXwXqX=Xw.8 ` 5.<.<.' <.>.3.[ E 1.' =.6 % K K.1.<.2.<.<.<.G.3.<.H.,.K.[.R < % 1 9 r 3 % J 5.1.<.<.>.<.[ <.[ >.<.' ' P $ % e ~ ^ ~ r G G F 9 % A ,.=.>.>.>.>.>.>.[ ' ' =.=.=.,.-.Y F C S C C 3 - 8 2 * 1 ; = . X a p p p p p z %.%.c v  .+._ t t ~ G g d u u u u g ~ ~ ^ -.-.-.I I I I -.A 1 A I F Z < 1 9 Z C 1 < 4 1 9 I U C 9 9 C 9 4 4 4 < < 1 < 9 1 < < 1 * - ..7.-.^ -.-.F C 9 C C M M M 9 4 9 -...^ -...F 8 1 1 1 < * > > > > 9 M C M M M M M M 9 9 Z M 9 9 Z Z 9 4 < * * * * * * * * * * * * * * * * * * * * * * $ % * * % * 1 1 9 9 1 * * * ",
"S C M 3 3 M 9 S 1 < * * * * * * * * * * * * * * * * * * * * * * * * * * - 1 9 9 8 e 9 e F ^ ..I I ^ * < * 1 9 < < < < ; * * * * % * 9 Z F I ^ ^ :.6.F * 1 9 9 4 1 C U ^ U U U U * C 4 4 9 4 9 9 1 8 9 3 4 4 1 4 9 C F F 4 3 9 9 A U -.Z , U -.,.^ / / g d d d g d d d g / + : w i +. .c c c l n n n n n h g n n #.@.u I P T E ] T R R =.,.> % 1 , = & = O q ( ( f f f s s s f h f l.u.u.u.u.u.l.k.f f f s s s s ! ! ! f f k.l.u.u.u.u.u.u.u.u.u.u.l.u.f f s s s s ! d u 0 O = < & Z H ^ 0 % 2 2 8 e r r 8 e r 8 Z 9 - O q ! ! f f y.l.l.y.y.y.f f f s ! q = & % % * * < 8 8 ; 1 2 1 e r r H H 8 $ , d s s s s s f f y.u.u.l.( q = A 6.,.1.<.G.<.2.2.2.2.2.3.3.3.1.1.1.1.2.2.2.1.1.1.1.1.2.2.2.2.2.2.2.2.1.<.=.-.I t.q.3X3X=X5X*XB.%X-.< ,.J.=.>.3.<.K.T o 4XPX=XwXwX3Xi w wXGXwXwX3Xr.: I J.[ L.>.>.<.<.[ >.>.' T S S T ,.,.<.3.<.<.<.<.<.<.<.,.,.4.L % * 9 Z 9 9 % A 4.,.>.2.<.<.<.<.<.>.[ [ ' ' A 3 8 Z H ^ r G D D 9 % C 4.>.>.>.>.>.' ' ' ' >.' ' =.-.I L F C C C A 5 e $ - ; 7 X g *.n n Z.Z.C.C.b.c x $.l $. .+._ i y y g ( z.z.z.#.z.z.#.#.o.^ ;.-.L U -.R I A 4 S U U Z < 9 9 9 C 9 1 1 4 C F Y Z 9 9 4 e 9 8 4 3 1 < < < * 1 * - * - -.-.-.-.-.-.A 9 C M 4 C M 9 S 9 1 ^ U U I U Y r 8 * < < > > < > * 4 C C M M M M M Z M 9 C Z 9 9 Z 9 Z 1 % * * * * * * * * * > * * * * * * * * * * * * * * * * * * 3 1 1 8 8 ; & 1 ",
"S S C 3 3 M 9 Z < < * * * * * > * * * * * * * * * * * * * * * * * * * * * 1 9 8 9 e e C F ^ ..I U U * 1 < 1 < % < < ; * * * * * * * e Z S U U ^ 6.6.F * 1 4 1 3 < 1 C U ^ -.-.U $ 9 4 9 Z 9 9 9 * < < 1 1 1 1 9 9 C F F 9 3 9 4 L I -.F 4 F ^ ^ o.( #.z.z.n.n.n.n.n.n.n.n.g a p z p l c n b n Z.kX6X6X6X6X6XD.6XeX=X| ~ ..>.>.[ R T T E -.< % - * & * = O O q # h k.( f d s f f f l.u.u.u.u.u.u.l.f f f s s s s ! ! s f f k.l.u.u.u.u.u.u.u.u.u.u.u.u.f f f s s ! d q q = O , Z 9 Z 9 0 8 * e e r r D D u D D D S 8 = O q s ! f y.y.l.l.y.y.y.f f f s ! q O & * * * * * < ; 1 r D r D S D H H 8 $ , ! ! s s s ! s f y.u.u.l.( q = A 6.,.1.<.G.<.2.2.2.2.3.3.G.3.3.2.1.1.2.2.2.2.1.1.1.1.2.2.2.2.1.1.2.G.G.L.2.,.7.e O 3XwX&X&X&X&X3Xq.o L 5.J.2.<.<.G.' $ ..H w LXKX$X+ w $X3X@XB.q.O.D -.K.L.[ <.<.3.<.[ [ >.' >.=.=.>.<.>.<.<.<.<.<.<.<.<.<.<.=.,.I % $ 1 Z Z 3 % J 4.1.>.3.<.<.<.<.<.>.[ [ ' ' ` Y e e G G G y ; 8 ^ -.' ,.>.>.>.>.>.' ' ' =.>.' ' -.I U U F 8 e S J < e ; : O @ X z.6X6XD.D.kXkXkX6Xn c x c z z p i p 7 u g x.c.c.c.c.n.n.n.z.( / o.X.U U I R U C 4 C U L S < 9 9 9 Z A F F F S S Z 9 4 C 9 e e 9 4 4 1 1 1 3 < 1 < 1 - * ^ -.-.-.-.^ Z 4 M M 3 M 9 9 U ^ I U U U ..U D e r * < < > > < > * 4 C C M C M M M 9 9 9 M 9 9 9 M 9 Z 3 * * * * * > * * * > * * * * * * * * * * * * * * * * * * * 9 9 8 9 9 ; & - ",
"S S Z 1 1 9 3 4 1 < * * * * * * * * * * * * * * * * * * * * * * * - * * * 9 9 9 8 8 9 e F I ^ U 7...1 * & * 1 1 * * - * * * * * * > e Z Z H U I 6.6.F * < 3 4 4 4 1 1 Z I 7.-.U * 9 1 4 C 9 9 9 * - < 1 1 < 1 C 9 C F F 9 4 9 4 A I R S 3 Z G u #.( k.z.x.x.s.d.d.d.x.x.z.j # # a @ # l n j n c.m.m.h.m.D.D.S.D.D.Z.j a u F J K ' ` P T -.< % * = * * * O O O X h k.k.f d s d d f l.u.u.u.u.u.l.k.f f f s s s s ! f f s f k.l.u.u.u.u.u.u.u.u.u.u.u.u.y.f f f s ! q O O = O ; Z D D = & 1 ; 8 8 t r D G D D D r 0 ; = = q s f f y.y.l.l.y.y.y.f f f s ! q o = - - ; - * * - 8 D D r D D r H H ; = , ! ! s ! s s s f y.l.y.l.( q = A 5.,.1.<.G.<.2.2.1.2.1.1.G.3.3.2.2.2.2.2.2.2.2.2.2.1.2.2.1.1.1.,.1.2.2.G.2.4.P.- & xXAX3X=X=X*X3XO.o Y 1.J.[ H.H.>.` L Y . u vXAX3X+XO.} q.t.} +.| t e L J.G.>.[ >.<.[ [ [ [ >.1.2.>.' >.<.>.<.<.<.<.<.<.<.<.1.4.P % * 1 Z A 5 $ J 1.1.<.<.[ <.<.<.>.>.[ [ [ >.>.=.Z 9 D 0 H 0 & - -.E.,.=.>.>.>.>.>.=.=.=.=.-.' -.-.U A F F S 8 M C 5 - . X X X # s.D.D.D.S.A.A.A.A.h j l c l l j j j # j h x.d.d.d.d.x.x.x.z.k.( ( / ~ ^ ^ U A 9 1 C Y U S < 4 4 1 9 F U I U A C 4 3 4 C e e e 9 9 4 4 4 1 < * * - 1 * * I -.-.^ ^ U Z 3 M M 3 M 4 1 U ;.-.F H H U H Z e Z * < < > > < > * 4 C C M C M M M 9 9 C Z 9 9 9 C 9 C 1 $ * * * * > * * > > > * * * * * * * * * * * * * * * * * * 9 9 9 9 9 < & * ",
"S A S 1 1 9 < < < > * * * > > * * * * * * * * * * * * * * * * * * - * * - 9 Z 9 8 9 9 C F U I U ^ ^ F H Z - * < * * * * * * * * < < e e Z H U I :.6.F % * 3 9 1 9 9 1 4 F -.^ F Z Z 1 1 9 9 9 9 8 9 8 9 9 1 1 C 9 C F A 9 4 9 4 S ^ -.G 7 ~ / ) z.z.z.i.p.p.p.d.p.p.d.d.x.h h h s.s.s.c.c.f.f.c.m.h.h.h.h.h.g.F.A.A.s.n.b...D -.>.` T R -.* % * * & * * & & = # f k.k.f d s s d f k.u.u.u.u.u.u.k.f f f f s s s ! ! ! f f k.l.u.u.u.u.u.u.u.u.u.u.u.u.y.y.k.( s ! q O = ; = ; e D D & & r t e 8 y r D D t D r ; - = q d ! s f ( l.u.l.l.u.l.l.f f f ! ! q o % * * - 1 1 1 1 8 Z r 8 e e r U H 8 % q s s s s s s s f y.l.u.l.( q O S 5.,.2.1.3.<.2.2.1.1.3.1.3.3.3.2.2.2.2.2.2.2.2.2.2.2.2.2.1.1.1.1.1.1.1.1.,.,.5.U H _.r.*XwX=X*X*Xr.O._.1.1.<.<.G.G.3.P.-.o ..LXAXPXPXt.: H ..w t.%X%X_.Y K <.1.[ ' >.[ [ >.>.` >.>.' =.<.1.[ <.<.<.<.<.<.<.<.<.,.' J R S < $ A S P 1.1.<.<.<.<.<.<.>.>.>.[ [ >.=.-.C 9 F 0 H t * - I 1.=.=.>.>.>.>.=.=.=.=.=.=.-.-.-.U S A F e 9 9 4 ; O g &X=XZ.D.D.g.h.g.S.g.h.f.h.f.c.c.c.Z.Z.c.s.s.h i.s.d.d.a.a.a.a.p.s.x.z.z.( ( / / u 0 9 9 9 Z F Y S < 4 9 4 9 A F F A C 4 4 4 e e 9 9 9 9 4 4 4 4 4 1 < 1 < 1 * 1 -.-...U F S 9 3 M C 3 M 9 < F -...F F D D D D r 8 * < < > > < > * 3 M C M C M M C Z Z Z Z Z 9 M C C M 1 * * * * * * * * * > * * * * * * * * * * * * * * * * * * * < - 1 9 9 < * * ",
"Z S S 1 1 9 < * < * * * > > > > * * * * * * * * * * * * * * * * * * * * < e Z 8 e C C Z F U U U 9 D ..:.^ * % & * * * * * * * * < < 9 e Z H U I :.:.U 8 8 1 < * 1 9 4 < 1 Z F F I F 1 1 9 9 Z C Z e e Z 9 4 4 9 9 9 Z Z 9 9 M 3 Z ..;.u q g #.z.z.z.x.s.i.a.p.d.h.j.h.M.M.d.c.x.c.A.A.m.A.A.A.h.f.f.S.S.h.f.h.S.S.D.D.kX6X#.7 } -.P I -.I $ % $ * * % % % & & # f l.k.f d s s s f k.u.u.u.u.u.u.l.y.k.k.f s ! ! ! ! f f f l.l.l.u.u.u.u.u.u.u.u.y.u.u.y.u.k.( s ! q O ; 8 ; e D D Z % & D ~ H D 8 t D D D H D ; O = ! ) ! s f ( l.u.l.l.u.l.l.y.f f s d q % = = * * ; 8 e e e e e 8 e r D ....0 = q ! ! s s s s s f y.l.u.l.( q = S 6.,.1.1.3.<.2.2.3.3.3.3.G.3.3.2.2.2.2.2.2.2.2.2.2.2.2.2.2.1.1.2.1.1.,.<.<.>.' 1.7.D @ +XxX*X&X=X=X3XlXU P H.3.L.G.G.J.=.$ U 3X$X4X$X8.D H :.q.3X3XIXIXH o 7.5.,.<.<.>.>.<.>.>.>.>.[ <.<.<.>.<.<.<.<.<.<.<.<.>.>.>.>.5.A % o 1.-.,.4.1.<.<.<.<.<.<.>.>.>.[ [ <.T -.Z 9 H t G r & 1 -.,.-.>.` >.>.>.=.=.=.=.-.-.-.-.-.U A A A & 9 Z O @   j kXjXkXkXD.h.f.h.g.S.S.h.g.A.D.A.S.D.D.D.m.c.M.M.x.d.d.d.d.d.p.i.i.i.i.k.z.z.z.( d q 0 G G A A S C < 4 Z S A F F Z 9 4 4 4 e e e 4 9 9 9 4 4 4 4 4 4 1 < * & % ; ..-...U Z M 9 9 C M 3 9 9 1 F -...U U H r r S Z 3 * < > > > > > * 3 M C M C C M C M 9 9 9 9 9 9 3 Z 9 9 1 1 < * * * * * * * * * * * * * * * * * * * * * * * * * * * * > 9 9 < * ; ",
"C Z Z 3 4 9 * $ > * * * > , > > > * * * * * * * * * * * * * * * * * * * - 9 Z 8 9 9 9 C Z F F F Z F -.-.F % % * * * * * * * * * < < 9 e Z F U U :.7.^ I U 3 * - * 9 9 1 1 9 A U U F 4 4 9 9 Z Z Z 9 e e 9 9 9 4 9 9 Z Z 3 9 M 3 Z ^ ^ u q s z.z.x.x.x.i.a.a.a.d.d.h.h.d.d.d.d.d.d.A.m.h.g.D.D.A.f.h.F.D.A.h.g.h.h.A.D.kXD.n X p _ P I ` U $ 6 $ % * % % % & O O f l.k.f d s s s f k.l.u.u.u.u.l.l.l.l.k.f s s s ! ! f f f l.l.u.u.u.u.u.u.u.u.u.u.u.u.u.l.k.( s ! q O = 8 8 Z H D e o % D ^ H D 2 t H H D H F 8 o O d ) ! s f k.l.u.u.l.u.l.l.y.f f d q q % = * ; * ; 8 r r r e r e r D H -...8 = , ! ! s s s s s f y.l.u.l.( q O S 6.,.1.1.3.<.2.2.3.<.3.3.G.3.3.1.2.2.2.2.2.2.2.2.2.2.1.1.1.1.2.2.1.1.1.1.1.1.>.2.5.H + $XxX*X*X*X*X3X2X- S J.K.<.L.<.3.' S -.o 7 y w } H u {.IXPXxXwX5X} + H -.' >.<.>.<.<.>.<.<.<.<.<.>.<.<.<.<.<.<.<.<.<.<.3.<.>.=.1.m % 1 5.5.1.,.<.<.<.3.<.<.<.<.>.>.>.[ <.' ' S 8 D D D r o & -.1.-.<.' >.>.>.=.=.=.-.-.-.I I I U A S S Z t 7 X &.n s.A.A.h.h.g.h.h.j.j.g.g.h.h.h.A.A.A.g.S.A.h.h.M.M.d.d.d.d.d.d.d.a.a.i.p.x.x.k.k.h s d G ~ ~ F Z Z C 5 4 S Y Y F F Z e C C 9 C e 4 C 9 9 4 4 4 4 3 3 1 1 * * 1 1 e ..-.-.U e 9 9 M M M 4 1 8 9 F ....U ..^ D 9 e e 3 * > > > > < > * 3 M C M C C M C 1 3 9 9 9 9 9 3 9 9 9 Z 9 < * % * * * * * * * * * * * * * * * * * * * * * * * * * * < 9 9 < < < ",
"M 9 M 4 9 9 * $ * * * * , , > > > * * * * * * * * * * * * * * * * * * * * 1 9 9 8 9 8 9 Z Z Z Z Z F -...U 9 9 ; * * * * * * * * < < 9 e e F H F -.-...-.-.F Z Z * 4 9 4 9 9 Z F Z Z Z F Z 4 C C Z e C e C Z Z 1 9 4 9 9 3 9 Z 9 F ~ / / ( k.z.x.x.p.s.p.s.d.d.h.h.h.h.f.h.d.d.d.f.m.h.h.h.S.D.g.f.h.h.h.g.D.S.h.f.h.S.A.A.c.s.n.u K R I U C S $ % $ * * * * = O h l.l.f f f s s f k.u.u.u.u.u.l.y.u.l.y.f d s s ! ! f f f l.l.u.u.u.u.u.u.u.u.u.u.u.u.u.l.l.h s s q O = t r r e 2 2 2 2 r G D t r D H H D D Z 8 = = d ! s s f k.l.y.u.l.y.l.l.y.y.f d q = % = * 1 & ; 8 e r t r r e D D H -...1 = = d s d s s s s f y.l.u.l.( # O S 6.,.1.1.2.<.1.1.3.3.3.3.G.3.3.1.1.2.2.2.1.2.1.1.2.2.2.2.2.2.2.2.1.1.3.3.G.G.H.<.5.K O %X3X*X3X*X#X3X4X% J J.3.<.<.H.H.' K K :.O.O.} @.@.+.+XO.@.&XwXwX3X3X+X< J >.<.[ >.<.>.>.<.<.<.>.>.<.<.<.,.<.<.<.<.<.<.[ <.<.1.5.C % < ,.1.,.=.<.<.<.3.<.<.<.>.>.>.>.>.<.>.L 4 9 r D G 8 % % U ,.' [ >.>.>.>.=.=.=.-.-.-.I U U Y A S Z ; + @ @ 6XjXD.S.f.f.f.h.S.D.S.j.m.h.f.g.A.F.F.F.g.g.S.j.h.m.M.d.d.d.d.d.d.d.d.d.a.i.p.p.i.i.z.z./ ~ ~ ~ D r S Z e 9 S J S C C 9 e C 4 4 C e 4 C 9 9 8 4 4 4 4 3 4 4 * 1 H ^ ^ -.^ I F 8 9 M M M M 9 1 Z U U ^ ^ F H F D 8 3 1 1 * > > > > < > * 3 M C M C C M C 3 Z U U U U U F Z 9 9 Z 9 < * * 1 < * * * * * * * * * * * * * * * * * * * * * * > * < 9 9 1 < < ",
"9 9 9 4 9 9 * * * * * * , , > > * * * * * * * * * * * * * * * * * * * * * * < 1 e e C Z Z Z Z Z Z D X.I ....-.F * * * * * * * * < < 9 9 e A D F U -...^ ..-.7.-.* < 1 1 9 9 1 4 9 F I -.U 9 C e S D S Z Z F A < 4 1 9 9 1 9 Z 9 Z r d ( z.z.x.p.p.a.a.p.d.M.h.h.h.h.h.h.d.f.h.d.f.g.j.h.g.S.D.g.f.h.f.f.g.D.D.h.h.f.h.f.A.kXkX6Xa H ..U I P P $ % * * * * * = # h l.k.f f f s s f l.l.u.u.y.u.l.u.u.l.y.f s s s s s f f f k.l.l.u.u.u.u.u.u.u.u.u.u.u.y.u.k.f d q q o 7 H D 8 & o - H H D G D D H D H U D r 0 0 B q ! ) s s f f l.y.u.u.y.l.l.y.l.k.d = = % $ * - & ; 9 e r r r t t D D I 7...2 % = r d d d d d s f y.l.u.l.( # O S 6.,.1.1.2.<.1.2.2.2.2.3.3.3.1.1.1.2.2.2.1.1.1.1.1.2.2.2.2.2.G.G.1.1.1.3.G.G.3.3.I.A o _.3X4X3X*X*XwX3X& Y 4.>.J.<.<.2.E K S lX3XxX3X4X5XxX3X@ . 4XAX3XwXSX+Xo S ,.4.>.>.<.[ >.<.<.>.<.<.<.<.<.<.<.<.<.<.<.<.1.3.<.=.4.S $ < ,.5.1.>.1.1.>.<.<.<.>.>.>.>.>.>.-.,.C $ 9 e r D 8 2 3 U 1.=.` ' =.=.=.=.=.-.-.-.-.U D A A A S r o ~ b.z.kXkXD.A.f.h.f.h.S.S.m.h.m.a.a.h.S.kXkXS.g.g.g.h.h.M.M.d.d.d.d.d.d.d.x.x.a.i.i.i.p.x.z.k.( / g u 0 e F A Y S S S C 1 3 4 4 e 3 3 C C 4 4 e e 9 8 4 4 4 3 4 1 % 1 ..:...U S F Z 4 9 C M M 9 9 4 U :.-.....S e 8 9 9 1 * * * > > > > < < * 3 M M M C C M Z Z I ;.6.6.;.;.;.U Z Z Z 9 3 3 9 3 1 < * * * * * * * * * * * * * * * * * * * * * * % > 9 3 < 1 < ",
"9 9 9 9 4 1 * * * * * * * * * * * * * * * * * * , , > , , , , * * * < * * * < < 9 9 C C C Z Z e e S S C F -...Z $ 1 * * > > < * > > 9 Z 9 9 M C U F ^ -.^ ^ ^ U * 1 4 4 4 9 4 9 M Z ^ -.U U S Z Z r S Z e F Z 1 4 4 9 9 4 C Z 9 G ~ ) h h i.p.x.p.i.i.d.d.d.j.f.h.d.h.h.d.d.j.h.j.j.g.g.g.S.S.S.f.h.f.f.g.D.D.F.S.h.f.f.D.kXD.A.X g y U =.J -.- o & - $ $ * = = ( k.k.h d f f f f l.u.u.u.u.u.u.u.u.l.y.f s s s s s s f f k.l.u.l.u.u.u.u.u.u.u.u.u.u.u.u.k.( # q = O ; 0 r 0 & o 2 D Y F D t t H H H ^ D % = / ! ! ) ( f f f k.l.u.u.u.u.l.l.l.l.k.d # = $ % > * * - 3 e r r r r t y H ..H ..2 = % 0 q q q / ) d d y.y.u.l.h # O F 6.,.2.2.2.<.2.2.1.1.2.2.2.2.2.2.2.2.2.2.2.2.2.2.2.2.2.1.2.2.1.3.3.3.3.3.3.3.G.>.5.K 4 _.zXxX3X*X#X3X4Xo e 5.>.G.[ G.' 2.L.m xXLXxX3X3X=XwX5X7 : 3XLXvX0X=XB.  ..U T 2.<.<.<.<.<.<.<.<.<.<.<.<.<.<.<.<.<.<.<.>.>.<.1.>.V % % ,.>.<.<.<.<.<.<.<.G.<.[ <.>.' >.=.-.3 % 1 9 r e I -.-.` =.=.' ' =.>.>.-.7.-.^ ^ -.U Y Y Y A : 2 o &.kXD.D.g.S.m.f.h.f.S.F.F.m.j.h.h.f.h.S.S.S.S.g.S.j.h.h.g.M.d.d.d.d.d.d.x.d.d.a.i.i.i.z.x.x.k.h #.~ 0 S Z A S U Y A Z 3 1 8 4 9 9 9 9 9 9 9 9 4 4 4 4 4 4 4 4 1 2 % & ^ -.-.U F U C 9 M 9 M 9 1 8 ; S -.-.^ U 9 9 Z S Z 1 < < * 1 < < * * 1 * 4 M C S C m M * 9 ^ 6.6.7.;.;.-.A Z Z Z C 9 9 9 9 9 < $ * < * * * * * * * * * * * * * * * * * * * * > - < < 1 < ",
"1 1 1 < > * * $ * * * * * * * * * * * * * * * * , , , , , , * * * * < * * * < < 9 9 C C C Z Z e e Z e e U 7.-.Z * 1 * * * * 1 > * * 9 Z M 9 M M Z Z U -.^ ^ ..U * 1 4 3 3 3 4 9 M 9 A A S U U Y ; 2 8 e Z F F 4 C 3 4 C C C Z 0 G / ( k.i.p.x.x.p.p.p.d.d.d.d.m.d.d.h.d.d.d.d.f.j.j.g.g.h.g.g.g.F.F.h.h.g.D.F.F.g.g.h.f.f.h.m.A.Z.&X~ 8 J S -.: o % $ $ & * = = s ( f f d f s f f l.u.u.u.u.u.u.u.u.l.y.f s s s s s s s f h y.y.l.u.u.u.u.u.u.u.u.u.u.u.y.k.f # = = = 0 r D r % o 2 D D Z r r D H D D H D = = / ! ! ! ! f f f ( y.y.u.u.l.u.l.l.l.k.d # = $ $ , < ; 1 8 e r r r r u u D ......; o , ^ -.G , 0 q q d h y.u.y.( d O F 6.,.2.2.L.<.2.2.1.1.,.,.2.3.2.2.1.1.2.2.2.2.2.3.2.2.1.1.2.2.1.1.1.1.3.3.3.1.4.2.E.6.1.R.7.y +X=X=X*X3X$X2X-.6 >.>.G.1.<.<.' E.:.#XwX=X=XwXxXy o t.%Xq.*XwX#XxXzX^ 5 <.L.<.' >.<.<.<.<.<.<.<.<.<.<.<.<.<.<.<.<.<.>.1.1.P J K <.<.<.<.<.<.<.<.<.<.<.<.<.1.<.>.1.-.3 % 9 8 9 4 I -.=.-.=.-.=.=.=.=.=.=.-.-.^ ..Z S Y Y U Y ; : @ #.D.A.h.a.a.a.a.m.g.S.S.D.m.h.h.D.D.S.S.g.g.g.g.S.j.h.h.j.M.d.d.d.d.d.d.d.d.x.d.x.i.h i.p.x.x.h #./ r Z M Z M A Z C 4 4 C A S 9 9 9 9 9 9 9 9 4 4 4 4 4 4 4 4 2 D H F ....-.F Z A 9 4 M 9 M 9 e H F I ^ U I ^ M 9 9 M 9 > * * 1 9 1 1 1 1 3 $ 4 C C C M S -.-.I -.-.U A F F Z Z Z Z Z C 9 9 9 9 9 1 * < * * * * * * * * * * * * * * * * * * * * * * * - < < < ",
"1 1 < * * * * * * * * * * * * * * * * * * * * * * * > * > > > > * * * * * * < < 9 9 C C C C Z e Z r 8 e I 7...S % < * * > < 3 1 * * 3 Z 9 9 9 9 9 M U -.^ ^ ..^ $ 1 4 4 9 C M C M 3 4 1 C I I U 8 2 2 4 r F F e Z 3 3 M Z Z Z 0 G / ( z.z.p.d.x.p.i.i.d.M.m.c.c.c.M.M.M.M.d.d.j.j.j.g.g.h.h.g.g.F.F.h.h.g.S.m.A.A.S.S.f.a.a.f.D.kX6Xg O A K ..% % % & & & * * = # q d s d s s f f k.u.u.u.y.u.u.u.y.l.y.f f s s d s f s d s f f l.l.u.u.u.u.u.u.u.u.u.u.l.k.f # = 0 r G G H D % o 2 D r 8 3 e D H D D D r O = / ) ! ! f f f f ( k.l.l.l.u.u.l.l.l.k.d = = * $ , 1 3 8 9 r r r y y y D u ..;...- o 4 6.[.-.< * O O # f y.u.y.( q O A 5.,.1.<.3.1.1.1.1.1.1.1.1.1.1.1.2.2.2.2.2.2.2.2.2.2.2.2.2.1.1.1.1.1.1.1.1.3.1.,.1.1.E.E.r . $XwX3X#X#X*XxX..% 4.H.<.<.[ E H.Z . $XKXqXwX5X3Xu o r 7 + #XAX5X3XxXD % 1.<.<.H.<.>.>.<.<.<.<.<.<.<.<.<.<.<.<.<.<.<.>.<.1.>.-.2.<.<.<.<.<.<.<.<.[ >.<.<.<.3.<.T -.-.C 9 C 1 9 U I -.=.=.=.=.-.=.-.,.-.-.-.I U U F U U S Y D : + # z.D.A.g.f.a.a.a.m.D.D.D.D.m.f.a.S.D.S.g.S.g.S.g.g.g.h.f.j.M.d.d.d.j.M.c.c.m.m.c.c.i.h i.p.p.p.k.z.( g G Z F S C 4 1 3 9 A Y A 4 4 4 4 4 4 4 4 4 4 4 4 4 4 4 3 ; F 7.-.-.^ ..S 4 C 4 9 M M M 9 Z ^ ..^ ^ U I ^ Z Z M 9 3 1 > * < < * < < < 1 % * 1 1 < > Z 6.Q.6.7.^ F Z Z Z Z Z Z Z Z Z M 9 9 M M 9 9 9 > $ * * * * * * * * * * * * * * * * * * * * * * - < < ",
"1 1 < * * * < < * * * * * * * * * * * * * * * * * * * * > > > * * * * * * * < < 4 1 9 C 9 C Z C Z Z e Z U ..I F * 1 $ $ < > * $ * * 1 9 9 9 9 9 9 9 U ^ U ^ ..^ - 3 1 1 9 9 4 9 C 4 4 < C ^ I Y U F e 3 9 Z S C Z 4 4 9 C Z N 0 / / ( z.x.p.i.i.x.p.d.c.m.c.j # # j j a.d.h.d.j.j.j.g.g.g.g.g.g.F.F.f.f.m.A.A.D.A.A.D.h.f.a.f.kXD.D.n # H ^ -.< $ $ & & & & - & = O # d s s s f f k.u.y.u.u.u.u.u.u.l.y.f f f s s s s f s d d f l.u.u.u.u.u.u.u.u.u.u.l.l.k.h # = G H H G G Z & % 2 D e 3 2 r H H H D D e & ; / ) ) ! ! ! ! ! ( k.k.k.k.y.u.l.l.k.( d = ; * * * 1 3 9 r r r r y D t H H H ^ e 2 % 4 ,.,.L 5 3 , = q s f u.y.( q O A 5.,.1.<.3.<.3.1.1.1.1.1.1.3.1.1.1.1.1.1.1.1.2.1.2.1.1.1.1.1.1.1.1.1.1.1.1.1.3.4.5.4.P.5.S ; 2XUX3X3X#X#X2XH % >.H.[ <.L.L.J.K - 2XIX3XwXwX5X+ : 8 & t {.3X3X*XxXH 2 P.>.E [ <.<.>.>.>.<.<.<.<.<.<.<.<.<.<.<.>.<.<.>.<.<.>.<.<.<.<.<.<.<.<.<.<.[ <.>.' <.=.J A S 4 S Y 4 A -.-.=.=.' =.=.=.-.R -.,.,.-.U F S F U U S F ; X @ X s.D.g.S.h.a.m.m.D.D.D.D.D.m.d.f.D.D.S.g.S.g.g.g.g.g.h.f.j.j.d.p.a.a.a.h h i.i.c.x.i.h i.x.p.p.z.z.h g u r Z Z Z 4 4 4 M S A Z 4 4 4 4 4 4 4 4 4 4 4 4 4 4 4 4 - F -.-.-.^ -.9 1 9 4 9 M 9 M 3 Z ^ ^ ^ ^ I U F M Z M 9 9 9 < * * < < 1 * 1 C 4 F U F C 3 9 I -.-...U F F F F S Z Z Z Z Z 9 9 9 9 9 M Z M < $ > * * * * * * * * * * * * * * * * * * * * * * * * ",
"* * * * * * * * * * * * * * * * * * * * * * * * * * > > > > * * * * * * * * < < < < 1 9 9 9 C Z e Z Z Z S D F ^ ^ U 1 * 1 < * * * - - < 3 9 M C 9 9 Z F Z U -.^ I U 9 < 9 9 4 9 M M C 3 C I U F I L C 5 1 C Z C Z S M 3 4 C 0 , g h i.z.x.p.i.i.i.p.x.x.h h # # X j a.a.f.h.d.j.j.j.j.g.g.g.g.g.D.D.h.h.m.d.h s.j j m.S.m.f.f.S.D.D.z.# u D I Z < - & & & & * - - = # s ( ( s f f l.u.u.u.u.u.u.u.u.l.y.f f s s s s d s d d d s k.u.u.u.u.u.u.u.u.u.l.l.k.( d # = r G G D 8 2 * - 8 r e e e Z F H F F S 9 $ * G B B q q d d d d d d d d f k.k.y.k.( q = = = = * < 1 9 e r t r r 7 : D ..H D e -.` ` 2.1.,.' ,.-.-.^ d j y.y.( q % J 5.>.3.3.L.3.G.3.1.1.3.3.G.G.3.1.1.1.1.1.1.1.1.1.1.1.1.1.1.1.1.1.1.3.3.3.3.3.<.<.H.H.H.H.5.P.D i q.3X$X*X3X..- J <.<.L.H.H.<.[ P 0.7.} @XxXxX3XIX_.8 t 7 + O.AXwXw O 7.4.H.<.<.<.<.>.<.<.<.<.<.<.<.<.<.<.<.<.>.<.<.>.<.<.[ ' <.>.>.>.<.<.<.<.<.[ <.>.' <.=.J 4 5 % Z =.I P -.=.' R ' ' ' =.=.I I -.=.R I U F S A A 9 Z O g n.n A.S.h.g.f.a.m.A.d.j j j j h s.s.S.F.S.S.g.g.g.g.g.j.h.d.j.j.d.d.s.i.s.j X # j x.x.i.j i.i.i.x.s.x.h ( / u G Z Z Z S S Z S S C 4 m m 4 4 4 9 8 4 4 4 4 4 4 4 4 1 S -.-.-...-.9 1 9 9 9 4 1 4 1 M ^ ^ ^ ^ F Z 9 3 9 9 9 9 1 * * - 1 < < $ 8 ..-.E.Q.6.6.-.U U S S S A F F A Z Z Z Z Z Z Z 9 9 9 9 9 9 Z 9 * % * * * * * * * * * * * * * * * * * * * * * * * * * ",
"* * * * > * * * * * * * * * * * * * * * * * * * * * > > * * * * * * * * * * < < < * 1 9 9 4 C Z 3 r r r r 8 D -.6.7.8 % - * < 1 - < * * 1 9 M C Z 9 9 9 9 U 7.7.:.-.Z - 9 C 9 Z 9 M M 1 C U U U L Y Z 4 9 9 4 4 Z Y S 3 1 9 0 q h h i.i.x.p.y.y.x.x.x.s.# # q q # n.A.c.f.f.f.j.h.j.j.j.g.g.g.g.g.A.f.m.c.h # # # # c.F.A.f.a.f.S.D.c.n #.u y < 4 - & & & & * & $ O # ( k.k.f f f k.u.u.u.u.u.u.u.u.l.y.f f s s s s d q q q q d k.k.l.l.l.u.u.u.u.l.l.y.f d # = = r G H r & * 1 8 e e e Z S S F F Z 4 < * % % 3 , = = = = = O O o O X # f k.k.k.k.( d = , = = = < 1 8 9 r r t u y : D ..Z & % 7.1.' >.[ 3.>.3.<.J.;.q # y.k.( # % J J.,.3.3.L.3.G.G.2.3.3.<.G.G.3.1.1.1.1.1.1.1.1.1.1.1.1.1.1.1.1.1.1.1.3.3.L.L.Y.L.L.G.<.G.I.R.V o 0.IX3X*X3X|.7.Y >.G.L.<.L.<.<.3.T e : q.wX3XxXPX... t ; w +XPXwXw...H J H.L.<.<.<.<.<.<.<.<.<.<.<.<.<.<.<.<.>.<.<.>.>.<.<.>.>.>.>.>.>.>.>.>.<.[ <.<.>.,.=.J m m 5 J 1.,.' T ` T T R ' =.,.,...^ T P Y Y L U U Y A 5 1 O b.jXkXD.S.S.A.f.a.m.D.d.j j # X h n.s.D.S.g.g.g.g.g.g.g.h.f.d.j.h.d.s.c.c.n.( X X j x.x.i.h i.i.i.p.p.x.k.#.#.~ G Z e S Y U A A A S 4 4 4 4 4 4 4 4 4 4 4 4 4 4 4 4 < Z -.-.-.-.-.Z 1 9 9 9 1 1 M 4 9 ^ -.^ F 9 9 9 9 M M M 9 < $ * % % % % % e :.6.6.E.6.6.6.7.I Z C S F F A Z Z Z S Z Z Z Z M 9 9 9 M C M 9 * % * * * * * * * * * * * * * * * * * * * * * * * * * ",
"* * > < < > * * * * * * * * * * * * * * * * * * * * > > * * * * * < * * * * < < < * 1 9 4 1 9 C e Z Z Z S e S -.;.-.8 % * & & - * - * & 1 9 9 M Z 9 9 9 9 U 7.-.-.^ Z - 4 9 4 C M M 4 1 M F Y L U U A Z Z r 4 4 C F A 9 4 9 r d h i.i.i.x.i.h h i.x.x.z.# # 0 r # z.m.m.f.f.f.d.j.j.j.j.g.g.g.m.g.m.f.c.z.d q 7 a # c.A.g.f.a.g.h.m.A.D.&Xg : < 4 - & & & & $ - < ; q ( z.k.f f f k.u.u.u.u.u.u.u.u.l.y.f f f s s s q q q q q q ( h h u.l.u.u.u.u.l.k.f d # = = = G ~ U 0 % & 8 e e e r D D S D F 8 % % < > < M M M M 3 9 9 3 3 M M , = s ( ( ( ( ) q = = = = = < 1 8 8 0 r u u y y u ..e o % =.1.>.<.>.3.>.<.<.>.;.# # i.k.( # % J J.,.<.<.3.<.G.G.2.2.2.L.L.L.G.3.3.3.3.3.3.3.3.3.3.3.3.3.3.3.1.1.1.1.3.3.G.G.H.<.<.J.J.H.J.2.R V E.3X+X4X#X$Xr.H I T >.<.<.H.J.Y.J.5.S q.vX=XwX5XO.} :.y 8 8.4X*XvXxX~ 6 1.2.<.<.<.<.<.<.<.<.<.<.<.<.<.<.<.<.<.<.>.>.>.<.1.3.>.<.<.<.>.>.>.>.<.>.>.>.=.' K V 5 P P ` ,.-.=.' ` I P ' ` ` -.-.^ U L J A S A S F A K 4 8   #.kXkXS.h.g.M.f.f.A.S.s.j g q = / #.s.D.D.g.g.g.g.g.g.g.h.f.h.h.d.d.f.c.z.n./ O # j z.x.s.i.i.h f i.p.s.i.( ( ~ G Z Z S Y F S Z S Z 4 4 4 4 4 4 4 4 9 9 9 9 M M M M * Z -.^ -.U ^ Z 1 9 4 9 3 9 F F Z ^ I U F 9 9 Z M M 9 9 9 * * e Z e e r e F ;.....-...-.-.^ F r A F F Z C C C Z 9 9 9 9 M 9 9 9 1 9 9 3 1 < * * * * * * * * * * * * * * * * * * * * * * * * * * ",
"* * * * * * * * * * * * * * * * * * * * * * * * * * > > * * * * * < * * * * < < 1 < 1 9 4 1 4 e F S Z F F Z S ..;.;.F Z Z 1 & * * ; * & 1 M 9 9 9 3 9 M M U -.F ^ -.U Z A Z 4 C M 9 4 3 Z F A U F U Y F F F Z A 4 Z Z r r r ! ) ( z.i.i.p.i.f i.i.x.s.z.# # 0 7 # h c.m.M.d.f.d.j.j.j.j.g.g.g.m.m.A.a.h j # ; ; + # c.D.S.f.a.j.g.h.A.6X6Xg + D 4 < & & & & * < * = # ( z.k.f f f k.l.u.u.u.u.u.u.u.l.y.f f f s s ! B r Z r 0 u # # d h l.u.u.u.u.y.h f d q 7 1 % G ~ H 8 O & 2 e e e r H D S D H 8 % > J E =.,.,.1.,.,.,.1.,.,.-.-.A = = q # # q q O = = = * = < 1 8 8 0 r u G D ~ H ..8 o % U =.' 1.>.<.[ <.<.,.6.q # y.y.( q % J J.,.2.1.3.1.2.2.2.2.2.2.L.G.3.3.3.3.3.3.3.3.3.3.3.3.3.3.3.1.1.1.1.1.2.2.2.3.G.G.1.2.G.1.2.J.J.P.` o : 3X$XB.q.H S 5 [ J.<.<.G.' G.J.$ O.PXwX0XwX3XvX2X8 - D p z wXIXH : K.,.<.<.<.<.<.<.<.<.<.<.<.<.<.<.<.<.<.<.<.<.>.>.<.>.>.<.<.>.>.>.>.>.,.<.>.=.R J 5 % 6 ` -.' ' ` ` ' -.I ` =.` ` I I D S Y L A S Z 4 8 4 C 5 t X z.kXD.S.f.h.f.a.m.S.S.d.j g q q g # # Z.F.S.g.g.g.m.g.m.m.h.h.d.d.d.S.c.j # 0 = # d z.x.d.s.i.h h z.x.x.i.( ( ! ~ H S S F A C 9 9 3 4 4 4 4 4 4 4 4 9 9 9 9 M M M 9 3 F ^ U U Z A 1 1 9 9 M 9 Z ^ ^ ^ ^ S S F Z 9 9 9 3 > < 1 $ > F E.6.6.t.6.:.-.Z I ^ F D F F F F Z Z C < $ $ * $ * * * * > > > > $ * * * * * * * * * * * * * * * * * * * * * * * * * * * * * * * ",
"* * * * > > > > > < < * * < 1 4 < * * * * * * * * * * $ * * < * < * $ * < < * * < < < 1 1 4 9 8 S U H F F Z Z I ^ ^ 6.:.e % * & * * $ $ 1 M 9 9 M 4 9 Z M 9 M Z ^ U ^ ;.-.Z * 1 M M M M C C S Y U H U U H U U Y Z Z 1 t 8 7 / s k.k.p.p.x.i.f h p.d.x.i.# # O 0 = g ( j j x.d.f.h.h.j.S.h.D.A.m.m.m.s.j # q 0 , y # c.A.g.j.a.j.g.g.A.D.6Xh 7 t 2 5 6 & - - $ 1 - O # ( k.k.f d f ( k.y.l.u.u.u.y.u.u.u.y.f s s ) / ^ ^ U I P F o O d ( k.k.l.l.k.k.( d q q , 9 G r G ~ r = o 8 8 ; ; D D r H D D e o o -.,.' =.=.,.,.,.-.-.,.,.>.-.S o o O O O O O O = , > > $ < ; 8 r D t 8 G ~ ~ H ..e o o I =.=.=.>.' [ <.>.<.,.q # k.l.k.q O A 6.,.,.1.2.>.<.1.4.1.1.,.<.2.3.<.1.1.1.1.<.>.1.1.,.<.1.<.1.4.,.4.,.,.1.,.>.1.1.1.1.1.1.1.1.1.2.>.5.- t 3X*XB.B.$X0.6 <.T.[ G.G.3.2.<.4.7.+ &.cX3X=X*X8.o M Z :.O.xXxX} . S 6.H.<.[ 1.>.>.3.>.<.3.>.[ <.<.>.<.[ <.<.[ 3.<.[ <.>.>.>.>.>.>.>.>.>.<.<.=.K V V V S K ` =.` ` ` ' ` -.` -.7...I I H D S A K A Z S e 4 4 < y X s.D.D.g.f.j.j.a.f.S.S.c.j ) 0 N u q # Z.A.g.g.g.A.D.S.m.g.h.m.f.s.c.D.n.# . 9 Z O d z.x.d.p.s.j h z.x.x.i.h ) / ^ A A A Z Z N 9 4 3 2 2 2 3 3 3 8 8 3 9 9 8 3 < < 3 % S 7.^ 9 Z Z 4 9 1 < 1 9 Z U U -.-.U F U S 3 9 1 < 4 $ * 1 * Z :.:.:.6.:...U I -.....^ I U H F C F Z * * * * * < > > > , , > * > * * * * * * * * * * * * * * * % % * * * * * * * * * * * * * * ",
"* * * * > > > * * * * * * < 4 9 < < * * * * * * < < < * * < < * * 1 1 4 4 4 4 4 < < < < 1 1 4 4 e S D D F S S U F H -.7.H F F 8 % * $ % * 1 3 3 9 M N Z Z Z S A U U -.7.-.U F S 4 9 3 3 4 4 M F F D H U F F F A F F 9 D r 0 ) f k.k.k.p.x.i.f h p.d.d.x.z.h q q = ; q # j m.h.f.h.m.m.m.j j j c.A.m.s.i.d X ; 0 q # c.A.g.j.a.j.j.f.j.D.D.h q H < 5 $ % * & % * 7 O # ( k.k.f f s f f f l.y.u.y.y.u.u.u.y.f f d q G I ` P P P L K H ~ ! s f f f s d d q q = - 9 D r F D 8 ; ; 9 3 r r F H H D 1 e 2 o % I -.R ' ,.,.,.,.>.>.,.,.=.>.] K K K A Y -.r = = & % * * - ; 8 r D t y H ....~ ..e o % I ,.>.,.1.<.3.2.1.<.6.= # y.l.k.d = J K.,.>.>.2.2.1.1.,.,.2.1.<.2.2.2.1.1.2.2.2.2.,.1.<.<.1.1.<.1.,.1.1.1.4.1.1.4.1.1.1.1.1.1.1.1.<.5.=.% t $X*X*X3X3X0.% J ] ' [ <.3.J.G.H.` & :.LXwXwXwX%Xy Z S H y 3XxX$X$Xt.S ' 2.3.<.>.<.G.[ <.<.>.>.<.<.[ [ [ <.[ [ <.<.[ <.[ [ [ [ [ [ [ [ [ [ [ <.<.>.' =.' =.=.=.=.=.=.` -.-.` I _ U Y D Z Z S A S S C 4 2 4 C 9 r X n D.F.g.h.j.f.a.f.A.S.c.j g q 0 # # # c.A.A.A.d.j j a.c.m.g.h.d.x.h j j # = G 0 # h z.x.x.p.s.j h z.x.z.i.( ( d Z Z Z C C M N M 9 9 4 2 2 3 3 3 8 8 3 8 3 8 D F Z F I U ^ F 9 Z C < 1 4 4 e S F F F -.^ S 9 Z 9 < 3 9 1 4 % - F F ^ 6.:.:.6.:...D D F F D S S Z Z Z 9 A Z 1 < < > > > > * * > > > * * * * * * * * * * * * * * * * < 3 3 1 * * * * * * * * * * * * * ",
"* * * * > > * * * * * * * 1 9 Z 1 < * * * * * * * < < * * * * $ $ < 9 C 9 4 9 9 1 1 1 < 1 1 1 1 9 Z e Z F F F U Z F -.-.^ ;...r * - * * * * > < 9 M N 9 9 Z M 9 F U ;.:.-.-.-.^ < 3 9 9 9 4 9 S F F I U F S A S F A 9 D t 0 ! f k.k.k.p.x.i.f h s.x.s.x.n.z.# X 7 O X X j m.m.f.j.m.x.z.j # # z.A.h.c.Z.n.# X X # # c.A.S.h.a.h.f.a.h.D.D.h q ~ 4 5 6 $ $ * * * = O # #.z.k.f d d f f f l.u.u.u.l.l.l.l.y.f s q o < K ] K K P K ' ` F , O O # O q O = ; = = 7 D G F G 8 * 9 r 9 ; r D F H H D 1 % % o o L =.' ' [ [ [ [ ' [ [ [ R =.>.>.3.' ' 2.P.Z o % * = * * < ; e t D r y H ....~ ..e o % ` >.[ >.<.[ [ <.<.<.4.= # k.l.k.d % J J.1.>.[ 3.3.G.3.>.<.G.2.<.3.3.3.<.<.<.<.<.<.3.1.<.<.2.2.3.<.>.<.3.<.G.G.3.3.3.3.3.3.2.2.3.3.3.H.=.S Y H i |.4X3Xt.` =.J [ [ [ <.L.L.L.' S :.+X&.5XAXxX} 2 Z H y 3XvXwXPX%X% J H.H.<.<.[ <.<.<.<.<.3.L.[ [ <.L.L.[ [ <.<.[ [ [ [ [ [ [ [ [ [ [ ' ' [ [ [ [ ' =.E T T ` =.=.` =.-.I Y A S Z e Z 9 S S C C S 4 8 4 V 9 t X s.D.S.g.h.h.h.h.h.S.S.c.# X X X # h h A.S.m.c.s.# # # s.m.m.h.h.m.h X X X O 7 O # ( z.x.x.p.k.j h z.x.z.i.k.) q ; e 3 5 1 3 3 4 4 3 4 4 4 4 3 3 3 3 4 9 1 9 ..;.-.7.6.^ F Z 9 C 1 * - 9 F ^ -...I F ^ H 9 < 1 1 < 9 3 * < % * ..:.:.^ H H U ^ U F F Z r Z e 9 Z Z Z Z S 9 * * * 1 1 * * * * * * * * * * * * * * * * * * * * * * * < Z 9 < * % * * * * * * * * * * * ",
"> * * * > > * * > > > * > 1 9 Z 1 < * * * * * * < < * * * * * * $ < 9 C 9 4 9 9 4 1 1 1 1 1 1 1 9 e 8 e S S Z F Z H -.-.I -...r - - - * * * * * M M 9 3 9 M C C ^ ..7.;.-.-.-.-.* 1 4 9 C 9 4 9 Z F U U F F F F S F Z D r 0 s f k.k.l.p.x.i.f h z.x.p.d.x.i.# # # # # # j c.h.h.M.c.j # q q # z.m.h.h.A.c.j j j j j h.m.S.g.f.h.f.f.h.D.D.h d ~ 9 < $ % % % & & O O O ) ( ( f d s d f f l.y.l.l.k.k.k.k.( ! s q = 9 P ] ] P ] ] ] ] J 3 > * = % $ % * * $ * ; D F G F - & e r 8 9 r D H D D D 1 o % > $ P =.=.' ' [ ' [ [ [ [ [ =.=.' [ [ P ] 5.6.< o % , 1 * $ 1 1 r D t r y D ....H ..y o o I >.[ >.<.[ <.1.1.<.5.= # k.l.k.q = J K.4.G.3.3.<.3.<.<.3.2.<.[ <.3.<.<.<.3.3.3.<.1.1.3.<.1.2.3.3.3.G.G.3.3.G.G.2.3.1.3.3.3.3.3.3.3.>.4.5.6.e o t.3XUX4X2X-XS ` 2.>.[ [ [ [ <.<.,.o + 5XAXwXp 7 H t u 3XAX3XxX%Xo L H.L.<.H.<.[ G.<.[ >.3.<.[ [ L.[ [ [ [ <.<.[ [ [ [ [ [ [ [ [ [ ' ' [ ' ' W W E T T T P T ` -.-.I -.^ S 9 e e C S Z Z Z S 4 4 4 e 1 5 5 r X s.D.S.h.h.h.h.h.h.S.A.c.j j j j j z.x.A.m.f.h h # p q h c.m.f.f.m.s.# # # X # # # i.z.x.x.p.k.f h z.x.z.i.( ( q ; e 4 3 3 4 4 4 3 1 4 4 4 4 3 3 3 3 3 e - 1 ^ 7.-.:.6.U A Z 9 1 1 e - 3 S U I U H D Z Z 9 1 1 1 1 9 1 * 9 * 1 -.6.-.-.I Y D S Z Z S S S Z Z Z Z Z Z Z Z 9 < * > 1 9 > > > > > > > > * * * * * * * * * * * * * * * 1 9 8 * * * * * * * * * * * * * * ",
"* * * * * * * * * * < < 1 4 M Z 1 < * * * * * * * * * * < 1 4 4 4 4 9 C 9 9 C 9 9 4 4 1 1 1 1 1 4 4 4 4 9 9 9 Z Z F U I U ^ ^ Z ; * & * * * - > 1 9 9 9 9 9 9 F H ~ D e U ;.;.-.9 9 4 3 e e 8 8 4 C S F F S S A A H S t y 0 s ( k.k.p.p.x.p.f f s.d.s.x.x.z.z.n.c.c.c.c.f.j.j.j.h.c.j X q 0 # h f.h.h.m.f.f.m.m.m.c.m.g.S.h.a.f.f.f.h.F.D.h q u ; * & - : & O & = = O q # d f ( ( f f f y.y.y.f d d d d d q q G D Y _ ] ] ] ] _ _ { ] ] ] P K P K T P 5 % * 1 G D r e & & e r e r 8 H H Z H H - % M -.I -.=.' ` ' ' ' ' ' ' ' ' =.=.] ] P K K 7.7.& o % = - , * 1 ; r D r r y D ....H } y o o U ,.>.>.<.[ >.,.,.,.6.= # k.l.k.q = J 4.,.3.3.3.>.<.1.1.1.>.>.1.2.2.2.3.<.3.2.2.3.<.1.2.3.3.2.2.2.H.4.2.3.3.5.5.3.1.<.<.<.<.>.>.>.3.-.4.,.E.I o t.4X4X%XlX2X4 Y 5.<.' <.<.[ <.H.-.^ w 3X0X5X&XxXxXo e 8.$XwXxX%Xo A J.H.[ G.G.<.>.>.=.=.>.<.<.<.1.3.<.<.>.>.>.>.>.[ >.>.>.=.' ' ' ' ' ' ` ` T ` ` T T I I I I U D H ....r 2 8 e r 4 A Z 3 2 8 4 r e e C e r X s.D.S.g.j.f.h.h.f.S.A.A.m.A.A.A.x.d.d.m.S.f.j g : 7 q # c.m.h.h.m.c.x.x.c.x.x.x.s.x.d.d.x.p.z.f h z.x.i.h ( ( u 7 8 r r e e e e e 9 8 8 8 8 8 8 8 8 3 r 1 < U -.^ 7.-.F Z Z 3 - 9 -.-.....^ ^ ^ ....1 1 9 9 < < * * * 4 U I U :.:.F D S S F Y F F U A S Z Z Z Z Z Z 3 8 Z Z Z e 9 9 * * * * * * > * * * * * * * * * * * * * * * * 1 Z 9 1 1 1 < * * * * * * * * * * ",
"* * * * * * * * * * < 1 3 9 M Z 1 1 < * * < < < $ * $ $ < 4 C C C 9 9 e 4 9 C 9 9 4 4 1 1 1 1 1 4 1 1 1 1 1 9 Z D Z Z F H ..^ Z ; % o o o o % % % 1 8 1 - % % 3 ^ ~ 1 o Z ;.-.^ ^ H 8 * - 2 ; 1 4 9 9 r Z r e e e r 8 : : 7 s ( ( k.p.p.x.p.f f z.x.s.s.h i.s.c.m.m.M.m.g.g.j.j.j.m.j # # q X # j h.m.g.f.f.h.f.m.g.m.g.S.g.f.h.f.f.h.F.D.h # w O O + y t 2 O & + 7 O O X # ( k.k.f f f k.k.f # # X X X X X O i } H Y Y Y Y Y D Y _ _ _ _ _ _ { 7.P.>.5 % - 1 F H 9 8 ; ; e e r e 8 F H r H D o o 8 6.7.-.U Y U U U P P P U I I I =._ U _ _ _ ....o o * & - ; 1 1 ; r D t t t H ....H ..y . . ..-.I I ` _ _ ..-.R 6.# # l.l.k.q O Z 7.I _ ] -._ -.-.-.` _ ..7.-.-.-.-.` ` ` ` ` ` -.-.-.` -.-.{ 7.-.-.7.-.-._ _ _ _ _ { ] ] _ _ _ ..-.H ;.D . t.xX4X%X2X%X2 - S S S P K K J K Y i . *XGXcX0XcX#X: H + q.PXPX%Xo Z 5.K.' P T ` P ] I _ _ ` ` ` ` >.-.=.` I I _ ` L L L U U Y Y Y Y Y Y A A Y Y A Y Y A Y Y D y + w i u : O O & : & 8 8 O o O O + + + : & + X s.D.S.g.j.h.g.S.m.S.A.g.A.S.S.S.h.a.d.m.S.d.j # @ O X X c.m.g.g.h.M.m.A.D.A.m.c.s.s.d.d.x.p.z.f h z.x.k.h ( ( q = ; & & & & & & & & & & & & & & & & & 2 * - U -.-.6.-.F C 9 1 1 A 6.6.:.:.7.-.-.-.;.* * 1 1 = * = % % 8 -.:.;.:.X.e e e S F S Z Z Z Z Z Z Z Z Z Z M 9 9 Z F F F F S = = * * * * * * * * * * * * * * * * * * * * * 1 Z 9 9 Z 9 1 * % * * * * * * * * ",
"> > > > * * * * * < 1 9 9 3 3 4 < < * * * * < * < < < < 1 9 C C C 4 9 9 1 4 9 1 4 4 1 1 1 1 1 1 4 3 3 4 4 4 C Z D r 9 Z F -.^ Z ; & ; ; ; * - * % ; * * 2 8 8 r H H t r ^ ;.;.X.U H r 2 y r e e 8 9 8 t H ~ H _ i i t t i g d f h k.p.d.x.p.f f z.x.s.d.a.i.d.c.M.j.d.j.h.h.h.h.j.M.j # # j j j a.h.m.m.f.a.h.h.h.m.m.f.h.d.d.d.h.f.h.S.D.s.n | p i i } +.8 . O O = & 7 q d ( h k.d f f ( s ( ( / g g g g g g O.8.O.O.O.O.O.O.O.O.O.O.O.O.7.7.0._ H D - & - ; t U 8 1 1 8 e 9 r Z e H H 8 ; & - o y t.t.:.o.O.O.O.O.:.:.:.8.:.q.t.t.O._ +.q.r.t.0.o o * * 1 1 2 e ; r D D t t D ....H ..y   o :.t.q.:.8.7.O.8.8.t.r.# # l.l.k.# X ~ _.t.8.:.q.:.:.8.8.O.:.q.@.} _ O.q.q.:.:.:.:.8.:.8.8.:.q.0.O.O...O.q.q.q.q.8.:.:.:.:.O.O.O.O.O.O.:.q.q.O.| r.3X$X*X4X%XO.o.:.:.0.-.2 -.0.6.t.:.O.$X3X&XwXxX*Xt ;.w r.vXxX$X..t...H 7.:.7.:.:.7.7.7.7.7.:.:.......7.:.o.o.o.o.....o.......} } } ......} } } } _ _ } +.+.+.z i i z g p p p u u i : : y p w w w w a : + w # s.S.S.g.h.h.M.m.M.M.m.h.g.g.g.A.h.f.d.M.M.d.j j j j j j c.h.h.j.h.j.h.h.m.c.d.s.p.p.d.d.x.d.s.j h k.x.k.i.( ( q = r y w w w w w w w w w w w w y y y y y ; e ^ 7.-.I ^ Z 9 9 4 1 r -.^ ..-.;.-.....^ ; - 1 1 * 1 Z Z 8 S ^ -.....^ D D S S S S A F F Z Z C Z Z Z C 9 9 3 8 e 9 9 Z Z = * * * * * * * * * * * * * * * * * * * * * * < 1 1 9 9 9 1 * * * * * * * * * * ",
"> > > < > > > > 1 3 9 9 9 < * * * * * $ * * * * Z Z C 9 9 C C 9 e 2 e e 1 1 9 3 3 3 1 1 1 1 1 1 4 1 1 4 4 4 4 9 9 9 9 9 F -...D D H ..:.:.;.-...; ; & ; ^ t.t.t.0.:.6._.6.H r D D ^ ..X.:.:.:.:.2 8 8 D :.q.t.t.q.q.q.&.q.@.( f h i.d.x.x.p.f h x.x.s.z.i.h a.a.a.f.f.d.f.h.h.j.h.m.d.m.c.c.m.A.m.m.c.m.f.a.h.h.f.A.m.a.a.a.a.p.d.f.h.A.D.Z.Z.#X#X#Xv.B._.H o - O & = 7 # # ( k.( j d d # # 9.5X3X&X*X*X$X*X$X$X$X$X$X4X$X4X4X4X$X*X*X$X4X$X%X4Xa o & 8 r D t D D * & * 1 e e Z 8 1 Z F 8 o & :.O.q.$X$X$X$X*X*X4X4X4X*X*X*X*X3X3X3XB. .&.&X3X3X3Xt . % & 3 - - Z e D H D t r t ~ ~ H o.y   + r.3X*X*X4X$X$X&X*X3X*Xq # l.x.k.# X 8.5X3X3X*X*X*X*X*X*X*X=X3X#X&.| e.$X*X*X*X*X*X*X*X*X*X*X3X*X@X&.@.e.#X*X*X*X*X*X*X*X*X*X4X4X$X*X4X#X*X#X$X3X&.  p $X4X$X4X2X1X2X2X:.. :.2X%X$X+X3X+.  z AXAX*X. y : O.w.q.xXPXxXi   t.2X%X+X$X$X$X$X$X$X4X$X+XO.q.+X$X$X$X$X#X$X$X$X$X$X$X#X#X$X*X*X$Xv.e.e.e.w.N.B.B.B.B.C.C.C.C.C.B.@X#X+X+Xt.a w r.#XB.+X@XV.B.N.r.@Xn.A.D.S.g.h.M.d.a.h h j j h.A.S.S.h.p.d.m.m.m.m.A.c.c.Z.m.m.h.g.h.j.j.f.a.f.d.d.s.s.i.z.z.x.d.s.j h k.k.i.h ( ( q 7 o.+X+XB.v.v.r.r.r.e.e.e.e.r.r.t.t.t.8.....:.:.U 1 S 4 9 C 9 1 ; D ; ; ; ; - & & & 2 ; 1 < * Z 7.6.7...U F Z D H H F S Z Z A A A Z Z C 9 9 Z Z 9 < 1 * ; 3 ; * * * > > , - ; ; ; ; * * * * * * * * * - * * * * * < * * 1 8 9 8 8 e * * * * * * * * ",
"< < < - - * - - 1 3 8 8 9 1 - * * * * * * * * * 9 M C 4 Z Z 5 8 : :   . o o C C m 9 1 ; ; 2 8 1 1 1 3 1 1 1 8 9 Z Z 9 Z F U U F Z H ;.:.;.....o.o 8 & o H t.q.t.t.t.q.:...D y D D H ..:.:.q.t...; 8 r G O.t.q.q.&.w.&.$.*.@.g s h k.k.i.k.k.f f s.c.h j f h s.s.s.d.d.d.h.h.f.h.h.h.m.m.m.m.h.m.h.h.f.m.f.a.h.m.m.Z.z.h a.a.a.a.h.f.g.S.D.c.Z.V.C.V.e.r.+XH o - % & % ; # d ( k.( f ! q O O o.&X{.@X@Xv.v.b.e.B.B.r.b.B.B.C.#XC.C.C.C.#XC.C.+X#Xw o o e D D F D H - % 2 S Z 9 Z 1 9 N Z - o % t.q.e.#X*X&X&X#X#X&X#X&X*X*X*X*X*X*X&XC.&.e.#X=X3X3Xw   & & ; - - r D r r D r r H H ......i   . e.=X*X#X$X4X$X#X&X*X*X# # k.x.k.# X @.5X3X=X=X=X*X=X&X*X=X*X=X&X$.c w.*X*X*X*X=X=X=X*X=X=X=X3X=X#X .&.r.$X&X&X=X*X*X&X&X*X*X&X&X&X*X&X&X&X#X=X&Xz . + 4X4X$X$X%X%X%X4X..  ..$X+X+Xr.%XO.   .KXvXwXO.q.: G w q.3XUX3Xy : t.4X+X#X$X*X&X$X$X*X*X$XB.&.*.v.&X&X#X&X&X&X#X#X#X&X&X&X&X#X*X*X#Xe.e.e.*.*.*.N.C.C.C.C.C.C.C.C.C.C.C.C.N.$.a p e.C.N.N.N.B.B.e.B.C.Z.Z.A.S.g.h.m.x.i.i.j # h Z.m.h.S.h.a.d.M.m.h.m.m.m.m.c.m.m.m.h.h.M.h.d.d.x.c.x.x.z.g d # z.x.i.h h k.k.k.h h ( q o O.r.e.w.*.*.*.e.e.&.*.&.*.*.&.&.w.q.t.....:.:.^ < C S 9 $ 1 % & ; o & & & & o 8 1 8 % 1 1 o 8 7.;.7.-.I F U U F F F Z e Z Z e Z Z Z C 9 9 4 1 1 1 < 4 - & ; < < 5 < < o &     o o o > * % < $ , * , , , * * = * * % > 9 9 N N 9 9 = * & = * * = * ",
"- - - - - - < 1 1 1 1 1 1 < * * * * * * < 1 4 4 Z Z Z 9 Z Z 2 t p i i @.+.+ 3 C 4 1 ; & * ; 1 ; 1 1 1 1 1 1 1 9 Z 9 9 8 Z Z Z Z F F ^ ..........D H : o r ^ H H ..........H H ..~ ..H H H o.:.} e e D D ..O.O.O.}  . . .&.#.g d h i.i.i.k.k.f h x.n.j # q s h h s.i.a.d.d.d.h.m.d.m.m.m.m.h.h.m.m.m.c.A.d.s.m.s.j j # # h s.i.s.d.f.m.S.A.s.%.&.&.&. .&.t.H o & o & & ; # d ( k.k.d d ~ o...O.w.&.q.q.w.r.b.e.r.e.b.e.*.%.*.C.C.C.C.C.C.C.C.B.+Xa o o e D D e 1 r & % 3 S Z 9 Z 9 9 9 Z 8 & O q.w.&.e.e.w.e.e.e.e.e.e.e.e.e.e.e.e.e.*.%.*.e.r.e.@X+ . O & ; 1 - r Z r r D r e H :.X.y w ..+.} q.B.N.e.e.N.e.b.b.B.#X# # h k.z.h w @.#XB.b.b.B.b.b.e.e.b.e.e.e. .c  .e.w.e.*.e.e.b.e.B.C.B.B.B.e.*.*.e.b.e.e.B.b.B.b.B.B.b.b.b.b.b.b.b.B.b.C.#Xr.&.O.$X4X4X4X4X%X|.$X:.. y |.+Xr.+X@Xr.p q.wX*XxXKX5XH 8 y _.wX3X3Xi + O.@XB.B.b.B.r.b.B.B.B.B.*.&.&.w.b.b.e.e.e.b.e.e.b.b.b.b.b.B.C.C.B.*.&.*.*.%.%.*.*.*.*.*.*.*.*.*.%.%.*.*.*.&.c x *.*.&.*.%.%.*.*.e.*.%.c.c.A.g.h.m.x.p.z.h # g z.i.a.m.c.c.x.m.A.m.m.m.m.h.m.m.M.c.m.M.c.m.c.x.z.z.s.h #.( # # z.x.i.h f h k.i.h ( ( q O o.q.$. .$. .%.%.$.$. . . . . .| O.O.:.....-...^ 9 3 C C Z :.:.7.:.:.:.:.:.:.2 e e Z * Z ^ D F -.-.^ ^ F Z A F A A A Z Z Z Z e C Z 9 9 9 4 1 1 1 1 1 < 1 2 1 < 3 5 < - w +.+.} i w 8 e ; o ; & * * = * * * = = * * * * 1 9 9 9 9 9 , * = = * * , , ",
"< < < < 1 1 9 8 4 < * * * - * * * * * * 1 9 C Z e e e 2 e w w p $. .*.=XB.a o 2 3 9 3 1 3 3 1 * 1 1 1 1 1 1 1 1 D Z 9 9 9 Z Z Z Z Z S S D ^ ....:.o.t & y D y y t H H ..X.......7.:...t t ..q.:.D r G t t y t u g } z k | | g s h k.k.i.k.k.f f x.n.d X X # # # # # j x.d.x.x.h h z.h s.M.h.h.s.x.z.z.z.h s.c.j # # # # h c.s.d.d.f.g.A.A.s.c z k z c | k +   O ; , , 0 = d ( k.( # X u :.O.| } z } | @.B.+XB.b.e.B.e.x z c x $.x x c x  . .z +.+ o o 8 D S 8 % ; % & 8 Z r C S F Z e r 8 o O t.q. .| c z  . .c c x x x x  . . .c x  . .$. .| | t.O . & & 2 3 * r Z r r t r e F ;...o   ..r.w.&.@. . . .$. .%.%.&.e.X X f k.z.#.| | q. .$. .$. .x c c  .c c  .c  .z c z c z c x c  . . . . .$. .&.$. . . . .$.@.|  . . . .| |  .|  .| |  . .b.=X3X$Xr.$X#X%X$X+X%X$X8.  @ t.+Xr.r.@X$Xe.q.}   q.AXxX} O y 8.B.wX3XH : ..q. .@.@.@. .$.%.%.&.&. . . . .%.%. .$.$. . . .$.%.$.%.@.&.&.&.&.$. . .&. .x x %.%.v b b b b b b b b v v %.$.%.x k p z z z %.*.*.%.n n c.g.g.g.m.d.d.x.j # # # X h A.z.h h z.z.s.d.c.m.h.d.i.j j j j j s.c.s.d # # # # O X # z.x.i.f f h h h h h ( q O } +.} z c z c +.+.+.z k z +.} } } } o.X.-.I Z F C 9 9 & ; _.%X_._._.+X{.%X_.D ; 2 1 % F 6.6.-.-.U U F C 9 C Z Z Z Z Z Z Z Z Z Z Z 4 4 1 1 1 1 1 1 4 < 1 4 < 1 1 & & . p @X#XC.e.+._ H w O ; % * * * = * * = = * * * * * > > < 1 9 9 1 < * * * * * ",
"1 1 1 < < 1 4 9 3 < * % % * * - > * * < 1 9 C Z e e e t i u p k  .l v C.*.@   + : ; 1 1 1 1 1 1 < 1 1 < < < 1 1 9 9 1 1 1 3 9 9 Z A S Z H ..;.;.:.o.H e D t r r D H ....7.:.;...;.7...D H O.t.t.r 8 y t : : w 7 } | z i z g g h ( k.k.i.k.k.f f k.n.g # # = O = = X f x.s.z.h # # # X h c.m.M.j # # X # # #.n.g X O q # h c.p.d.h.f.j.A.A.s.n  .k c  .+.k p p ~ O % $ , = d ( k.( # # g | +.} i } } | &.B.@XB.e.e.B.e.c z z z x c c z x  .z + + : o & 2 r S 8 % % % ; 9 r e C S e Z 9 - & o O 8.q. .| | c  .| c x  .x x  .$. .x c  . . .%.%.O.O.r.+ o = & 1 < * e Z e r t e e D ;...o   ..r.q.&.&.%.%.%.$.%.%.%.&.&.  X h k.#.#.#.O.@. .@. .%. . . .c  .| | | |  .c  .z  .|  . . . .%.$. . .@.@. . . . . . .|  .|  . . . . . . . . .| | @.@.e.$XwX$XO.$X%X$X$X#X#X4X:.. y %X$X%Xr.q.w.q.r.+.. r.xXwXq.w 7 : k 3X3Xp + O.q. .O.&.@. .$.@.@.&.&. . . .|  . . . .%. .@.%.&.@.@.@.@.@. .@.@.$. . .$.c c x %.%.v b b %.b b b b b v v x %.%.c p p k z p %.&.&.%.n n A.g.g.g.m.d.p.x.j # # # X #.Z.h X # # # # j s.c.c.x.j # q q # j n.c.z.q O 7 q O O O # z.z.i.f f h k.i.( ( ) q 7 ..+.z z c z z +.} } z z } +.} } } ~ -.:.6.U * < 3 ; ; ; 8 8._.r.r.r._.t.t._.D & & % o Z :.6.7...F A Z C 9 C Z Z C 8 9 C Z Z Z A F 1 1 < < < < 1 1 1 > 1 * < 9 2 O @   a C.C.e.$.c p p + + : & ; ; * * ; - * = = = * * * * * * < 1 9 9 1 < * * * * ",
"9 3 1 - * * - < - - * * $ $ * 1 1 1 1 1 4 9 C C e e y H } } z z x l b C.N.x  . .+ : 2 1 1 , 1 0 1 1 1 ; < < < 1 - < 1 9 9 9 9 9 Z F F Z D U ^ ^ ..^ H H H t r S D D D t D I ..I D H ^ H H ..;.X.H D H .._ } ..} } | } z } g g h ( k.i.i.k.i.f f i.x.h h z.#.q q 0 O g #.j #.#.q q q # #.n.c.c.h # q # X X q d O ; = g j h x.a.d.h.f.h.A.m.s.n &.&.$.$.&.&.q.w.q.O % - 0 , q ) s s h #.b.w.q.&.&.&.&.&.w.N.e.*.$.%.*.%.x %.*.*.e.e.e.e.B.B.q.@ O 7 ; ; 8 r Z 1 o % * 2 e e e e Z 9 8 ; : X.8.8.+XB.b.v.b.b.B.b.b.b.e.&. .%.%.$.$.*.b.b.e.e.b.b.r.@X7 o - - 1 , * e t e e t y y D :...o . q.$Xv.B.V.B.b.b.e.B.b.*.*.&.. # ( ( #.b.b.b.v.b.B.b.b.b.*.w.&.w.w.w.&. .z %.B.b.b.b.B.b.B.B.B.B.B.B.B.B.b.B.b.b.B.*.| | w.b.v.b.b.v.v.v.v.b.b.v.B.B.b.w.q.| } 4X$X4X+X$X+X4X:.. ; ..H O.%Xr.e.e.$Xr.: r.AXwXxX$Xu O O.3X4X} w O.q.w.v.e.b.e.b.e.e.e.e.e.e.w.&.&.&.$. . .e.b.b.b.b.b.b.b.b.b.b.r.r.e.e.*. .%.%.%.%.%.%.*.%.%.%.%.%.v v v %.%.%.%.%.%.%.%.x *.&.%.&.n n Z.A.g.h.m.d.p.x.i.j # q = u / q # q # X # d #.z.n.n.j q 0 7 = d n.z.#.0 * 8 ; # d g h x.z.i.f h h i.h ( ( / q w O.O.+. . . . . . . . .+.+.+.} } ......I ^ F < 2 D & t :.:.q.:.O.O.O.:.O.O.:.y O 2 H S F ^ ^ ^ U A Z S F U U F S C 9 9 C C e 9 9 C < < < < < 1 1 1 4 9 4 > 3 ; o +  .p x C.*.c c c $. .+.k H 7 8 2 & & * - & & * * * * * * * * * * < 1 1 1 < < < 1 ",
"Z e 8 1 - * * * % * * * $ $ - 1 C C C C C C C e e e y H +.} c z k l b *.C.C.C.C.X + : 9 9 9 1 ; 1 1 1 ; ; ; < 1 < 1 8 Z Z D D D A F F Z Z S D t U H ....H e e e e 8 2 2 2 e r 8 2 y I ..H ^ I D ;.:.:.8.8.:.q.O.z z k k z g g g ( ( k.i.h h f f k.x.h i.n.n.# X O O g / d g q O q = q / z.z.z.h X q # X = = , , = q #.z.s.d.a.d.j.f.h.A.m.s.n &.*.&.&.&.&.*.&.O.. o * < , q q # d ( n.@XV.V.B.e.e.e.e.w.*.&.$.x x x x  .e.B.r.B.B.B.B.@X$Xr.O o : 2 8 e Z r 1 o = 1 9 e 8 8 9 e F e o O _.3X*X*X&X#X&X#X#X&X#X#X#XC.*.x  .$.$.&.e.V.#XV.@X#X@X+X$X7 . = ; 1 * < e t e e t y y D ..^ o . t.*X$X#X#X@X@XV.V.#X#Xb.*.&.X X d s #.=X&X*X=X&X*X#X*X#Xe.v.b.b.v.b.w.| z *.*X&X&X&X*X&X*X*X*X*X&X*X*X&X&X*X*X&X*Xb.z z b.#X&X@X#X#X#X#X#X@X#X#X#X&XB.q.p X p $X+X%X+X$XB.2Xq.o o o . ..4X$X4X#X*Xr.o q.vX3XwX+X} + q.3X3X3X3X+X~ q.$X@X#X#X#X#X@X@X@X@X@X@XB.e.*.%. . .V.#X&X#X#X#X#X#X#X#X#X@X@X#X@XB.*.*.*.%.%.v %.*.*.*.*.*.%.%.v v %.v v *.*.*.*.*.%.%.$. .%.%.n c.A.g.h.h.d.d.c.c.Z.h # O O 7 O q q # + 7 q g ( #.n.# O : ; = # d d q 1 5 ; X # z.z.s.x.s.i.f h h h h h ( / g g O.q.&.&.&.&.&.&.O.q.q.q.O.O.O.o.O.:.I 8 8 Z 2 3 H H .._.t.8.O.O.+.......o.o.& o D _.0.-.F Z A F S A Y ^ -.-.I F Z e Z Z 9 1 < - * 1 1 < < 1 1 1 1 * * < < 2 & . i #XN.C.C.*.c c x c c c } } w y 8 o & & & * * - - * * * * * * * * < 1 9 9 3 1 1 9 ",
"9 9 9 1 < * * * $ * * * * - 1 4 Z Z Z C C C C C Z e y _ } z z z k c c %.*.*.C.C.@ @ + ; 9 9 0 1 1 1 1 ; ; ; ; 1 * ; 1 9 Z Z Z Z F F A A F A S S D D ..-.Y e e 8 r e Z D Z r e 1 8 8 ^ ^ D ....t ..:.O.O.O.+.+.z } z k k k g g g ) ( ( h h ( f f i.i.i.i.i.h j # # O q g q q # # # = q # q g # # X X X # q = 1 0 X # z.c.d.d.a.d.M.f.h.m.c.n n *.%.&.*.*.$.$.&.&.@ o o o $ , , # d #.#.n.*.*.*.&.e.e.*.*.%.%.%.%.%.x %. .w.B.e.b.b.b.B.B.+Xt.. O ; 2 9 9 r 9 8 ; ; 8 e 8 3 8 8 3 r r & o q.4X@X+X@XV.@Xv.v.+Xv.B.#XB.%.x x x $.*.e.B.V.V.#X#X@X+X$Xw . & ; 1 , < e t e e t y y D ....O . q.$X@X@XV.B.@XB.B.#X#Xv.&.O.X X d d #.&X&X&X&X#X&X@X#X@Xe.b.b.b.w.w.w. .z *.&X#X#X#X&X&X&X&X#X&X&X#X#X#X#X#X#X@X&Xb.z z e.@X#XB.@X@X@X@X@XB.@XB.B.#X{.r.}   i 4X+X+X%X@X$X2Xt.8 9 - % :.3X4X$XB.+Xr.w +XxXwX3X3XxXe.u } O.3XAX+X. } $X4X&X@X#X#X#X#X@X@XB.@XB.r.e.&.x c B.@X#X#X@X#X@X@X@X@X@X@X@X@XV.B.e.*.*.%.v %.%.%.*.%.%.*.*.%.v v v b v %.%.%.%.%.%. .$.$.%.n n Z.m.g.j.j.d.p.d.m.m.j # # q 7 O # X # # # O q u g # X # + + 7 8 8 q = < > O X # h z.s.x.k.i.f h h h h ( / / o.@.&.q.&.&.&.&.&.&.O.&.q.q.O.O.O.O.o.:.^ 2 ; r ; & D :...:...O.q.:.o.:...o.o...: O D _.E.-.S Z S F F U F I -.^ U F Z 9 Z Z 8 1 - - * 1 1 1 < 1 1 1 1 8 1 8 1 : + @ p C.N.*.C.v l k c c c +.+._ 2 8 2 & & & & - - - - * & & * * * * % 1 1 9 1 1 1 1 9 ",
"* - - * * * * * * * * * < 1 9 9 C C 9 9 9 9 e e e e 2 t i p k k z c c x c l l x N. .y : < 1 1 8 1 1 1 1 ; ; ; 1 1 1 1 9 Z Z Z Z 8 4 1 4 Z S Z A e e H ..D C Z e e 8 e Z e r r 2 e 3 U H 8 ..;.H H o...} +. .O. . .+.+.+.+.| ~ g ! ! ( h h ( f f h z.x.s.j h z.z.n./ O O = q q / ( ( / q u / # g n.s.z.z./ q q q #.h c.m.c.d.s.d.M.f.h.m.c.n n *.*.*.*.*.*.*.*.&.e.8.H - $ > = O q #.#.#.c x x $.*.*.*.%.v v %.%.*.%.*.&.e.V.v.v.B.B.B.r.{.8.  - 8 9 8 3 8 ; ; ; ; 8 9 3 1 8 8 2 % D ~ u r.@Xv.@X@XV.+Xv.+X@XB.B.B.e.&. . .x x e.B.B.C.B.V.B.B.+X$Xw o & 1 0 , < e t e e t y y D ....o . w.$XV.@XB.+X@XB.v.B.V.e.q.O.@ + / #.#.B.b.e.w.e.v.w.b.e.e.e.b.b.w.w.b.&. .&.B.b.v.v.V.V.b.v.v.v.v.b.b.v.b.b.r.e.V.e.z | w.V.@XB.B.@X+X@XB.v.@XB.@X+Xr.r.O.. i 3X$X+X$Xr.O.~ 2 o 1 1 % u O.q.$X@XB.O.  t.xX3X=X3XvX@.+ y O.3XxXr.. } @XB.+Xv.V.V.B.v.v.v.e.B.B.r.e.&.x c w.b.v.v.v.v.v.b.v.b.b.v.v.b.b.b.e.e.*.%.%.*.*.v v x v %.*.%.%.%.v v %.%.x v %.v v x %.%.%.n n Z.m.m.g.g.d.a.d.m.m.x.n.#.q # q | n.n.n.#.q = 7 = # / #.g q 7 0 8 0 = * ; g #.s.x.i.i.z.k.( f h ( h h s d g o.q.O.q.O.@.@.O.O.O. .O.q.q.+.O.O...H e D 3 8 H 8 ; ..:.O.q...:.:.} H H t t t H 8 2 D ....F Z F U U U U S A F Z C Z C 3 e e 8 2 3 8 8 3 1 1 1 1 < 1 1 ; * 9 * 2 i i c %.%.v *.v c c z c k z _ H : 8 8 ; ; ; : ; - * * * & & & * * * % * ; < < - < 9 9 ",
"* * * * * * * $ % % % * - 1 8 e e 9 9 9 e e Z Z e Z e O + y k k c c v v c l l l C.C.a w 3 4 3 1 8 1 1 1 ; ; 1 - 1 ; - 1 9 r Z r 3 < < 1 C A A S - 2 H ..H e e Z C e C Z Z e e e e e e 8 e U -...I ..} } +.O.q.@.&.q.e.q.&.q.o.7 d s s h ( h ( h i.z.n.z.j h n.n.n.h # O 7 X # b.n.}.z.X a # X h 6Xc.A.6Xn.# # j Z.D.A.S.m.s.a.d.d.f.f.c.n.n n v $.%.%.$.%.%.%.*.e.w.O.: - * & = q #.#.#.#.x $. .x c x v v %.%.v *.e.e.e.B.B.b.b.B.B.B.w.+X8.o o ; F Z * & = ; 8 ; 9 8 9 4 < 9 e o D _.r.+X@X@XB.B.V.B.+X+Xv.v.b.B.V.%.x  .%.x e.B.B.@XB.V.#X@X+X$Xw . : ; 1 1 * Z r r r r r t t o...o . w.*X@X@X@X+X+XB.B.@XB.e.w.O.+ a | b.e.e.e.e.e.e.e.r.b.b.b.v.v.e.r.r.&.@.z &.b.e.b.e.B.V.&.w.e.b.r.w.w.w.e.w.w.e.v.w.| z &.B.B.#XB.@X#X@X@XB.@XB.+Xv.o.~ u 7 o + } %X3Xt.  o & 3 < % - & o p $X%XB.q.} &.xX5X*X5XxXp + } } 5XxXr.. ~ +XB.v.b.v.b.b.b.w.b.w.e.r.e.e.*.$. .w.b.b.e.b.b.b.v.v.b.r.b.b.b.b.b.r.*.e.B.B.B.*.c c x v %.v %.%.%.%.%.%.%.v v v %.v %.%.%.%.%.%.n.A.m.g.g.d.d.d.A.m.m.D.n.j X X n.6Xc.6Xn.X # X # X n.&Xn.g X q = = = X g n.c.c.x.i.i.i.h ( h h h ( ( q # G o.O.q.O.@.q.q.:.:.:.O.q.q.q.q.O.o...; 2 8 2 3 8 ; D :.:.:.o...O...t O : & & & - U 7.I U F S Z S F H F F F Y A Z 9 3 1 2 3 2 2 Z S t D D Z e 1 - - - - < * 4 8 o +.#X*.l l c x c z c x  .k + o : 8 e e y e e t e - & - 1 - - * - - - - * % * * * 4 C 9 ",
"* * * * * * - < < < < 1 1 4 8 e C C e e e e 9 9 e Z e - : y i i k l c c c c l c N.C.@ @ - < 1 9 ; ; ; 1 ; ; 3 1 1 1 < 1 8 9 9 9 8 3 1 4 C Z S Z C e S F Z 8 C Z Z r C Z e 8 4 8 9 9 e 3 2 D U U ....D H } O.q.@.q.q.q.O.O.:.o.u q d d ( ( h h f h z.n.z.j h x.x.z.j X X X X # h z.h h # # # # j c.c.c.x.z.# # j A.A.h.h.c.d.s.d.M.f.f.s.n n x %. .$.$.v v v %.%.%.*.+.  . 2 & O q / ( ( #.n  .x x x v v v v %.%.*.*.e.e.B.B.b.b.b.B.+Xr.{.8.& & * Z Z - & & ; r 8 8 1 9 9 1 e 2 o u t.t.{.+XB.B.B.B.v.@X+Xv.B.B.B.B.&. .x  .x *.V.B.B.b.B.@X@X+X$Xw . & ; 2 1 * e e e e r r D D ..~ o . q.#Xv.b.v.v.B.v.v.+X@XB.&. .a p | e.r.v.e.w.w.w.r.r.r.r.v.v.v.v.v.v.w.@.@.w.B.b.B.b.B.B.w.e.v.v.v.v.v.v.B.v.v.v.v.w.| } v.#X@X$X@X#X@X@X@X#X&X#X@X$Xr.7 + 7 7 O 7 ~ 8.:.O 8 ; < 0 8 8 - o i $X$X+Xe.O.q.IXwXwX0X3X@...: } 3XxX+Xo H +X+XB.B.v.v.v.b.w.b.b.b.r.e.*.$.x c e.b.b.e.b.B.v.v.r.e.r.v.B.v.b.b.B.B.B.B.r.r.*. .c c x v v %.%.%.%.%.%.%.v v v v v v x $.%.v n z.s.f.h.m.d.s.d.d.f.m.m.c.j # # s.c.s.x.s.# # X X # ( z.z.h # X X X # # h c.c.c.x.h i.h h h h h ( ( ( q O u O.q.t.q.q.q.t.t.0.0.q.0.q.8.:.......r 8 3 - * 2 8 e D _ ....H t w 2 e 2 ; ; - 1 F ..Y H F F D Y H F F U F F F Z e 8 3 2 8 2 3 r r r D r e 8 1 - - - - M 3 9 2   } C.*.l a l x c x c z +._ y : 2 e 8 8 8 2 y y e ; 1 2 ; ; - - ; - - - 1 - - - < 4 9 1 ",
"* * * * * - 1 8 8 8 8 8 9 9 9 e C C e e 8 3 2 3 - < - $ & ; ; : p p l k c x $.*.C.C.a @ y 8 1 1 - ; ; ; - ; 1 ; 1 1 < < 1 1 1 1 3 3 1 1 4 9 e 9 S Z 8 1 1 8 Z C 1 1 1 4 9 3 3 9 e 9 e e 8 r H U -.;.H y w w w w y w w y w i D 0 g g d h ( h h f h k.z.i.i.i.i.h s.c.Z.Z.Z.6XZ.s.j j c.Z.Z.Z.c.s.h d.a.j c.m.m.m.c.m.a.a.i.p.p.p.m.c.s.n n x x $. . .v v b v v v v %. .p i t o o = d d g #.#.%.$.x x x v x v %.*.*.*.*.%.%.&.&.&.@.@.&.} u y o o * Z Z 1 % % ; t 8 1 1 9 3 4 e ; O y O.O.&.@.@.&.@.@.@.&.@.@.&. . . . .%. .x x  . . . . .@.&.@.O.q.+ . - ; 1 1 1 2 2 8 8 e t D H ^ ~ O . O.r.&.&.q.&.@.@.| | O.| | | i g } | } g | | | } | | | | | | | | |  .| z z z  .| O.O.@.O.O.O.O.| } } } | | | } | O.| g z } O.|  .@.@. .@.O.@.O.O.p 7 ~ u ~ o.G : O o O : 7 t ; & 1 0 r ; o u +Xr.w.e.O.q.} a B.wX3XUXwX} } 3XwXt.o ~ r.O.@.@.@.&.q.@.| | O.O. . . . . . .c c |  . .%.O.z  . .O.@.&.@.| | z g z z |  .$.x v x v %.$.%.%.%.x %.%.v v v x x v v x x x x b n n s.c.m.d.p.d.a.a.m.m.m.c.Z.A.6Xi.j j s.c.c.n.n.n.s.j j s.n.n.n.z.n.x.d.d.d.d.x.h h h h h h h h ( ( q O y ..H w w y y t t r t t t H H D t S F 9 4 U ....;.7.X.X.:...H D e - : 2 3 1 3 < < C A e e e e Z Z e e 8 e 8 8 9 1 1 1 3 D D D t Z e 8 e e e 8 1 - ; 1 1 > > 1 7 .  .C.*.%.c c c k z k p + 2 2 - 1 1 1 1 ; ; 2 y y 8 e r 8 8 8 8 8 8 3 2 9 8 8 9 4 9 C 9 ",
"$ * * * * < 8 Z 9 9 e e e e e 9 4 4 4 4 3 1 - - - - < < - - - : z k k k k c x %.C.C.@   a : 8 3 2 ; 2 ; ; 1 1 - 1 1 < < < < < < 1 1 1 1 1 3 4 8 e C 3 - - 8 8 1 % % $ - 1 1 1 3 8 3 3 8 8 e S H H ..H y y w 2 y y y w w a w w : u u d s h h h h f f h i.k.k.l.i.a.c.6XkX6XkX6Xs.j h D.D.D.D.D.d.i.c.i.j c.D.D.m.c.m.p.j i.p.p.d.m.c.s.n x x x $. .x x x b b b b v x $.%.e.} . & O q # d #.#.#.$.v x x x x v %.%.e.*.%.x x x  . . .O.O.w   o o % 1 r r 1 & & ; e 3 9 9 9 < 3 e : o w | } | | |  . . .| O.O. .@.z c c c c z z z c z z z |  . .O.O.:.: o - - - < 1 - ; ; 8 y t H H H ~ O   | w.O.O.@.O.O.O.~ g } p z z g i p i g i p p p p p p i i g g z g i z z g z i z g z g z g z z g i p p i i p p p p p p i g p g g p g } g g } | O.q.~ . . ~ o.X.u 7 y 0 7 7 8 8 ; ; 8 r t 8 o y t.O.O.q.q.t.+   B.KXAXvX3Xw } 3XxXr.. p q.@.w.&.O.| O.| | | | | | } | |  . .z z |  . . .| p p p g |  .| z z | | | } z c  .c %.v %.%.$.$.$.%.x $.$.v v v x x v x x x x x b b b n c.m.d.d.x.a.a.d.f.f.m.S.A.m.s.h j c.D.D.A.A.D.c.j j z.D.D.A.D.D.m.c.d.a.i.i.h ( ( ( k.h h h ( / q O y .._ a + : : : : ; : ; - 2 2 2 4 C Z 9 4 ^ 6.6.:.-.X.X.;.H 2 - 2 < & % - * < < < 1 4 3 3 3 8 r r 8 3 8 3 3 1 1 1 3 8 e D D H D D e 2 2 8 8 8 2 1 3 2 3 9 - & +   c C.C.N.$.c k k z k w o - 2 2 1 - * * & - 2 e r e e e e e e e e e 8 8 e 9 e 9 9 C C 9 ",
"$ * * * * < 8 Z 8 8 9 9 9 8 8 3 1 1 3 3 1 - - - 1 < 1 1 1 - - ; _ } k k k l k v N.*.l p k : 2 ; ; ; ; ; 2 r e ; 1 ; 1 1 1 1 1 1 2 3 3 2 2 2 8 8 3 e 8 < - 3 1 % - - - 1 1 < < 1 1 - - 1 8 2 e t 2 e : : a w : : a : a w w w y y y u / g g ) h f h h k.z.k.y.k.k.i.i.i.s.a.i.x.i.h i.M.m.m.m.m.d.i.k.i.i.M.m.m.m.c.c.s.h i.s.s.d.c.c.n b x v v $.x x v v v v v v v %.%.%.*.+.. . = O O g #.#.#.#.%.%.x x x v v v *.%.%.x x  .%. . .@.O.w . & 8 3 8 8 2 ; ; ; ; 8 8 8 e 3 1 8 ; O   u w.q.w.&.w.w.*.&.&.w.&.&.*. . .%. . .%. . .$.*.&.&.w.q. .O.q.:.y o % ; 8 1 ; ; ; ; 8 y D H H H H O . | b.*.w.q.q.@.q.@.@.&.| z z  .| z } | } O.O. . .O.O. .O.| |  . . .%.O.z z z &. . .|  . .z z } z z z z | z z z z z | | | |  .&.@.@.w.q.&.q.O.| } o.| i | o...H r y y 8 : 8 ; 8 8 8 G D ; o G %Xv.w.r.e.r.} p w.V.B.wXwXB.B.3XUX+X} q.+XB.O.+.@.O.O.| | | @.@.O.O. . . . . . .$. . . . .| z z z |  .O. . . .O.O. . . . . . . . . . . . .%.$.$.%.v v v v v v v v v v v %.%.v n n.c.d.d.x.i.a.s.d.M.m.m.m.m.i.h j d.m.h.m.c.c.s.h j s.A.m.c.s.s.d.x.x.x.i.h ( ( ( ( ( ( h s q 7 + a i } } w + : w w w a 2 8 t t r y r Z Z e 9 r r e e 8 8 8 2 ; - & * < < < < < < 1 1 < 1 1 3 2 8 e 8 3 3 8 9 9 8 0 8 9 9 r 2 e r r 8 3 3 3 2 3 4 1 1 3 4 2 t : a z a k *.%.%.x z k k } _ t & - 1 1 1 < * * * - ; 8 e 2 ; ; 2 2 ; ; 2 8 e e 8 8 8 8 9 4 1 1 ",
"* * * * * < 3 9 3 4 4 4 1 1 < - < - < - - - - - - * * < < * * ; i i i k k k k x v v *.C.e.+ + & : & & ; 8 D D 8 ; 1 1 1 1 1 1 1 2 3 2 1 ; ; 1 1 - 1 1 < 1 1 ; 1 e e 8 e 9 9 3 4 e 8 3 8 r e y r 2 y t y i _ } } } _ _ _ _ } } } } O.;./ q d s ( f h k.k.h i.k.k.k.i.h i.i.a.i.i.h i.d.d.c.d.d.i.i.i.i.i.i.a.a.a.s.i.h h i.z.s.s.x.s.n x v v x v x v v %.%.%.%.%.*.*.*.%.%.+.@ . : o O g #.#.#.#.%.%.x x v %.v v v v %.%.%.*.*.&.&.q.} O   & y ; 8 - % - 2 2 8 8 8 8 8 3 8 ; O : O | @X@X@XB.#X@X#X@X@X#X@X#XV.*.c %.*.*.C.B.b.B.#X@XB.#Xe.p w t u & % * 8 Z 3 3 3 2 2 8 y D H H D D o . 8.#XV.V.#X#X@X#X@X#X#X&.z  .V.#X#X#X$X@X$X$X#X#X#X#X#X#X3X*X*X*X&X*XB. . .&.#X#X#X#X#X@X#X#X#X#X@X+X+X+X@X@X+XB.b.e.&.| O.e.B.B.@Xv.B.v.r.| u O + | ..~ G u G 0 7 0 8 : ; ; 8 ; , 0 ; o o u $X4X#XV.v.B.+Xr.O.  X 3XxXxXxX3X*X3X3X3X3X#X  O r.+X+XB.@X+XB.B.V.@X@XV.V.V.B.B.w. . .&.e.b.B.r.r.r.b.e.e.r.e.b.b.e.e.e.e.&.*.*.*.%.%.$.$.%.$.%.%.v v %.%.%.%.%.%.%.v v %.*.%.n z.z.s.s.z.i.i.i.d.M.d.d.f.d.i.i.i.s.d.f.d.d.c.s.i.i.i.d.d.s.j h i.s.x.z.i.( ( ( ( ( ( ( ( d O u | O. .+.+.} +.+.+. .+.+.O.O...H i t r t r r r e 8 8 8 8 8 9 * 8 r 8 4 9 Z Z 9 9 9 e 9 8 8 8 ; - ; ; ; - ; 1 ; < 1 ; 1 1 9 9 3 2 2 2 - - 1 2 - 1 1 1 < 1 1 1 : . i #X*.c c b v c k p p t i t & - * $ * - * ; - - - & & & - - - & & & ; 8 e Z 8 8 9 8 9 1 * > ",
"- - - - - < 1 1 < < < < - - * * - - - - - - - - * * > < ; ; ; ; D D w i } k k k v v *.N.e.@ o : & - ; ; 8 D Z 2 - ; 1 1 1 1 1 1 1 ; ; ; ; ; - - * < < < 1 < 1 e r r r D Z r r Z S D D D D D r D y t +.+.z } }  . . .+.+. .+.+.+.z | o.g u / ) ( ( ( k.( ( k.h f f h k.k.k.i.i.f i.h i.x.x.d.x.s.i.i.i.i.i.i.p.p.h h i.i.s.s.s.z.s.n x c v x x x x v %.%.%.%.%.%.*.%.%.*.*.%.z +.p O O w w g c #.%.v x x %.%.%.%.%.%.*.e.e.e.e.e.e.r.~ . o : r e 2 o o & 2 2 3 8 3 2 3 8 8 o : :.O.r.$X#X#X@X#X@X@X@X@X#X@X#XV.&.x &.e.e.C.B.@X#X#X#X@X*Xe.@   o O & - 1 8 9 ; 8 9 8 8 8 e t D H D i . . w.*X#X#XB.@X+X@X+X#X#X&.z  .@XV.B.B.#X#X#X#X@X#X@X#X#X#X#X@X#X#X#X*XC.c c &.*X#X#X#X#XC.C.C.C.C.C.C.C.V.B.B.B.B.B.v.&.z | r.v.v.v.g p i 7 y u u u ~ ..~ y 7 0 7 0 t 8 8 ; - = % = = % 0 & u +X@X@X@XB.@Xr.+Xw.@ w xXxXwXxX3X3XxXwX3X*X3X@ O +X@Xv.v.@X@XV.v.@X@XV.V.@XV.B.B.*.c  .$.*.V.b.b.v.B.B.v.B.B.B.B.B.B.B.@XB.B.B.V.e.%.%.%.%.%.$.%.%.v %.%.*.*.*.*.*.$.x v %.%.%.%.n n s.s.s.s.i.h i.i.i.i.a.a.i.i.i.p.d.p.d.x.i.i.i.i.i.i.i.i.h h k.i.h h f k.( h ( ( ( ) g g : u |  .z z +. .+. . . . . .+. .O.z } i y t u t t D H H D t t Z e r Z r e Z C C A Z Z Z Z r e e ; ; ; ; ; ; 1 ; ; ; 1 8 0 9 9 9 8 3 3 3 * * 1 - - < 1 < < < < - : . i C.*.c v %.v c p p w 2 t r 2 2 1 * * * & * - - & & & & & & & & % & - ; 8 8 2 e 9 9 9 1 * < ",
"< < < < ; - - - & * * * * * - - < - - - - - - - % * * - ; ; ; ; t y + w } z k k $.v v $.*.@ @ : 2 2 7 : : y 8 & O & & : - - * * ; ; ; ; ; ; ; ; 8 3 ; ; 2 & & 8 t r r D D r r Z e D D t t y y y y w }  . . . .z z c c c c z k i i g ~ ~ ~ / ) ! ( ( ( ( k.( h ( k.( k.k.( h f h h h i.k.s.i.x.i.i.j i.h i.i.i.i.j f i.z.h h h #.n n c c v c c v x v %.%.%.%.%.%.%.%.%.*.v *.*.B.z + @ + X # | &.%.%.v v %.%.%.*.*.*.*.e.*.e.e.e.&.r.g . O : 2 8 2 o o & ; 1 1 3 2 2 8 8 ; . y 4X3X&X@Xv.@XV.#X@X@X@X@X#X@X#XV.&.z  .C.V.V.b.V.b.B.B.b.#Xq.  . : & & & % 1 r 9 Z r e 8 8 8 r D H H u   . q.&XV.v.B.@X@X@Xv.@X#X .p  .#X@X+XB.@X@XV.V.B.V.V.C.C.C.#XV.#X#XC.&XC.c c %.&XC.C.C.C.C.C.C.C.C.C.C.C.C.@XB.B.v.B.v.@.g | @X{.{.+X+   X . u y u ~ G ~ ^ r 0 r 0 r r ; 0 8 * % & 1 O 7 {.4X%X*X#X#X#X@X+X@X+XB.p + *X*XwXwX*X*X3X$X+X4XUX: . +X+Xb.v.v.b.v.v.v.V.V.V.V.V.b.B.*.x  .%.*.B.b.v.B.B.B.b.b.B.v.v.b.r.v.B.v.b.B.B.e. .x x x x %.%.%.%.%.*.e.C.N.*.*.%.v %.*.*.v *.n n n s.s.s.z.h i.i.i.z.s.s.i.i.i.i.s.i.i.i.i.x.i.k.z.i.i.i.h f ( ( ( k.h h h ( ( ( s d d q 7 i } +.| +. .} +.+.x x x  . . . .k } z w w w w w w y y y r D r D e 8 e r e Z S Z Z Z r D D t t - ; ; - - 1 ; * ; ; 8 1 1 1 7 8 ; - 2 2 ; - - & - ; 1 1 - 1 < - & . p *.x c %.*.x c k k t : 8 2 & - - & & & & - * * & & & - & & & % % % & & - - 1 3 4 8 8 < * < ",
"< - < 1 ; ; ; : ; ; ; e 2 < < 4 3 8 8 e r r 8 8 y r r y e 8 e e t t : y i } k z $.x v N.$.@ @ a w i i H H t t _ i H i u u t r t D t r D i y u u 8 r D H t t D e D D t Z Z D D D D y y t i i p p p p z +.c z z c z z c z z z k k } } ~ ~ ~ G ~ ! ) ! ! ( ( ( ( ( ( h ( ( ( f f k.h h i.i.h i.i.i.i.i.h h i.i.i.k.h h h i.z.n #.n #.c c x $.c c c x v %.%.%.%.%.v %.%.v x c x %.e.k @ . @ X 7 o.@.z %.v b %.%.%.*.*.%.*.N.e.e.e.e.w.w.| X . 8 e r ; o o & - * 1 3 2 t ; e ; . : 4X&X#X#X#X@X@X@X@X&XV.@X#Xb.*.e.%.x *.V.#X@X#X@X@X@X@Xv.$Xq.X . O ; ; 1 8 9 e Z Z r r r r e e r r D : ~ ~ w.#X@XV.B.V.B.B.v.@XV.$.g @.#X#XB.@X@X@X@X@XV.V.V.V.B.V.C.C.C.C.B.#XB.z c *.#XC.C.C.V.V.C.C.C.C.C.C.C.V.B.V.B.&.w.B.@.g O.} O.} g #Xv.r.g 7 u ~ G ~ G G 0 9 9 D ; r 8 8 ; 8 O ; : O 7 r.3X*X&X#X@X@X@XV.B.@Xv.q.e.w | vXxX&.t.t.q.4X4X3X: o {.$X+X@Xb.@XV.V.V.@X@XV.V.V.B.C.e. .c  .e.V.B.r.B.B.v.B.B.B.v.b.v.V.v.B.V.B.e.B.e.%.%.$.x %.%.%.%.%.$.&.*.&.*.*.%.$.v v v v v v x n n n n n h h h h i.z.z.s.k.i.i.i.i.i.i.i.i.z.i.k.i.f h h h ( ( ( ( ( ( ( ( ( ) ! d q u ~ u D H H } } k z z }  . .c c x c +.+.+.z k k k k z k } } u y t t D D S S F D Z F D F S Z Z S Z e 8 r u D u t t D r t r D D u i y t H t y w y H i H i H t r y 8 r y @ p e.%.c *.$.p p p i H 2 & 4 r t e e 8 8 8 r 2 e e 4 4 2 3 2 ; ; 2 2 1 * & - 1 8 8 3 8 ; & & ",
"3 3 3 2 2 2 2 2 y 2 e e e 2 3 e 3 8 e e e 8 8 e 8 8 8 8 e y t S y t 2 p i k k +.$.c x *.$.k k i w i i H _ _ _ +.+.+.} i i u u i y t t H H i i t ; y H +.} } H D y y y y y t D t t t i } +.+.+. . .+. . .c c  . . . . .+.+.k w a : : 2 w y u ~ / u d s ) ( ( ( s d d ( ( ( d d h h h k.k.i.k.k.k.k.h h ( ( ( h h k.k.( ( #.n #.#.c c c x x c x %.v %.%.%.%.%.%.%.%.%.v x b v %.*.*.$. .z + X + @ @ x %.v v v b v x c x x %.e.b.e.w.B.+X} + ; 8 2 8 & & ; & % % % & & % & & : 7 {.w.w.w.w.w.w.w.b.@.w.@X#X&.c  .c x %.v.v.b.v.v.v.r.v.r.@X8.O o & ; ; 2 8 8 9 Z Z r r r Z Z 9 < * o 8 {.$X$X#XB.B.V.@XB.B.B.#X#X&.p  .B.@Xv.+X+X+X@X#X@XV.@XV.B.V.V.C.#XC.#X*XC.c z *.*X#X#XC.C.B.@XC.V.C.V.V.B.B.@X#X@X&.@.w.O.O.| O     p AXKXAXv.~ p G u 0 8 G Z D 9 Z , * % - o X.:.o...o.O.v.&X#X@XV.@X@X@X@X+X+X+X@X4Xi O.AX3Xr.%Xq.i t._._.& . y 7 g w.b.v.b.b.b.v.v.v.b.b.b.b.*. . . .&.e.w.w.v.r.e.b.b.B.@Xv.b.b.b.B.B.B.V.V.e.&.%. . .*.%.%.&.&.%.%.%.$.x x v %.%.x c x c x x x n n n n #.h ( ( ( z.z.( ( h f h h i.i.i.h i.h h h f s ( ( ( ! ! ( ( ( ( ( ) d q u r 0 8 8 2 2 y t i _ } } z z z k z z c z +. . . .$. . .c c +.+.i w y y H H t e t t t t r t D D D t y 8 r u H H H H H H t t t H } } ..} } } } +.} } +.k k k } H H H D H i + l N.*.c %.$.i w i .._ : % 8 S t t r r e y e y e e e e e r r e e e e < & % % & - * * - - * ; ",
"8 8 e e e e y y e e e e 2 ; 2 8 2 e e 3 3 2 3 r 8 y y 2 2 y y y e t w t y i p +.c k x %.$. .+.p t H ~ } } } } } } z i i H i u i i i D H H H H t 2 y k +.} } } i w w w w w w w w w w p z +. .+. . .c c c z z +.z +.+.+.+.+._ y : O O & : 8 r G ~ q q ! ) ) ) ) s q d ) ) ( d d d ( ( ( ( ( h h f d d g / #.#.( ( #.9.#.#./ g |  . . .x x x c x *.%.%.%.v v v %.%.%.v v v v v %.%.%.*.*. .a       @ c *.v v v v %.v x x c %.C.B.r.e.+X#X| O O - % ; ; ; ; - - 1 ; 3 2 8 & 7 ~ ~ t.r.e.w.w.@.@.q.&.#.&.#X#X@.z  .c $.&.e.w.&.w.w.w.v.B.v.@XO.o o O ; 2 2 8 8 9 9 e r r r Z Z M < % & G %X*X$XB.V.V.@X@X@XB.B.@XV.&.z  .r.v.e.e.e.w.q.w.w.w.r.b.B.V.*X*X*X*X*X=X@X| +.*.$X#X#X#X#X#X@XV.B.B.B.B.e.&.w.r.r.@.@.q.o...H 7 w . p 5X@Xr.O.g u u u 0 7 r G G 8 1 & & o O o o.q.o.} O.O.@.+Xv.v.v.B.@X@X@X#X@X+X@X$Xp O.PXvXxXPXr.  o + . : O O   w q.e.w.b.b.b.b.v.B.b.e.e.*.&. . . . .| O.e.@X@X@X@XB.B.B.v.q.&.e.b.b.B.V.V.e.&.%. . .*.&.%.&.*.&.&.&.%.$.x $.*.*.v x x c v v v v v c c g g / / / ( ( ( ( g d s ( ( ( ( ( ( h ( ) d d ) ( ! d d ) ) ) ) ) / 0 0 G D 9 2 ; : - : w t i i H i k } z z z z z +. . . . .x c  .c c c z k k i i i y w y y w w w w y y y y y u w y i i D D D H t e t ....} +.+.z } } +._ i k k +.} _ u u H i i p a l *.%.c x c i w i ..H 8 a y y e e e e 8 2 ; 2 ; ; 8 8 2 8 y y e e 8 2 - & - - - & & - 2 8 Z ",
"8 8 4 4 e e 4 e 4 8 8 8 2 ; ; 2 r Z e 8 8 e Z D H H H t y t t y t t t t a w w } l l $.*.%.*.&.p H D y : 7 p z } z i i H ..} } +.} } D D D i H y y y i p y p i i } } } } +.+.+.+.O. . . .+.z z k c z c z i } +.p w w w y t t t e y y r e e 8 9 0 0 0 u g u u q q q q ! ! ) q q d g g ( ( ( ( h g # q q q u u q q q u g g p p g c %.%.$.$.v x x %.*.*.%.%.v %.%.%.v v %.v v v v v v %.$.x z p p p p x %.x b b x v x x c c x %.%.%.O.O.} + . & - % - 2 e r r D H H D D H ; 7 8.O.8.w.w.e.w.@.@.@.@.@.@.w.w.z z  .c  . .@.@.O.@.@.@.@.@.@.w.} . o & o % % % & & = * - - * - 1 < * % & & H O.O.| O. .} | O. .| O.O.z g | &.&.@.w.w.q.w.w.w.q.q.&.&.w.q.*.w.w.w.e.&.z +. .e.&.&.@.@. .O.O.O.@.&.&.O.O.w.q.w.q.t.t.i 7 7 r.3Xv.q.r.+ @ p u ~ ~ G 0 ; 0 t G - & & D H r y ~ ~ i ~ } } O.O.O.O.@.@.@.@.@.@.@.8.q.r.7 p B.$X3XPX+X  . ; & & 8 0 O w @.@.@.@.&.&.@.&.w.*.&. . .c c | z p a p  .&.&.q.w.&.&.O.@.| z @.@. .&.q.*.&.%. .c c  .c z z x  .$.%.%.$.%.%.$.x $.$.v v $.v v x x c g a p p w w 7 q w u u d g g g g s g g d d d q q g / u q q q u q q u 0 0 8 8 8 3 8 e e e y w 2 2 : w w i +.} k i p p z +.+.c x  . . .c c c c c  .| } +.O.+.+.+.+.+. .+.+.| } ~ } ..} } } } } H H H S e r _ } _ } } z z } } i k } } i p p 7 w y w w p x x %.%.c x +.p i i y y t i t t t e r r t D t t r u G u 0 8 7 8 2 8 2 2 2 2 2 2 2 ; ; 2 8 S Y ",
"8 8 8 8 4 4 8 8 e e e e 2 2 e y 8 y 2 ; 8 r u G ..} } H t t t t t Y H t : w w +.k l $.*.%.*.&.p } i w + a g  . .O.} u H O.O.+.+. .| i t t t t w y y y y w y i i O.O.+.+.+.+.+. .+.+.+.+.+.c x  .+.+.+.k k O.O.p + : : : : y D D D A D S r e 8 8 Z r 0 0 7 7 7 = 0 8 0 q u = 0 7 q q q q q q q q q 0 7 7 0 0 0 0 O 0 g i i i z  . .x x v %.%.$.$.c c c c x v %.%.v %.%.%.v x b v v v v v %.%.&.*.%.*.%.v v v x v %.x x x x c  .&.| i +   o ; & % 1 e r y 8 e e 9 D D ^ : 7 O.O.O.| | | | z z } } } z | z z z @.&. .@.@.@.@.O.@.@.O.O.| O.i   O & o o o o o O o o % % % % % $ * * = o u :.O.O.O. .O.O.O.O.| +.+.} z }  .} g } } } g ~ } } z z | | z z z z z | | z z k O. .@.@.@.O.O.@.@.O.O.O.O.O.q.@.@.@.q.8.y : 7 +X3X$Xt.O.p ~ ~ ~ ~ ..~ 7 ; H H H 7 = : 8.{.:.O.O.} } O.O.| | O.O.O.@.@.@.O. .&.@.O.O.t.+   + 3XUXIX%X: O ; ; & : 7 o 7 @.@.O. . .| z  .%.&. . . .c  . .+.i p p z z g g z | } |  .| | @.O.|  . .&.%.&.&. . .%.c z p c  .$.$. .$.$.$.x c $.%.$.%.%.v x x  .c z w p i y y w 7 y 7 7 0 r 0 q q q q q q = 7 7 7 0 r 0 7 ; ; ; ; q 7 8 8 1 - - < 8 D D D D e 2 : : : : i } } i w w + i +. . . . . . . .x x x  . .+.k }  .O. . . . .+.+.| +.| } } } } } } } _ H H H D y y _ _ i +.+.z z | +.+.+.+.z z | } u w p i p p &.%.*.%.k c +.p _ t % e H H i H t y r t D ~ ~ ~ ~ ~ ~ ~ r 7 8 8 e e 8 2 2 2 2 8 8 2 ; 2 8 e S ",
"e 8 e e e 8 e e 8 e e e e 8 e y ; 7 7 7 q g g g ~ u u y w y t t t t H t : w w +.z l x %.%.*.$.a i p a @ # g c z +.H y i O.O.+.k z z t r t t t 7 y y t i i u u i } } } } +.+.O.@.O. .+.+.z z +. .+.+.z p i +...y w y y 2 ; e Z Z 4 4 4 2 4 e e C r e 0 r r r y y ; ; 7 7 8 & 8 : 8 7 7 7 7 7 7 7 7 y 8 8 8 8 8 r y i } g i i k c x x x x $.$.x c x x  .x c c x c x v %.v v x v v v c c v x x x $.%.$.v v v x x x $.x c x x c &.&.O...: o & % o % ; 8 y y r D D D 8 e t + y | | } O.| | } z } | } z | | g z z z  .z  .| |  .| | | O.O.| q.i   O & % % & & & & & & & * * * * * * = % % r ..| O.| | } g } z z } i i i i } z g } } | | } | | z z z z z z z z z } | z z p ~ p i p g p p p p p p i g } g i g i ~ ~ y u u } } } g i ~ i ~ ~ u G G 0 0 G H G 7 O o } t.O.g } z p } | | g | |  .O.O.O.O.O.O.O.O.O.t.y w i .._ | u . O 0 D ; ; & o 7 8.| } z z g p z c c z c c c c | z p p p g } | } z z z i } g i | | z +.z z z +. .c c  .z p p c  .%.%. .$.x $.$. . .$.$.x x x c c  .c z w i i i i y : 2 7 8 8 ; 7 7 7 7 7 7 7 = : ; : ; 8 8 8 ; ; ; 8 r t D r 8 2 2 2 8 t Z t t e e y y y w t H D t t y : p _ } z z z z z c  . . .x c c z z +. .+.+. . .} } z z } } } } } } } } H H H H r y y H H i +.+.} } } } +.} p p p z z a + w i i a %.%.*.%.l k  .i } y o t H i i i y y y y u ~ / / / g / ~ 0 7 0 8 8 e 2 2 2 2 2 2 ; 8 8 ; 8 e e ",
"e e y y e e e e 2 8 e 8 8 2 8 8 u g / / ( #.#.( #.g 7 7 7 y t y y t i y O y w k k p x %.%.*.%.z p g g # X @ @ X p w w y i H H i k i y y t y y w r t u D D u t p u u u u u i p i p p p p p i i k i } i a w t y 2 y y y ; - 2 2 - 2 3 3 2 3 4 e e 2 ; ; 8 D D i t 8 8 w 7 y : y : : : : 7 7 y r y y y y y t y i } ~ +.@. . . . .%.%.%.$.x x x x x k k z c c c c c c x $.v v x v %.v x x v c c x $.x c c x x x x  .c z c c c  .O.w i i : O = % = ; & * & o % o o o & & o : O.@.O.O.| | | | }  . .z }  .z p z z p z |  . . .O.| O.O. .O. .w.}   o & o % % % & % % % % % $ $ * * * $ Z 9 8 O : | } | p p i i i i i z i z  .| |  .| | | | | | z z | z | |  . .O.&.| p z i | } } g | | | | | | | | | | O.| O.| | | y u u + O w u u ~ 7 0 u 0 ; 7 9 N , 0 1 o 7 7 ~ @.} g z | g z i z z p p g z | | +.| | O.@.O.8.7 7 y O . o   . : 0 0 ; & & o 7 H + O. . .c z c c c +. .c c c c z i p z i i } i p z z i i p p z z g z z z z z z z z c g p i c  . . . .x c x x c c  .x c x  . .x  . .z  .&. . . .H w w y y y ; 2 8 8 8 8 ; 8 : ; 8 ; 8 8 8 ; ; ; 2 8 r D u y ; y y 8 2 2 2 ; ; ; 2 2 2 ; ; 2 w 2 2 y y : 2 a : w y i i p k } +.c c c c z k z z z z c +. .} i w w i u w y r t y w w w t y y t H t u ....+.} z p p a l %.c c c l l z p a p %.%.%.%.c c  .k H w & t H i i i t u u u u / g ( g / ( / u q r 7 8 8 2 2 4 8 2 8 ; 8 8 8 8 e 2 ",
"8 8 8 8 8 8 8 e 2 y y 8 7 7 q q d g #.#.z.z.z.#.#.d # # # 7 7 : y t D w O t w k z k c c c x x c c b.=X6X6X6X=XZ.X # @ X   @ w } H i w y y w u y y w w y y y w p u i i i i i p p p p i i k k k i i H p w y y : e 2 e 8 ; ; 2 2 - 3 9 e 8 8 8 8 3 e 3 ; 8 t H D t t t t t D y H y t t t D D D H H H H H D H t i +.z  .&.$.%.%.x %.x %.%.x x  .$.&.&.&.*.*.&.%.%. .%.%.%.$.v x v $.$.x x $. .%.C.C.C.N.N.e.*.e.e.e.e.e.B.B.B.#Xr.@   o o o & & * % % & o o & & % & o o . u #X@XB.B.@XB.@X+X+X+Xv.&.z | p g b.#XV.#X#X&X#X#X&X#X$X&X$X$X$X4Xq.o o o % % % % & & & = * % % $ > 1 9 1 Z D y . O q.w.+X#X#X$XB.@.z z  .e.B.&X*X*X*X&X*X*X*X*X*X*X*X*X*X*X*X$X$X*X*XN.} }  .+X$X&X#X&X&X&X&X&X&X&X&X&X&X&X$X&X&X*X+X..u u 7 y y r 0 0 G u y ; - , , N 9 * * = :.r.+X@XB.@XB.@XV.e.i i +.r.B.B.+X+X+XB.B.@X+Xr.8.8.w y + O 7 y & : G u ; 8 % - & & O . 4X3X3X=X=X*X*X*X*X*X*X&X&X*X*X$X#X$X@.p i p z e.+XB.B.v.v.@X@XB.B.B.B.B.B.B.B.B.B.B.b.e.w.%. . .x x x x c z  .&.%.&.*.b.b.e.w.w.&. .&. . .&.+.i _ H ~ ~ H D D D D H t D D H D y D u u t t D D t r t t y ; y t t y D e ; ; e t e 2 2 y y 2 : ; y e e 2 : : y i u t p k } z k z z +.z k z  .z k c  . .| z p i +.} i y r t y w w u i u t D H y u ....i z p @ X X l Z.D.D.D.Z.Z.Z.$.@ p %.c c v l c c k i w : y H ~ i i p i g p g g g ( h h ( ( d q q q 7 0 8 2 8 3 ; 8 ; 8 8 ; ; 8 ; ",
"e 2 2 2 e 2 1 2 r 8 7 7 q g q d d h h h h h h h h j # # # # # # y w H w O : p k k z k k c x x n n s.jXkXkXkXjXkXc.s.c.n.%.*.g g } } : H w w w w p } z i p p _ p p i u p k } } } } z z } z i } i i H i y 2 2 2 2 8 2 2 2 2 2 ; ; - 2 3 8 8 8 3 ; 2 2 8 e y t t t t u u t t t t t t u t t D D t D t t t t t H _ k z +. .c x x x  .%.c c x x %.e.B.r.r.B.B.B.e.&.%.*.*.*.*.%.%.%.*.e.x c x %.*.e.C.B.#XC.B.e.e.e.e.e.b.V.#XV.&Xv.+ O O & = & = $ = & = O % & o o o o o . + $X@Xv.#X@X@X@X@X@X@X+Xq. . .p p V.$X$X#X#X#X&X&X&X&X&X#X#X$X#X*Xt.  O & % % % % = = = = * & * * < 0 9 9 9 G ~ y ~ :   $X3X*X=X#X&.z i e.*.#X=X*X*X*X*X*X*X*X*X*X*X*X&X&X$X$X*X*X&X*XB.p k | #X$X#X#X&X&X&X#X#X$X&X$X&X&X*X$X4X$X*XB.i 7 7 O G G 0 G r r r r D Z 3 1 3 > % % O u $X#X#X#X#X#XB.#XB.i | O.B.@Xv.r.B.B.+XB.@X+Xw + 7 i u u 7 = 7 G G D r : ; & - - & o + 4X3X3X=X=X=X=X=X*X*X*X*X*X*X*X*X*X3X@.p i g z e.@X@X@XB.@X@XB.B.B.@XB.B.B.B.V.V.@X@X@X@Xe. . .*.&.&.%.*.*.&.e.B.V.B.b.B.B.b.b.b.e.%. .c  .&. .} +.k H } t D i i D t D D i u t y t u t i i t y t t t y y t t i D u t y y y e e e ; : : ; ; ; ; - - - 2 y : w t i y w i _ } } k i z z z z c c c c c c  . .} } +.+.i w w y y : + w w y t D H y i y i + C.=XZ.Z.Z.Z.D.kXkXkXkXkX6Xn a p c c c c c x  .z p w O y ..w p # a g d # # # # h h h h h ( z.#.#.g q q 7 ; 2 2 - - y 2 - 8 8 8 ",
"e r Z r 2 2 2 8 8 7 q g g ( ( ( h z.z.i.i.i.i.i.s.z.z.n.n.z.n.n.g t H y w p p i c c c c c c n n.c.c.kXF.F.F.D.D.D.A.D.kXkX6Xn # a p a w 7 y w + i } +.+.+.+.} i p i i i } +.+. .+. .+.+.} i i u i D t y ; 2 e 2 2 2 2 2 ; ; ; 2 e r r e 2 8 r t t t t t t t t i t t u u u u i D u D D D H H D D H D i t i } +.+. .$.$.$.%.%. . . . .*.e.*.*.e.b.e.e.e.e.e.b.*.*.*.%.%.%.%.%.%.%.&.c c  .*.e.r.B.B.C.B.e.e.B.B.B.V.B.@X#XV.$Xv.O O O = = & = = = % & & = - & - 8 & O o 7 +X@X+XB.B.@XB.@XB.@X+Xw.i c z z B.#X#XV.@X@X@X#X#X#X#X#X@X@X+X*Xr.. + & % % % % % = $ = % % * * < 1 1 1 0 D t u ~ : o O.@XB.e.*.*. .z *.e.B.@X@X#X#X#X#X#X#X#X#X#X#X#X#X@X@X#X#X@X$Xr.p k +.@X@XV.B.@X@X#X#X#X#X#X#X#X#X#X@X#X@X#X@Xq.t.} O ; ; & ; & 7 ; - ; < $ $ > , 9 H ~ | @XB.@X#XV.V.B.#XB.i }  .r.B.B.B.+XB.B.+X*Xt.+ ~ } | X.o.u 7 0 G D r 8 & - - - - - & + $X4X$X#X#X#X#X#X#X#X#X#X#X#X#X#X#X*Xe.O.O.g i e.$Xv.B.v.B.@Xv.v.v.v.v.v.v.v.B.V.v.B.v.v.e. . .&. . .&.r.r.e.e.b.B.b.r.b.v.v.b.b.b.b.e.&.&.*.&.+.} } } | u y y t t t t t t i i u t u t t u t t H t t t t t t i D u t t t t t t e e e e e e y e 2 2 8 e y y t D D i y i i k } i p p z z c  . .c c c c c z z z } z i p i i i i _ } _ H u y y w i p p @ Z.tXkXkXkXkXkXkXkXkXD.D.D.s.c %.%.c c x c k z p p i 7 u ~ y | n n z.#.h z.i.h i.i.i.i.i.s.z.z.z.h d q q 7 : 2 e 2 2 2 8 2 ; 8 ",
"1 2 C e 4 e Z 2 7 q g ( #.z.z.x.z.x.x.p.s.d.d.s.s.c.m.m.m.c.c.c.g p p a a g p p # # l l l l n s.c.f.g.h.g.f.f.h.A.h.A.S.A.Z.n # # @ @ X a 7 u H y p k z c  .} i i H i i } } z } z } } } _ i i i i H t y 2 e e e e e e e 8 e e t t D t 2 ; 2 t H D i t t t t t t u u u u u t t t u D i D D t t t t y y y i +.O.&.$.&.*.e.e.*.%. .x  .e.B.e.*.w.e.e.e.w.&.*.e.e.e.*.%.%.%.%.%.%.%.%.$.*.e.b.B.B.B.B.V.C.b.B.#X#X#X#XB.B.@XB.#Xr.. O & & = = = = = % & & ; ; ; 8 D r y 7 y O.O.+XB.v.v.B.B.r.b.b. .p  .N.e.V.#XV.@XV.B.B.V.V.@X@X@X#X@XV.*Xr.. o o % % % % % % $ = * & * ; 1 0 1 ; 9 D 8 H ~ : + + z &.N.e.*.z p &.e.e.e.e.r.v.v.B.B.B.B.B.b.r.r.r.b.e.v.r.v.+Xe.i i } B.B.B.B.B.B.B.B.B.B.B.B.B.B.B.B.V.B.B.@X@X*XO.O o % o o o O o o o & o o & : {.$X4X+X$XB.@XV.B.B.B.@XB.z } +.v.+XB.B.B.r.B.B.8.i + 8.8.@.8.9.G 0 0 D 9 8 1 & % - - & ; & O %X+Xv.b.e.b.r.r.r.b.b.b.b.b.b.b.b.B.B.@Xv.} g &.r.r.@XB.v.v.v.V.v.v.v.v.v.v.B.v.e.q.&.e.b.w.q.&.| g  .r.B.v.v.v.B.r.w.w.e.e.w.e.e.e.*.*.*.*.$.z } } i } p p p i p w w w w t i i t t t u t t H H t t t t t t t D D D i i i i u t t t t t t t t t t t t y t i t t t w t i i _ i p p z z +. . .z k z z k z +.+.+.+.} +.+.+.+.O.O.+.} o.y O X . X X # # n.D.D.A.S.F.S.A.A.F.S.A.A.c.s.%.v c l c l l l p p a + w g g #.c.m.m.c.c.c.c.x.i.i.p.d.s.p.s.i.i.k.h h ( g 7 : ; 2 8 2 e 2 - 0 ",
"Z 4 9 e 8 e 0 O q g ( z.z.z.p.z.p.i.p.d.x.d.d.d.c.m.m.m.m.m.h.c.g g g j h z.n n n n n n n n s.s.f.h.h.h.g.g.A.m.g.h.g.S.A.A.A.D.D.D.D.Z.@X7 u } i w k +.+. .+._ t D i i } } } } } } } } i i i i i i t e 8 e r Z r e e e e r t D t t t 2 : 2 t D t t t t t t t t D i u u u t u u y u y y y y y y y w w w p z  .$.$.*.e.e.e.*. .c  . .&.e.e.e.r.r.r.r.w. .%.e.e.e.%.%.x x x x c c x &.b.B.B.B.B.B.b.B.B.B.C.V.@X#X#Xv.b.B.v.@Xr.. O & & = = = = = * * * ; 1 1 8 t D H H H + @ r.v.r.r.b.b.w.w.w.g i  .#X@X@XB.e.B.B.B.B.B.B.B.B.B.@XB.B.$Xt.. O % % % % % % % = = * = = , 1 0 1 ; = 8 = D ^ H ~ 7 . +.r.r.e.+.+.B.q.B.+XB.B.B.B.+Xv.v.v.v.v.v.r.r.v.r.v.e.w.r.q.i i | B.B.B.B.+X+XB.B.B.B.B.B.B.B.v.B.B.r.B.B.B.*X} o o o o O o o o o o o o   O + r.+X$X+X@XB.V.v.B.B.B.+XB.| } | B.#XB.B.+X@X#X$X+ : u } u | o./ u 0 0 Z 9 9 1 - * - * - 8 & o {.+Xr.e.e.r.b.b.b.b.b.b.b.b.b.b.b.e.v.@Xv.O.} | g @.B.@Xv.b.v.v.v.B.r.v.v.v.B.v.w.q.q.v.B.B.+Xe.| p z e.B.B.v.r.v.v.w.w.b.v.b.e.b.b.B.e.e.e.&. . .O.i z p p a w + p p p p y y u i t t i y y t t y t t t t t t D D t i i i t t t t D D D D t t t t t t t u t y y y w i i i H H i i +.+.+. .+.k i k i i k } +.| | +.+.+.} +.+.} } +...p  .&XZ.Z.Z.Z.Z.D.D.S.f.f.g.g.A.h.g.g.g.A.c.c.j n n b b c l c g j j j g g j #.m.h.h.h.h.d.d.d.p.p.p.p.d.d.d.s.i.k.i.k.z.g # O 7 7 e 2 2 3 1 9 ",
"S 9 e r 8 0 u g g #.k.z.i.z.p.p.p.i.i.i.s.d.d.h.m.m.h.h.m.m.M.c.h h s.s.c.m.m.m.A.A.D.D.D.D.A.c.f.h.A.g.g.g.S.f.h.h.g.F.F.D.kXkXkXkXkXjX6X# p g p a k +.k } } u t H H D _ H i _ H H i t y y y t y y y y 8 e r t e 8 8 e e t t t D t t y y y t t u t t t t i i i i D i i i i i i u i i } } +.} +.| +.| } }  .%.$.%.%.%.%.$. . . . . .&.e.e.e.w.@.O.q.e.q.w.e.e.e.%.%. . . . .c z z  .w.b.B.B.B.B.v.v.v.B.B.e.b.@X+Xb.r.B.v.+Xt.. O & & & % % = $ = * = 1 8 8 8 8 D D H } + . r.+Xv.v.B.B.r.r.w.i z z B.r.v.r.w.r.v.r.w.e.w.e.e.e.e.e.e.@Xq.o O * * * & & % % & & = % % % = < 1 1 8 8 8 8 G H H y : H ~ } | } } O.@.w.e.e.v.+X+X{.{.v.v.v.v.v.v.v.v.r.v.w.@.@.O.g p } +X+XB.v.B.B.+X+X+X+XB.B.B.B.B.B.B.N.B.N.r.+Xw.O.O.u u :.8.O.:.:.:.:.:.O.@.w.q.w.B.B.@XV.@XV.B.v.+X+Xv.+.} k +.t.r.r.e. .| @.7 7 X.g 7 ~ u u r 0 r Z 9 9 1 * < 1 * ; 1 % O %X{.r.w.e.v.v.v.v.v.v.v.v.v.v.v.v.r.v.v.w.@.@.| + } r.+Xv.v.v.v.v.v.@.@.r.v.v.v.w.r.r.r.r.e.v.w.} w i @.w.e.e.q.w.e.&.@.w.v.B.b.B.B.b.e.e.e.e.*.*.e.k z }  . .$. .+. . .+.i y i H t H i i u t t t t t i i i t t t t t t t t t t t t t t t t t t t y y y y t t t t y i i t i i t p i i i _ _ i i k p p i i i } } z } i H _ i p i z c a *.jXkXkXkXjXjXkXkXF.h.f.g.g.A.A.S.g.g.S.h.f.f.D.kXD.Z.Z.c.c.c.c.c.A.c.s.j i.M.h.h.j.j.h.h.d.d.x.d.p.d.p.p.i.i.p.i.i.k.h d g g 7 8 8 ; 2 1 - ",
"3 4 r 0 7 q / z.( z.k.k.i.x.d.x.p.z.i.a.a.d.h.h.h.h.j.j.M.M.h.d.i.h d.M.M.m.h.h.h.g.F.kXkXA.f.a.a.g.S.S.S.S.S.g.f.h.f.S.F.S.F.F.D.F.F.D.Z.# # # a a w i u i H y H H H t i y : w i t y : - : - ; e y y 2 2 e e e 2 8 e y t t t t t t t t t t t t i i t t t t t t t t u t t p p p p i } O.O.&.&.&.&.&.&.&.%.%.%.%.%.%.%. . . . .&. .O.q.w.w.w.@.i g  .w.r.v.r.q.&.z z k p i i p p | O.&.r.#X#X#X#X#X@X@X@XB.q.&.r.@X@XB.#X+X+Xq.o O & & & % % = $ = % * 0 8 8 8 8 D u u ~ : + {.$X+X@X@XB.v.v.w.z k O.+XB.v.v.{.{.v.v.r.r.w.e.e.r.r.r.v.+X8.o o % * * * & % % & & & = % % * * 1 8 ; 1 8 & 8 G u G D D O . .   . . X     @ } r.+X+X+X+X+X+X+X+X+X+X+Xv.v.r.@.@.O.z i +.+X@X#X@X+X+X+X+X+X+X+X+X+X+X%X@X+X+X@X@X+X@X@XB.r.i i r.+X+X+X+X%X%X%X+X@X$Xv.r.+X@X@X@X@X@X@X+X$X%X$Xq.+.} i 8.r.+X8.@   + r.X.8.~ u ~ 7 u r G G Z 9 8 ; & * < * * & o & _.+X{.r.v.+X+X+X+X{.+X+X+X+XB.B.v.+Xv.v.r.w.e. .a z r.@X@X$X$X$X@Xr.O.O.r.v.B.+XB.+X+X+Xv.r.B.r. .w p | @.w.r.r.v.r.q.@.w.B.B.B.B.B.b.e.r.B.B.B.@XB.} k k $.$.$.$.%.%.&. .p w p p y i p p u y y t w t t t i t t t i i t t i i i i t t t t t t t t 2 y y y y y t e 2 y y w t y y y w w y t t t p t t u i y u } +.} +._ } ..i p a @ l X n D.D.F.F.A.A.h.g.g.h.h.h.f.F.F.F.g.g.g.h.f.a.F.kXD.A.h.h.h.h.m.m.A.A.s.a.d.d.d.j.j.j.j.g.j.M.M.d.p.p.p.p.i.i.p.i.i.z.z.z.n.g X O 7 8 2 2 ; ",
"4 C e 7 q d h z.k.x.i.x.p.p.i.z.i.i.i.a.d.h.g.g.h.h.g.m.h.d.d.x.i.h d.M.j.g.h.h.h.h.S.F.F.F.A.A.a.h.S.A.A.A.S.F.F.F.h.g.g.h.h.h.f.h.F.F.D.Z.Z.n.*.*.p w D D ~ u D D D t t y 2 y H D D 2 ; ; - ; 2 2 2 8 2 8 e e 2 e t t y e t D y t y y t t t y t t t t t t t t t t u t i p i i p p c  . .$.%.x x x x $.v x v x %.%.$. . .c z +. .O.&.q.O.O. .p i } O.&.q.&.| +.z z k i i i i i +.O.+.&.r.r.r.e.e.w.e.w.&.O.| O.v.v.r.r.r.t.:.o O O & & % % = & = = * 0 8 8 9 y t D t H 7 + o.8.q.r.w.&.@.&.@.} i O.r.e.t.q.t.w.t.w.q.q.q.q.q.q.w.w.w.r.:.O & % $ $ * & % % % % * * * * = * 1 9 1 8 ; : 8 r r D ~ ^ = O w + @ @ X @ @ w g O.w.+X{.v.v.r.r.r.r.r.r.r.r.w.O.O.| z } +.r.r.v.v.v.v.{.{.{.{.v.v.v.r.r.r.t.r.r.r.r.r.w.&.@.p p &.q.q.8.q.8.8.q.q.8.q.q.q.r.r.r.v.r.+Xv.r.v.t.r.q.} _ i O.8.t.O.7 + g 4X8...~ 0 7 0 G D G D 8 ; ; ; & * * * 1 ; ; : 8.r.r.t.r.r.r.r.r.r.r.r.r.r.r.e.w.w.q.w.q.q.w.| w g q.w.w.v.r.t.r.q.| O.t.w.w.r.w.r.r.v.v.r.r.r.@.p i } | O.q.q.r.t.q.q.q.r.r.e.r.B.e.w.e.r.r.r.v.e.} z k  .$.v v x x x c p p p p i p p p i p w p i i u u i i p u D D t t D D D t t t t t t t t t y 2 2 y e y 8 e e 2 : 2 t t y t y t t y t D D t t i u t p _ } } } i H H p z n l b b Z.kXD.F.g.a.f.f.h.h.g.S.F.S.F.F.F.S.A.g.g.h.h.F.kXF.A.A.A.D.S.S.h.h.h.s.a.s.p.d.d.j.h.h.j.h.j.M.d.d.d.p.p.z.i.i.s.s.s.i.i.z.h # # 7 7 2 2 2 ",
"V S 7 q / #.k.z.i.x.p.x.z.i.h i.h h i.d.d.h.h.h.g.h.g.M.d.p.d.d.i.h d.m.h.j.j.h.h.g.g.g.F.D.kXD.a.f.h.h.h.h.h.F.kXD.f.f.f.f.h.h.f.h.F.F.F.D.kXD.kX8Xc @ y 7 8 8 ; 2 ; ; e 2 2 e y y y : ; e 2 e 2 8 e e e e e e ; e t y 8 w t H y t t y t t u t t t t t i D i i t t i i k } +. . .x $.%.v v v v v x v $.v v $.x c c z z c z z +.} } } } i i } z } g i p i i w p p i i p w y u u i i p i i p p p w p p p p p p i i z p p i H u o O O O & % % % & * = , 0 1 ; 9 r r D t D y O O . u | g p g | | } } i p p i y u u u u u u u u y y p w w i u o = * $ * * * & % % & = & * % % = , 1 * - % ; ; & ; ; 1 Z o G 4X5X5X5X5XxXAXxX+Xi w ~ H H i i i i i i i p i i i g g i p w z p i i i i i i i i i i i i y p y y y w w w p w p w p z p y u i y w y y y y y w w 7 w u 7 y i w y + w w + o . +     + O 7 ~ | g g / u 0 G 7 0 Z 9 - & - ; ; 1 ; ; r D H t ..u i i i i p p i i i i i i p p p i p i i i } i w w i w w i w y p i w u i p w p p p w w p w w p p p p p w w w w u y u y w y p p i p p p i g i i p z p i p  .$.x b v v %.%.$.$.&. .&. .z  . . .z } +.+.} } } H u p D i t t t D t t t t t t t i i D e ; ; e t e e D Y r ; e H H e e e e e e e S t e t t t y y y y w y w y 7 # b.8XkXkXkXD.F.S.F.S.f.h.h.f.f.h.D.kXkXA.h.h.h.m.h.S.F.D.D.F.A.h.h.g.S.S.S.h.h.h.f.a.s.p.i.p.j.j.h.j.j.h.g.d.h.M.i.h h i.i.i.p.p.p.i.z.k.( ( q + : - : ",
"V 8 u g h k.z.i.i.p.x.z.z.i.h i.j s.i.d.m.h.h.j.j.j.j.M.d.p.s.d.j a.h.g.g.g.g.g.g.g.g.f.g.D.D.S.f.f.f.d.M.j.f.S.kXF.g.A.h.a.f.f.f.m.D.F.A.S.D.F.kXjXg   + 8 r 2 2 e ; 8 e 8 e 2 ; : : a w y e r e e 2 2 e r e e ; 2 8 2 : w t H D y i t y u u t t i i u i D u u t y w w p  .$.x x v v v v v %.x v v %.$.x $.$.c p p p k k k k k k i i i i i i i i i p p i i p u p H H t w w y u u u i i i i i i i i i i p p i i g i i i i } y . o o o o o & * % * % * 1 0 1 0 r D G r u H H u O y ~ i } u w g i i u w w i p w y 7 w 7 : 7 7 7 : + 7 7 u : o & - % % * * % % = & o - o & * % - % % * 1 ; - & % * = N 0 ~ $XxX5XwXxXPXLXLX|   y y i w p y y i i w i p y w p i i i } p i w p i i i i u i u i u u u w y y w w y i ~ i u p w w p i ~ ~ H D D H ~ G u 7 7 7 7 7 7 7 0 r 7 7 ~ i + o   7 w | ~ g o.~ u w o.9.X.u 7 0 0 G D 1 & * - % * * = ; H ..^ ..~ u y w p y p p p p u i p p w w p p p p p p p w w w ~ i w i H y w y w y p p p w p w w w w w w w w + w w + w u w u y y w y w w i i i i i i i i u p p p p c $.v v v %.%.v v %.%.%.%.%.$.c x %.x x x x x  .O.} i u i i u t t D D D D t t t i u t t D 8 e 2 2 r r r F D r e y t D t e y 8 2 ; ; ; ; : ; : : ; 8 8 ; : 7 : + . X Z.kXD.D.D.F.g.h.h.h.h.f.f.h.h.h.F.kXD.S.f.h.h.h.f.F.kXD.F.F.S.f.g.h.g.g.j.g.h.j.f.d.d.i.p.p.M.h.h.j.j.j.j.j.M.d.i.i.h h i.i.i.p.p.p.x.z.z.( # q q & < ",
"4 0 / ( k.k.k.i.x.s.x.z.k.i.h h h s.d.d.j.j.j.j.j.j.g.m.d.p.p.d.d.d.h.g.j.g.g.g.g.g.h.h.S.kXD.F.f.h.f.a.M.m.j.A.D.F.F.F.g.f.f.f.f.f.f.f.f.g.F.F.F.kXs.g g + : ; y y 8 r t 2 2 2 8 a a : 2 2 2 8 8 e 2 2 e e e y 2 y w 8 a w p H H t i u y u u t u i u u u u u i p p i i z  .$.x v v v v v %.v x v v %.$.x $.$.c p k z z z z z z i i i i i i i i p p i i i i i i i u i y w p i 7 p p p p i i i i i i i p p p p p p i g i i i w O o o o & & & * $ * % * 1 0 1 9 0 D H D H D G r O o o.t.o.i O.~ i i } } g g g i i i ~ i i u G H G g ~ ~ ~ r & = o % % * * % = = = o ; % % % o % % % * 1 2 ; * * , , F G ..%X3X*X=X=X5XwX5X} . : o.O.} | } i i g } z } } } } +.} p p p +.} +.| } +.+.+.+.} } } } } } } ~ } } | ..} ~ ~ ~ i i i i ~ ....^ ^ ~ ~ ~ ~ ~ ~ ~ ~ ~ ~ ~ } ~ o.O.u i O.} O.q.~ ~ ~ / ;./ u = g ~ u y 7 7 ; ; ; % o * ; - ; ; & & u ~ H ~ i } } } } ~ g i g i i i i i i p p p p p p p p p w p p p i i i p } i u u i p p p w p p p p p p p p w p i p i u + w w t H } i i g i g g i i i i i i p i z x x c v v v v v v %.%.v v %.%.c x $.x x x c l c c z i i i i u t t t t t t i t t u t y y t y D D D H D r D e e 8 y t D t r 8 e e e e e e y y r r t t D D t y + p g j c.D.D.D.D.F.g.h.g.g.h.f.h.F.F.D.D.F.F.S.g.g.h.f.f.F.kXkXD.D.F.h.g.g.j.g.j.g.g.g.h.d.x.i.p.p.M.j.j.j.j.j.j.h.j.d.p.i.i.f h k.z.p.p.p.p.z.z.z.f h q = 5 ",
"1 7 g ( k.i.k.k.x.s.s.i.i.h h h s.p.d.M.h.j.j.j.j.j.g.M.d.p.p.p.M.j.m.g.j.g.g.g.g.g.g.g.A.S.S.F.D.D.f.a.h.j.h.g.f.h.F.kXF.F.D.A.h.h.f.f.f.g.F.F.g.F.D.kXeXc p } u D t D H y t i i i u t t y t t t t r y y y y t D i i i i i i k i p i i u i i i i i i i i u u i p z +. .x $.$.v x v x v %.*.%.$.x x x x c x x c &.q.e.v.B.v.r.b.v.v.v.v.v.v.v.v.V.B.B.+Xv.v.+Xv.O.+.| i w | v.+X+X+X+X+X@X+X+X+X+X+X@X@X@XB.B.B.B.@Xw.O.| } 8.8.& O O & & & % % * % * 1 0 1 0 8 1 0 1 8 7 8 8 & o O 7 O w 4X4X4X#X$X$X#X#X@X@X@X@X@X@X+X+X@X$X$X$X$X{.t.8...H & ; * * * & = = = ; ~ H t 2 % * * % - 3 8 8 3 3 9 9 Z 9 7 8 : O O . O O w : O O {.3X$X$X4X$X$X#X*X#X$X$X#X&X*XB. .} &.#X#X&X$X$X*X*X*X*X*X*X*X=X*X*X#X+X+X+Xv.q.} } ..| } } } ~ X.:.o.;.o.o.X.O.8.{.v.v.v.v.{.+X+X+X#Xr.. ~ xX5XxX3X8.~ ~ ^ ^ ~ ~ 7 7 + O = 7 0 8 - ; * 1 U -.-.-.^ D u H ~ H H i +X%X%X#X$X4X4X*X3X3X*X*X*X=X*X*X4X*X*X*X*X*X*X&X*Xw.z | O.| w.*X*X*X*X*X=X=X=X=X*X*X*X*X&X&X&X&X#X#X#X#X$Xw.g } p ~ v.$X+X#X#X$X@X@X+X+X+X+X+XB.v.e.e.e.%.x v v v v v v %.%.v v v %.c x $.x x v x c c x c z k z } k i i i i i u i u u i i u i i y D D D H t 8 8 y y y y D D t y y t D H H H H H ..........o.o.O.O.z V.hXkXD.A.h.A.S.S.g.h.j.j.h.A.F.D.F.kXF.f.h.S.g.m.h.f.f.S.F.S.S.F.S.g.S.g.g.g.g.g.h.g.h.m.c.a.p.p.M.j.j.j.j.j.j.h.j.M.d.i.i.i.h i.i.i.d.p.x.k.k.z.k.z.d = ; ",
"0 q s ( i.i.i.i.s.s.s.i.h h i.i.d.p.h.j.h.h.h.h.j.j.j.M.p.p.p.p.M.M.g.g.g.g.g.g.g.g.g.g.g.h.h.S.kXD.a.a.h.j.g.g.f.g.F.D.F.D.D.f.a.f.f.h.h.g.S.S.h.h.D.jXjXl @ p i H t D D y p _ _ H H H H H H H H H u y w w y i H i i i i i i i i p i i i i i i i i p i p p p i z +.$.%.$.v v v x x %.%.*.*.*.*.x x x c c c c | &.e.v.B.@X@X@X@X@X@X@X#X#X#X#X#XV.v.v.V.+X#X$X@X| @.&.| i @.@X#X@X@X@X@X@X@X@X@X@X@X@X@XV.V.B.B.V.#Xq.@.O.| 8.q.o o o o o O % & $ % * 1 1 1 1 1 9 9 1 ; - ; 8 ; : . o . O $X$X@X@X#X@XV.#X#X@X#X#X#X@X@X@X@X#X@X&X4X{.t.9...H & = * % o o O O o = ^ ^ G 8 o o o o % - - - - ; 1 9 9 9 0 8 ; 8 8 y 8 8 y D y o +X3X#X@X@X#X#XC.C.#X#X#XC.#X*Xe.p k  .#X#X#X#X#X*X#X#X#X#X#X#X#X#XB.r.e.e.r.w.| p i i H i i ~ i ~ O.o.o.o.o.| O.8.%X@X@X@X#X$X$X$X$X4Xr.  i AXxXxXt.~ G ..X.^ H H ~ u : O & 8 D t o o O 1 ^ 6.:.:.~ G y i H i H i r.@X%X#X$X&X&X*X3X3X3X=X*X*X=X=X*X*X=X*X=X=X=X*X3X&.p g | | e.3X3X3X3X3X3X3X=X=X=X3X3X3X3X3X3X3X3X3X3X=X*Xe.g z p g #X3X#X$X@X#X&X&X&X#X#X#X@X@X#X@XV.B.%.x x c v v v v %.v v v v %.x v v x v v %.x x x c z z k c z i i p p y w w w p u i i i i u i u t t y ; 2 y y t i H D t w y D H H I ^ ........o.o.O.O.O.O.#.g Z.jXkXA.g.g.g.h.g.g.j.f.a.a.g.D.D.F.kXF.h.h.S.g.m.f.f.f.A.F.h.h.S.A.g.g.g.S.g.g.j.h.m.h.h.d.i.p.d.M.j.j.j.j.j.j.h.j.M.d.a.p.z.i.i.h i.x.p.x.i.i.k.k.z.d # ; ",
"q d ( z.k.i.i.i.s.x.z.h j h z.s.d.p.d.j.h.h.h.g.h.h.j.M.p.p.p.p.M.j.g.g.g.g.g.g.g.g.h.h.g.h.h.S.D.F.f.a.f.j.g.g.h.g.S.S.S.F.F.h.f.f.f.f.h.h.g.g.S.h.F.D.D.n l @ p i u H H y y i i H i i i i i H H H u y w w y i i i i i i k i i i i i i i i z z z z z z z i i c  . .%.%.v v v x  .%.*.&.&.*.&.%.x  . . . . .O.&.@.&.e.r.v.b.v.v.b.b.b.b.b.b.b.b.@Xv.V.@Xv.v.v.r.p  .&.@.&.e.v.B.v.v.v.v.v.v.v.v.v.v.v.v.b.b.b.b.v.B.O.O.@.O.8.:.y u 8 & ; 8 0 1 % % * 1 1 , 1 , 9 1 9 1 , 8 0 t 0 : + + w q.{.v.q.B.@XV.B.v.b.v.v.b.b.v.b.v.v.b.t.v.8.o.X.H D * ; 1 1 ; , ; 7 ; - ^ ~ F Z ; & o o % & * & & * * * % = * * - 1 1 * ; r 2 y : . t.B.B.#X+XB.@XC.V.#X#X#X#X#X&XB.c z $.#XC.C.B.C.C.#X#X#X#XC.C.C.C.@XB.e.e.w.O.~ w u i i y u u y H ^ ~ ~ ^ ^ ~ ^ o.@.@.@.@.@.8.8.8.q.{.q.. y {.t.:...~ ^ ^ ~ G r r 8 7 : : : ; 8 1 - ; - 0 H ^ ~ ~ D y 7 u i u i p q.r.+X+X#X@XB.@X#X#X#X@X@X#X#X#X#X#X&X#X#X&X&X&X&Xw.| | | z &.&X&X&X#X#X#X#X#X#XV.V.V.V.V.@X@X@X@X#X@XV.+Xq.g z a p B.@XB.&X@X@Xv.v.v.v.v.b.b.r.v.r.b.e.&.%.%.%.%.%. .x  .%.x v v %.v %.%.v v v v x x x x c c c c z z k k k i p p i i i z i i i u i i u i t t t 7 y y i D D t y w t D H H H ~ ....} ..} +. .z z g c Z.jXkXA.g.S.A.h.h.j.h.f.f.h.S.F.F.F.F.S.h.h.S.h.h.h.m.A.F.D.F.A.S.S.h.h.h.g.g.g.g.g.m.h.m.c.i.p.d.M.h.g.j.j.h.j.h.j.M.d.a.s.x.i.h h i.x.p.x.i.i.i.i.k.f q q ",
"d h k.z.k.k.x.x.x.z.i.h j h x.d.d.d.d.h.h.h.h.g.j.j.j.M.p.p.p.p.M.j.g.g.g.g.g.g.g.g.g.g.g.g.g.S.D.F.h.f.f.f.j.m.j.j.j.g.g.g.S.S.D.D.h.h.g.h.j.j.h.h.S.A.D.kX6Xn @ u t H } i i i i i i i i i i i i H i u u u u i H i i i i i i i i i p k z z  . . .$. . . . . .%.%. . .v v x v x %.&.w.&.&.@. . .c  . . .&.&.&.r.r.b.v.v.v.v.{.@X@X@X@XV.V.V.V.@Xv.v.@XB.w.| g z | b.@Xv.v.B.v.v.V.V.V.V.V.V.v.v.V.V.V.V.V.B.C.B.b.&.g p } | 8.8.8.t.8...^ ^ G 9 % % * 1 , , 1 , $ % * % % 1 H ;.q.8.%XxXxXw . X X O.@Xv.e.b.v.v.b.b.b.b.b.v.b.w./ o.~ ^ ~ 8 ; & 9 D F F H H ~ ~ G ^ G H ~ G F 1 % % % & % % % & * % % % % % % o * % - o o o . y +  .+X+XB.B.C.C.C.C.C.C.B.B.*.c z $.#XB.C.C.C.C.C.C.C.C.C.C.C.B.C.B.B.r.r.q.O.} } ..} i i u y H ~ ~ ~ ~ ~ ~ ~ ~ ~ g g g ~ ~ ~ ~ H ..y o : 7 : = y 8 8 & O ; 0 0 o o o & o o * & F ^ ^ ~ ^ ~ ~ ~ ^ ^ ~ ....H H y } | O.q.w.w.w.w.b.e.w.e.b.v.v.b.v.B.B.B.B.V.V.V.#X@XB.w.| p  .@Xb.b.b.b.b.B.B.B.b.b.v.v.v.v.v.v.v.B.v.v.+Xv.w.e. . .w.| O.@X@XB.@X@X@X@X@X@XV.B.v.r.B.B.b.B.B.B.e.*.%. . .%.%.%.%.%.%.%.%.%.%.v x x x v v v v v x x x  . . . . . . . . .| +.} i u u i H H H H H y t u i D D i t y u D D D H ~ } ..| } } O.| g  .c s.D.kXkXF.g.g.g.h.h.h.f.m.F.F.g.g.h.h.g.h.h.m.f.f.f.A.kXD.D.kXF.h.g.g.g.g.g.g.g.g.g.g.g.h.m.d.p.p.d.d.d.M.j.j.h.j.j.j.h.d.d.d.s.s.h h i.k.p.x.p.x.x.k.z.h ( ) ",
"( ( k.k.i.i.x.x.z.i.h h h i.z.p.d.j.j.j.j.j.g.j.j.j.j.M.p.p.p.p.M.j.g.g.g.g.g.g.g.g.g.g.g.h.g.S.F.S.F.D.m.a.a.j.m.g.j.g.g.h.g.F.D.D.f.f.m.m.g.S.g.S.g.h.h.D.kXn X w y t H D t i H D H i i i i H u H H H H H i H i i i i p p p p p p p z  .x $.%.x $.x x  .$.$.%.%.x %.%.%.$.%.&.@.&.q.&.@.@. .| c  .|  .&.&.&.v.v.v.v.v.v.v.v.v.V.V.{.V.V.+XV.@X+X+X+X+Xv.O.g | | w.+X@X@X+Xv.v.v.v.v.v.v.v.b.v.v.V.V.B.B.B.v.b. .z i i ~ O.8.8.8.t.8.;.;.;.H Z % % * , , < 1 , 9 * * % % 0 G ;.X.o.2XLXLX+ w i @ 8.$X@Xv.v.v.v.b.v.b.b.b.@Xv.q.| o.^ X.~ 7 ; ; 1 Z F H ~ U H ^ ~ ~ D G G D G ; % % & & = = & & % % % o o % % % % o o o o o o o @ +.+X@XB.V.B.C.C.C.#XC.B.B.*.z k  .@XB.B.@XV.C.C.C.C.C.C.B.B.B.B.N.N.N.r.t.O...o.O...i i y w G ^ ^ ^ ^ ^ ^ ^ ..~ ~ ~ ~ ~ ^ ^ ^ ;.;.8 * r 8 r Z 8 8 0 8 ; 8 8 : & & & & % o * o F ^ ^ ^ ^ / ~ ^ ^ ^ ^ X.X.....H ~ i | w.r.r.b.w.b.w.w.w.b.v.v.b.v.V.V.V.V.V.V.V.b.@X#XV.&.z z r.e.b.B.v.b.v.v.b.b.b.b.b.b.b.b.b.b.b.b.b.v.v.v.v.w.&. .p | B.@X@Xv.v.v.v.v.v.b.r.r.r.v.e.e.B.b.b.B.e.&. .@.&.&.&.%.%.$.%.%.%.*.%.x x x x x v v v v x x  . .$. . . . . . .+.} z i p i i H H H H H H H H D D H i t u D H D D H ~ } ~ } } i | g p #.6XD.A.A.S.A.g.g.A.A.M.d.d.m.F.F.g.g.g.g.g.h.j.A.f.a.a.A.kXD.F.F.S.h.g.h.g.g.g.g.g.g.g.g.g.f.h.d.p.p.p.d.d.j.j.j.j.j.j.j.j.h.d.d.s.s.i.i.i.y.p.x.x.x.x.z.x.k.k.( ",
"k.h k.k.i.p.x.x.x.h j i.i.i.x.p.M.M.j.j.j.j.g.h.j.j.j.M.p.p.p.p.M.j.g.g.g.g.g.g.g.g.g.g.g.g.g.g.h.g.F.D.m.a.a.m.j.j.h.g.g.g.g.S.F.D.f.a.d.d.f.g.g.g.h.g.h.F.kXZ.j g i u H D u u i i i i i i G H i i i i H i i i i i i i k z z z i k k c  .c x x x x x x x $.$.$.$.x %.*.%.%.&.*.&.w.q.q.@.@.O.| z | |  .q.&.q.B.v.v.v.v.v.v.v.v.b.v.v.v.v.v.v.v.+Xv.e.e.r.O.i | b.e.b.b.v.+X@Xb.v.v.v.v.v.v.v.v.V.V.V.B.B.b.e.e.z z } } i o.8.8.:.8.:...;.^ Z 0 % % * , , < 1 < 9 $ * * 0 9 0 Z G G :...r.~ 3Xq.+ } t.v.{.+Xv.v.v.v.v.b.v.@X@Xq.X.o.^ ^ H ; ; 8 * r F G H H D H ~ ~ G ^ H D ~ 0 8 8 8 8 8 8 8 9 3 9 1 * - ; 8 r 8 e 9 r r 8 D y u O.r.r.N.C.B.C.C.C.C.C.C.#Xr.z z $.#XB.B.@X#XV.B.C.C.B.B.B.B.B.B.B.B.B.B.r.q.O.o.O.o.i i i y ~ ......^ ^ ^ ^ ....^ ^ ^ ^ ^ ^ ^ ^ 6.Z = 1 < < * 1 ; ; ; ; O O & o o o & & & 1 & F ^ ^ ^ ^ ^ ^ ^ ^ ~ ~ ~ ^ ..o...y 7 i q.w.b.v.r.w.w.w.e.b.v.v.v.v.v.v.v.v.v.B.B.b.B.b.e.*.z p @.&.w.v.b.v.v.v.b.b.b.b.b.v.b.v.v.v.r.v.r.r.v.v.v.%. .| z  .e.e.b.v.v.v.v.v.b.b.e.r.b.B.e.b.B.b.B.@Xb.@.O.@.@.@.O.@.%. .%.&.&.*.*. . . . .x v %.%.%.v x x x  . .x x x x c c c z z k i i i i i i i i i i u i i i i i H D u u H ~ } ~ | ..i | g p n.kXD.S.h.A.g.h.g.g.m.h.d.d.h.F.F.g.g.g.g.g.h.j.m.h.a.a.A.kXF.g.h.g.h.g.g.g.g.g.g.g.g.g.g.g.h.j.d.p.p.p.p.d.M.j.j.j.h.h.j.j.j.j.d.s.s.z.x.i.f x.p.d.x.x.k.z.i.k.h ",
"i.i.k.k.i.i.x.x.s.h h k.i.p.x.p.j.j.j.h.h.j.j.d.h.h.h.M.p.p.p.p.M.h.g.g.j.g.g.g.g.g.g.g.g.g.g.g.h.g.F.D.m.a.a.h.j.j.j.g.g.g.h.S.F.D.a.j c.d.f.g.g.g.j.j.g.F.kXkXkXeXp w ~ i i ~ H H H H D D H D H H i H i i i i i z  .%.%.$.$.%. .$.$.$.x x v v v v v $.%.$. .$. .$.$.%.%.@.@.@.q.q.8.q.8.i y } @.@.@.@.@.q.w.r.w.v.v.v.v.v.r.b.w.p | v.v.e.w.O.| g } } p z  .} b.v.V.v.V.@Xw.z #.v.@XV.v.v.v.v.v.V.B.B.&.e.&.} i i i i g H ~ ~ D H H ~ U D 8 ; % % % % % $ * < < 1 < < e Z 8 ; & 8 8 o : r._.. u . u r.r.w.r.w.w.w.w.r.w.w.w.@.^ ;.o.X.~ 8 ; 9 e I ^ U ^ ^ ~ ~ ^ ^ ^ ^ ^ ^ ^ ^ X.-.;.;.;.-.-.-.-.-.r 8 2 8 ^ ~ ..^ ....^ ..;.o.O.O.w.q.w.B.B.C.C.C.C.B.B.C.e.z z &.B.N.e.e.v.B.r.r.N.r.r.b.b.b.e.e.N.B.V.r.O.~ } O...i i u y H ~ ~ ~ ^ ..~ ~ ..~ ~ ^ ^ ^ ^ ^ ~ ..^ ....D - & ; & - ; o & 8 8 r 1 8 Z G U U H H U ~ ~ ~ ^ ^ ^ ^ ^ X.X.o.X...} H y 7 H | | o.8.t.r.v.w.@.| #.@.#.@.@.@.@.@.@.w.B.B.B.B.b.e.@.z i g e.B.v.v.B.+Xv.B.v.v.v.B.v.r.w.r.v.v.r.t.w.t.e.&.&. .z |  .| q.+Xv.v.v.b.V.e.g  .v.B.b.v.B.B.v.v.B.+X+X| @ w i p @.O.O. . .@. . . . . . .v v $.%. . . .x x  .x x x v $.x %.%. . .| k i i i i i i i i i i i i i u i D D D i u u u u t i p p # n.kXD.S.g.g.g.g.g.m.g.M.j j m.D.A.g.g.g.h.g.g.j.g.h.a.a.g.kXD.h.h.g.g.g.g.g.g.g.g.g.g.g.g.g.h.j.d.p.p.x.i.d.M.M.m.h.m.h.M.j.j.j.d.a.d.z.x.i.f p.x.d.p.x.x.x.k.i.y.",
"i.i.i.i.i.i.s.x.i.h h z.i.p.x.p.j.j.h.m.m.m.m.A.m.m.c.c.i.i.i.d.M.h.g.g.j.g.g.g.g.g.g.g.g.g.g.g.g.g.F.F.h.a.a.h.j.g.j.j.g.A.h.S.D.D.f.j d.d.f.g.g.g.g.g.g.S.S.F.kXkXp a i i u i t p u i i D H H H i i i i p p p p z x  . . . .$.$.$.$.v x x v v c x x x x  . .%.&.*.*.&.&.&.q.q.8.q.q.q.O.w y q.w.w.q.&.@.8.q.w.w.w.v.v.v.v.v.v.w.p | v.e.@.O.O.O.i i i i +.q.O.w.b.v.B.+X+Xw.g | v.v.v.v.v.v.v.B.@X@XV.w.w.O.z i i i H H H ~ ~ ~ ~ ^ ....H D y & % % % % % * < * < * * 9 9 8 2 Z D H u u 8.8.O u O H _.t.q.r.r.r.r.r.{.r.r.r.8.X.;.o.X.~ 0 8 8 e U ^ U ^ ^ ~ ^ ~ H U U ~ ~ ~ ~ ^ ^ ^ ^ ^ ^ ^ ^ -...r 9 8 e H G H H H H H ^ o.o.8.O.w.q.w.B.B.@X#X#X@XC.+X@Xe.z k  .B.B.B.B.B.B.@X+X+X@X+X@X@X@X@X@X+X@X@Xr.q.O.:.t.O.i i p y H ..........~ ~ X.^ ^ ^ ^ ^ ^ ^ ^ ..^ ..^ D ; ; ; - ; 8 2 S ^ ^ ..^ ^ ^ ....^ ^ U ~ ~ ~ ~ ^ ~ ~ ~ ~ ~ ~ ^ ~ ~ H H t 8 u ~ ~ | 8.8.{.{.r.8.O.@.8.@.8.8.8.q.q.q.r.+Xv.b.v.r.e.q. .g p w.+X+X+XB.+XB.B.B.+X@X+XB.r.q.q.r.r.t.w.r.r.r.w.w.O.z z | } @.{.v.v.v.e.v.w.g | e.v.b.B.B.B.B.v.+X@X#XO.7 p i g O.O.&.q.&.&.| | |  . .$.$.$.$. .c c x x x x x x x v v v %.%.$.x c p p p p p p p p p p p p p p i i i i H H u G D u t 7 + c g c.kXD.A.h.g.g.g.g.g.A.m.j j m.kXD.A.A.A.A.g.h.h.g.f.a.a.A.kXD.g.h.g.g.g.g.g.g.g.g.g.g.g.g.g.h.j.d.p.p.x.z.x.c.c.c.m.m.d.m.m.h.h.d.p.d.x.x.i.f p.x.x.i.i.k.k.i.i.k.",
"i.i.i.i.i.i.p.x.i.j h x.x.d.d.p.h.h.m.m.x.j j j g j j h f h i.i.M.h.g.g.g.g.g.g.g.g.g.g.g.g.g.g.g.g.F.F.g.a.p.j.j.j.j.j.m.A.A.D.D.D.f.a.f.a.a.g.g.g.g.g.j.g.h.F.kXkXl # u u w p i i i i p p t t w p p i z z z c c x x v x x x x v v v x v v v v v %.%.%.%.%. . .&.&.&.O.O.O.O.O.O.q.q.q.:.i y ..q.q.q.@.q.q.q.w.t.r.r.r.r.r.r.r.q.p | r.w.O.O.q.+.i p i i O.q.O.w.w.e.v.r.r.q.| @.r.r.r.r.t.r.r.w.r.e.w.O.q.O.} i H H H H ~ H H H H H H ~ H D t 8 ; = % % % % * * * $ * < < < 1 < ; 1 8 ; 8 r o 8 & ~ q.:.X.:.;.o.o.o.:.;.o.o.~ G ~ H G t 8 1 - e F H H H ~ H ~ ^ ^ ~ ^ ^ ^ ^ ~ ^ ^ ^ ^ ^ ^ ^ ^ H H r 9 r r F D F G H H H ..o.O.:.O.q.O.O.@.@.w.B.r.v.B.B.B.w.| } +.r.r.r.w.w.w.w.w.w.t.t.t.w.w.q.q.w.w.w.q.q.8.q.t.:.H H u y G u D H H H u u H t D G G G G G G G G G t 8 ; 1 1 8 3 3 1 Z U U U G G F F D D D D D D D D G D D D G D G G D D D t : o y H ~ ....~ {._.t.:.o.O.O.o.o.O.O.O.O.O.8.q.q.q.@.&.q.O.} p p +.O.q.e.w.e.w.e.w.w.w.w.q.q.q.&.t.w.q.8.q.q.q.w.w.q.+.} } ~ ..t.t.r.w.w.w.w. . .e.e.e.e.w.r.r.r.r.t.r.| w u u ~ | ..O.O.O.O.+.} } | O.&.%.%.$. . . . .c x x x v v v v v %.%.$.%.$.x c +.| c z z z z z z z z z z } i t H H r u t r t + # Z.Z.D.F.S.g.h.g.g.g.g.f.f.M.a.h c.D.D.c.c.c.m.m.h.h.m.j.a.a.A.kXF.g.g.g.g.g.g.g.g.g.g.g.g.g.g.g.h.j.d.p.k.i.f j # # # X # j x.c.c.d.f.p.d.d.x.i.f l.x.x.a.i.i.y.y.k.y.",
"i.i.i.i.i.i.x.x.k.j h x.x.d.d.d.d.M.m.n.z.# X O # X X X # h k.i.M.h.g.g.g.g.g.g.g.g.g.g.g.g.g.g.g.g.F.D.A.a.p.M.j.M.S.D.s.j j h s.a.m.D.kXh.a.g.g.g.j.j.j.h.h.F.kXkXj # p u p p p p p p p p p p p p k c  . .$.%.$.v $.v v v v x v x v v v v v v x x x c x c z c c } z p w w w y } } ~ u u u y y i i u u i i i i i i i i i i i i } p i g i i i i i i i i i } } i } i g } } } } i i | } i ~ i i i g } i i w i w w w y y y y y y y r r r r t t r 0 r 9 8 = = & % % * % % * * * * > * % % = & o o & & : G ^ D r u u 0 0 8 r 0 8 0 ; ; 7 8 8 8 8 8 ; ; e e 8 0 r r r 0 0 0 0 0 0 0 0 0 0 0 0 0 0 r t r r ; 7 8 8 9 1 8 8 8 8 y u i u y y u u w w p i } z i i i g z p i p } i ~ g ~ g ~ ~ ~ ~ ~ ~ ~ ~ i i i i i H ~ ~ D ..~ u u u y r G t y y r r r r r 0 0 0 0 0 0 0 0 0 0 8 ; 1 8 2 1 1 ; ; 8 Z 9 9 9 9 9 9 8 8 8 8 2 2 2 ; 1 1 1 ; 8 8 8 : : : : : y : 8 2 : w : & i D u u u D D i H H ~ ~ H H H ~ i i i i i i w + @ + + p z i z g } z z g i i g z i i g i g | | } p i p w w w : 7 i i i u i g } z g z g i i i } | O.~ u i y w u t w p y y y w y w i i i z g i p p i i p p p z x x %.v v v v v v v %.%.$.$.$.%.$.$.&.&.&.&.%.%.$.$. . .i w i i 7 8 ; ; y @ X Z.kXA.h.g.g.g.g.g.g.S.f.a.d.A.D.s.j j # # j s.m.h.h.j.h.a.a.A.kXF.h.h.g.g.g.g.g.g.g.g.g.g.g.g.g.h.j.d.i.i.j # # O = O O X # h z.c.c.d.d.d.d.x.i.f p.x.x.p.i.i.y.y.k.h ",
"i.i.i.k.x.x.x.x.k.f h x.x.d.d.d.d.x.i.j q # ; 7 O # d j j i.i.i.j.h.g.g.j.g.g.g.g.g.g.g.g.g.g.g.g.g.F.D.m.a.d.M.M.d.x.z.j X # j z.s.D.D.D.h.a.m.g.g.j.g.g.j.h.F.kXkXl # i } } | z c +.x x x  . .x x x x v v v v v v v x v v v v v v v v v v x x x x x c c c z z z g i p w w p u u i H u y i ~ i i p p p w w y w w y p p p p p p w w p a w p w w w y i i p p p w i p p p p i i _ p i u u i y p p p i i i w y 8 : & & & & & & & & = & & = ; ; ; ; 7 7 - & O O O o % o o % % o o % % % o o o o o o o & 0 r 0 7 7 7 0 0 8 8 8 8 8 8 = ; ; 8 8 ; 8 1 & ; ; = = ; ; ; 7 7 7 7 7 8 7 7 7 7 8 8 8 8 8 r 2 ; - ; ; & * & & & & : 7 w 7 + + O + + : + + 7 p w p w w p i i } i H p u u p w w w w w w w y y u u u u u u u u u H i u u u 7 7 7 8 7 7 7 7 y r 0 0 0 0 0 7 7 ; 7 0 ; = = = = & * ; ; 8 0 8 1 1 1 1 1 < ; ; = & ; ; ; ; , , , , ; & = & & & & : + O : O O : : : : 7 7 7 7 y y y 7 7 7 7 7 7 7 w 7 7 : + : : + @ + w w } +.i z +.g z | | } g i p p i i p g O.O.z + + O . . + + + w w w w 7 a w w w w a a w w i } } p 7 w w w t y w w y p i i u y u p p p w w w w p p w a p g c x %.%.v v v v v v x x x v v v $.x x x x x x x x x $. .k i } i w w w : w @ X Z.kXg.h.g.g.j.g.g.g.m.f.a.f.S.D.h X # # # d n.Z.m.M.m.d.a.a.A.kXF.g.h.g.g.g.g.g.g.g.g.g.g.g.g.g.h.d.d.i.i.j # # # = = 9 , O # # z.c.h.d.d.d.x.i.y.k.x.x.x.z.i.y.y.i.k.",
"i.i.i.k.c.x.i.i.k.h i.x.x.d.d.d.d.c.j X # = 0 1 O g n.n.x.i.a.a.j.h.g.g.j.g.g.g.g.g.g.g.g.g.g.g.g.g.S.S.h.a.d.d.D.z.# # + 7 7 q d h A.S.g.g.h.h.h.h.j.g.g.j.h.F.kXD.j @ i O.@.%. . . .x x x v v %.$.v v x x v v v v v x v v v v v v v v v v x x x x x c c z z z z g z z g i i i i u H H u p p 7 p p p p p p i i ~ ~ ~ ~ g g g g i i p p i k p i i k i i i g g g g i g z g z } } } } } } } g } } } } } } : y u D t t t t t t t t r r r r r r r r r r 0 7 = * * = 1 * ; 1 < ; 8 8 , 1 ; = ; 7 ; 7 u G G H ~ ~ G G r r 0 0 0 9 r r Z G 8 9 8 ; 1 e r Z t r r r r r r 0 0 0 r r r 0 0 r Z r r r r r r 8 ; 8 8 8 r r ; 8 8 y u i i i u y y u p i p p | | O. .| O.| p i p } i g i g p g g i i i i i g ~ H i g ~ ~ ~ ~ ~ ~ i p i p y u 7 u } | } ~ ~ G u G G u Z r r r r G 0 0 0 0 0 8 t r ; ; 8 ; 8 t r Z Z r r r r 0 t t D D D D G G G D r t t G G D 7 y t w 7 y y y H ~ ~ i i i i i i i g i i i i i ~ ~ g g i g i i +.p p +.O.|  .&.O.O.@.O.O. . . .@.O.O. .O.&.&.| } } g i i i i w p p g | } ~ } } z } g z z g | | | } ~ ~ i i H u ..i w y u ~ i i | } } i p p p p p p p p i z c v %.%.v v %.v v v v v %.%.$.$.%.v $.$.v v v v $.$.%.$. . .$. .} g } H i p # D.kXA.h.g.g.j.g.j.f.f.m.S.m.h.A.h # g g q # d j j a.m.d.a.a.h.F.S.g.g.g.g.g.g.g.g.g.g.g.g.g.g.m.d.d.d.p.s.s.z.z.g = , > , 0 O # z.x.d.d.d.d.x.p.i.k.k.i.i.y.i.k.i.h k.",
"i.i.h i.x.s.h h k.h i.x.d.d.d.d.d.c.j # 0 1 1 7 X g Z.m.d.a.a.d.d.d.g.g.g.g.g.g.g.g.g.g.g.g.g.g.g.h.g.g.h.f.d.a.s.n # O * 1 * q # # c.f.f.D.D.g.a.f.h.g.j.h.h.F.kXkXl @ p O.%.$.$.$.$.$.%.%.%.$.v v v v x v v v v v v v v x x x v v v x x v %.%.*.*.&.*.*.e.e.e.b.r.b.e.w.&.+.} i u y u O.w.w.w.w.e.w.w.r.w.r.r.r.v.v.v.v.v.v.v.B.B.e.O.@. .i | @X@X@X@X@X@X@X#X@XV.@X@X@X@X#X@X#X#X@X#X&X@X@X#X@Xv.v.q.7 y ..;.X.X.X.X.X.X.X.X.X.X.;.;.;.;.X.X.X.;.X.~ D t G D H D F F G ^ X.X.^ ..;...X.;.o.8.8.8.8.O.8.;.^ o.;.;.X.;.;.X.;.;.;.;.H D D 1 8 ~ ^ ^ ^ ^ ^ ^ ^ ^ X.X.X.X.X.X.X.X.X.X.;.X.^ ^ ~ ~ H r 8 r D U ^ ^ ..o.o.:.8.q.t.+X$X&X&X&X*X=X3X3X3X5X5X3X3X3X#X . .&.#X#X&X&X&X&X&X#X#X#X#X$X$X&X*X*X&X&X&X&X&X&X#XB.w.O.O.z i g } q.B.+Xr.q.@.o.@.;.;.;.;.;.;.;.;.;.;.X.o.o.X.o...H : : 8 r ~ X.X.;.;.;.;.X.X.X.^ ^ ^ ^ ^ ^ ^ ^ X.-.^ ^ ;.;.;.;.....~ 8 : u ~ ^ @X&X*X*X*X*X*X=X*X*X*X*X*X*X&X&X&X&X&X#X#X$X#X#XB.| p  .e.w.b.@X@XV.B.B.B.B.V.V.@XV.V.V.C.V.#XB.#X#X@X@X@XB.e.O.z g &.@X@X@X#X#X@X@XV.@Xv.v.v.b.b.v.v.v.{.+X{.{.q.i p y ~ 8.t.r.r.r.r.w.w.r.r.r.v.r.e.w.*. . .%.%.%.v v %.v v %.%.v %.%.%.%.%.%.%.v v v v v %.%.%.%.%.*.&.&.&.O.@.O.| z j Z.kXS.h.j.g.g.g.h.a.a.A.kXD.h.m.h # q 0 ; o = X X s.D.d.d.a.f.h.h.h.g.g.g.g.g.g.g.g.g.g.g.g.g.m.f.d.d.d.s.c.D.6X#.X q = * 7 O # z.x.d.d.d.d.x.d.i.k.i.h f y.i.k.i.y.i.",
"i.i.i.k.c.z.h h k.i.i.x.d.d.d.d.d.n.d # 7 % * 0 O g Z.c.c.M.M.h.a.f.j.g.g.g.g.g.g.g.g.g.g.g.g.g.g.g.g.h.g.m.m.j X # O 2 < 4 0 0 q # s.f.f.F.D.h.a.f.g.g.h.j.h.F.D.D.j X a  . . .$.$. .$.%.%.$.$.$.$.$.v x x x x x x x x  . . .x x x x x x %.*.e.b.b.e.e.B.B.B.B.V.@X@XV.B.&.| i w ~ i ~ r.@Xv.v.v.B.+X+Xv.v.{.@X+X@X@X@X+XB.v.v.b.V.e. .%. .z  .B.#X#X#X@XV.B.V.V.v.V.V.V.@X@X@X&X&X&X*X*X&X&X*X$X@X%Xr.7 0 X.;.;.;.o.o.o.o.o.o.X.X.X.X.X.X.^ ^ X.;.X.H r r G D G t Z Z D ^ ;.;.;...;.X.X.o.o.t.8.8.O.o.8.o.~ X.^ X.^ ;.;...X.X.;.:.G r t * 8 ..^ ^ ..X.X.X.X.X.X.X.X.X.X.X.X.X.;.;.;.X.^ ~ H H ^ t ; 8 H ......~ ~ } | O.O.t.#X@X#X#X#X#X&X*X*X3X3X3X=X3XwXV.p z &.&X&X&X#X#X#X&X#X&X&X&X&X&X&X&X&X&X&X&X&X&X&X&XB.*.$. .} z | z  .w.w.&.&.w.@.@.8.;.;.o.X.^ ^ ^ X.X...X.^ ~ ..;.~ 7 7 r r ~ ^ X.X.^ ^ ^ ^ ^ ^ X.X.X.X.X.X.^ ^ ^ ^ ^ ^ ^ X.X.X.^ ..~ 7 7 u H ~ v.@X*X3X3X3X3X3X3X3X3X*X*X&X#X@XV.@XV.V.@X@XV.B.V.| p @.b.e.B.&X#X#X@XV.V.V.V.V.V.C.V.V.B.B.V.B.v.v.b.v.b.b.e. .| z &.@XV.V.@Xb.v.V.V.V.v.b.v.b.b.b.v.v.v.+X{.v.r.} g u ~ 8.q.v.{.v.v.v.v.v.v.v.e.e.e.r.e.&.%.*.%.%.v x v x x $.v v %.*.%.%.%.%.%.%.$.v v %.%.*.*.%.&.&. .$.&.&.O.&.c c j A.D.S.h.g.g.j.g.h.a.a.A.kXS.f.m.h # u 0 1 $ 0 O X #.Z.x.x.d.h.g.h.h.g.g.g.g.g.g.g.g.g.g.g.g.j.m.d.a.p.p.a.c.D.6X#.X q 7 = 7 O # z.x.d.d.d.d.d.x.k.k.h i.i.i.k.i.i.k.y.",
"i.i.i.i.x.z.h h k.h i.x.d.d.d.d.x.x.d O 0 < * 1 O g #.g h m.m.d.a.a.j.g.g.g.g.g.g.g.g.g.g.g.g.j.g.g.g.g.g.h.m.j # + * 3 1 , 0 q q # z.d.f.F.S.h.a.f.j.g.g.g.g.g.A.g.D.D.kXn c  . .c $.&. .x $. . .%.x z c $.$.x x %.&.&.&.&.&.&.e.w.&.&.w.w.*.e.b.b.C.B.B.B.b.b.b.b.e.B.e. .+.z i } r.@Xv.v.v.v.v.v.v.b.b.b.b.b.b.v.v.v.b.b.v.b.B.B.*. .c z  .e.@Xb.v.@X@X@X@X@X{.V.@X@X@Xv.v.@X@Xw.w.b.w.w.w.8.:.~ H ~ u u X.;.;.o.X.o.;.X.^ ;.o.X.X.^ ^ ^ X.X.X.^ ^ ^ ^ ~ H t D D 2 8 8 8 D t 0 u G H ^ X.X...^ / | X.X.X.X.X.X.X.X.o.o.X.X.X.^ X.G 8 t ; ; ^ ;.X.X.o.;.X.^ X.X.X.X.X.X.X.X.X.;.X.X.X...o...~ :...y : ~ :...o...o.} O.r.+XB.B.B.B.B.B.B.B.B.B.V.V.V.#X#X&XC.z c &.#X#X@XV.@X@X#X#X@X@X#XV.B.@XV.B.V.#XC.C.C.C.B.N.e.e.b. .z  .z z *.&.*.e.w.w.@.@.o.;.;.X.;.^ X.X.^ X.X.X.^ ^ ^ ^ G u r G ..^ ....^ ^ ..^ ^ ^ ^ ^ ^ ^ ^ ^ ^ ^ ^ X.X.^ ^ ^ ^ X.^ o.~ 7 7 8 0 u 8.w.r.v.v.v.v.v.v.b.r.v.r.w.b.@Xv.v.v.v.v.v.v.v.b.e.z z w.@.B.#X#XV.B.B.V.V.V.V.v.V.V.V.B.B.v.v.b.b.v.v.b.B.e.c | z &.@Xv.v.b.b.b.b.b.b.v.v.v.v.b.b.b.b.v.v.v.v.v.@Xv.@X8.p 7 w.+Xr.V.w.b.b.v.v.v.v.b.r.e.w.*.&.&.&.$. .$.$. .$. .x  .x x x c %.%.x $. .x c  . . . .O.O.O.+.+.| } | 6XkXD.A.h.h.j.g.g.j.g.j.a.a.A.kXS.f.d.j # u r ; , $ = & 7 # j A.m.m.h.h.j.j.j.g.g.g.g.g.g.g.g.g.j.g.g.d.a.d.d.c.c.z.#.q O = , * , = # ( x.d.d.d.d.x.d.i.i.i.i.x.x.p.k.k.k.k.",
"k.i.i.i.x.z.h h k.h i.d.d.d.d.d.x.c.g O 8 5 < 1 = = O X j n.c.c.a.a.j.g.g.g.g.g.g.g.j.j.j.j.g.g.g.g.g.g.g.h.m.j X = 1 5 , , N 0 q # s.d.f.F.D.h.a.f.j.g.g.g.g.g.h.h.S.D.6Xn c |  .+.$.*. . . . .&.&. .k z  .%.$. .%.&.q.q.q.q.q.e.v.v.v.v.v.b.b.b.b.B.b.v.B.b.v.v.B.b.B.e. . .c z | &.w.b.v.v.v.{.v.v.v.v.v.v.v.v.v.v.v.v.v.v.e.w.e.&.x x c  .*.e.&.b.@X@Xv.{.v.v.b.b.v.b.b.b.v.w.o.o.o.X./ X.^ ^ y y u r r ^ ;.X.;.;.o.;.X.^ ;.X.X.X.X.^ ^ X.X.X.X.X.X...^ ^ D U D ; - - & ; & 7 0 0 u ~ ^ ^ ^ ^ / X.X.X.X.X.X.X.X.X.X.o.o.o.X.;.;.G 8 t ; ; ^ ^ ^ ^ ^ ^ ^ ^ X.^ ^ X.X.^ ^ ^ ^ ^ X.o.;.8.r.r.q.O.} w : H o.~ ..} | } | w.v.v.b.B.v.v.b.b.b.B.B.B.b.B.B.b.C.b.z z  .B.b.b.b.b.b.b.b.b.b.v.v.b.B.b.b.B.B.B.B.B.B.C.C.C.C.#X*.z |  .x *.%.&.&.@.@.@.8.o.X.X.^ ;.;.X.X.^ X.X.X...^ X.X.^ ~ u G X...........X...^ ^ ^ ^ ^ ^ ^ ^ ^ ^ / / / / ^ ^ ^ ^ ^ X.~ t 0 8 8 D ..X.o.o.o.| | o.o.o.| | | | @.@Xv.v.v.v.v.v.v.V.b.e.| g z | b.@XV.v.v.v.v.v.v.b.v.v.v.v.v.b.v.v.v.b.V.V.B.C.e. .p p &.B.e.v.b.v.v.v.v.v.v.v.b.b.b.b.b.b.b.b.v.v.v.b.b.@Xo.+ 7 w.@Xe.v.e.v.v.v.v.v.v.v.v.v.r.w.q.@.&.&.&.q.w.&.&.| x  .c c x x %.&.$.$.$. . . .O.O.O.O.O.O.o.o.o.| c D.kXF.g.h.h.j.j.j.j.g.j.p.a.A.kXF.f.c.h # 0 u 0 0 * 6 $ ; X j m.h.j.h.g.g.g.h.g.m.g.g.g.g.g.g.h.j.g.g.f.a.d.D.D.h # X O & 8 1 , ; = X #.x.d.d.d.d.x.p.i.i.h i.x.x.p.k.k.k.k.",
"i.i.i.k.x.z.h h k.h i.x.d.d.d.d.d.c.g # ; < * * ; & O # d n.n.c.a.a.h.g.g.g.g.g.j.g.j.g.S.S.g.g.g.g.g.g.g.h.m.j X 7 4 < > > , * , # h d.f.D.F.h.a.f.j.M.g.g.g.g.h.h.S.D.D.b g  .O.|  . .} | O.&.%.%.| i z  .$. .$.&.w.w.w.r.r.v.w.v.v.r.r.v.r.e.b.v.v.b.b.v.b.v.B.B.e.&.%. .c c x  . .@.e.v.b.v.{.{.{.v.{.v.v.v.v.v.b.v.v.v.v.w. . .x c  .x c %.*. .e.#X{.b.v.v.b.b.b.v.b.v.v.{.t.;.o.;.o.o.;.;.X.y 8 H ^ ^ X.;.^ o.;.o.X.X.X.X.X.X.X.X.X.X.X.X.X.X.X.X...X.^ G H D - ; D D t t G ~ ~ ~ ^ ^ ^ ^ ^ ....X.X.X.X.o.X.X.X.X.X.X.o.o.;.;.G ; 8 8 8 ~ ~ ~ ~ ^ ^ ^ ^ ;.^ ^ ^ X.X.^ ^ ^ ^ X.o.o.8.{.v.8.o.} y 7 ~ :.O.8.w.w.q.&.r.B.B.B.B.B.B.B.B.B.B.B.V.B.B.V.B.V.B. . .&.V.B.B.v.V.B.@X@X@XB.V.@X@X@X+XB.@XV.C.C.C.C.C.C.e.C.C.&.z | z z e.e.e.e.w.q.8.t.9.X.X.^ ^ ^ X.X.X.X.X.X.X.X.....X.^ u u X.X.X.X...X.X.^ ^ ^ ^ ^ ^ ^ ^ ^ ^ ^ ^ ^ ^ ^ ^ ^ ^ ^ ^ X.^ ~ D e 8 D o.o.O.O.O.O.o.;.o.o.o.o.o.| w.&XV.V.@X@X@X@X@X@Xb.b.e.z p i q.B.B.V.V.V.V.V.V.V.V.V.V.v.V.V.v.V.v.v.V.V.B.B.b.*.c z  .w.q.B.@Xv.v.v.v.v.v.v.v.v.v.b.v.V.v.v.{.v.v.v.+X@X@.i p | w.@.v.v.{.v.{.v.v.v.v.v.v.b.e.w.@.w.q.&.q.q.&.@. . . .c c x x  .%. . . . .| O.O.O.O.O.O.o.o.o.O.o.c D.D.F.h.h.g.h.g.g.j.g.j.a.a.A.kXD.f.c.h # q 8 1 < $ 6 $ 8 X j m.h.g.j.g.j.g.m.m.S.m.m.g.g.g.g.g.g.g.g.f.f.c.c.n.h # O 7 * & * , ; O # #.x.d.d.d.d.x.p.i.i.h i.x.x.i.k.k.k.k.",
"k.i.i.k.n.z.( h k.h i.x.d.d.d.d.d.c.h # = < < * 1 ; ; = X # # j c.d.j.g.j.g.g.g.g.g.g.m.m.m.c.A.g.g.g.g.g.h.m.j X ; , , 3 M M 9 = q i.d.h.D.D.h.a.f.j.g.g.g.g.g.j.h.F.D.D.c g O.O.} } } g } O.O.z | } z }  . . . .@.&.w.w.w.w.r.v.v.r.r.r.e.w.&.r.v.b.w.w.w.b.v.v.e.| p p k z c $. . . .w.v.v.{.{.{.{.{.{.v.v.v.v.v.v.v.v.v.v.w.z z z c $.x c $. .z @.v.w.w.v.#Xe.w.w.8.8.@.@.8.8.o.X.o.o.o.;.;.:.y : ~ :.;.^ G ~ o.;.o.X.o.X.X.X.X.X.X.X.X.X.X.^ ^ X.X.^ X.^ G G t - 8 ^ X.^ X.^ X.X.^ ^ ^ / ^ ....X.X.X.X.X.X.X.X.X.X.X.o.o.o.;.;.G ; 8 8 8 H G H ~ ^ ^ ^ ^ ;.^ ^ X.X.X.o.^ ^ ^ o.o.X.8.+X{.O.| ..H i O.r.r.v.{.+Xv.r.v.B.B.B.B.B.B.B.B.B.B.B.B.B.B.@XB.B.r.z z  .b.b.v.v.@X@X@X#XB.e.w.e.e.w.v.v.B.B.B.B.b.b.C.*. .&.*. .z  .z  .#X&X&X&X#X{.w.v.t.q.t.;.^ X.^ X.o.o.X.X.o.o...^ o.X.r r ....X.X.^ ^ ^ ^ ^ ^ ^ ^ ^ ^ ^ ^ ^ ^ ^ ^ ^ ^ ^ ^ ^ ^ ^ ^ ^ X.I e 2 t ^ ..o.o.o.o.o.o.o.o.;.9.o.| w.&Xv.b.v.v.v.V.V.@Xr.q.e.} p i +.O.O.w.b.B.V.v.v.V.v.v.v.b.v.v.v.v.v.v.v.v.v.B.V.b.e.&. . .| e.B.v.v.v.v.v.v.v.v.b.v.b.v.v.b.v.v.b.e.r.v.@Xv.w.@.| w g v.+Xv.b.v.v.v.v.v.{.{.v.b.b.w.v.b.w.w.w.w.&.c  . .c c  . . .O.O.O.O.O.O.O.O.O.O.:.:.o.:.:.8.o.g Z.D.F.h.h.g.g.g.g.j.g.j.p.a.A.D.S.a.s.s.g | y 2 - - < $ 0 X h A.j.g.j.g.h.m.c.a.s.s.m.m.g.g.g.g.g.h.g.m.m.c.X # X O 7 0 ; 1 < ; 7 O # #.c.d.d.d.d.d.z.i.i.i.k.x.x.k.k.k.k.k.",
"k.k.i.i.z.z.h h k.i.p.x.d.d.d.d.d.x.j X O & * < * $ * ; = = O g 6XS.g.g.h.j.g.g.g.g.D.c.j j # s.A.m.g.g.g.h.m.j # ; , = ; 7 ; : X j h s.f.S.D.h.a.f.j.g.g.g.j.j.j.h.F.D.D.l g | } ~ } ......| } i } } } |  .| | w.w.r.r.r.r.v.v.v.r.v.v.t.q.@.@.r.v.e.q.q.e.v.+Xv.w.g a p z c x %. . . .@.b.@Xv.{.v.v.v.v.v.v.v.v.v.v.v.v.v.v.w.p i z x $.$. .$. .p | e.w.w.#X*Xq.8.@.o.o.o.o.o.;./ ^ o.o.X.X.^ ..y 8 ^ 8.;.H 8 H o.;.o.X.o.o.X.X.X.X.X.X.X.X.X.X.o.o.X.^ X.~ u 8 7 & ; ^ ..~ ^ ^ ^ X.^ ^ ^ X.^ ..........^ X.X.X.X.X.X.X.;.;.;.:.:.H 8 8 t r G G H ^ ^ ^ ~ ^ ..^ ^ ^ X.X.X.X.X.^ X...^ 8.{.r.O.} | } } q.{.v.{.v.v.v.v.v.B.B.B.B.B.B.B.B.B.V.V.@X@X@X@XB.B.w.p p p &.&.w.w.v.V.+X+Xr.@.@.@.@.@.v.v.v.B.b.b.e.b.C.e.*.e.e. .z | i z @X#X#X#X#X+Xv.v.b.v.v.8./ X.^ ^ o.o.....o.X.o...o.o.u t H ~ X.^ ^ ^ ^ ^ ^ ^ ^ ^ ^ ^ ^ ^ ^ ^ ^ ^ ^ ^ ^ ^ ^ ^ ^ ^ ^ ..U e ; r X.o.;.9.9.9.;.o.o.X.X.o.| | w.&X#X#X&X&X&X&X$X$X} a p 7 w i p 7 w O.r.@X$X@X+X+X@X@X{.v.+X@X@X@X@X@X@X@XV.@X#X#XB.r.@.z p | w.@Xv.{.{.{.{.v.v.v.+Xv.@X@Xv.{.{.e.&.O.&.e.e.&.%.| @ p r.v.v.v.{.v.v.v.v.v.{.v.v.v.v.@XB.B.v.r.v.v.c x  .+.c |  . .O.O.O.O.:.:.:.:.:.:.:.;.;.;.:.8.@.g Z.D.F.h.h.g.g.g.g.g.g.j.p.a.S.kXD.a.a.j j # + O : & * $ 0 # j m.g.g.h.m.h.D.z.# # j m.S.g.h.g.g.g.h.g.S.S.Z.# O = = 1 $ $ 3 < = O # X h x.d.d.d.d.d.x.i.i.h k.z.z.k.k.k.k.k.",
"k.k.i.h i.h f f k.i.p.x.d.d.d.d.d.x.h d g ; = - ; 1 1 8 ; 7 O g A.j.j.j.h.g.g.g.h.m.m.z.# # # h c.m.A.m.g.h.m.j X = = X X X X X j h a.f.h.S.F.h.a.f.j.g.j.g.j.j.h.h.S.D.D.n g | } ~ ~ ....X.X.~ H ~ ~ ~ } } } } r.r.r.r.r.t.w.w.w.t.r.r.q.@.w.r.e.e.w.8.@.w.v.w.q.O.z p k  . .$.$. .%.&.| &.@Xv.v.v.v.v.v.v.v.v.v.v.v.v.v.b.b.@.p i z c  .x x  .%.p | w.q.w.@X$X8.9.9.9.9.9.9.9.o.o.o.;.o.o.^ t t r D ^ ;...G r G X.;.o.X.o.o.X.X.X.X.o.o.X.X.X.X.X.X.^ ^ ^ ~ 0 ; 7 7 7 ~ ^ G ^ ^ ^ X.^ ^ ^ X.........^ ^ ^ ^ ^ ^ ^ ^ X.X.;.;.;.~ ^ D 8 r D D D r G ~ ^ ^ ~ ~ ~ ~ ~ ~ ^ ^ ^ ^ ^ ^ ^ ^ ..8.{.{.q.} | } } 8.v.r.r.r.r.v.v.v.v.v.B.v.v.v.v.v.v.v.v.v.v.v.v.v.v.w.p p g q.&.@.q.v.+Xv.B.r.q.8.w.w.w.v.B.v.v.v.b.b.b.b.b.e.b.r. .i g p z B.@X@X@X#X@Xb.r.r.r.v.8.| o.o.^ X.o.....o.^ ^ H ....D u D ~ X.X.X.^ ^ ^ ^ ^ ^ ^ ^ ^ ^ ^ ^ ^ ^ ^ ^ ^ ^ ^ ^ ^ ^ ~ ~ ~ D 8 ; y ^ ^ ^ X.o.o.;.;.;.;.;.8.o.O.q.@X{.@X@X@X@X@X+X+XO.u H i H i y : u o.t.v.{.{.v.{.v.v.b.b.v.v.v.v.v.v.v.V.v.v.v.v.w.w.| p w i  .v.v.v.v.v.v.v.v.v.v.b.v.v.b.v.b.@.}  .&.%. .c x z a p O.@.r.v.v.e.v.v.v.v.v.v.v.v.b.v.e.b.w.| @.&.|  . .| z i z i } o.O.:.:.:.:.:.:.:.:.;.;.;.;.;.o.g D.D.F.h.h.g.g.g.g.j.g.j.a.a.A.F.S.a.a.s.s.n X X a X O ; 0 # j m.g.g.g.m.c.Z.z.# # g z.x.m.g.g.g.g.g.m.m.m.c.X = = , 1 < * & = O q g j i.x.d.d.d.d.x.x.i.k.k.h i.i.k.k.k.k.k.",
"k.k.k.i.i.h h f k.i.p.x.d.d.d.d.d.x.z.z.z.d # = O 7 7 7 + O X d d.a.h.j.j.g.g.h.m.A.h # O = = g h i.m.m.g.h.m.j # d g g #.Z.Z.Z.Z.D.m.h.g.S.S.f.a.f.j.g.j.g.g.g.j.h.S.D.D.n g | ..~ ~ ~ ^ ......~ ~ ~ ~ ~ ~ ~ ~ O.O.o.o.O.o.| | o.| o.| ~ } @.w.&.@.@.@.| O.@.i } i p p i  . .x $.$.%. .p  .+Xv.+Xv.{.v.{.v.v.v.v.v.v.{.v.w.q.z a p z +.+.c c  . .p z O.| O.w.@.o.X.X.o.o.X.^ ^ ^ X.X./ ^ ^ G & 8 D H H H D D G G ^ o.X.X.o.o.o.o.o.o.o.o.X.X.X.^ ^ ^ ^ ~ ^ ~ 7 7 G ~ G ~ ^ H ~ ~ ~ ^ ^ ~ ~ ^ ^ ^ ^ ^ ^ ^ ^ ^ ^ ^ ^ ^ ^ X.X.;.;.8 0 8 ; r D D D r G H ~ ~ G G G ~ ~ ~ ~ ^ ^ ^ ^ o...~ ~ ~ o...i } | | } 8.v.r.r.r.r.r.r.r.r.r.r.r.r.r.e.e.w.e.e.&.q.&.&.@.q.@.w g g w.q.@.8.v.v.w.r.w.8.q.w.w.w.w.w.w.w.w.w.q.w.&.q.&.q.q.| g i p z +X@Xv.r.v.w.v.v.v.v.v.v.w.t.t.o.^ ....o.o.~ G u H H D t y H ;.X.X.X.X.X.X.^ ^ ^ ^ ^ ^ ^ ^ ^ ^ ^ ^ ^ ^ ^ ^ ^ ^ ~ H D y ; ; 8 r u G ~ X.;.;.9.o.;.;.9.9.o.O.8.| | o.o.X.| ..| ~ y H D D t D y r ~ ^ ..;.8.8.8.@.@.O.O.O.@.@.@.8.8.q.w.w.8.8.8.q.w.i p p p g w.w.w.w.w.w.w.w.w.w.w.w.w.w.w.q.~ p  .w. . .$.$.z z p i ~ t.v.v.b.v.v.v.v.v.v.v.r.w.w.@.w.O.w p |  . . . .i w p p i ..:.:.8.:.:.:.:.8.9.:.:.;.;.;.o.c D.D.F.h.h.g.g.g.j.j.g.j.a.a.h.h.A.f.g.D.kXkXD.Z.6Xn # d d # h m.g.g.m.m.i.#./ 7 7 # X # m.S.g.g.h.m.m.d.s.z.# 7 7 7 = 7 + O + # g n.z.z.x.d.d.d.d.x.z.i.( k.f f h k.k.k.k.k.",
"k.k.i.i.k.( h f k.i.p.x.d.d.d.d.d.d.i.z.z.# X # X X X X X X X j a.a.h.g.j.j.j.m.A.6X# # 0 , , q # j c.m.g.h.m.j # j h h Z.kXjXkXkXkXA.g.S.S.S.h.a.f.j.g.j.g.g.g.g.h.S.D.D.j g } H H ~ ^ ^ ^ ~ ~ H ~ H H ~ H H ~ o.o.o.o.O.O.O.O.O.O.O.o.| O.q.q.@.8.q.t.O.O.8.p i w i p i  . .$.$.%.%.| p | +Xv.@X@X@X@X@X@X@X@X@X{.{.@X{.r.8.i @ p +. . . .&.&.} a i O.} O.q.} ..^ ^ o.o.o.X.X.X.;.;.^ ..X.G & D ..^ D t D D H G ^ X.X.o.o.o.o.X.X.o.o.o.X.X.^ X.X.X.^ ^ X.~ 0 & r ^ H ~ ^ H ^ ~ ~ ^ ^ ~ ^ ..^ ....^ ^ ^ ^ ^ ^ ^ ^ ^ ^ X.X.;.;.; 8 8 8 r D D t r D G H H G D G H ~ ~ ~ ~ ^ ^ ^ ..^ ^ ..o.8.q.:.| | O.| q.+X+X+X+X{.{.{.v.v.{.{.{.{.{.v.v.r.r.r.r.r.r.w.w.w.q.i g g q.w.q.8.t.w.t.t.t.t.r.r.t.r.w.r.w.w.r.t.w.t.t.t.w.q.q.O.~ i i } +X+Xv.v.+Xv.v.{.+Xv.r.+X{.{.{.8.....X.:.;.~ H D H H i y : i o.;.;.;.;.X.X.X.^ ^ X.X.........X.X.X.X.X.X.X.X...~ D y ; ; 2 2 ; 8 G ^ ;.;.:.:.9.9.;.;.:.;.o.:.o.o.o.o.o.o.X.X.~ G G t D y t & e H ~ ^ 8.t.8.8.8.@.O.O.O.8.8.8.q.8.q.t.t.w.q.t.8.t.} i i w p q.t.w.w.t.r.r.r.r.r.t.r.r.w.v.w.~ w i  .z  .c c k } p w i t.r.{.@X+X@X@X@X{.{.v.r.v.r.q.v.8.w p  .+. . .O.i w y p i ..:.8.8.8.:.8.8.8.8.9.9.:.9.@.| c D.D.F.h.h.g.g.g.g.j.g.h.a.a.m.h.A.g.g.S.D.D.D.D.6Xh # j j # j m.g.g.m.c.j # = = 0 = X j Z.c.h.g.h.g.m.d.a.j X X X X X X X X X X j n.x.i.d.d.d.d.p.x.z.i.( k.f f h k.k.k.k.k.",
"k.k.k.k.k.h f h h i.i.x.d.d.d.d.p.p.p.p.s.h h n.z.n.z.z.z.z.z.s.p.p.h.m.j.j.g.m.j j q , , , , q q # m.S.j.j.h.a.j h h a.f.A.F.F.D.D.g.g.g.S.S.h.a.f.j.g.j.g.g.g.j.h.S.D.6Xj w ~ H H H H ~ H H H H } ~ H ~ ~ H ~ ........} } } } } ^ ^ ..} } ~ H i ~ ~ H H ~ } i i i i i i z z z | | | } } | O.8.8.q.8.8.@.@.q.@.8.O.O.8.O.O.} i p w i k i k } k i i H } } ....o.o.......^ ~ ~ H ^ H H D D H 8 * r r r r t t r t G G H H G G G H G H G G D G G G G F G D D D r e 7 8 8 r D t r D r r t t D t D G D D G G G G G G G G G H G G G G 8 ; 8 8 e r e D t t t r r r r r t t t t t t r r G y y u u u D H H H ..~ o.:.:.o.o.o.O.O.o.o.o.o.O.o.| | o.o.o.o.| | } } | } ~ i i i ..} o.| o.o.o.O.O.o.o.o.o.o.o.o.o.o...........:.o.} } ~ i i i } O.O.O.O.o.O.O.O.O.O.o.o.X.X.~ ..~ ~ ~ ~ ^ G u r t r y 2 a y ~ ~ ~ H H H H H H H H H H G u u D G D D G G G G D t r 8 2 2 e e D 8 8 Z H H H G H H H H H H H H H H H H H H H H G r D D t D y : y H ^ G ..~ ~ ..} ~ ~ ~ ~ ~ ~ ~ ....| X.o.o.X.....} H i u i H } | } } ....} } } O.} | | | O.| ~ i } | +.+.+.z k p p p w ~ O.o.O.o.O.| O.O.O.| O.@.O.| | } i i i i z z i i p u i ~ H i H ~ ~ ~ ~ ~ ~ ~ ^ ^ ~ ~ g g j A.D.F.h.h.j.g.j.j.h.j.h.a.a.j.m.h.h.g.F.D.D.D.A.h.s.a.i.i.h s.m.g.g.m.m.h q q 0 , ; 7 # # j A.g.h.m.m.d.p.s.s.s.s.s.s.z.n.n.n.s.s.z.s.p.d.d.p.s.i.z.z.i.( k.f f ( k.k.k.k.k.",
"k.k.k.k.k.h f h ( i.i.x.d.d.d.p.d.d.p.p.p.i.x.D.D.D.D.D.D.D.D.A.p.p.h.m.h.h.h.m.# # O , 3 , = q q # c.m.j.g.S.f.d.x.d.d.f.h.h.g.S.S.h.f.h.g.S.h.a.f.m.m.g.g.j.j.h.h.S.D.D.j # w 7 y y t D G D H u i u u u u u D u u u u u u u u y y u y y w w w w 7 : y u y u y u u u u u i i p w w w y w y p i 7 w 7 y w y y : 7 : : : : 7 w y w + a w + w w w w w w w w w 7 7 7 7 7 7 : : ; - & & ; ; ; 8 ; * ; ; ; ; ; ; ; ; ; 7 8 8 7 7 7 8 8 2 8 8 8 7 ; ; ; ; 1 2 8 8 3 3 2 8 ; = ; ; = ; ; ; ; ; ; ; 1 8 ; ; ; ; ; ; ; ; ; = = = - ; 8 8 2 2 e 8 8 8 ; 2 8 8 8 8 8 2 ; ; ; ; ; ; ; - : = O O : 7 : : y y i y u 7 y w w w y y u y y y y y y y w 7 7 7 7 7 7 w w 7 w w w p H y u w y p i u u u y y y y u u w w w w y y w w w w : : 7 w t i i y : O + + O O : + : + + O O O 7 : O : 7 7 y : : : : : : : 2 y y 8 8 8 8 7 8 7 7 8 8 8 8 8 ; : ; ; ; ; : ; ; ; 2 ; ; ; ; ; ; 2 2 2 2 8 2 1 ; ; 8 7 ; ; 8 8 8 7 ; ; ; ; ; ; ; ; 2 ; y 7 7 y 7 : 7 : : O y u u u u w 7 7 y y y r 7 y y y y 0 7 7 7 w w w : a w w w w : + 7 w 7 7 w w w w w w w w w w p p w w w w w a w w w w 7 p i p 7 y w y 7 7 y y w w w w w w a w w w w w w w w w w y u u w w y y u r y y 7 7 # # Z.D.F.h.h.j.g.g.g.g.m.g.a.a.j.m.j.g.h.g.h.h.g.h.h.d.d.d.x.d.h.m.g.g.A.c.d # q 0 * * , O # j m.m.h.g.m.f.a.d.A.A.A.A.D.D.D.D.A.c.x.d.d.p.d.d.p.i.a.i.i.h ( ( f f ( k.k.k.k.k.",
"k.k.k.k.k.( f f ( i.i.x.x.x.x.p.d.p.p.p.p.a.d.A.A.S.S.S.S.A.S.m.p.p.h.j.h.h.h.m.# # - > , , 7 0 = q n.A.g.j.g.f.f.d.d.d.h.m.g.g.g.g.j.j.h.g.S.h.a.d.M.m.g.g.g.j.g.h.S.D.D.j # w : w y y t t u i u y u u w 7 y u y w 7 7 7 7 7 7 7 7 7 7 7 7 7 w w w w i i w w : 7 7 7 7 w 7 w w w 7 7 7 w w 7 7 + 7 w w w w w w y u y : : 7 7 w w w w : : w w : : : : : : : & : 8 : : : : : ; = 8 & : 7 & & - & = = = = = = = = & = = = = = = = - - * * - ; - - * ; 1 2 2 2 2 8 - ; ; & & & = & = & & - = - , ; ; ; = ; ; = ; = ; = = - ; ; : ; ; ; y ; : 8 7 ; ; ; ; ; ; ; ; - & & & & & & & O & : 7 w 7 w y 2 t y i w u y w w w w w w w w w w w w w 7 7 7 7 7 + + w w w w w w p w p a w w w w w w w w w w w w w w w w w w w w p w w w y y y u i w w + + w + + + + + + + O O O O O O 7 7 7 r 0 7 8 8 y 7 2 7 y : : : 7 : : 7 : : 7 7 7 7 7 : : & & O O & & & & & ; ; ; ; ; ; ; ; ; 8 8 2 2 8 ; ; ; ; : ; ; ; ; ; ; ; ; - - & & & : : O O O X O w o : w u w y 7 7 7 7 7 7 7 7 7 7 7 7 7 7 + + + O @ + + @ @ @ @ @ w w w y w : u w w w w w a w w w w a + + + + + a @ + a + + 7 y i p w w 7 y w 7 7 + + : + + + + + + + + + + + 7 w w w y w w w w w w 7 7 y w w 7 # # Z.D.F.h.h.j.j.g.g.h.m.M.p.a.j.g.g.g.g.g.f.f.h.h.h.h.d.d.d.d.h.g.g.A.m.z.# # q 0 , , 3 , q j s.c.m.g.h.f.d.d.m.S.h.g.F.D.A.A.c.s.d.d.d.p.d.d.d.s.i.h i.k.k.( f f ( k.k.k.k.k.",
"k.i.i.k.k.( f f ( i.i.s.p.p.i.i.s.i.a.p.p.a.d.d.f.f.f.h.h.f.f.d.d.d.h.g.h.h.h.c.# + < 5 0 , ; 7 q q n.c.h.h.g.h.a.d.d.d.M.g.g.j.j.g.g.g.h.h.g.f.f.d.h.d.d.j.g.g.g.h.S.D.6Xn g | | ........~ ~ H H g o.q.8.@.8.8.8.q.8.q.8.8.8.8.8.8.8.8.8.O.O.O.| | i y w i O.8.8.8.8.8.q.q.q.q.q.q.w.w.w.q.q.8.q.w.t.w.w.q.O.O.w u t y ..t.q.q.:.q.O.} ......~ } } } ..................^ ....^ ^ 8 7 0 ; 8 G G G G H G H H H H H H ~ H H H H H H H H H H H H U H U U D 8 2 8 2 ; G H H H H H H H H H H ~ ~ ~ ~ ~ ~ ~ H H H ~ ~ ~ ~ ~ ~ ~ G y 8 e 8 r 8 y ~ ^ ~ H H H H H G H H G G G G G G G D ..........O.} w : u } u O.t.t.q.q.q.t.q.t.q.q.q.t.w.q.w.t.w.r.r.e.e.r.r.e.r.&.k i z e.e.e.e.r.r.r.r.r.r.v.v.v.B.B.B.B.B.B.B.B.B.B.+Xv.r.r.O.i i p i q.w.q.q.w.B.r.r.r.r.r.r.r.r.r.r.r.r.8.~ ~ ^ ^ ~ ^ ..H r y y y 8 t H D H H H G H H H H H G D H H G H H H H G H H ~ H H H H H e ; e H ^ ^ ^ H ~ ~ ~ ~ ~ ~ ~ ~ ~ ~ ~ ~ ~ H H H ..:.q.8.q.q.@.@.O.: w u i p | | 8.8.q.q.q.q.q.q.t.w.q.q.w.w.w.e.w.w.w.w.q.q.q.q.q.+.i i } u } _.+Xr.r.v.r.e.e.w.w.w.q.q.&.&.q.q.w.&.q.&.@.w.w.+.p } } } } w.t.w.t.q.q.q.q.q.q.q.q.q.q.q.q.@.8.q.w.w.q.@.| } | o.| X.o.o.:.:.O.| g g A.D.F.h.h.j.j.g.h.f.f.d.p.d.j.g.g.g.g.g.g.m.m.m.m.h.d.d.d.d.h.m.S.A.x.h # q q 0 ; , , ; = # j d.m.h.h.m.h.f.f.A.f.h.S.g.h.h.d.d.d.d.d.d.d.p.i.i.h h h k.k.k.f f ( k.k.k.k.k.",
"k.i.k.k.k.( s f ( k.i.i.i.i.i.z.z.z.p.p.p.p.d.d.d.d.f.h.h.f.d.d.d.d.j.g.j.h.h.m.# O ; 0 0 = = O = # j h d.g.m.f.f.d.d.f.h.g.g.j.j.g.g.g.j.h.m.h.h.h.d.a.f.h.g.g.j.h.S.F.6Xn | @.q.8.:.o.....~ i i g w.$X$X$X$X@X$X$X@X@X#X#X$X$X#X@X+X+X+Xv.e.&. .| i p p | {.$X#X#X#X#X$X$X&X&X#X#X$X$X#X#X#X#X#X@X@X#X*X#Xw.O.w i i p 8.%X%X%X$X$Xr.O.:.8.8.8.8.8.8.8.8.8.8.8.9.9.8.9.8.t.t.9.X.0 ; 0 7 r X.;.;.o.;.;.;.;.;.;.;.;.;.;.;.;.;.;.;.;.;.:.;.:.:.:.;.9.:.D ; 2 8 - 8 ^ :.;.;.;.;.;.;.;.;.;.;.;.;.;.;.;.;.;.;.;.;.;.;.;.;.;.;.~ t 8 8 ; 0 y G o.;.o.;.;.;.;.;.;.;.;.o.o.o.;.o.X.o.o.q.8.@.O.O.q.+.w @ w k i q.#X*X$X$X$X$X$X$X$X$X$X$X$X$X$X$X*X=X=X=X=X3X=X*X*Xe.k i  .*X*X=X=X3X3X3X3X3X3X3X3X3X5X3X3X3X3X5X3X5X3X3XwX*X#X#Xq.i i p i r.#XB.B.#X3X3X3X3X3X3X3X3X3X3X3X3X3X+XO.o.8.;.^ ^ ;.^ 8 ; : y 8 D ......X...X.X.X.o.o.o.X.X.o.o.o.o.;.;.;.;.;.;.;.;.;.;.;.;.t - 8 ^ ;.:.;.;.;.;.;.;.;.;.;.;.;.;.;.;.;.;.;.;.t.%X4X*X3X*X4X$Xr.w + w y u O.O.+X%X$X$X$X$X$X$X$X#X@X#X*X3X3X3X3X3X3X=X=X=X=X=X=XO.w i +.i | $X3X*X4X4X*X*X&X&X#X#X#X#X#X#X#X#X#X#X#X@X@X#X+X .w z z }  .+X$X@X$X#X@X#X$X$X$X&X$X$X$X$X$X#X$X$X$X$X@X{.8.O.@.8.8.8.8.t._._.r.w.w.n A.F.F.h.h.j.g.g.d.a.a.a.f.d.m.m.h.m.h.g.h.A.g.h.h.d.d.d.d.d.h.A.A.c.h j # q q q = O = O O # j d.m.h.h.g.h.f.f.m.f.h.A.h.f.f.d.d.d.p.d.p.x.x.h i.h h h h ( k.f f ( k.k.k.k.k.",
"k.i.i.( k.( s f h k.i.i.i.i.h #.( i.i.p.a.p.d.d.d.d.d.m.h.d.d.d.d.d.j.g.j.h.h.m.# # O # # # # # # # j a.h.m.A.f.a.d.d.f.h.g.g.g.g.g.g.m.m.m.m.M.d.M.d.a.f.h.g.j.j.h.S.F.D.n c O.O.| } ~ ~ ~ } g @.@.w.{.v.v.{.v.{.v.v.v.v.v.{.{.+Xv.v.v.v.e.&.O.p p z @.w.w.r.v.v.v.v.v.v.v.v.v.v.v.v.v.v.v.B.B.B.v.v.v.B.r.O. .p } O.} q.@X@X@X{.{.q.o.o.O.o.o.o.o.o.o.o.;.;.;.9.9.8.8.;.:.;...~ 0 : 0 7 0 ^ ;.o.o.o.o.o.o.;.;.;.;.;.;.;.;.;.;.;.;.;.;.;.;.;.;.;.:.;.D & 8 D u u ..;.;.o.o.;.;.;.X.X.X.X.X.X.X.X.o.X.X.X.X.X.X.X.o.X.X.X.~ r 8 8 : t G ~ o.o.X.o.o.o.o.o.o.o.o.X.X.X.........} O.O.O.O. .@. .p w i  . .N.#X#X#X@X@X@X@X@X@X@X@X@XC.V.V.@X#X#X$X#X#X*X#X#X#X*.a p z @X#X#X#X&X&X&X&X&X&X&X&X&X&X#X#X#X&X&X&X#X#X#X&X@XB.+X&.p p p p *.C.B.B.B.*X$X$X#X#X$X&X&X*X#X#X$X4Xv.O.O.8.9.^ ^ ;...D 8 8 8 : u ^ ~ ~ ..~ ......X.X.X.X.X.X.....X.X.X.X.X.o.o.X.X.X.X.;.;.u : y ..X.^ X.;.o.o.o.o.X.X.X.X.o.o.o.X.X.X.X.X.8.r.v.r.e.b.v.v.r.z p p p w | O.t.r.{.{.{.{.{.{.+Xv.v.v.B.#X#X#XV.V.V.#X#X#X#X#X&X .p | O.p | $X#X@XB.v.V.V.V.V.B.B.B.B.B.v.b.b.b.e.b.b.b.B.b. .z  .z g | +X@Xv.v.v.v.b.v.v.v.v.v.v.v.v.v.v.v.v.v.v.{.v.8.o.O.X.o.o.;.8.t.t.w.w.w.n Z.F.F.h.h.g.j.g.d.d.f.d.h.d.h.h.c.A.A.A.h.g.m.j.h.f.d.d.d.a.h.S.m.f.j # X # X X # # q d g h s.c.m.h.h.h.f.f.f.h.f.h.S.A.h.f.d.d.d.d.x.x.x.z.h k.h h k.h ( ( f s ( k.k.k.k.k.",
"k.h k.( k.( s f ( k.i.k.i.h d q # j h z.p.p.d.d.d.d.d.m.M.d.d.d.d.d.M.m.j.j.j.m.# # j h z.x.c.c.c.c.m.f.g.g.m.d.a.d.d.d.h.g.g.g.g.A.f.a.h h h i.d.M.d.a.f.j.g.j.g.h.S.F.D.n c | | } } ~ ~ X.8.8.$X@X{.v.b.b.v.v.v.v.b.b.v.v.v.v.v.v.v.v.w.q.@. .g g | e.v.r.v.v.v.v.v.v.v.v.v.v.V.v.v.v.b.v.v.v.v.{.B.e.@.} i } | O.q.O.@.q.@.@.8.@.@.O.O.o.o.o.o.o.o.o.;.;.;.;.o.;.9.o.^ ~ G 8 r 8 : u ~ ~ o.;.o.o.o.o.o.o.o.o.o.o.X.o.X.o.o.o.o.o.o.o.;.o.;.;.o.;.^ t = 0 ^ ;...;.;.o.o.o.o.o.;.o.X.X.X.;.X.^ ^ ^ ^ ^ ^ ^ ^ ^ ^ X.^ ..X.H 0 8 8 y ^ o.X.o.o.o.X.X.o.X.o.o.o.o.o.o.X.X.....} } O.O.&.&. .%.$.z p  .e.e.#X@XB.B.C.C.C.B.B.B.B.B.C.B.C.C.B.B.C.C.B.C.#XC.C.#XN.p k z @XB.B.V.C.C.V.V.C.V.C.C.C.C.C.C.C.C.C.C.C.C.B.B.B.B.V.e. .z p w w.C.B.B.b.B.B.B.B.C.B.B.B.B.V.C.V.@Xv.@.@.@.t.o.;.9.:.;.^ ~ 8 : u ..^ ~ ^ ~ ^ ^ ^ ^ ^ ^ ^ ^ X.X.X.X.o.o.o.o.X.X.X.X.X.X.;.;.G : r ^ ~ ~ ^ ;.;.o.o.o.o.o.o.o.;.;.;.;.o.o.o.o.o.8.o.| | @.v.v.B.e.q.z w w O.t.O.8.t.t.t.t.r.r.{.v.v.b.b.b.b.B.b.b.B.B.C.C.B.B.#X*.&.&.z w | #Xv.#X#XV.V.V.V.V.V.V.V.V.V.V.V.V.V.B.B.B.v.v.V.B.e.e. .g | b.r.v.@X{.v.v.v.v.v.v.+X+Xv.v.v.v.v.v.{.v.{.{.t.8.8.o.;.o.o.;.8.t.w.w.@.n Z.F.F.h.j.g.j.m.d.d.f.m.m.d.a.s.i.s.s.m.m.g.g.j.h.f.h.h.d.a.h.A.A.h.j j h h z.z.z.s.z.x.c.c.m.m.h.h.g.h.f.f.f.d.f.f.A.m.f.f.d.d.d.d.x.h j d j h h h ( ( k.k.f s ( k.k.k.k.k.",
"k.h k.( k.( s f ( k.k.z.z.h # X X # h z.s.p.d.d.d.d.d.M.h.d.d.d.d.d.M.m.j.j.j.m.s.h s.c.m.m.m.m.m.m.g.h.g.g.m.a.a.d.d.d.h.m.g.g.h.A.a.# # j j i.d.M.d.a.f.j.g.j.j.h.S.F.D.n #.O.} } } ~ ~ o.r.v.v.v.v.b.b.v.v.v.v.b.b.b.v.v.v.v.v.v.v.w.@.| g g | @.q.v.v.v.v.b.v.{.v.v.v.v.v.v.@Xv.b.v.v.v.v.v.v.+X@Xb.@.~ w i O.| @.o.^ o.| O.o.| o.O.o.o.o.;.;.;.;.;.;.o.;.o.o.;.9.;.^ ~ u : y 8 0 ^ 9.o.o.X.o.o.o.o.o.o.o.o.o.o.X.X.X.X.X.X.o.o.o.o.o.o.o.o.9.o.^ G = 7 ^ 9.;.9.o.o.o.;.;.o.;.o.X.X.;.;.;.^ ;.;.;.;.;.o.;.o.X.o.o.X.;.~ 8 8 : 7 ^ ;.^ ^ X.o.X.o.o.o.o.o.o.o.o.o.o.X.....} } &. .&.%. .$.$.k a  .N.e.C.#XC.C.C.C.C.C.C.C.C.C.C.C.C.C.C.C.C.B.B.C.C.C.B.#XN.p p z C.B.b.B.B.C.C.C.C.C.C.C.C.C.C.C.C.C.C.B.B.B.@XB.B.B.B.B.e.&.w p N.C.N.C.B.B.B.B.B.C.C.C.C.C.C.B.V.#X@Xr.v.v.8.o.o.;.;.;.;.~ 8 : G X.....X.^ ^ ^ ^ ^ ^ ^ ^ ^ o.o.o.o.o.;.;.;.o.o.;.X.X.o.;.o.u : 8 H H ~ X.;.;.;.o.o.o.o.;.;.;.o.;.;.X.X.X.X...o.| } ~ @.v.v.&.e.e.i w w } o.~ X.o.o.o.8.8.8.{.+X@X+Xv.b.b.b.B.b.b.b.v.B.B.B.B.B.#XB.| p } @.| b.#X@XV.V.V.V.C.b.b.b.V.V.V.V.b.V.B.B.v.b.B.v.V.B.| p p } g | {.v.v.v.v.{.{.v.v.v.v.v.v.v.v.v.v.r.v.{.{.{.{.t.;.o.^ ^ o.8.w.w.@.n A.D.F.h.h.g.j.M.d.p.f.m.S.d.a.s.j X # c.A.g.m.h.h.h.h.h.d.p.m.m.m.A.m.A.D.m.c.m.m.c.d.d.c.c.h.h.h.h.m.h.d.d.d.d.f.f.S.S.f.d.d.d.x.x.z.j # # # h h h h h k.k.f s ( k.k.k.k.k.",
"h k.k.k.k.h s f h k.i.i.z.h # # # # h z.x.s.x.x.d.d.d.M.h.d.d.d.d.p.j.j.g.h.g.h.m.m.m.m.h.h.f.h.h.h.j.g.g.j.m.f.a.d.d.d.h.m.g.A.m.D.j # j j j i.d.M.d.a.d.j.g.j.j.h.S.D.D.s.| O.} ..} i g 8.{.{.{.v.v.v.v.b.b.b.b.v.v.v.v.v.v.v.v.+X+Xw.| | w g @.q.e.v.+Xv.v.v.b.v.v.v.v.v.v.v.v.v.v.v.v.v.v.v.@Xv.} w i u u X.o.o.o.o.o.o.o.O.o.o.o.o.o.;.o.;.o.o.o.o.o.o.;.;.X.;.9.;.X.^ G 8 : y 8 G ;.;.o.;.;.;.;.;.;.;.;.;.;.;.;.;.o.o.o.;.o.X.^ ^ o.o.o.;.o...^ 0 = 7 ^ 9.o.o.;.9.o.X.o.o.o.o.o.o.o.o.o.o.X.X.X.o.X.X.X.o.X.o.o.o.;.H 8 7 7 7 ~ o...X.^ / ^ X.o.o.X.X.o.;.o.X.o.X.~ } | g  .%. .c  . .%.k p  .C.B.B.C.B.C.C.C.C.C.B.B.C.C.C.C.C.C.C.C.C.C.C.C.B.B.B.C.*.p p z @XB.B.V.B.B.B.B.C.C.C.C.C.C.V.C.C.C.V.C.C.B.B.B.C.B.B.e.B. .p p e.C.B.B.B.B.C.C.B.B.C.C.C.C.C.C.V.@X@X#X@Xr.o.O.X.o.^ ^ :.H 8 7 u ....8.8.t.t.t.9./ ^ X.^ o.o.o.X.X.o.X.X.X.X.X.o.o.o.o.;.;.D y y 0 8 7 X.;.X.;.;.;.X.X.;.X.X.X.X.o.o.o.o.o.o.o.o.o.o.o.o.o.~ o.t.} + 7 y ~ H :.8.;.9.8.t.t.{.{.@X+X{.v.v.b.v.v.v.v.B.B.B.V.V.B.@Xe.| } } a i O.+X#XV.@Xb.b.b.B.B.B.B.V.V.v.v.v.v.v.v.{.v.B.B.w.@.w.O.a p @.w.v.@X@X@Xv.v.@Xv.v.v.v.v.v.B.B.v.b.v.v.r.v.v.r.t.8.o.X.9.8.8.w.w.n Z.D.F.h.h.j.j.M.j.d.a.h.S.h.s.z.d # # c.A.m.m.h.j.f.j.h.d.p.h.m.A.g.g.m.m.h.d.d.d.f.d.d.h.d.f.h.h.h.h.h.f.f.d.d.f.h.S.m.f.c.c.j h h h d # q ( h z.z.h h h ( f s ( k.k.k.k.k.",
"k.k.k.k.k.h s f h k.i.s.z.h # # O = ( n.n.x.n.x.x.x.x.M.d.d.d.d.p.p.M.M.g.h.g.g.h.h.h.h.h.h.h.j.h.h.h.g.g.g.m.a.a.d.d.d.h.A.A.m.c.Z.g # q h i.d.d.M.d.p.d.j.j.j.h.h.S.D.D.s.#.o.....O.@.8.t.{.v.v.v.v.v.v.b.b.b.b.b.b.v.b.b.v.v.{.v.r.O.p O.| @.w.w.e.v.v.b.b.b.v.{.v.v.v.V.V.B.B.v.v.v.B.v.v.v.v.w.i + u ~ G ^ ;.;.;.;.o.o.o.o.o.o.o.o.o.o.o.o.o.o.;.;.;.o.o.o.X.;.;.X.~ H u 8 y G t ~ ;.o.X.o.o.o.o.o.X.o.o.o.X.X.X.X.o.o.o.o.;.;.;.;.;.;.;.;.o.~ ~ r 7 7 ^ ;.;.o.o.;.o.o.;.;.o.o.o.o.o.o.o.o.o.o.o.o.X.X.o.o.X.o.X...^ u 8 y u u ^ o...o.X.X.^ X.X.o.o.o.X.X.o.X.o.o.~ ~ } | b.B.e.*.e.&.%.p p  .C.C.C.C.B.C.C.V.V.C.C.C.C.C.C.C.C.C.C.C.C.C.C.C.C.C.C.#X*.p k z C.B.B.V.V.V.C.C.V.C.V.V.V.V.V.@X@X@X@X@XC.C.B.C.@X@XV.B.B. .a p *.C.N.C.C.C.C.C.C.C.C.C.C.C.C.C.C.V.V.#X@Xr.O.8.O.8.X.X.9.^ y y u ~ ..t.8.q.t.t.;./ ^ ^ ^ X.o.X.X.X.o.o.o.o.o.o.o.X.X.X.....H t D 8 ; ; X.;.;.;.;.;.X.X.o.X.o.o.o.;.o.o.o.o.o.o.o.o.o.o.o.o.X.o.8.~ 7 y y y u o.:.o.o.;.;.;.t.t.r.t.w.v.@Xv.v.v.v.B.v.B.V.+XV.v.@X+Xw.w.q.i w | v.+Xv.V.V.V.v.B.B.B.v.v.v.v.{.{.{.{.{.v.v.v.@Xv.b.v.@.w p O.r.v.v.+X@X@Xv.v.+X@X+X+Xv.v.v.v.v.b.v.v.v.v.q.~ O.8.8.;.o.X.o.8.w.n Z.D.F.h.h.j.j.M.j.f.f.h.S.m.i.k.d X X Z.D.m.D.m.m.f.d.d.d.d.m.g.g.g.g.g.g.h.h.h.h.f.h.h.h.f.f.h.h.h.h.f.f.f.d.d.f.f.m.A.c.x.z.j g d d q = q z.z.x.x.i.k.( k.f s ( ( ( k.k.k.",
"k.k.k.k.k.h s s h k.i.x.x.z.h g = , 0 ! s d s d d f h x.s.p.p.p.x.p.M.M.M.g.j.h.g.g.h.h.g.m.m.m.m.h.m.g.g.g.S.a.a.d.d.p.c.m.s.# h z.p X # g s.d.d.M.d.a.d.j.j.j.j.h.S.F.D.s.#.o.o...8.r.{.{.{.r.{.{.v.v.v.v.v.v.{.{.{.{.{.{.+X@Xw.@.O.i w @.r.@Xv.v.v.v.v.v.v.v.v.v.v.v.v.v.v.v.+Xv.v.v.v.v.w.q.q.8.~ 7 ~ ;.;.9.;.;.;.;.;.;.o.o.;.;.;.;.o.o.;.;.o.;.;.o.o...^ ~ ~ ^ ~ u 8 8 ; & t U H ~ X.^ ^ ^ ^ ^ ^ ^ ^ ^ ^ ^ ^ ^ ^ X.X.;.o.X.^ X.X.;.o.o.X.o.^ r r r G u X.:.;.o.o.o.o.o.o.o.o.o.o.o.o.o.o.o.o.o.o.o.X.X.X.X.o.o.o.^ G 8 7 u ..~ X.X.X.o.X.o.o.o.o.o.o.o.X...O.o.8.{.v.r.v.B.V.B.e.C.C.*.%.p p  .C.C.V.C.C.C.B.C.C.C.C.C.C.C.C.C.C.C.C.V.V.V.B.B.C.B.B.#Xe.p l c C.C.B.B.B.B.B.B.C.C.C.C.C.C.B.B.B.B.B.B.B.B.B.B.C.B.C.B.C. .a k e.B.N.B.B.B.B.C.C.C.B.C.V.C.C.C.C.C.B.@X@XB.B.+X{.r.:...X.G 7 y y u i q.q.q.q.t.t.8.t.t.8.8.X.X.X.X.o.o.o.o.;.;.o.X.^ ^ ^ ~ H H H y ; 8 ;.;.X.;.;.;.X.o.o.X.X.X.X.X.X.X.X.X.o.o.o.o.o.o.o.o.:.o.:...H } i w 7 H o.o.;.o...X.~ ..X.~ o.r.@Xv.v.v.v.v.{.{.{.{.+Xv.+X+Xv.r.8.p u } @.q.v.@Xv.B.v.B.B.v.v.v.v.v.v.v.v.v.v.v.v.v.v.v.v.B.@.w w g | | O.w.+X@X{.{.v.{.@Xv.v.v.v.b.q.@.O.@.w.B.q.i i 8.t.9.~ u i | w.n Z.D.F.h.h.j.j.g.j.d.f.M.S.M.i.z.s # # b.Z.z.h h c.x.c.x.i.a.h.m.g.g.g.A.A.h.f.d.d.d.h.d.h.h.d.h.m.m.f.f.c.d.d.d.f.f.m.A.s.j d # q q 0 0 7 # z.z.x.x.i.k.( ( f s ( ( ( k.k.k.",
"k.k.k.k.k.h d h h i.i.x.x.x.h h = % = = O = = O # X j x.d.d.d.p.h j h j a.m.g.j.h.h.h.h.m.c.c.c.c.d.A.g.g.g.A.a.a.x.x.x.Z.6Xn.X # q O O # h i.d.h.M.d.a.d.j.j.j.h.h.S.F.D.s.#.O.o...:._.{._.r.r.{.{.{.{.{.{.{.{.{.{.{.+X{.v.v.+XO.~ i i i O.r.+X@X+X+X+X@X+X{.{.+X+X+X{.+X+X{.{.v.r.v.v.v.w.q.8.i } G y ~ ;.;.:.;.;.;.;.;.;.;.:.;.;.;.;.o.o.;.o.o.;.o.o.o...~ ~ ~ ^ H r ; ; ; ; D ..^ ~ ^ ^ ^ ^ ~ ~ ^ / ~ ~ ~ ^ ^ ^ ^ ^ ;.;.;.o.;.;.;.;.;.9.9.9.G & ; r ~ ~ ;.:.o.;.;.;.;.o.o.o.o.o.o.o.o.o.o.o.o.o.o.o.X.o.o.o...o...~ G 7 7 G X.^ X.X.^ ^ ^ X.o.X.X.X...X.| o.| | 8.+X$X&X#X#X#XV.C.C.V.&.%.z p  .V.C.V.B.B.V.V.V.@XV.#X#X@XV.V.V.V.C.@X+X+X+XC.V.V.B.B.@Xe.p k +.#X#X@X@X#X#XV.@X@X@X@X@X@X@X#X#X#X#X#X#X#X#XB.@X@XB.@XV.#X&.p p &.e.N.#XC.#XB.C.B.C.C.C.V.C.C.C.C.C.B.@X@XB.r.+X{.r.:...o.~ y u y w u q.t.q.q.t.r.t.r.t.t.8.;.;.;.;.;.;.o.o.;.;.o.X.^ ^ ^ ~ D H U y ; 8 ^ ^ ^ ;.:.;.;.;.;.o.;.;.;.;.;.;.;.;.;.;.;.;.;.;.;.;.X...o.......D w y H o.;.;.o...o.^ o.X./ o.v.$X+X$X@X$X$X$X$X$X$X$X@X$X@X{.{.q.~ i i u } v.#X@X@Xv.V.@X@X+X+X@X+X{.{.@X+X@X+X+X+Xv.v.v.v.@.p w p i i } 8.{.@X@X@X+X+X@X@X{.+XB.v.w.O.g z q.B.w.z i 8.r.8.^ ~ ~ | #.n Z.D.F.h.h.j.j.g.h.p.a.M.S.M.s.z.s O O / g d X j n.n.n.c.s.a.h.A.g.g.A.A.A.c.d.c.c.d.M.h.h.h.m.c.c.c.c.c.c.s.x.s.s.c.c.c.h # # = , , , , 8 # #.z.x.x.i.i.( ( f s ( ( ( k.k.k.",
"k.k.k.( k.h d f ( i.i.x.d.d.i.h = 0 0 , , 9 9 , q # j z.s.i.p.i.j # j # j c.m.h.h.h.h.m.s.j j j j j c.h.g.g.A.a.h h h f h #.g O ; 7 = = d z.s.d.h.m.d.p.p.j.j.j.j.h.S.F.D.s.c O.~ ^ X.8.8.;.9.9.8.8.8.8.8.8.8.8.8.8.8.8.8.| | O.~ H ~ i } O.O.q.q.q.q.q.q.q.q.q.q.q.q.q.q.q.8.8.o.| O.8.O...} } : y y y H ~ ^ X.^ ^ ^ ^ ^ ^ ..X.^ ^ ^ ^ ^ ^ ~ ~ ~ ......;.X.~ ~ H ~ H r 8 8 8 8 y U H H H H H H H H H H H H H ~ ~ H H ~ ^ ^ ^ ^ ^ ^ ^ ^ / ^ o.;.H & : t ~ G ^ ^ ~ o.;.o.o.X...o.X.X.X.X.X.X.X.X.X.X...^ ^ ^ ^ ^ ......~ H 7 7 G ~ ~ X.X.^ ^ ^ ;.X.o.9.9.8.8.8.8.w.q.w.v.v.+X@XB.B.B.B.B.e.z z z p  .v.v.B.B.B.V.B.B.B.B.B.V.@X@XV.V.V.V.@X@X+X+XV.+X#X@XB.#Xe.z z c e.q.w.w.v.B.+XB.+X+X+X+X+X+XB.B.B.B.B.B.v.B.B.B.B.B.+XB.+X&.p a z z &.B.B.B.@X@X@X+X+X+X+X+XB.B.V.B.B.+X@XB.v.{.{.t.O...o.~ H H t : y :.8.8.q.t.8.8.8.8.8.8.X.X.^ ^ ^ ^ ^ ^ ^ ^ ~ H H H H H D D I 8 ; 2 D 0 G ^ ;.^ ....^ ^ ^ ^ ^ ^ ^ ^ ^ ^ ^ ^ ^ ^ ^ ^ ^ ^ H H ~ H H H t : y H ~ ~ ~ H H ~ X.X.X...o.8.t.q.t.w.t.t.t.t.t.t.t.t.t.t.8.q.8...o.o.i y } O.O.@.@.w.w.w.w.w.r.r.r.r.r.r.r.w.w.w.w.w.q.q.O.} } } i ~ } } O.w.r.r.v.v.v.w.w.w.w.w.@.+.z +.@.q.O.i i +.@.o.| O.o.| g j Z.D.F.h.h.h.j.g.d.a.p.M.m.M.p.z.g O = = O q q q #.( h h i.i.h.S.g.g.m.m.c.s.z.z.x.s.c.m.h.c.s.j j j s.c.s.j # # h c.n.j # O 7 1 3 , * , 7 # z.x.x.x.i.i.k.( s d h ( ( k.k.k.",
"k.k.( ( ( h d f k.z.s.x.c.x.i.h # q = = = > > > 1 O d n.z.i.i.k.# d d # h c.m.m.m.m.A.D.z.X X # X # c.m.g.g.A.s.h # # q # O o 1 9 3 7 O q z.d.a.h.m.d.a.p.M.j.j.j.h.S.D.D.n g o.r H X.;.o.o.o.o.........| | | X.o.o.o.o.~ u u i u ~ } ~ :.8.:.:.o.O.O.O.O.O.O.O.o.o.o.o.| | | | o.~ ..o.H w 7 7 7 y r t H ^ ^ ..H H H H H ~ ~ ~ ~ ~ ~ ~ ~ ~ ~ ~ ~ ....X.:...G t r D u 8 ; ; ; ; y H H H H H ~ H H H H H H H H H H H ~ ~ ^ ^ ^ ~ ~ ~ ~ ~ ~ ~ X.;.H ; 8 t H u D t G ^ ;.o.;.o.X.;.;.;.;.;.;.o.;.o.o.o.o.o.o.o.o.o.;.;.X...~ y : r G ~ X.;.o.;.;.9.9.t.{.{.{.{.{.{.{.v.v.t.8.q.r.w.w.e.r.r.&.p g i i } 8.O.O.| | | O.O.| O.O.@.&.q.q.q.q.q.q.q.q.w.q.q.e.r.e.r.&.i z z &.O.O.O.@.q.O.@.@.@.@.@.@.@.8.8.@.@.@.@.@.@.@.q.@.@.q.@.w.} p p k z &.B.e.w.w.w.w.w.w.w.w.w.w.w.w.q.w.e.r.w.| O.O.o.....X...H H r : 8 ..o.o.....X.........^ ^ ^ ^ ^ ^ ^ ~ ~ ~ H H H ~ H H H H H ..e 2 2 8 & t ^ X.^ ^ ^ ^ ^ H H H G H H H H G G G G G G G G ~ H H H I H t ; y t t t u y u ~ X.^ ^ ^ ^ ..X.X.X.X.X.X.X...X.X.X...o.o.....o.......y 7 u u u } O.@.q.q.q.q.q.q.q.q.q.q.q.@.O.O.O.O.O.O.:.:.q.q.y i i p i | q.q.t.t.q.8.O.| o.| } } | O.| } H } } } } ~ } O...H a # Z.D.F.h.h.j.h.j.d.p.p.M.m.m.d.c.( # 0 * = N , % = . X # h h m.m.m.A.m.c.d.h # # # # s.c.c.c.z.# X # s.Z.c.# # # z.6X&Xg # 7 8 ; = = O = O # z.x.x.c.i.i.k.( s d h ( ( k.k.k.",
"k.k.( ( k.h d f h z.i.d.x.d.i.h X # # # O & * , , = d z.z.z.k.k.q q # X d n.n.n.c.n.n.Z.#.# O 7 X # Z.A.m.m.A.s.h # q q q q = 9 3 < 0 O j z.f.a.h.m.d.a.p.M.M.j.j.h.S.D.D.n g / 0 ^ ;.:.;.:.;.;.;.;.O.O.o.O.o.o.o.o.o.O...H H } u i ~ ~ ;.:.8.;.:.8.8.8.8.8.8.8.:.:.:.:.:.:.:.:.:.} ....G : : 2 e t t t D H H F H H H U H H ~ ~ ~ ~ ~ ~ ~ ~ ~ H ~ ..^ ..;.^ t r y r r 2 ; 2 2 ; t H H H U H ~ H H H H H U H H ~ ~ ~ ^ ^ ^ ^ ^ ~ ^ ^ ^ ^ ^ ^ X.;.D ; 8 e D r D 8 D ..X...;.o.X.;.;.;.;.;.;.;.;.;.;.;.;.;.o.o.;.o.X.....^ H 7 : y G G ^ X.X.o.X.;.9.8.t.r.t.t.t.t.t.t.r.t.q.t.r.r.r.r.v.v.w.i } ~ i } 8.O.8.O.8.8.8.8.:.8.8.q.q.q.q.q.q.q.q.q.w.w.t.t.r.r.t.r.q.} } +.q.8.q.8.q.8.8.8.8.8.8.8.8.8.8.8.8.8.8.8.8.q.q.q.q.q.t.8.t.O.u i } ..t.+Xt.q.t.t.t.w.t.w.t.t.t.t.t.q.t.r.r.t.X.X.o.o.o.o.;.;.H H t 8 y ..^ ..;.o.:.:.:.X...~ ..^ ^ ^ ^ ^ ^ ^ ^ ^ ~ ~ ^ ^ ~ H H D H 2 2 8 8 - D ..X.^ ^ ^ ^ ^ ~ ~ ~ ~ ~ ~ ~ ~ ^ ~ ^ ~ ~ ~ ~ ~ H H D H H H S e e D t t D u G ^ ;.X.o.;.o.X.o.o.o.o.o.o.;.;.;.;.:.:.:.:.;.o.;.:...~ y y D u D ~ :.:.q.q.q.q.t.q.q.q.q.q.q.8.O.O.O.O.+.O.O.O.q.O.i i i i H O.q.q.q.8.8.@.o.o.o.| | ..| ..} i H } ....} ~ } o...H a # Z.D.F.h.h.h.h.g.d.p.p.M.m.m.f.m.z.# 0 , M M , , $ , 0 q ( h c.c.m.A.m.s.c.z.# # # # z.c.c.n.b.g q # z.&XZ.j # q d #./ q O 7 8 O 7 d d g # # i.s.x.c.i.i.k.( s d h ( ( ( ( k.",
"k.k.( ( k.h d f k.z.i.s.d.d.i.i.j h ( h g w ; , , * O u q d d q d / q = # q q q j d d g q = 1 % O q &Xc.c.c.c.h g q 7 ; O 0 7 1 1 & 0 q j d.f.f.h.A.d.p.d.M.j.j.g.h.S.D.6Xn p ~ 0 G ~ ~ H H H H ~ ~ ~ ~ ~ H H H ~ H ~ ~ H u i } ~ u H H ~ H ^ ~ H ~ H D D ~ ~ H H H D D G D G G ~ y y D r 8 y r 2 e r e e e e e 8 y r r y y y 8 y y y y 8 8 8 8 8 t 8 y D t ; ; ; 8 8 ; ; 2 2 - ; e 8 e r 8 r 8 8 8 8 8 9 9 9 9 8 0 r r 0 8 8 8 0 0 0 r 8 8 0 t e - 2 e D e t 8 ; G G t D H G D D G G D D D D D G G u G u u u u t r r t r & & y r r H H ~ ~ G ~ ~ ~ ~ ~ ~ ~ H ~ ~ ~ ^ ....o.8.:.O.O.O.O.O.p H H u ~ X...o.~ ..~ X.......X.o.X.| ....| o.o.o.o.O.o.| o.O.| o...i } H o...o...o.| } ..| | | ..| | | ........| X.| ..} ~ ~ ..H ..H t i ~ i ..8.o.o.o.o.o.o.o.o.o.o.o.:.o...X.o...~ ~ H ~ ~ ~ ~ G G D D r 8 8 H t H G u u H H H H H D D D D H D D D D r e e r r y 8 y e D & ; 2 y 8 & D D 8 8 0 8 0 8 8 8 8 8 0 0 0 8 8 8 8 8 8 8 8 8 e y e e 2 2 8 8 e y y r 8 8 G t r D u r r u u u u u u G G G G H D D H H H H D H D w y t 8 y t i i i i i H ~ H H H H ~ H H i i i i i H H H } H i u i i i H H i i ~ ~ i i i i u i i u u i u i ~ _ H ~ i H } ..H p # Z.D.F.h.h.h.h.g.d.p.p.h.m.m.h.m.z.# 0 3 N > * 3 $ 3 1 O / h z.z.n.c.n.h n.}.q q q X g n j g g O q # g n.b.g = 0 q # O = 7 7 7 X g z.n.n.h h i.s.d.c.i.i.k.( s d ( ( ( k.( k.",
"k.k.( h ( h s f k.k.i.s.c.x.i.i.x.Z.Z.Z.Z.g # 0 1 3 , O O = = = ! / 0 = ; = O = O q q = 0 0 ; & + 7 # # # # # q 7 ; 8 9 , * 9 * 7 7 d h s.d.f.f.m.m.d.a.d.j.j.j.j.j.g.D.6Xn # g y G u u u u u u u u u u u y y u y i i u u i i p y y y i u u u u r r r r y y y y 7 : 7 7 7 7 8 : 7 8 8 8 ; ; ; e 8 e 8 8 2 2 2 2 2 2 2 ; ; ; 8 8 7 ; ; ; 7 7 7 7 8 8 8 ; & ; 2 ; ; 2 ; ; ; 2 8 & ; ; ; ; ; ; ; ; ; ; ; ; 1 1 1 ; 1 1 1 1 ; ; ; ; = - ; ; ; ; ; ; - ; 2 8 2 ; 2 e 8 8 8 8 8 8 8 8 8 8 8 8 8 8 2 ; 0 8 8 0 7 7 8 8 7 y ; ; ; 8 : 7 8 8 8 8 8 8 8 0 8 : & : 7 7 7 y y 7 7 7 u O.:.G : y y u y y i y u y r y y y 7 w y y y y 7 7 w w 7 7 y y y y y u w u u y w w p i i w u w u y u y u u y y y y w w w w y y y y y y 7 w w y w 7 y y y w y y u u y u u u u u u u u t y y r u u u y y 7 7 0 7 8 8 0 8 ; 2 y y ; & : : 7 2 : 7 : : : ; 8 8 8 7 8 8 8 8 e ; ; - : & & - : & ; : : y 2 ; ; & ; & ; & ; & ; ; ; ; ; ; ; ; ; ; ; ; ; ; ; ; * * ; - & ; 8 2 e 2 ; ; 2 8 7 ; 8 8 8 8 8 8 8 7 7 : 8 8 : 8 y 7 8 : : 7 u H u w w w y y w t u w y w : w t t y y y y y y y u i i i i i u i i u u i H i i H i u H i y y y y w 7 y w w w w 7 w u u y w 7 w y y y y p X c.kXD.h.h.g.j.m.d.a.a.d.m.h.h.A.z.# q r = 0 0 , M 6 m 1 = q # # # d d d g / q q r q # # # q q 7 r 7 O # # 7 7 0 0 r 1 , , = # # j z.x.c.c.z.s.s.x.c.z.i.k.k.s d f ( ( ( ( ( ",
"h ( ( ( ( h d s ( ( i.z.c.x.i.i.x.m.m.m.c.j X O ; 5 1 > , 0 0 0 u ! 0 = 3 1 > 9 0 B N 0 N 7 O o X # o ; 7 0 = , 1 1 < * , , , : X j h z.x.d.d.d.m.m.d.a.d.j.j.j.j.j.m.D.D.n # q 7 y w w w w 7 w 7 7 7 w w w y w y y p p p p w a @ + + : : : : : : 7 7 7 7 7 7 7 7 : : : : : : : : 8 0 ; ; 8 ; ; ; 1 2 1 ; ; ; ; ; ; ; ; ; ; : : ; ; ; ; ; ; ; ; - ; ; ; ; ; 2 ; 8 2 ; ; - - ; & & & & & & & & & & & = & = = = = & = & & - - - = ; ; 1 2 2 ; ; ; e 8 e e e 8 e e r r r r r r r r t t t t r r r r t r r r 0 r t 9 8 r 8 e ; ; & 7 ; ; ; : : ; : : : : : + O o . . o o O O + i ~ u 7 i i u i i i u u y y 7 7 w : 7 w w 7 : + + + 7 : + + : + 7 + + 7 7 7 7 w w w w w a p w y 7 7 7 + + + + + + + + + + + + + + + + + + + + + 7 w + y u u y u u 7 7 7 7 7 7 7 7 7 : : + + + + + O O O O O O O O + O w 8 y t y w w w 7 7 w y y 7 7 7 ; ; : : : ; ; ; 8 ; : : : ; ; : 7 : 8 ; : 2 : : 2 ; 2 - 8 ; 8 ; ; ; ; ; ; ; ; ; - ; - ; ; ; - ; ; ; 1 ; ; 2 8 ; ; ; 2 e y y 7 ; : 7 8 7 7 7 7 7 : : 8 7 : 7 8 7 : O O : w y w 7 + : : : + w i y u t y w w w w w w w w w w w w p w w w w w w w w w w : + + : w w u y 7 7 w w 7 7 w w w w a w p p w w 7 7 w w w w + # n.6XD.g.h.h.j.M.d.p.d.M.m.m.h.M.s.# # # X X = o , $ 6 % % ; O + O O O O q # q q 0 0 0 q q q 7 0 0 0 q 0 0 * 1 9 0 0 0 0 7 q g n.z.s.d.d.x.z.i.z.x.c.z.k.( ( s d f ( ( ( ( ( ",
"f ( ( ( ( ( h ( s h h z.c.x.i.i.p.d.h.h.c.a.h g = , 5 5 1 1 0 0 u u 0 $ , 5 3 N 0 1 , 0 0 q g #.( #.# = 0 9 ; , 0 8 7 ; q = 7 b.z.n.x.s.d.d.d.d.d.d.d.a.d.j.j.j.j.j.m.m.Z.n c | O.O.O.@.&.O.O.q.@.O.O.O.O.O.O.+.w w p i z +. . .O.O.O.O.@.8.8.8.O.O.O.O.O.O.O.:.8.O.o.o...o.X...r u t : 8 H H D F F F G H D G G H H H H H H H H ~ H ~ ~ ~ ~ H H G H H H D D D D 8 ; - 8 y 8 t r t t t t D D D D G G G G G G G G G G G D G r 0 0 7 8 8 8 2 8 e e ; ; - - ; ; 2 2 8 8 8 8 8 8 8 8 8 8 8 8 8 8 8 8 8 8 0 0 0 8 8 ; 8 8 ; ; ; y 8 u r r r r y y y u w ~ O.O.O.@.@.@.@.@.q.@.&.e.v.w.w.r.| p i i u i p g O.@.O.O.O.O.O.O.O.O.O.q.w.r.e.e.e.w.w.w.w.w.w.w.q.q.w.r.&.i z } t.w.w.w.r.r.w.w.w.w.w.w.w.w.q.q.w.q.q.q.q.q.w.w.q.&.q.w.w. .i } } i O.w.q.@.q.q.w.q.w.q.q.q.w.q.q.q.8.@.O.O.O.O.O.O.| O.O.| y w y y y y r y y t u u u r t u t t t t t t r r 8 8 y r t D G D D t D y 2 y w y 2 : 8 8 D r H H ~ ~ ~ ~ ~ ~ ^ ^ ^ ^ ^ ^ ^ ^ ^ ^ ^ ^ ^ ^ ^ ..^ H D r y y D H ^ ~ ~ ~ ^ ^ ^ ~ ~ ~ ^ ..^ ^ ^ ~ X.8.t.w.w.w.w.t.q.q.q.w.8.q.| y } ~ i } O.q.q.q.q.q.q.t.q.w.q.w.q.q.q.q.q.q.q.q.q.q.q.q.q.O.O.O.+.i i i w i 8.t.q.q.&.O.O. . . . . .@. . .@.@.O. . . .c n.Z.h.h.h.h.j.M.d.p.d.d.M.h.p.c.c.s.z.n.n.n.#.q 0 9 5 3 1 < < 8 * 1 0 0 G q q 0 - 8 0 = q = 0 0 0 0 0 7 , 1 3 N 0 , , = X X j Z.z.i.s.s.s.z.i.k.z.z.k.h s s s f h ( ( h f ( ",
"( ( ( ( ( ( ( ( # s h z.c.x.y.i.a.a.d.f.d.d.c.n.# = > m < > 3 , u u 9 , > > * * 0 , , q q # g Z.6XZ.d O ; 0 ; 0 0 7 = q q X # eXkX6Xc.p.d.d.d.d.a.a.a.p.d.j.j.j.j.h.m.c.n.#.*.e.w.r.v.+X@X+X@X@X@X+XB.B.B.B.e.q.p p k +.$.*.e.N.r.B.B.v.v.+X+X{.{.{.{.{.{.{.{.{.+Xr.t.t.t.t.t.t...H D 8 0 ^ ;.;.;.;.;.;.;.;.;.;.;.;.;.;.;.;.;.;.;.;.;.;.;.;.;.;.;.;.;.X.........8 ; ; D ~ ~ X.o.;.;.;.;.;.;.;.;.;.:.:.:.:.:.:.:.:.;.;.;.X.^ ~ ~ G D D y 2 2 2 ; ; 2 2 ; 8 8 8 y r r r r r r r r 0 0 0 0 0 0 0 y r r r r 0 r r 8 D r ; : y o.....^ ^ ^ ^ ~ } ..} ~ w.@X$X*X3XwX5X5X5X5X5X3X3X3X3X3X3Xq.w i ~ p i a } r.@XB.B.N.B.B.B.B.B.#X*X3X3XwX5X5X3X3X3X3X3X=X=X*X*X=X=XB.z | &.$X4X&X4X3X5X5X5X5X5X3X5X5X5X5X5X5X5X5X5X5X5X3X3X3X3X3X3X*XB.z | | c e.3X3X3X5X5X5X5X5X5X5X5X3X5X5X5X3X=X&X#X#X#X#X@X+X@X@X+Xy y y y 7 y u t ..X.X.........;.........^ ^ ^ ~ G H H H H ......H u D w : : : 2 : : ; y H H ;.;.;.;.;.;.;.;.;.:.9.9.9.9.9.9.9.9.;.;.;.;.;.;.;.;.^ D 8 8 G ..;.:.o.;.;.:.:.9.9.8.8.8.;.:.8.8.8.{.4X*X*X$X$X@X@X@X+X@X+X$Xq.w g } i +.r.$X$X$X$X$X$X$X$X$X#X#X#X#X#X@X@X@X@X@X@X@X@X#X#X#X@X@Xw.i i i w } r.+Xv.B.e.w.*.*.&.&.*.%.*.*.*.*.*.*.*.*.*.%.n.s.f.h.h.h.j.j.d.p.p.p.p.p.d.M.x.s.c.A.D.6Xz.# O O $ 4 m $ 6 5 $ 1 , ; G 0 q 0 0 9 9 8 r 0 q q q q q = , M 0 0 9 0 = 7 g g h n.z.s.s.s.k.k.i.k.i.k.k.h d d ( ( ( k.( f s s ",
"! ( ( ( ( ( ( ( # s h k.c.x.y.p.i.p.x.d.d.d.c.n.# q * 5 m 3 M 9 8 8 9 9 1 0 q q O # q q q # h n.n.n.q O - ; - 0 1 , = ; # X # D.kXD.c.a.d.M.M.d.a.a.s.d.d.j.j.g.h.h.c.s.n.*.&.&.&.&.w.e.e.e.e.e.e.r.r.e.e.w.&. . .c c x  .$.&.&.&.*.*.w.w.r.b.e.b.r.b.e.r.r.w.r.v.q.8.:.8.8.:...^ G G t G ^ X.;.;.;.;.;.;.;.;.;.o.o.o.o.;.o.o.o.o.o.o.o.o.o.o.o.o.;.;...~ H H H 8 ; 8 ^ ;.X.;.:.;.;.;.;.;.;.;.;.;.;.;.;.;.;.;.;.;.;.;.;.;.X.^ ^ H ~ H y ; 2 2 ; t H ^ ~ ^ ^ ^ ..^ ^ ^ ^ ^ ^ ^ ^ ^ ^ ^ X.X.......X.X.X.X.X.;.X.~ 0 r 8 : y o...~ X.X.X...| | o.O.| r.@X#X&X*X=X*X*X*X*X*X*X*X*X&X&X*X@.w } } p | | &.B.B.e.N.B.B.B.B.N.B.C.#X#X#X*X*X*X&X&X#X#X#XC.C.#XC.#X*Xe.p z  .#X@XV.@X#X&X&X*X&X*X*X&X&X&X*X*X*X*X*X*X*X*X&X&X&X=X*X&X#Xb.z x c z e.=X=X=X=X=X=X=X=X=X=X=X=X*X=X=X=X&X#XV.B.B.B.v.v.v.V.v.w i i y y t G H ..X.X.^ ......X.X.X.o.................~ ~ ....^ ^ H H y : : 2 w 2 : : 7 H D X.;.o.o.;.;.o.o.;.;.;.;.;.;.;.;.;.;.o.o.o.X.X.....;.:.~ 0 8 G ^ ..;.o.o.o.o.o.o.o.;.o.o.o.o.o.o.;.t.{.{.{.{.r.r.v.v.r.v.r.+X&.p | z i } q.w.e.B.B.v.v.B.B.B.B.B.v.v.B.v.v.v.B.B.B.v.B.v.v.v.r.B.r.| O.} a g w.q.@.&.&.&.%.%.x x v v v v v v x x x x x v n n s.m.m.g.h.h.d.d.s.p.a.a.x.c.d.a.f.m.S.D.s.# # O O 7 9 , < 1 1 0 q q / u q 0 D C - O X # = # q # # q = = , , 0 0 # #.&XZ.c.x.x.x.z.z.k.k.k.k.i.i.k.( d d ( ( ( k.( s d g ",
"q s ( ( ( ( ! s d ! h i.k.i.y.i.i.s.M.d.d.d.c.c.# d = , 3 , 4 3 * = , ; 0 / #.#.n.z.#./ d j j h h z.# O = & = 7 , 0 u / #.Z.Z.D.m.m.d.a.d.c.M.x.i.i.s.d.d.h.d.h.m.m.d.h *.*.%.$.&.&.&.%.$.&.&. .&.e.w.@.&. .z z *. .c c x $.$.x %.%.*.*.e.b.b.b.e.e.e.e.b.r.r.r.v.w.@.o.o.o.~ G y : G ^ ..X.^ ^ X.X.X.X.o.o.X.o.X.X.X.X.X.X.X.X.o.o.o.o.o.o.o.o.^ o.;.X.^ D r t 8 7 0 ^ ;.X.;.;.X.X.X.o.X.o.;.o.o.o.o.o.;.;.o.o.o.o.o.o.o.o.o.o.^ ..H y ; 2 8 ; H X.;.;.;.;.;.:.;.;.;.;.;.;.;.;.9.9.9.;.:.:.:.;.;.;.9.;.;.9.:...; 0 u u G t.r.t.t.t.t.r.t.r.r.v.8.b.v.v.b.b.b.b.b.b.b.b.B.V.B.v.v.&X@.a z z p &.@XB.B.C.N.C.C.C.C.B.B.B.B.B.B.C.C.C.C.C.C.C.C.C.C.C.C.C.C.#Xe.p z c B.B.v.V.V.B.v.B.B.B.B.B.B.B.v.B.B.B.B.B.B.B.B.v.B.@XV.B.V.e.l c c z *.#XV.B.V.V.V.V.B.B.B.B.V.V.V.V.V.b.b.b.b.b.b.b.b.b.b.v.p } H y t u u H o.:.;.X.;.;.o.o.X.X.X.X.X.o.o.o.o.o.o.....X.....:.o.o.~ t i u H w 2 : 7 D D X.X.o.o.;.o.o.o.o.o.o.o.o.;.;.;.;.o.o.;.o.o.o...X.:.8.^ 8 : r G ~ o.o.;.;.o.o.o.o.o.o.o.o.;.;.o.o.@.o.| o.o.| | | O.w.+X+X@XB.r.r.| p z | k  .@X@XB.v.v.B.B.B.B.B.B.v.v.v.v.v.B.v.v.v.v.v.b.e.v.B.r.@XO.@ i e.r.&.$.&.%.%.%.v v v v v v v v v v v v v %.n l n A.A.m.d.h.d.s.s.i.h h d.x.d.a.a.h.m.S.D.c.Z.#.q q , , < 8 7 # # # # # # # 7 ; O 7 g #.#.q h z.z.#.q q q q 0 = X #.6Xc.s.s.x.x.k.x.i.k.k.k.i.i.k.( d d ( ( ( ( ( s q q ",
"# d ( ( ( ( ( d d ! ( h i.i.y.k.i.s.M.d.h.h.M.m.j h q O , = = = & o = = q ) n.n.n.n.z.d j # j j j z.# O = % = = = q g z.z.6XkXA.f.d.d.s.d.d.M.d.i.h i.s.d.d.d.h.m.A.x.j %.*.%.%.*.%.%.%.%.%.%.x @.v.w.|  .z p c %.x x v x %.%.v x x %.&.*.w.w.w.b.b.b.b.b.b.v.v.b.w.8.@.o...~ G 8 ; H ;.;.;.X.X.o.o.o.o.o.o.o.o.o.o.o.o.;.o.;.;.o.o.o.o.X.X.o.o.o.;.;.X.^ D 8 8 8 8 y ..;.o.;.X.o.o.o.o.o.o.o.o.o.o.o.o.;.;.;.;.;.;.;.;.;.;.;.9.X.o...y ; ; 2 ; H X.;.X.o.o.o.o.;.o.;.;.o.o.o.o.X.X.X.o.o.;.o.o.o.o.o.o.o.;.o.~ r u G G G t.t.t.v.r.r.r.r.r.v.v.v.v.v.B.B.B.B.B.v.V.V.V.V.V.V.V.v.&X@.a z z i e.#Xe.N.B.N.B.B.B.B.B.B.C.C.C.C.C.C.C.C.C.C.C.C.C.C.C.V.C.C.#XN.k c c +XV.V.#X@XB.V.B.B.B.B.B.B.B.v.B.B.B.B.B.B.B.B.B.B.@XB.B.#XN.k c c z w.#XB.v.V.V.v.v.b.v.v.v.v.v.b.b.b.v.V.V.V.V.V.V.v.v.v.v.O.q.} w u u y H :.8.o.~ ..o.....o.o.o.o.o.o.o.o.o.o.X.o.o.o.o.o.o.o.o...H H i i y 2 : y H D ;.;.o.o.o.o.o.o.o.o.o.o.o.o.;.;.;.;.o.o.o.o.o...X.;.;.~ r 0 0 8 r ^ o.;.;.9.9.;.o.o.;.o.;.;.;.;.o.o.o.o.o.o.o.o.o.o.O.w.r.v.@X$X@X@.i z z w  .@X@X@X+XV.B.v.v.v.V.V.V.V.v.v.V.V.V.B.v.v.B.B.b.b.v.v.@X .a g &.*.*.%.%.%.%.%.v v v v v v v v v v v v x $.c c n Z.A.m.d.d.d.d.d.p.f f x.c.x.a.a.d.m.S.D.6XuXn.d # O O o O # # h h q #.n n # q q g V.Z.n.# h n.c.s.# q O O q q # z.Z.s.a.s.s.x.z.x.i.i.k.k.i.k.( f d d ( ( k.( ( s q q ",
"q s ( ( ( ( ( s s ( k.k.i.i.k.k.i.x.c.s.d.M.d.m.a.z.d # q # X X X X # # # h z.z.i.z.s.h h i.h h h z.# X # X # X X X j z.i.A.D.S.d.d.d.d.d.d.x.a.a.a.s.d.d.d.d.c.c.Z.n.g %.*.$.%.%.$.v %.%.%. .x @.B.w.c x z l %.$.%.*.%.x x v x $. .%.*.*.*.&.w.w.w.w.w.w.*.&.q.8.@.@.O.} ~ ~ G G r ~ o.^ ^ X.;.o.o.o.o.o.o.o.o.X.X.X.X.X.X.X.X.o.o.o.o.o.o.o.o.X...^ ^ ^ D 8 8 r y t X.;.;.;.X.o.o.X.X.o.o.o.o.o.o.o.o.X.X.X.X.o.o.X.X.X.o.;.;.H ^ H 8 ; r D r ~ ;.;.X.;.;.o.;.o.o.;.;.;.o.o.o.;.;.;.;.;.;.;.;.o.;.9.;.;.8.;.^ 0 7 G ~ X.r.w.r.r.v.r.r.r.r.v.v.+Xv.b.v.v.b.B.V.v.V.V.b.v.V.V.V.+X$XO.w } | i e.#XN.C.C.B.C.C.B.C.B.C.C.C.B.B.B.C.B.C.B.B.C.B.B.C.C.C.C.B.#Xe.p z c @X@Xv.B.v.v.V.V.V.B.B.B.B.B.B.B.B.B.B.B.B.B.B.B.@X+XB.+X#Xe.z  .z z &.V.B.@XV.V.V.v.v.v.v.v.v.v.v.v.B.V.V.V.v.v.v.v.v.v.+Xv.v.+XO.w p u w ~ q.q.o.~ ~ o.o.o.o.o.o.o.o.X.X.X.o.X.X.o.o.o.X.X.o.X.o...~ H D u y w : w D t X.;.o.o.o.;.o.o.;.;.o.o.o.o.;.;.;.o.o.o.o.o.o.X.^ X.o.X.^ ^ ~ 0 8 ~ ~ ^ X.;.;.o.o.o.;.X.o.o.o.;.8.o.o.o.o.o.o.o.O.O.| o.O.@.q.B.+Xw.e.&.z a | e.w.v.@XV.v.v.v.v.v.v.V.b.v.v.v.V.v.V.v.b.b.v.b.b.b.b.b.e.@.@.z p c &.%. .$.v v v v v v v v v v v v v  .$.c l n Z.A.m.a.d.d.d.d.x.h h x.x.x.p.d.d.f.f.f.A.D.i.j j # q # # # j n.s.j n.c.n.# # # # n.n.n.j s.c.c.x.j d g d d d d z.m.x.s.x.i.z.z.z.k.k.k.k.k.k.( ! d d f ( k.( ( ! q = ",
"q d #.( ( ( ( k.( f f k.k.k.k.i.i.i.i.i.s.s.a.d.d.z.z.h h z.Z.6XD.D.D.D.kXs.j h j j D.D.D.D.D.d.a.s.i.s.D.6XD.D.D.6Xs.a.d.d.h.h.d.d.d.d.d.d.d.d.d.c.d.d.d.d.c.s.j g c x  .x z k z c x $.%.%.x  .*.w.&. .c x c x $.v $.$.%.%.v v v x $.*.*.*.*.*.*.*. . . .x  .x |  .| O.o.u u ^ ;.o.X...X.X.X.X.o.o.o.o.o.o.o.o.o.o.o.o.o.X.X.^ X.X.X.o.o.X.o.;.o.o.X.^ ^ H y : 0 r H X.o.o.o.o.;.;.;.X.X.;.o.^ o.o.o.;.;.;.;.;.;.X.o.;.X.o.;.o.0 : 8 8 ; H ;.X.X.X.o.;.o.o.o.;.;.;.;.o.o.o.o.;.o.o.o.o.o.o.o.o.o.o.o.;.;.9.9.~ 0 y 8.r.q.t.w.w.r.w.e.r.r.b.v.v.v.v.v.v.v.v.v.B.v.B.B.V.V.V.V.@X+X$XO.w } z z e.#XC.C.C.B.B.B.B.C.C.B.B.B.C.C.C.B.B.B.B.B.C.C.C.C.C.C.B.B.#Xe.i c c +X@XB.+X+X+X+XB.B.B.v.v.+X+XB.v.B.B.B.B.B.B.+X+X+X+X+X+X+X+XB.B.z p &.#XB.B.B.B.v.b.v.v.v.V.V.v.b.v.b.b.v.v.v.v.v.v.v.v.v.B.B.#X| + p y w } r.q.@.q.w.v.{.v.o.o.o.o.o.o.o.o.o.o.o.o.o.o.o.o.o.o.o.X.o...D 2 D t D i y H o.X.o.o.o.o.o.o.o.o.o.o.o.o.o.o.;.o.o.o.o.o.o.X...o.o.:.:.X.H y 8 8 7 ^ 9.;.o.;.o.o.o.o.o.o.o.o.o.o.o.;.;.;.;.o.o.o.O.O.o.O.q.v.+Xv.B.e.i w p w + w.+XB.v.v.v.B.v.b.V.V.v.v.v.v.v.v.v.v.v.v.v.v.b.b.@.&.e.&.p a z %.%.$.v x v %.v v v %.%.v x x x $. .c | g n Z.D.A.a.d.d.d.d.x.x.x.d.x.d.d.d.d.p.a.f.A.m.s.a.i.D.D.A.c.c.x.c.s.j d.c.c.# # j j x.c.d.c.c.d.c.x.z.z.z.z.n.z.z.n.n.x.s.z.z.z.z.k.k.k.i.k.k.k.( ( ( ( ( k.k.( ( s = 7 ",
"q q ( ( ( k.k.( ( f f ( k.k.k.k.i.i.i.i.x.s.s.d.s.s.s.i.i.c.D.D.S.F.F.D.kXs.h k.j j D.S.S.S.D.f.a.d.d.d.D.D.D.D.D.6Xd.s.d.d.f.d.d.d.d.p.d.d.p.c.d.x.d.d.d.d.x.h g p z x  .c z z c c  .%.%.$.x x  . .x z c x c x %.%.v v %.%.%.%.%.v $.%.%.%.%.%.$.%. . . . .%. .| O.| O.o.u u ^ o.X.X.X.X.X.X./ o.o.o.o.o.o.o.o.X.X.o.;.;.;.;.;.o.o.;.;.;.o.o.o.o.o...H r y 8 ; t u H ..X.;.;.;.o.;.;.o.o.;.o.X.X.X.X.X.X.X.X.X.;.o.;.;.;.;.9.;.G r y ; : u ....;.o.o.;.;.o.;.;.;.;.;.;.;.;.;.;.;.o.;.;.;.;.;.;.o.o.;.9.9.9.9.^ 7 w O.t.q.w.w.w.r.e.e.e.r.b.v.v.v.v.v.v.v.v.v.v.v.B.B.V.V.V.V.@X+X$XO.w z z c e.#XC.C.C.B.B.B.B.C.C.C.B.B.C.C.C.C.C.C.C.C.C.C.C.C.C.C.C.C.#Xe.i c c +X@X+X+X+X+X+XB.+X@X+X+X+X+X+X+X+X+X+X+X+X+X+X+X+X+X+X+X+X+XB.B.z p &.#XB.V.B.V.B.B.V.v.v.V.V.V.b.b.b.b.b.v.v.v.v.v.v.B.B.V.B.B.| p } p a i e.q.w.e.v.B.v.r.o.o.o.o.o.o.o.;.o.;.;.;.;.;.;.;.;.;.o.o.o.X.H y H t D t 7 t ....o.o.o.o.;.;.;.;.;.;.;.;.o.;.;.o.o.;.o.o.o.o.X.o...~ ~ ~ u y y 8 8 ~ o.o.;.;.o.o.o.o.o.o.o.o.;.o.;.;.9.9.;.;.o.o.o.8.@.@.w.v.v.v.v.q.} } } y 7 t.@X@XB.B.B.v.v.v.V.V.v.v.v.v.v.v.v.v.v.v.v.v.b.b.|  .e.q.i w z &. .%.%.v v v v v v v v x v x x x  .z | z c #.z.s.d.d.d.d.d.d.x.x.x.d.d.d.d.d.d.p.f.m.m.d.a.s.A.S.m.h.m.c.c.f.a.d.h.c.s.s.s.i.s.d.d.c.d.d.c.x.s.z.z.z.z.z.z.x.n.z.k.k.k.k.k.k.k.( k.k.k.k.( ( ( ( ( k.k.( ( ! = 8 ",
"q d ( ( ( ( ( ( ( f f ( k.k.i.k.i.i.i.i.x.d.p.d.d.d.s.i.h i.i.i.d.m.A.A.A.s.j h j j A.g.g.g.S.f.a.d.d.d.m.m.c.c.c.c.s.d.M.h.h.M.d.M.d.s.x.s.j i.x.x.d.d.p.d.d.s.c z z x  .c z c c c x $.$.x x c x c c c x x c x v v v v %.%.%.%.%.v %.%.$.$.%.%.x  .x x x x  .c | O.} ~ ~ y r ^ o.o.X.X...^ ^ X.X.X.X.X.X.X.X.X.X.X.X.X.X.X.X.X.X.X.o.;.X.^ ^ ^ ^ ^ ~ y : 8 t t t t t G H ~ ~ ~ ^ X.o.o.X.X.X.X.o.o.;.o.o.o.o.o.X.^ X.o.X.o.;.;...D r 2 & t ..~ ..^ ^ X.o.o.X.X.X.X.;.X.X.X.X.X.X.X.X.o.o.o.;.o.o.o.;.9.^ ~ ~ u 0 y 8.r.w.v.r.r.w.w.w.w.w.b.b.v.v.v.v.v.v.v.v.v.v.v.v.v.v.v.B.+XB.$XO.+ z z z N.#XB.C.C.B.B.B.B.B.B.B.B.B.B.B.B.B.B.B.B.B.B.B.B.C.C.C.C.C.#Xe.p c x @X+X@X+X+X+Xv.b.b.B.v.v.v.v.B.B.B.B.B.B.B.B.B.B.B.B.B.B.+XB.B.B.z p %.V.B.B.b.B.B.B.v.v.b.b.v.v.v.b.v.v.v.v.b.b.b.b.v.v.v.B.V.@Xr.v.+X+.p +.q.&.w.b.v.v.w.8./ X.X.X.X.X.X.o.X.X.X.o.o.;.;.o.X.X.^ ^ ..^ H r D t t y ; 8 H ^ o.o.o.o.o.o.o.o.o.;.;.o.o.o.o.X.X.;.o.;.;.;.o.o...D u u u t r y 8 D ~ ^ o.;.o.;.o.o.o.o.o.o.o.o.o.o.;.;.o.o.o.X.^ o.o.o.@.8.@.@.@.| i } } t w O.q.q.w.b.v.v.v.v.v.v.v.v.b.b.b.b.b.b.b.b.v.v.v.b.|  .w.q.z i z  .z x v x x x x v $.$.x x  .c z z +.p z | z g g n A.d.d.d.d.d.x.x.z.h i.x.d.d.d.d.f.h.m.d.s.s.d.d.d.f.d.d.d.d.d.d.d.d.x.s.z.x.s.d.d.d.d.d.c.x.s.z.z.z.z.z.k.z.z.k.k.k.k.k.k.k.k.( k.k.( ( ( ( ( ( ( k.( ! ) ! = 0 ",
"q u ) ) ( ( ( ( ( f s h ( k.k.k.i.i.i.i.x.d.p.d.d.p.p.i.i.f f j d.d.f.f.M.i.h h j a.S.S.S.S.S.f.p.d.d.d.f.f.f.a.j a.a.s.M.M.h.M.d.p.p.x.x.z.j i.x.d.d.d.d.x.c.n.c p p z z z z z z z c x  .x  . .c c c x  .x z c %.%.v v %.%.%.%.v v v %.%.%.v v x x x x  . . . .| O.i y u y r ^ 9.;.;.o.X.o.;.;.o.o.o.o.o.X.o.o.;.;.;.X.o.X.o.o.X.X.o.o.X.~ G G G H G 7 ; y D D u t t u D G u t ^ o.;.;.;.;.;.;.o.o.X.X.X.X.X.X.o.o.;.;.;.;.9.9.X.D y 8 ; t H H H H ~ ..;.;.:.:.;.;.;.;.;.;.;.;.;.;.;.;.;.;.;.;.9.;.:.9.^ r 0 0 r u 8.t.w.r.r.r.r.r.b.b.b.v.v.v.{.{.{.v.{.v.v.{.{.+X+X+X+X+X+X+X@X$X8.w }  .} B.#XV.C.@XB.B.B.B.B.B.B.B.B.V.V.V.C.B.B.B.B.B.V.V.#XC.#XC.#X#Xe.z c  .V.+X+XB.v.v.+Xv.B.@X@X+X@X+X+XB.B.B.B.B.B.B.+XB.+X+X+X+X+X+XB.r.z p  .e.w.e.v.v.v.B.V.B.v.v.V.V.v.v.V.V.B.B.v.v.v.v.B.B.@X@Xv.B.B.$X+Xi + i e.w.e.B.v.+X{.r.o.o.o.;.o.o.;.;.;.o.;.;.;.;.;.;.^ ^ ~ H ~ ~ H D D y y y & : D ^ ;.;.;.;.;.;.;.;.;.;.;.;.;.;.o.X...X.o.X.o.X.......i y t u t r y t D G H o.:.o.;.;.o.o.o.o.o.o.;.o.;.;.;.;.;.;.o.o.9.8.9.8.o.o.o.o.O.~ } H t 7 H i ~ O.r.v.+X+X+X{.{.{.v.v.v.v.v.@X{.v.v.v.b.w.w.O.| @.&. .| z p p z x x v v v %.%. .c c | z i p i p g | g p w n Z.x.d.d.s.p.x.x.z.j h x.x.p.p.d.h.j.M.d.s.s.h h s.d.d.d.d.d.d.d.d.d.x.i.i.s.a.d.d.d.d.s.x.x.z.z.z.k.k.z.k.k.z.k.k.k.k.k.k.k.( ( ( h f f ( ( ( ( ( ( ( s d 0 = 8 ",
"= q q d ( ( ( ( ( f s f s h k.( k.k.h k.k.k.p.d.s.p.p.s.i.h f h x.d.d.d.x.d.i.i.i.s.S.S.g.g.m.f.d.d.d.d.d.d.c.s.h i.s.x.M.M.M.M.M.p.s.z.h i.h h z.p.d.d.d.c.c.n.g p p p i c  .+.z c |  . .x x  .c c x c c c k c %.%.$.v v v v v v v v v v v v x x c x c z z +.+.} } u 7 y r t ~ ..X.o.X.o.X.o.o.X.X.^ X.^ X.X.X.^ ^ ^ X.X.X.o.;.;.;.;.;.X.~ H G H H D ; ; e t r e t t D D D D r ~ ..;.;.X.o.o.X.;.;.;.;.;.;.;.;.X.o.;.o.o.;.;.:...t 8 2 ; y D t D u G ~ ..X.X.X.;.;.;.;.;.;.;.;.;.;.;.;.;.;.;.;.;.;.;.:.^ r r r r u 8.t.r.{.v.{.v.v.v.v.v.v.v.v.v.v.v.v.v.v.v.v.{.{.{.{.{.{.+X@X{.+XO.w }  .} e.#X+X+X@XB.B.B.B.+X+X+X+XB.@X@X@XV.B.B.@X@X+X@X@X@XB.B.+X+X@Xe.z z | B.B.@X@X@X@Xv.e.e.v.v.v.{.{.{.+X+X+X+X+X+X+X+X+X+X+X+X+X+X+X+Xv.} g O.r.q.e.v.v.v.{.v.v.{.{.v.v.v.v.{.v.{.{.{.{.{.{.{.+X+X+X+X+X+X$X+X| i +.e.q.e.v.r.r.v.t.o.;.;.;.;.o.;.;.;.o.X.o.;.;.;.;.^ ~ H H H H H D H t r y - ; D ^ ..X.X.X.o.o.o.o.o.;.;.;.;.;.X...;.:.:.X.......H ~ t y t t y y r u D r u X.o...X.o.o.o.o.X.o.o.o.X.X.X.X.X.o.o.o.o.;.;.;.;.X...o.o.:.~ H D y : H D ~ @.r.v.v.b.v.v.v.v.v.v.v.{.{.v.v.v.{.v.v.w.q.| } O.O.+.| k p i z  . .$.$.$.&.%. .c z c z z i p i z z i p p g z.s.d.s.i.s.x.z.i.j h z.z.s.d.j.M.M.M.d.s.s.h h a.d.d.d.d.d.d.d.d.h.x.d.s.s.d.d.s.d.d.s.x.x.z.z.z.k.k.z.k.k.k.k.i.k.k.k.h h ( ( ( ! d d f ( ( ( ( ( ) q q 0 ; 0 ",
", 7 q q ) ( ( ( ( ( ( s # f k.h ( k.( k.k.i.i.s.s.s.s.i.i.h f h x.d.d.p.d.d.s.p.x.d.d.f.f.f.d.d.d.d.d.d.d.d.c.i.h i.i.i.p.p.p.d.p.i.z.k.j h z.k.z.i.d.d.d.s.s.n l p k p k  .&. .} } | x c c c c  . . .z z k p z c c c c c x v v v %.v v v v x x x x $.z a + w t i u y 7 y t r G H ~ ..o.o.o.X.^ X.X.X.X.X.X.X.X.^ ^ ^ ^ ^ ^ ^ ^ ^ ^ ^ X.^ ~ H H ^ ~ D ; ; e r e y t D D D D D e H ~ ^ ^ ^ ^ ^ ^ ~ ~ ~ ~ ~ ~ ~ ~ ~ ^ ^ ~ ^ ^ ^ X.H e ; 8 2 y e 2 8 ; ; 8 r r r r ~ ~ ^ ^ ^ ^ ^ ^ ^ ^ ^ ^ ^ ^ ^ ^ ^ ^ ^ ;.^ r r t H D :.8.:.8.X.o.o.o.o.o.o.o.O.O.O.O.O.O.O.O.O.O.@.@.@.@.@.@.8.8.O.O.H : i +.+.q.q.8.8.q.8.@.@.@.O.O.O.O.@.@.@.@.@.@.@.@.@.8.8.8.w.q.w.w.w.w.O.p i } w.q.w.8.8.8.8.| | O.8.8.8.8.8.8.8.8.8.8.8.8.8.8.8.q.q.q.q.q.q.8.i p } @.| @.@.@.8.@.@.@.@.@.@.@.@.@.@.8.@.@.8.8.8.8.8.8.8.8.8.8.O.q.q.} u i i g @.v.r.t.t.;.^ ^ ^ ^ ^ ^ ^ ^ ^ ^ ~ ^ ^ ^ ^ ~ ^ ~ H H H H H H H D D r ; 2 D ~ ~ ~ ~ ^ ^ ^ ^ ....X.X.o.X.o.....^ ^ ~ D t y y 2 u y t t t e t D e r : 8 ^ o...o.o.o.o.o.X.X.o.o.....^ ^ ^ ^ ^ ^ ^ ^ ^ ^ ..^ ^ X.o.o.D H D r y ..H ~ o.@.@.| | O.| o.o.| o.o.O.o.| | o.O.;.O.O.o.} | q.O.i i i p p i i i z z k k z k p i z | +.} i k z k i i g g h i.s.s.s.s.x.z.k.( z.h h i.p.d.d.d.d.p.s.x.i.i.i.x.d.d.d.d.d.d.d.d.d.d.d.p.x.x.x.x.d.s.x.z.z.z.k.( ( k.( ( k.k.( k.k.k.h h ( ( ( ) d d s ( ( ( ( ( ) q = 0 ; 0 ",
"1 9 q q ) ! ( k.( ( ( s d s ( ( ( ( k.k.k.i.i.i.i.s.s.s.i.i.h i.k.p.x.d.d.d.d.d.d.d.d.d.d.p.d.d.d.d.d.d.x.d.c.i.i.h k.i.i.i.i.i.i.i.i.k.h i.z.k.x.p.x.x.s.s.n l g p p p p c  .+.k z z c c z z z &.&. .k i k i z k i i k c c x v  .$.v x v x x c c |  .z a + w y y 2 y y 8 e y r D H ..X.;.X...^ X.X.X.X.......X.....X...^ ^ ~ ~ H H H ~ ~ H H H H H r 2 2 e r y S D D D D D D r H H H H H H ~ H ~ ~ ~ ~ ~ H ~ ~ G ~ ~ G H H H ^ D 2 ; e e y y ; y 2 ; 8 8 7 8 8 F G H H H H H H H H H H H H ~ ~ ~ ~ H ^ ~ t r D H H :.:.:.8.;.9.o.o.o.o.o.o.o.o.o.o.o.O.o.O.o.o.o.o.o.o.o.:.8.8...H u w i O.o.:.8.8.8.8.8.8.@.@.O.O.O.O.O.O.@.@.O.O.O.O.O.O.O.O.O.O.O.O.O.O...y u i 8.8.8.8.8.8.o.~ ~ o.o.;.:.:.9.9.9.9.8.8.8.8.8.8.8.8.8.8.8.8.8.8.H ~ } O.| O.O.O.O.8.o.O.O.O.o.;.;.;.8.8.8.8.8.8.9.9.9.9.8.8.8.q.:.8.q...H t w y O.{.{.{._.9.H H H ~ ~ H ~ ~ ~ H H H H H H G ~ ~ ~ H U H H ~ D H H t ; 8 D H H ~ ~ ~ ~ ^ ^ ^ ^ ^ ......X.X...^ H H D t y y y t t t t e 2 y t y t ; 8 ^ ;...o.o.o.o.X.X...X.X.....^ ^ ^ ^ ^ ^ X.^ ~ ..;.X...X.o.o.H ..D e t H y y i } g p p g | | | o.o.o.o.o.o.O.o.O.o.o.o.O.} | @. .p i i i p p p w p p p p p p p i z | O.} i i z +.z i g g g n s.s.s.s.s.z.i.k.k.f f k.s.s.a.p.i.i.k.z.i.h i.x.d.d.d.d.d.d.d.d.d.p.a.a.d.x.x.x.x.s.z.z.z.z.k.( ( ( ( ( ( ( k.k.k.( h h ( ( ) ) s d s ( ( ( ( ( / q = 8 1 8 ",
"4 1 = q ) ( ( ( k.( ( s d s ( ( ( ( k.k.k.h h i.i.s.s.x.s.i.f h k.i.c.d.d.d.d.p.d.p.d.d.d.d.d.d.d.d.d.d.x.x.c.i.i.h k.i.i.z.k.k.i.z.f i.k.k.k.i.x.p.x.c.s.s.n x x c c c z c  .z p p z c c c c c  .O.+.i i } i i z k k z c c x  .z c c c x x z z z z +.k w w y y y ; t t 2 y r t y t G H G D G D D G G D D D D D D G D G D G t r r r G G H G H ~ r 0 8 ; ; 8 8 2 ; 2 2 ; ; e e r t t t r t t t r r t r r r 0 0 0 0 D t r r r t D r ; ; e t y y y y 8 8 8 8 8 0 r 9 r D D D D t t t t t t t t u D t u t H H r r t D D ....^ ~ G ~ ~ ~ ~ ~ H H ~ ~ ~ ~ ~ ~ ~ ~ ~ ~ ~ ~ ~ ~ ~ ~ ..X.o.H i w i o.} ....~ ^ ..} ~ } } | | | | | | o.O.| | } } } } ....o...o.o...o.} y y u o...o.^ ..^ ..H G ~ ..^ ^ ~ ^ ~ ^ ^ ~ ~ ~ ~ ^ ~ } } } } ..} | | u u ~ } H } i i ~ ^ ~ ~ ~ ~ ~ ~ ~ ~ ~ ~ ^ ^ ....^ ^ ^ ........o...o...~ H u i u | q.8.;.:.X.0 r t t t t D D G t r t Z D r r r r r r r r r r r D D y ; 8 t D D G D G D D D D D G D G H H H H D y e y 7 ; y y y t t y : & : : e t ; & t H r G G G G G u u G G G G G G G G D G H D t D H H u G D H D D ; y t y 7 w i } } i i z } } } } ~ ~ ~ ~ ~ ^ ^ ~ ~ ~ ..X.} g } z i } +.z z z z k z c c c z z c z k | } i k p z $. .p p z n n n s.s.s.i.k.k.k.k.h h z.z.z.p.x.i.i.i.k.h i.i.x.x.d.d.d.d.d.d.d.d.d.d.d.x.c.x.x.z.s.k.k.k.k.k.k.k.k.( k.k.k.k.( ( ( f ( ( ( ! ! d d s ( ( ( ) ) / 7 = 8 1 1 ",
"< - ; 7 q q s ( f ( ( ( ( / d d ( ( ( h h k.k.h h z.x.x.z.h f h i.i.i.x.d.p.d.d.d.d.d.p.d.d.d.d.d.d.d.d.x.x.x.i.i.k.k.h h k.k.i.z.h j i.z.i.i.i.p.s.d.x.s.n n v x $.$.v  . . .c p p c $.$.$.$.x p p p k i i i i i p i i p z  . .p c  .$. .k w a w a + + a w y y 8 8 y y y y 2 : 2 ; : : ; ; 7 ; ; ; - & & & ; & & & & & & & & & ; 8 8 D G D D t : ; ; ; ; ; ; ; ; ; ; ; ; ; ; 8 ; ; - - - - - ; ; ; - - ; ; ; ; ; = ; & ; ; & 8 2 2 8 8 8 y y 8 0 8 8 8 0 0 0 8 - - - - ; ; ; ; ; ; ; ; ; ; : ; & : : y 8 t r y y y r y 7 7 7 7 7 7 7 7 7 7 7 7 7 7 7 7 7 7 7 7 7 7 + 7 7 7 y y y u t y t t y : 8 ; 7 w w w w i } z z g g g i i i } | } p w 7 7 w w w 7 O : y D y 7 r 7 7 7 7 7 0 u u u u 0 7 7 7 7 0 7 7 7 7 7 7 y u y w w y u w i y i y y y w u 7 w y 7 7 7 7 7 7 7 w w u u H y y y y y y w 7 y 7 y y y i u H H i u t 7 0 = 8 : ; : : ; : ; ; ; ; ; ; ; ; ; ; ; ; ; ; ; ; ; ; - ; ; 7 8 8 2 8 2 ; - ; ; = ; ; ; ; ; ; ; ; ; ; ; ; ; ; ; ; : : ; y y 8 ; : ; ; ; & ; ; - & & & 8 & = - & = 7 ; ; ; ; ; ; ; ; ; ; 2 8 8 ; : 8 8 8 8 8 t r r D y 7 y H } } z i z i w w w 7 7 7 7 y 7 7 7 7 7 7 w u y w p | &.%.$.%.%.%.$.$.%.%.$.$.$.$.x z i z i p k c  .x x x x n n n z.n.s.i.i.i.k.k.f j i.z.z.i.z.k.k.k.k.i.i.i.x.x.d.d.d.d.d.d.d.d.d.x.x.s.i.z.z.z.z.z.z.k.z.( ( ( k.k.k.k.k.k.( h f ( ( ( ) d ! ( ( ( ( ( ( q q 7 7 1 1 ; ; ",
"1 ; ; ; 7 q s ( ( ( ( ( ( / q q h h ( ( h k.k.h i.k.z.z.z.i.h ( k.i.i.x.x.d.d.d.p.d.d.p.d.d.d.d.d.d.d.x.x.x.x.k.h k.k.h h k.k.h ( h f h k.i.i.i.s.s.x.c.s.n x c x v v x x x x c z k c x x x $.x p p p k i p p p p p p p p z c c p z c c c k p w w w w w w y y y e e r y y y y 2 : ; : : 7 ; ; ; ; ; ; ; & & = & = = : & & ; ; = = : ; t G t r ; & & = = = & & & & & & & & & = ; = = & & = = = = ; ; ; ; - - = ; ; = ; - ; ; & ; ; ; ; 8 : : : & 7 7 7 7 7 7 7 7 = = = = = = = = = = & & & & & = 7 7 + : 2 t w w 7 7 7 7 7 : + O O O O O O O O O O O O O O O O O O O O + + O : + w u i t t y y i y w 2 7 7 7 w i i i p p p p p p p p p p a + + + O O + + + 7 w : y w y 7 w 7 7 + + 7 7 7 7 + + + + + + + O O + + + + 7 + + + + 7 + w 7 p w w w w w 7 7 w 7 + + + + + + + + + 7 w 7 7 : + 7 7 w w w 7 w 7 w y w y i i u w : y : : : : : : : ; ; - - ; = = = = = & = & & & & & & & - - ; ; ; ; ; * ; 2 ; ; ; ; ; ; ; ; - ; - - & = & & & & & & & & O O & & O O % o ; & & - ; ; ; 2 ; & ; ; : : ; & ; ; ; ; ; ; ; : 8 : ; : : : : : ; - & ; & & ; & 7 y H } } } z i p w w 7 + 7 + + + + + + + + + + + : a w z  .v v v %.v v v v v v x x v x z z z i z z  .$.v x v v x x n #.z.s.s.z.i.i.k.h h h h h z.z.k.k.k.k.i.i.k.x.x.x.x.d.x.x.d.d.d.d.x.x.s.i.z.z.z.z.z.k.k.k.( ( ( ( k.k.k.k.( ( ( s ( ( ( ) d s ( ( ( ( ( ) q q 7 ; 1 ; ; ; ",
"1 1 - - : 7 u / ) s ) ) ( ) d d s s h ( ( h k.k.k.k.i.k.k.k.( ( ( h i.z.z.s.p.a.i.p.d.d.d.d.d.d.d.p.p.p.i.i.k.i.h i.k.h h k.k.h h h h h k.k.k.h h h n n n n v %.x v v x x x x x x c x v x v $.v x x  .$.$. . . . . . . .x v %.$.c  . . . .+.} } } } H i u y y y r t t t t t t i i i H H G r 0 r 8 0 G ~ H ~ ~ ~ ~ ^ ^ ^ ^ ^ ^ ^ ^ ~ H H H r r 0 D G H H H H H H H H H ~ ~ H ~ ~ ~ ~ ~ ~ ~ ~ ~ ~ ^ ^ ^ ^ ^ ^ ^ ^ ^ ~ ~ ~ ~ G 8 8 G G H ^ ^ ^ ^ ~ ~ ~ ~ ~ ^ ^ ^ ^ ....^ ^ ....^ ^ ^ ^ ^ ^ ^ ^ ^ ....~ 7 w y H y i H ~ o.q.r.v.v.v.r.r.r.r.r.r.r.r.r.r.r.r.r.r.r.r.t.w.t.r.q.8.q...w y u u u u } t.t.t.q.w.q.w.r.@XB.B.B.B.b.b.B.b.B.C.B.b.e.e.r.b.b.r.v.r.e.r.O.i i i ~ } r.v.v.v.b.v.v.v.v.v.v.v.v.v.r.v.v.v.v.r.r.b.v.r.r.r.r.v.r.q.g i p i i O.q.@.w.v.v.v.v.r.b.r.r.r.r.b.b.b.v.r.w.q.&.&.q.w.q.q.w.w.q.&.| i i k k p w O.O.} ~ ~ ^ ^ ^ ^ ^ ^ X.X.X.X.........^ ^ ^ ^ ^ ^ ^ ^ ^ ^ ^ G 8 8 8 8 8 H ^ ~ ~ ^ ~ ~ ~ ~ ^ ^ ~ ~ ~ ~ ~ H H H H H H H H H H H H H H H u r : & 7 y y y 2 8 D H H G H G ~ ~ ~ ~ ~ ~ H H H H H ~ ~ ~ ^ ~ ^ ^ ^ ..~ ~ X.} ~ ~ u i i i +.z z | O.| o.@.O.O.8.8.8.8.q.8.8.8.8.q.&.&.%.%.%.%.v v v v v v v v $.v $.$.x x  .| c  . .$.v x x v v x x n n n h i.i.i.i.k.z.h d d k.k.k.k.k.i.h h i.i.i.i.k.i.p.p.x.d.p.p.p.z.k.i.i.k.k.k.k.k.( ( ( ( ( k.k.k.( ( f h ( ( ) ! s ! s ! ( ( ) ) s / = 7 ; 1 ; ; ; ; ",
"- - - 2 - : 7 q q q s / s ) ) ( d d s ( ( h k.k.k.i.i.i.k.( ( ( k.h i.z.z.z.i.i.i.p.d.d.d.d.d.x.d.p.z.k.i.i.i.i.k.k.k.h h ( ( h d ( z.k.h h ( #.#.n n n b b c x v v v x x x x x $.x x v v v $.v %.%.%.%.%.%.%.%.%.%.*.*.%.%.%.%.&.&.&.&.&.&.@.O.8.:...H D y y y 8 8 8 y y y t H ..} ....H 0 7 0 7 0 ~ o.;.;.;.;.;.9.9.9.9.9.9.9.9.:.;.;.H 7 8 G ^ ..;.;.;.;.;.;.;.:.:.9.9.;.;.9.:.:.:.:.9.9.9.9.9.9.9.9.9.9.9.9.9.:.:.:.X.H 8 7 H H ^ o.;.;.9.9.8.9.9.9.9.9.8.9.9.9.9.9.9.9.9.9.9.8.8.8.9.8.9.8.8.:.y w i _ p } i } @.v.*X5XwXwX5X5X5X5X5X5X5X5X5X5X5X5X5X5X5X5X3X3X3X3X4X$X$Xw.p p p u i i | +X$X$X#X#X#X&X=X5XwXwXwXwXwXwXwXwXwXwXwXwXwXwXwXwXwXwXwX5X3X=Xr.p i z | &.3XwX5X5X5X5XwXwXwXwXwXwXwXwXwXwXwXwXwXwX0X0X0X0XwXwXwXwXxX*X| p p i z &.#XB.&X5X5X5X5X5X5X5X5X5X5X5X5X5X5X5X3X*X#XV.V.@X@X#X$X#X@Xr.O.z i k z i i v.$X{.9.9.9.8.8.9.8.9.9.9.9.9.9.9.9.9.9.9.9.9.9.9.9.9.9.9.9.^ 7 ; 8 8 8 X.0.9.:.;.;.:.9.9.9.:.:.:.9.:.;.;.;.;.;.;.;.;.;.;.;.;.;.;.;.X.^ ^ 8 & 8 8 2 y 8 e ~ ;.:.;.:.;.:.:.9.9.9.9.:.;.t.t._._.r.t.r.r.{.{.%X$X$X@X$X%X%X+XO.g z z  .c v.#X4X$X$X4X$X$X$X$X#X&X&X&X&X&X$X4X#XB.*.%.v v v v v v v v v v x x v v x x  .x c x x x x x x x v v x n n n n h z.z.h ( z.h d d z.k.k.z.k.k.i.h h f f i.k.k.k.k.x.x.p.p.p.z.k.k.k.k.k.k.k.( ( ( ( k.( k.( ( ( h d s ( ( ) q # s ( ! ( ! d q = = ; ; ; ; ; ; ; ; ",
"- - - 2 2 ; & = 7 q d d q s ) ) s d d ( ( ( k.k.k.k.k.k.k.( ( ( ( h i.k.k.k.k.i.i.i.z.x.x.x.x.x.k.k.z.z.k.i.h h k.k.k.h h ( h s h ( #.( h h g | z z x v v v x v v v v x x v v v x x x v x v v v v v v v v v v v v v %.%.%.%.%. .&.@.O.O.O.O.O.O.O.o.} i t y w y y t t t t y y H } H ~ ~ D 0 7 r 0 u / X.^ ^ X.^ X.o.;.o.o.;.;.;.;.X.X...H : 7 ~ ~ ^ X.X.X.X.X.o.o.o.;.;.;.o.o.o.o.o.o.;.;.;.;.;.o.o.o.o.o.o.o.;.o.X.X.X.^ G 0 7 ~ ~ ^ o.o.o.o.o.;.o.o.o.;.;.;.;.;.;.;.;.;.;.;.;.;.;.;.;.;.o.;.o.:.o.w + p i p z z z O.e.V.&X*X&X&X&X&X&X&X&X&X&X&X&X&X&X&X&X&X&X&X#X&X&X+X@X@X&.w a p i i i } e.v.v.v.v.v.V.#X*X*X=X=X=X=X=X=X=X*X&X&X&X*X*X*X&X&X&X*X&X&X&Xe.p p z z  .&X*X&X&X&X&X*X*X=X*X=X=X=X=X=X=X=X=X=X=X=X=X=X=X=X=X=X=X3XV.c p k i p &.B.b.V.&X*X*X*X=X&X&X&X=X=X*X*X&X=X*X&X@Xb.b.b.b.V.v.v.v.v.r.&.z p i k i i B.$X{.o.o.o.;.;.;.;.;.;.;.;.;.o.o.;.;.;.;.;.;.;.;.;.;.:.;.9.^ y y 8 8 8 ..9.;.;.;.;.;.;.;.;.;.;.;.;.;.o.o.o.o.X.X.o.o.o.X.X.X.X.X...^ X...y : 8 : 2 y ; ; H ;.;.;.;.;.;.;.;.;.;.;.;.o.;.9.8.8.8.8.8.8.{.{.{.@X@X+X$X$X+X@X| i } z  .| &.v.@X+Xv.{.r.v.v.v.v.v.@XV.V.V.B.B.N.*.%.v v v v v v v v v v v x x x v x x x x c c x x x x x x x v v x n #.#.n #.#.h h #.g q g #.( ( k.k.h ( ( h f d ( k.k.k.k.x.x.p.k.k.k.k.k.k.k.( ( ( ( ( ( ( ( k.( ( ( ( ( f h ( ( ) d q ! 9.( ) ) d q ; - - - < - ; ; ; ; ",
"2 - - - 1 2 ; - ; : 7 = q d g ! ) s s ( ! ( k.k.k.k.k.k.k.k.( ( ( ( ( h h h i.h h i.k.i.i.i.i.i.i.i.k.k.k.( h h k.k.k.( ( ( h d g d d d g / g g z z x x x v x x x x x x x v v v x x x v v v v v v v v v v %.v v v v %.%.%.$.$. . .O.| | } | o.X.o...H r y 8 7 y ~ ....} H u y D H H H ^ ^ ~ ~ ..^ ^ X.o.^ X.o.o.;.;.;.o.;.;.;.;.;.^ G u t 0 r X...o.o.o.o.X.X.X.o.X.X.;.;.X.X.X.o.o.;.;.;.;.;.;.;.o.o.;.o.o.;.;.;.o.^ ^ ~ G G G ^ ..o.;.o.;.9.9.;.;.o.o.;.;.;.;.9.9.9.9.9.9.9.9.9.9.9.9.8.;.;.;.O.| w p i } i  .r.e.b.b.b.v.b.b.v.b.v.b.v.b.v.b.v.b.b.b.v.B.v.v.v.b.B.B.b.B.@X&.p p O.e.r.r.e.+XB.B.B.v.v.v.V.V.b.b.b.b.b.v.b.v.B.v.v.b.B.B.v.b.b.b.b.b.b.@Xe.p p z  . .b.b.b.b.V.V.V.V.V.V.V.V.V.V.V.V.V.V.V.V.b.b.V.b.V.b.b.b.B.b.&.$. .z p &.B.b.b.V.V.b.V.V.b.V.V.V.V.V.V.V.V.V.V.b.b.b.b.b.b.b.b.V.B.B.b.@.p i k i p q.e.q.O.o.;.;.8.;.;.8.9.9.9.9.9.9.9.9.9.9.9.9.9.9.9.9.;.;.9.;.X...u 8 t H H ~ o.;.;.;.;.;.;.;.;.;.;.;.o.o.;.o.X.o.X.X.o.o.o.o.;.;.;.o.o.o.G u y : 2 y : ; D ;.;.;.;.;.o.o.o.o.;.;.o.o.o.o.;.9.8.8.8.9.9.;.o.o.o.O.w.v.B.@X@.z | } z z i | w.w.w.r.r.v.v.b.b.v.b.b.b.b.*.&.%.%.v v %.%.v v x v v x x v v v v v x x x x x x x x x x x x x x $.x x x x c g | g g / g u g g d s ( ( ( ( ( ( h h ( k.( k.i.k.k.i.i.k.k.k.( ( ( ( ( ( ( ! ! k.( ( ( f f ( ( ( ( s d d ) ) ) ! d q q = ; - - < - * , ; ; ; ; ",
"2 : ; ; 1 1 2 - & & : = = q q q ) ) ) ! d ! ( ( k.k.k.k.k.k.k.( ( ( ( ( h h ( ( h h h h h h h h h h k.k.k.k.k.k.( ( ( ( ( ( g u y 7 7 7 g ~ g g | p x x c x x x x x x x x v v v x x x v v v v v v v v v v %.%.v v %.%.%.%. . . .| X.o.X.....X...X...H t r y 8 t H ......} t w i H D H ~ ..o.o.;.o.o.o.o.X.o.;.;.;.;.;.;.;.;.;.X.X.H 8 & 8 u G X.;.;.;.;.;.;.o.o.;.o.o.;.;.o.o.o.;.;.;.;.o.o.;.;.;.;.;.;.;.;.;.;.9.o.X.X.H r u u ~ ^ o.X.X.;.9.;.9.9.9.;.;.;.9.;.9.9.9.9.9.;.;.;.;.8.9.8.;.o.o.O.O.O.g } } | } &.@XB.V.v.b.b.b.b.b.b.b.b.b.b.b.b.b.b.b.b.b.v.v.v.b.b.v.v.b.B.B.&.p i w.B.B.B.v.v.B.B.B.v.v.v.v.b.v.v.b.v.v.v.v.v.B.B.v.v.v.v.v.b.v.b.b.b.e.B.q.w w z O.O.b.b.b.b.b.b.b.b.b.v.b.b.v.v.v.b.b.b.b.v.b.b.V.V.v.v.v.v.b.B.b.e. .k p &.B.b.b.b.b.b.b.b.b.b.b.b.b.b.b.b.b.v.b.b.v.b.b.b.b.b.b.V.V.B.B.&.p i k i i O.O.O.@.8.8.8.8.8.9.9.9.9.9.9.9.9.;.;.9.9.9.9.9.9.9.9.9.;.8.:.8.:.y 7 y 8 : y X.;.o.;.;.;.;.;.;.;.;.;.;.;.;.;.;.;.;.;.X.o.o.X.X.;.;.;.;.9.....G & 2 y y 2 D ;.;.;.9.9.9.;.;.;.;.;.;.;.9.;.o.o.o.o.o.o.o.X.~ ~ g g @.w.q.w.O.g z | z i p i @.w.w.r.v.v.v.b.b.v.v.b.w.*.%.%.%.%.v v v v v v x v v x x v v x x x c c c c v x x x x v v x x x x x c c c z p z p p i u u u w q s ( ( ( k.k.( ( ( ( ( ( k.i.h i.i.y.h h ( h ( ( ( ( ( ( ( ( ( ( ( ( s f ( ( ( ( d # d ) ) ) g # # = = ; < 5 < < , ; ; ; - - ",
"- 2 2 1 ; ; - - - - ; ; ; = = 0 / / / g d s ( ( ( ( ( ( ( k.k.( ! ( ( f h ( ( ( k.( ( ( h ( ( ( ( ( ( ( ( ( ( ( ( ( ( ) / / / u t t H u i g i z } p  . .c x v x x x x x x v v v x x x x v v v v v v v v v %.%.v x $.%. . . . .O...^ X.;.....X.......~ D D t r D u ~ ....} u y D H H H ~ ..o.o...X...o.o.o.o.o.o.o.o.o.o.;.;.o.^ ~ H r : G ..^ X.o.o.X.X.;.;.;.o.9.;.;.;.;.;.o.;.;.;.;.;.o.o.o.o.;.;.;.;.;.;.;.;.o.o.X.X.H 8 8 7 ~ ..o.X...;.8.;.9.9.9.9.9.9.9.9.9.9.9.9.8.8.8.8.9.9.9.9.8.;.;.O.| | z | } | z  .b.b.v.b.b.b.v.v.v.v.v.v.v.v.v.v.v.v.v.v.v.v.v.B.v.v.v.v.v.B.B.&.g g e.B.e.b.v.v.v.v.v.v.v.V.v.v.v.v.v.v.v.v.v.v.B.B.v.v.v.v.v.b.v.b.v.v.v.+Xq.+ p z O.@.v.v.v.b.V.V.v.V.V.V.V.b.V.v.v.v.V.V.V.V.v.v.V.V.v.v.b.v.v.C.B.e.| i p &.B.b.v.v.b.b.V.V.V.V.B.v.v.v.v.V.V.V.v.v.v.v.v.v.V.V.b.b.b.B.@Xw.p i i i p } z } @.8.8.8.8.8.8.8.9.9.9.9.9.9.;.;.9.9.9.9.9.9.9.9.;.:.8.:.8...: 7 r 8 & r ;.;.X.;.;.;.;.o.o.X.o.o.;.;.;.;.;.;.;.;.;.;.;.o.X.X.;.;.X.o.o.:.H & ; 2 y : u ^ X.X.;.;.;.o.o.X.X.X.X.X.^ ^ ^ / ~ / ..o.;.o.~ ~ ~ g | O.8.8.q.O.| O.| p i i O.w.t.v.{.r.v.v.v.v.b.w.&.$.x v %.%.x x v v v x x x x x x x v v v x x c c x v v x x x x x x  . .$.$.x c c z z } p i i i H i i 0 u / ) s ( ( h ( ( ( ( h k.k.( k.k.k.( ( ( ( ( ( h s ! s s s ( ( ( ( ( ( ( ( ( ( g # q / ) ) / 7 ; 7 & - - - < < , ; ; ; - - ",
"; 2 ; ; ; ; - 2 ; ; ; ; ; ; ; ; ; 7 ; = q q d s ( ( ( ( ( ( ( ( q q q d d ( ( ( ( ( ( ( ( ( ( h d q q q q q q q q q q = q y u u D D i i i i i z z i  . . .x x c k z x x x x x x x x x x x x v v v v v v v v %.%.$.c c | +.} } ~ X.X.X...X.X.o.o.;.~ G D G u D D u H ....H H H D u r ^ ..^ ;.o.X.;.^ o.;.o.o.o.;.;.;.9.;.;.9.;.D r y 8 : G ;.;.;.o.;.;.;.;.;.;.;.X.;.;.o.o.o.o.;.9.;.;.~ 7 ~ :.X.X.o.;.;.;.;.;.;.o.;.;...H 8 y u 8.8.:.o.;.9.9.9.9.9.9.9.9.9.9.9.9.;.;.9.9.9.;.;.;.8.9.9.8.;.:.O.O.i } O.| i z O.v.b.b.b.v.v.b.b.v.v.v.v.v.v.v.b.v.v.v.v.v.v.v.v.v.v.B.b.B.B.B.&.p p &.B.e.e.b.b.v.v.v.v.v.v.v.v.v.v.v.v.v.v.v.v.v.v.v.v.v.v.v.b.b.b.v.v.r.B.w.a w } | @.v.{.b.v.v.v.v.v.v.v.v.v.v.v.v.V.@XV.@XV.@XV.V.V.v.b.b.b.b.v.B.r.c k z &.B.v.v.v.b.b.v.v.v.V.V.V.v.v.v.v.V.V.v.v.v.v.v.v.V.v.V.V.b.v.@Xv.i i i i i i k +.8.8.8.8.:.;.9.;.9.9.9.9.9.9.9.9.o.;.;.9.9.;.:.8.:.q.9.H 8 : 8 r y y ; r X.:.o.;.;.;.;.X.;.;.;.;.;.;.^ o.;.;.;.;.;.;.;.;.;.;.;.9.;.;.;.;.^ ^ ^ 8 ; 2 y G u G ;.9.;.;.X.~ ~ ....~ ..~ H ^ ~ y u ~ ..~ ~ ~ ~ } o.O.O.O.8.8.|  .O.i p H } } } t.+Xr.v.v.v.b.e.*.*.%.%.%.%.$.v v v v $.c c c x x x x x x x x x x x x x v x v  . . .z c z z z z z  . . .} i p u H H D u y 7 = = q d ) s s g q # q ( ( h ( k.k.( ( ( ( ( ( s q q q q q d ! ( ( ( ( ! ! q q 7 7 7 7 q 0 7 ; ; ; ; ; 1 1 1 1 ; * ; - ; 2 ",
"; ; - & - & - ; ; ; ; ; ; - - ; ; ; ; ; 7 7 0 d ) ) ( ( ( ( ( ) = 7 q q d ) ( ( ( ( ( ( ( ( ( g q 7 7 7 7 7 7 7 : 8 ; : 7 y t u H i u u i i } +.z p  . . . . .c i k z  .$.$.$.$.x x x $.$.$.v v x x v v v v x x $.x c +.| ..........^ ..........D y y t u t G H D H ..} H } } ~ 7 y ^ ..~ X.o.o.;.o.;.o.o.9.o.o.;.o.;.;.:.9.X.G 8 8 8 8 G o.;.o.o.;.o.;.o.X.o.;.;.;.;.;.;.o.X.o.X.;.;.~ 7 u o.X.o.o.o.o.o.o.;.;.X.;.;.^ D r u ~ t.t.;.~ ~ ~ H ~ 9.9.9.9.9.9.9.9.;.;.;.;.;.;.;.;.;.;.;.;.9.8.8.O.O.} |  .| z z  .B.e.b.v.v.v.v.v.v.v.v.v.v.v.v.v.v.v.v.v.v.v.v.v.v.b.v.b.B.v.B.&.p p &.b.e.b.v.b.b.b.b.v.b.v.b.v.v.v.v.v.v.v.v.v.v.v.v.v.v.v.v.b.b.b.V.v.v.+Xw.w w } O.w.{.{.v.@X{.{.@XV.v.v.V.V.v.v.v.v.v.v.v.v.v.b.v.v.V.V.V.V.v.v.B.v.| z l $.B.B.v.V.b.b.v.v.v.v.v.v.v.v.v.v.b.v.v.v.v.v.V.@XV.v.V.V.V.#X@Xt.g i i i i p i +.8.:.9.8.9.9.9.9.9.9.9.9.9.9.9.9.8.8.9.9.9.9.9.8.:.q.:.H y : : ; 8 8 ; t ;.:.X.;.;.;.;.;.o.o.o.o.;.;.;.;.;.;.;.;.X.o.X.X.X.X.;.;.X.;.;.;.X.X...D r r y r y t X.;.;.;.X.~ ~ X.X.^ ..~ G ~ ~ G G ~ H i H ~ ~ } o.O.O.O.| ~ | q.q.i w t u t i q.+X+X+XB.v.e.*.&.*.*.%.%.$. .x x v $.$.z z c x $.$.x c x  .v v x x v %.$.$.$.$.$.&. .i z } } +.+. . .| } i i i H D i u t 0 7 ; 7 q d / / u 7 O q ( ( ( ( ( ( ( ( ( ( ( ) g q q 7 ; 7 u ! ) ) ) ) ) / = ; : ; ; 8 : ; ; ; ; ; ; ; ; ; & - * & - - * ; ",
"2 2 ; ; 2 ; ; 2 ; ; ; ; ; ; ; ; ; ; ; ; ; 8 7 0 y q q q q w w y : : 7 7 q u d d g d d g g g g u 7 7 7 7 w w y 7 8 y 8 8 y t u D i t t t t t i H } p } +.} } } z i i z } } z c c c x x v $.x c c x x v v v x c c $.x c } } } } ....^ ^ ....~ ~ ~ y w w t u t u D H H } H i H ....: w H G u ^ X.X.^ o...H ^ 9.;.o.;.o.;.;.;.^ H t y y H H ..;.;.;.;.;.;.;.o.;.;.;.^ ~ ^ ;.;.;.o.o.;.;.:.~ 7 t o.o.o.o.o.o.X.X.X.X.X.o.^ G r r u H ....H u u u r G ;.9.:.;.9.9.9.9.9.9.9.9.;.;.8.9.8.8.8.8.:.o.o...} z } } }  .O.&.@. .&.b.b.r.v.e.v.v.v.v.v.v.v.v.v.v.v.v.v.v.v.v.v.v.v.v.B.r.v.&.p g q.B.r.b.b.b.v.v.v.v.V.v.v.v.v.v.v.v.v.v.v.v.b.v.v.v.v.v.v.b.b.b.v.v.v.v.q.+ w ~ O.8.w.w.w.r.v.v.@X@Xv.v.v.v.V.V.V.V.v.v.v.v.v.v.v.v.v.b.b.v.v.v.v.r. .z z &.B.v.v.v.b.b.v.v.v.v.v.b.b.b.b.b.v.v.v.v.v.v.v.v.v.v.+X+Xv.+Xv.@.i p z | } i p +.8.O.o.O.o.;.;.;.;.;.;.;.;.;.;.;.9.;.;.:.8.8.;.X.^ ....D u t t t t y ; r ..X.^ ;.o.X.;.;.;.;.;.;.;.;.;.X.X.X.X.X.;.;.;.;.;.;.;.;.X.o.o.;.o.o.;.H ; 8 8 e r D ^ ..^ ^ ^ H H ^ ^ ^ X.~ u u G ~ ~ D i i H ~ ~ ~ o.o.o.| i w } q.O.i u i H i i o.q.q.&.&.&.%. . . . . . . . .c c c  . .z p k c  .x z z z c c c x x v $.x c z k k z i p u i i i i } O.z i i i H H i u i t t y y 0 y u ~ u u w + 7 g g d g d q q d d d g d y 7 7 8 ; ; ; 7 q q q q q 0 7 7 8 8 8 8 7 ; ; ; ; ; ; ; ; ; 2 8 8 2 8 2 - - ",
"2 2 8 r D e ; ; ; ; ; ; ; ; ; ; ; ; ; ; 2 ; ; 7 O + = = + + + & : : : & : 7 7 = q = = = 7 7 q 7 y y y y y y t t r t y y t t t i t t t t y : : 2 : + w y w w w y H H } } i w p k c c x x c c l l x x v v x x c c  .x c z } } } } } ~ ~ } } ~ i i i u u H i u i i i i i i u i } H y w 7 7 r X.;.X.y H D 7 G :.8.8.;.;.9.9.^ r 8 8 r t ..:.8.8.;.9.9.9.;.;.o.o.;.;.u 0 G ^ ;.;.;.;.9.:.:.~ 7 u o.:.o.o.;.o.o...^ ~ ~ H r 8 r H H D y u u G ~ ~ ~ ^ :.9.9.9.9.9.9.9.9.9.9.9.9.8.9.8.;.8.t.8.o.~ i i p p i p z &.q.&.i i &.B.v.v.B.v.v.v.v.v.v.v.v.v.v.v.v.v.v.v.v.v.v.v.B.v.+Xw.w.&.p i q.v.r.v.v.v.v.v.v.v.B.v.v.v.v.v.v.v.B.B.B.V.v.v.v.v.{.{.v.v.v.b.v.v.v.v.q.7 w H o.8.9.9.8.@.@.q.b.{.@X@X@X@X@X@X@X@X+Xv.v.v.V.+XV.V.V.V.V.v.v.B.v.v. .i p %.@XB.+X@XV.V.@X@X@XV.V.V.V.V.V.V.V.V.@X@X+X+X+X+X@X@X@Xw.O.O.o.i p p | &.&.k p O.w.8.@.8.8.8.9.;.9.9.9.9.9.9.9.9.9.;.8.8.8.:.~ 0 u i u u H H H H H D 8 e H H ^ ;.;.X.X.X.X.X.X.^ ;.;.;.;.X.;.;.;.;.;.;.;.;.;.;.;.X.o.X.X.......H 2 y e y r D H H ~ ~ H H ~ ^ ..^ o.~ u y u ~ ~ u i u H ~ ~ } | } O.} i i i i i p i i _ H D H } }  . . . . . .| c  .$.%.&. .x  . . .z p k c x c k k k p k c x c c $.x i p p w p w i t w w p i } +.p p p u u i i i i H i t t r u u 7 y t t w 7 7 O O O + + = 7 = O = = = = ; : ; ; ; : : : : = ; ; 8 8 8 8 ; ; ; ; ; ; ; ; ; ; ; ; t D D D D r ; ; ",
"; ; 2 e D y ; - ; ; ; ; - - ; ; ; ; ; 8 2 ; 2 8 = ; 7 : : : : : 2 : : : ; : : & : : = : 7 7 7 w y y y y y t t t t t y y t t y t D t D D y w 2 : 7 : y i y y y D } _ H H p w p z x x x x c c z l x x v v x x c c v x c c } } z g } } } } } i i i i i i H u t t u u u i i u i i i i w : : u :.:...7 D u : u o.;.o.X.X.;.;.H 8 ; y r r ..:.:.;.X.o.9.9.;.;.o.o.;.;.r 7 t ^ o.o.o.o.;.o.o.~ y u ........X.o...} ~ ~ D i y : t H H D u G D H ~ ~ H ~ :.:.:.:.;.;.;.:.9.9.9.8.8.:.:.:.o.8.8.8...i u i p i i p i O.@.O.i g &.v.r.e.v.v.v.v.v.v.v.B.+X+X{.{.{.+X+X{.{.{.v.v.v.v.v.O.| } z } w.v.r.v.v.v.v.v.v.v.v.v.{.v.v.v.v.v.v.v.v.v.v.{.{.{.{.{.{.{.@X@X{.{.v.v.8.7 7 u ..;.;.9.8.;.9.q.v.@X@X@X@X@X@X@X+X{.{.{.v.v.v.v.v.v.v.{.{.{.v.v.e.e. .z z &.+XB.+X+Xv.v.@X@X+X+X@X+X+X+XV.V.v.+X+X+X+X+X+X@Xv.v.v.q.o.o.o.} i p z  . .i p O.w.@.@.@.O.@.8.o.;.;.;.;.o.;.o.;.8.:.8.8.8.8.^ t u t y t D D t t D D y 8 r t H o.^ ~ ~ ^ X.;.;.X.X.X.;.X.^ ^ ;.X.;.;.;.;.;.;.;.;.o.o.o.o.X...X.^ t D 2 2 e t H H H H H ~ ~ ^ ~ ~ ..D y y D } } u y w u ~ } X...~ ~ u ~ } u w w y i i H D i u i z z  . . . . .+. . .&.&.&.O. . . .+.z i k c  .c z z z z z x  .x c  .+.p p i i H H p y y u i i i i w w w y y y t D t t t y y y t t t t t t y y w : : ; 8 8 8 8 7 7 : ; : : : 7 : : : ; 8 ; ; ; ; ; ; ; 8 8 ; ; ; ; ; ; ; ; ; ; ; ; y r t t D e ; ; ",
"2 ; ; e r 8 ; ; ; ; ; ; - - ; ; ; ; ; 8 2 ; 8 8 8 8 0 8 8 ; 2 y e y y y y y 2 ; ; ; 8 y y y y y y y y y t t t t t t t t D t t t D t t t y t D y y y t D 7 y 7 u ..H i u i i z +. .x x x x x x c x x x x x x x x v x c c z z z i } } | z i i i u i i i i w w w y u u i i i u u t i y 7 : y ..~ i 7 t u w y ~ D G G D D D D e 2 y 8 ; u H G H G ~ G G G t u r r t u 0 u ~ ~ ~ ~ H ~ ~ ~ H y u i i i i i i i i i i H H y 2 7 t i t D u t u D D D D ~ H H H H ^ ;.9.8.9.8.8.8.9.:.:.~ ~ } } ~ H i i i i i p k  .| | +.} O.&.O.| @.q.q.q.q.q.q.q.q.q.q.8.q.q.q.8.8.8.w.w.w.w.w.i p p p i O.@.O.O.O.O.@.@.@.@.8.8.8.8.@.@.@.@.@.@.@.@.@.@.@.@.@.8.8.8.o.@.@.@.8.q.O.7 8 t ~ ..;.9.9.;.;.8.8.8.8.8.@.@.@.@.@.@.@.@.@.@.@.@.@.@.@.@.o.@.8.O.p p w w p +.O.O.o.@.o.o.@.O.O.@.@.O.O.O.O.O.O.O.O.O.O.O.O.O.O.O.O.o...o.O.| | } i p i i i O.8.O.o.O.O.:.8.;.9.9.9.9.9.:.9.:.~ r G t t ~ G y t t w y t y w 2 : 2 ; ; ; ; r ~ ^ ~ ^ o.o.o.o.^ ;.X.;.^ G G H G D G D G D D G G G ~ D D H H H D H D 2 : 2 y D t r r r t t y y y u y y y u ....t y w t H ~ } ~ u 7 : H } t y i i i t i i i t i ~ i |  . .| z i z k z z z i i k } } } i k z c z k z  . . . . .c c  .+.p p i i H H u t u H H H t w w y t y y y t H i u t y y y t t i t t t t t t t t t r 2 ; ; 2 8 r r r r y y y 7 & : ; y 8 y 8 ; ; 8 r r e 2 ; ; ; ; ; ; ; ; ; ; 8 e r e e 2 - & ",
"e ; - 2 t e ; ; ; ; ; ; - - ; ; ; - ; 2 ; ; 8 8 r t t t e y e r t t t D D y 2 ; ; 8 e r t t y t t y y y t t t t i i t i D t y t t e 2 ; 2 H H y y y y D y u y H } i w w p z +. .v v x x x v v v v x v x v v v v v x x c z z z i z +.+.z i u i u i i i i w : a w i i i i u p u t t y y : w t y w : w u t t t y y r r 8 8 e e 8 8 8 & 8 r 0 r r r u t t t r r t t u y u H u u u y u u i i y u i y y y y y w y y p y i y w w t t D D t t D D D D D D D D D D ~ ;.:.:.:.O.:.8.8.;.o.~ G i i i i i i i i i i z +.} +.O.+.O. .} } O.@.8.8.8.8.8.8.8.8.8.8.8.8.8.8.8.8.:.8.O.:.8.w 7 w i i O.O.o.O.:.:.o.o.o.o.o.;.;.;.9.9.9.9.9.9.8.8.8.8.8.8.8.8.8.8.8.8.8.8.8.q.:.7 u H ~ ^ ;.:.:.;.9.9.9.8.@.O.@.@.O.o.o.O.O.O.O.| O.O.O.O.@.8.8.8.q.O.w w w y i } O.o.o.o.o.o.O.o.o.o.o.o.o.o.O.O.o.o.o.| o.O.O.O.@.O.O.o.o.O.O.| @.O.i w p i i | @.O.O.8.@.8.8.9.8.8.8.8.8.8.8.8.^ r G r 0 G r r y y 2 w y y : 8 O : 2 : : : y u y 8 G X.o.;.:.:.;.;.;.^ D D D t G D H H D D G G G H D H H H H H H H 8 : y : : + : : : 7 2 : & : 2 y y y t ....y w 7 i ~ H ~ H y : 7 H H t t t y t t t t i i i _ k  .@.O.+.i w p p p p p p p p i _ _ i i z } z k z  .$.x c c c  .$.+.i p i i D D H H } ....} i y t D H D y y e D t y u u u t t t t t t u i u t t D D t 8 ; - ; 8 D t D D t t i t : 7 0 r r t r 8 ; 8 t t r e 2 2 ; ; ; ; ; 2 ; ; y r t r y ; & - ",
"2 - - 8 t e - & ; ; ; ; - - ; ; 2 : ; 2 ; : ; : y r t r y 8 e e r y e t t 8 ; ; 2 y y y t y y t y y y y t t t t t t t t t y 2 7 t y ; - 2 H H 2 y 7 : y 7 y : w H i w w p z  .$.v v v x v v v v v v v v v v v v v $. .c z k z z z  .| z u u i i y i H i y w y y H i u u y y u i t y y 2 w y w y w : t i u t y t u D t 8 8 8 2 2 r : r t r t r 0 r r r t t t u u r y u D y u i i p y p u y u i i u i i i i p p p i i i t i i t t y y t D H D D D D D D D t D ~ ~ X.....o.o.o.X.~ D D H i u y p p i p p i } } } +.} } } } | | | O.o.o.o.o.X.X.X.X.o.o.o.o.o.X.X.X.o.o.o.o.:.w : u i H ....~ ..^ ^ ....^ ^ ^ ^ ^ ^ ^ ^ ^ ........................X.....} } ..O...: y u G G ^ X.^ o.o.o.o.X.o.o.X.o.o.| | | | | | | | | | } } ..........y t t t t u ..~ ^ ..^ ^ ..........X.| | | } O.O.| } } } } } } } ~ } ~ ~ } z O. .i w p } k z O.| | o.| ......^ ^ ^ ^ ^ ^ ..^ H 0 D G t D 8 y t y 2 w y a : : a y y w 7 y t t y y H ..~ H ~ H H H ~ G 8 0 D r r t D D D t t t y u r t u t t t H y : : y y y y y w y y y w w y 2 i H t i o.o.y : : i } H ~ ~ t : w H H u t y t _ i t y t t u i i } z z z k p i i k z z z z z } _ _ i i +. . .c x $.x c z c c  . .+.p p i t t t i H ..O.o.H y w t H H D y ; ; ; 7 7 y y u u t y t u u u u t y t t D D y ; - 2 8 r e t t y t t y : : 8 r r r y ; : ; 8 8 2 ; ; ; 2 ; ; ; ; 2 ; ; 8 t D r e 2 ; 8 ",
"r y 2 e e 2 - - ; & : - ; e D t y y 2 & : y t t t ; : 8 t t y t t t t t e e 2 2 t t t t y y y t y y y y t t t t t t y y y 7 y } ..H t : y H i w t } O.i : u } i } i i z z c c c x v v x x x v x x x x x x x x c x c  . .z k } | } } z w : : y a : t i t w 2 a y 8 y w y t t t t y y 2 : w t t y p t i i i y w t y y e e e y 8 2 8 ; : 8 8 : ; : 8 & ; ..;.D : ; ; y 2 2 : : u H u y p p y i i i u i i p i i p p p i i u u i i t t y y 2 : : 2 8 8 ; ; 8 : : y H D H D y 7 : : y : : + i p p p p w i w i k w p p p i w w p p } w : 7 y y y y r 8 r y r u r r r 0 r 8 0 u y y y y y w w 7 7 2 8 y t w y y y y y r 0 y y y y y 7 7 y w 7 7 7 7 8 7 7 7 7 w : 2 y i u y y u G D G ~ u u u i i i u i u i } } } } } } } +.~ w + 7 w 7 : 7 u t y y y y y 0 7 0 0 8 8 8 7 7 7 7 w w p i | +.p + a w + a a a 7 w w a a p O. .i p i k z p w p i u y : + : O O = : : = + = ; ; ; 7 8 7 ; : : & : : : 2 y t : u i w w y u y D y y t r 8 * = ; ; ; ; 7 ; ; ; ; ; ; ; ; ; ; ; & ; ; : ; ; : : : 2 : : y i i i p i u w t i i i t H t 8 y t y y : 2 y y 2 : 8 ; : y u i t t t t t i t y t i i i i p p + i &. . . .$.$.$.$. . .$.} k i k  .$. .$.$.x x x x c c  . .+.+.+.} t w t y w y y y t u y i H H ~ w : w w : 7 y t u t t t t t u t y t t y t t t D D e 2 - ; 2 t D t : : : r u r 7 2 ; ; e D D 8 ; 8 8 8 r D t 2 & & ; ; - - ; 8 2 2 r D t ",
"y e e e e ; & & & & : : ; y t t t y 7 : : y t t y : : 2 y e y y y y r r r e e e t t t y y y t t y y y y t t t t t t y y y w y H ..D y : : i H H u H O.H w i i i +.} }  . . . .x $.$.$.$.$.$.v x v v v v $.$.$.$.x c  . .z z z } | +.} y : : : - y t t y y 8 2 2 : 8 2 : y t t t y y w : w t u u i i i i i w : 2 : : - - & & & & O & O o o & & & o o ; ..:.D & & ; 8 2 y w w u i i p p i i i H H i i i p p i p p p p i i i i u t y y 2 : & & & & : & : : = & : y D i y 7 7 + O + + + O u i p w p i k i i p w p p i p w w } p p + + & : : : + + : + O + + O O + O : : 7 y y w w y w + : : : : : : + @ o + + O o + O O O O O + + + O O O O + : + O + + + + + : : + 7 + 7 y u y w w w y y y w w w w w p i i i i i i i i p + O + + O + + O + y t y : O O O O + O O O O + O + + a w p z z p a a a a a a a a a a a a a  . .i p i z z i p i i g i w O O O O O O O O + : : : : ; : : : : : + + + + + a w w p w w w t u y t y y t t 8 ; * & & & & ; = & & = & = & & & & & & ; = & & & & : : 8 a : y t t p p p w w p i i i y t y 2 y y 8 : w w y y : : : : 2 y t t t t t t H u y w w y y y i y y a i %. . .x x  . . . . . .k i p k +. .x  .$.x c c c c x  .$. .+.+.} t w t y w w y y y y 7 y H D H w 2 2 y D u t t y y y y t t t t y t t y y y t t t e 2 ; ; 2 e t r ; ; : y t e : : - & ; t t 2 ; 2 8 8 r D t 8 ; - ; ; ; & ; ; ; ; r D t ",
"y t r y 2 ; ; ; ; 2 8 2 ; 8 t t y y 7 : : y t t y 7 2 y y y y t e e e r r y e y t t y y y y y y y t t t t t t t y y D } H u i H H t t y t i i H p i } H p i i i } k z z c c x c  .c c c c c c c c c c c c c c c x c c c z k z z z _ i t 8 e y ; e t y 2 y e 2 2 ; 2 2 : 2 y y t y t y : w y p p i t t t t y w y w y t D D D D D t u u t r y y 8 8 ; t X.:.H 7 8 y t t D i i H H i y w u i i i i i i i p p i p p p p p i u u u i H H H D H H H H ~ H ~ ~ ~ ~ ~ ....~ D H | O.| | o.} 7 y i i p } } i k i p +.+.i p i k k O.O.O.q.w.q.8.q.@.| | @.w.w.w.w.w.w.w.w.q.t.@.| } z z z p p z  .O.O.O.O. .O.O.O.@.O.O.@.O.O.O.O.O.O.O.O.O.O.o.o.O.O.O.O.O.@.@.O.O.q.O.p p i | O.q.@.@.@.8.8.8.@.8.8.8.8.@.&.q.&.&.&.&.&.&.q.&.O. .O.O.O.O.O.} i i y p } @.@.8.8.8.8.8.8.8.8.@.@.q.&.&.w.e.e.%. . . . . .c  .c c c c c c z z i p i k z i w p i i } ~ ~ } ~ ~ } } } } ..X.o.o.o.o.o.o.o...o.............+.+._ p p i i i i u y y r 8 9 D D F H H H H G G H ~ H ~ H H H H H G H G D H D y y 2 y y w y p y y i y w w p i p t w t y y y y w 8 y y y y ; 2 y y y y y t t t t y t y t i i i H i y i } k z  .x v x x x  . .x x  .z c z z $.$.x x  .c c c c  . .c  . .+.+.} i i H H i i i i i i t H ..H H i y 7 y H D t t t t D H t e t t t t t t y y y t u t t y e y r D t y 8 y t t y y 2 2 2 y t r 8 2 8 2 8 8 e y e e y e e e ; ; 2 2 2 r D r ",
"t t r 2 - 2 r t t D t 8 & - e t y y y 7 7 y y t t y y y t t t t t r r t r y e y t y y y y y y y t t t t t t t y t D o.:.o.H H y w t } o.o.} u i y w i i i i i H i i i i k c  .+. .z i i i i i k z k k k k z z z +.z z z z z z z w y t t t D D t : 2 2 2 2 y e e e e 2 2 2 y t t t t e 2 y y t t i t w w t t u H t H ..:.:.:.:.:.:.:.:.8.:.^ H ~ 0.:.:.:.:.H t t H H H } } } } } i p w u i i i i y i p w p p p p i p w p w w y i O.:.:.:.:.8.8.8.8.8.8.8.8.8.8.8.:.o.} o.r.%X+X+X+Xr.i p i i i | +.p p p +.e.O.} p k @.+.q.B.%X*X$X#X#X#X+Xe.e.V.3X*X=X=X*X=X=X=X=X3X#Xq.%. .c  .c c &.N.B.B.V.C.#X#X#X*X=X=X=X3X=X3X3X3X3X3X*X*X*X4X#X@X@X$X$X@X@X$X$X@X@X$Xr.} z  .&.B.@X@X@X@X@X@X@X@X@X@X@X@X@X@X@XV.V.V.V.V.@X@X@X@X@X@X#X#X#X@Xe.q.| w i r.*X*X=X*X*X*X*X3X*X*X*X&X*X*X&X&X#XC.N.*.*.*.*.*.*.*.*.*.*.*.*.&.p z i w p i i i p k z z } } O.q.O.8.8.q.q.q.8.8.t.t.t.t.q.q.q.q.q.q.q.q.q.q.8.O.:.} p p u y w w u w w 7 ; t X.6.:.6.8.:.9.9.9.9.9.9.9.:.9.9.9.9.;.:.:.:.:...H u w y y w y t y w i t w y i i y t t t t y y y y y y y y 7 2 y y y y y w y t t t t w : t } } ..o.} w } q.q.$.$.x v v v $.$.$.$.$.$.$.$.$.$.$.$.x x c c c c  . . .z z z z } } } } ....} } } } } ~ } O.O.H } ..H 2 y y y y t H ....;.t y y t t y t t t t t t u u t t D t t D D D t D S D D t t t S D r y e 2 ; ; ; ; & ; y D D t t D 2 ; ; 2 e t D t ",
"y y y 2 : 2 t t t D t 2 : : 2 e t y y y y y y y y y y y y y r t t t t t t t y y y y y t t y y y t t t t t t t t D H o.:.} H D y y i } O.O.} p i i w i H H H i H H i z k z +. .|  .z i i i i k z z z k i k z z z } } } } } } | } w y y t t D D t - 2 2 2 e y y y e y y y y e y r H D e 8 y t y y H t y y p u i i y i ~ ..X.;.;.;.;.X.;.:.;.~ H H :.X.;.;.X.^ H D ~ H H } } i } i i i u i i i i i y i p w w p w p p y y u p y u H o.o.o.:.:.:.8.:.:.:.9.8.9.9.;.o.8.o.} | t.{.v.r.+Xr.i p i i p i +.i p p +.q.+.+.p p  .z  .w.r.e.w.b.B.B.e.*.*.e.C.B.C.C.C.C.C.C.C.&XB.%. . .c c c c %.C.N.N.C.C.C.C.C.C.#X&X&X&X&X&X*X=X*X&X&X#X&X#X@Xv.v.+X+X+Xv.+X+Xv.B.#Xe.p k c *.B.V.B.B.B.V.V.V.B.B.B.V.V.V.V.V.v.v.b.b.b.b.v.v.v.v.v.{.v.@Xb. . .+.a i w.B.B.#X#X#X$X#X#X@X@X@X@X@X@XV.V.V.B.*.&.&.&.&.%.%.%.%.%.%.%.&. .p z i p i H t i i } +.} } } +.O.| O.O.O.O.O.o.o.8.8.8.O.O.O.O.O.O.O.O.O.O.O.| } O.H p p u w w w y w w 7 : Z ;.9.;.:.8.:.9.:.:.9.;.;.;.;.;.;.;.;.;.;.;.;.;.^ u r y y y y y y y w u p y i H i y t t t t t y y y y y y y : : 7 y w y y : y t t t t y w i } } ..O.} w } q.q.&. . .$. . . .$.$. . . . .$.$. . .$.x z z +.+.+. . .+.z z z k } } } } } } } H } } } _ } } } y H ..H 2 D w y t D ......o.t y y t t y t t t t t t t t t t t t y y t t t S t t t t D D D D y 8 8 2 2 ; - & & - e D D t t D ; & - 2 e t D t ",
"y 2 y y 2 2 y : 8 t t y y y y t t t y y y y y t y y e y y y t t y y t t t t t t y y y y t t t t t t t t r t t t y y i i y t H H H i u u i i y _ H i H H H H i i i i i i i z } k z k i k } } } } } } k _ } } } } i i i i i i i i t y t D D t D t 2 t t y y y 2 w y y y y y 2 ; e H D 8 2 y y 2 a t t y y u u p p w y u u u G H H D H H H H H ~ H r y r D D H ~ ~ ..H D H i u i p u i i u t p t t i H i p w w w w u i ~ } ..} } | O.O.o.o.o.o.o.o.:.9.9.9.9.9.9.;.@.8.O.O.w.r.q.q.r.w.p p i i p i H i i w i +.k  .z k  .z i k +.|  .w.e.e.e.*.*.*.*.*.*.*.*.*.e.e.*.B.*.c c x c x x c %.e.*.*.*.%.*.*.*.*.*.*.*.*.e.e.e.e.e.e.e.e.v.b.v.v.v.v.v.v.v.v.v.b.v.@Xe.p z  .*.B.B.v.b.b.b.v.v.v.v.v.v.v.v.V.v.v.b.b.b.b.b.b.b.v.v.v.v.b.V.b. . . .p p }  . .e.B.v.v.e.e.w.b.b.b.v.b.e.e.e.e.*.*.*.*.&.$. .x x x x  . .+.z } } H } } t i i i i } O.&.@.@.@.@.@.O.O.O.O.o.8.8.8.O.O.O.O.O.O.O.O.O.O.O.| } ..~ g ~ } H H } H i H H 8 r H ~ ^ ;.;.;.;.;.;.;.;.;.;.;.;.;.;.;.;.o.o.o.o.^ G H H D D i u H H y : w w t t t w y : a y t y y t y y t y : ; y y y y y 2 2 t y y i } D H } H i H i i i } } k z c c z z +.+.c c c c z  . .c x  . .z z +.+.} z } } } } } } } } } } } _ } i _ } z k } i i y H H D ; D u H H } ..~ u u t y t t t t t t t t t t t t t t t t y y t t t t t t t t t t t y y y y t t t t e t r t D t e e r 2 - : e e y e e ",
"e : 2 e y 2 2 O 2 e t t t t t D t t t t r y r t e y t t t t t t t t t y y y y t y y y y t t t t t t t t r r r t 7 y y w : y H } } u w : y t t } } H } i i } H H i i } } i i z i i i k k } } } ~ ~ i H H H H H H y y y y u u u t D t t D u t t t r D t y y y 7 w y 8 w y y ; ; r D Z 2 2 8 2 2 2 y y y y i i u p u u y y y r D D r G G t u ~ ^ ~ G t r y r H ..^ ..H D H u y i y y H H y y y y y i } } i y w w y t H ..O.O.O.O.O.O.O.O.@.8.8.8.8.8.9.9.;.;.9.9.9.@.t.w.w.r.r.e.e.v.e.p p i i i i i i i p p k z  .$.$.&.z i p | O.| q.r.e.e.w.*.*.e.e.e.e.*.*.e.B.b.B.&.z z c c  . .x %.N.*.%.%.%.*.%.%.%.%.%.%.&.*.*.*.*.*.*.e.e.b.v.B.V.@X@X@X@X@XV.@XV.B.V.e.z z  .e.B.B.v.v.v.V.V.V.V.@X+XV.V.B.V.B.v.V.V.V.v.V.V.V.v.v.@X@X+X@X@Xe.e.@.p i z z z w.v.v.{.w.w.r.v.v.v.v.v.r.r.r.w.w.e.e.e.q.&. .z c c c } } } | | | } O...t i i p p i O.w.e.e.w.w.w.q.8.8.8.8.8.8.o.o.o.o.o.O.O.O.O.O.O.O.| ~ ~ ~ ~ ~ } } } } } } o...t 8 r 8 ^ ;.9.;.:.9.;.;.;.;.;.;.;.;.;.;.:.;.;.;.o...^ ..^ ~ ~ ~ H ~ H t + 2 w w w w 7 y : : w t y y u t y t y : y u t t t t y w y w w H } H H H i p u H i i p p p p k i z z } } z z z z z | +.} |  . .z z } } } } z } } } +.} } } } } } } } } } } } } } } } H H D i : t H ~ } } } i 7 7 t y t t y t t t D D D t t t t i t u t t t t D D D t t t t t t y y y t D D H H D H D D D t t e 2 2 : 2 e e ; 2 2 ",
"y - : y e y 2 & e t t y t t e t t t u t t r r t y y y y r t t t t t t t y y y y y y y y t t t t t t t t r r r r y D D t y u H H } i t t } } H } H H } i i } H } } i _ } i i } z z } } z } } } } } } } } } } ~ H i D D D H H D D D t D H u t t D t t y y y y y y y 8 y i u 8 ; D F S e 2 4 2 2 y y y y y t i u u p y w y y t D D G G D G H H H H G u r r u ~ ......H D D t y i y y } ..t y y y y i } } i y w y t y H } o.O.o.o.o.O.O.O.O.O.@.;.;.;.9.8.;.;.9.9.8.o.t.v.w.w.w.w.b.e.w.p p i i i i i i H i i +.$.c &.N.e.z } z  .+.O.t.v.r.r.w.&.*.*.e.e.e.*.*.e.B.B.B.&.c z  . . . .x *.C.e.*.*.*.*.*.*.*.*.*.*.*.*.*.*.e.e.e.e.e.v.v.V.B.v.v.v.V.v.b.V.V.v.B.*.z k  .e.B.B.v.v.v.v.v.v.v.v.v.v.V.v.v.v.v.B.V.B.b.B.V.v.b.v.V.+Xv.v.b.e.v.q.y i } } z w.v.r.v.w.w.w.v.v.v.v.v.r.r.r.w.w.w.e.e.q.O.O.| |  .| | | | | } } | O.} y t p p p i +.q.e.e.w.w.t.w.8.8.;.o.8.9.o.o.o.O.o.:.O.O.O.o.o.O...~ ~ ....~ ~ } } } } H ..} r 8 r 8 ~ o.;.;.;.9.;.o.;.;.;.;.;.;.;.;.o.o.o.o.o.~ ~ ~ ~ ~ H H H H D 8 : y t y 7 7 w y y w y t y y y t y t y : 8 t t y t t y y y 2 a i y t t u i t i } i i i i i i } } } z } } } z z z | +.+.} |  . .z z z } +.+.} } } } ..} } } } } _ H } } i } } k z +.} } H i H : 7 i ~ ~ H } i y y y t t t y t i y t t t t t t t t t u i u t t D t t y t t t t t y y 2 t D D D H D D D t t t t 2 & ; - 2 t r e e e "
};
