/* XPM */
static char *bf2d8559313e4eb39e97d748a949f40bHUOZFZuMNlX6Wz40[] = {
/* columns rows colors chars-per-pixel */
"740 493 256 2 ",
"   c #010708",
".  c #020B14",
"X  c #030C1B",
"o  c #0D0E1D",
"O  c #030518",
"+  c #110E1D",
"@  c #160918",
"#  c #0C111D",
"$  c #03151A",
"%  c #13131C",
"&  c #0A0F08",
"*  c #2F1011",
"=  c #062B19",
"-  c #030C23",
";  c #0C0E21",
":  c #060C28",
">  c #140D24",
",  c #0C1223",
"<  c #0D152B",
"1  c #0D192C",
"2  c #051627",
"3  c #121224",
"4  c #13152B",
"5  c #12192C",
"6  c #181729",
"7  c #0C1B33",
"8  c #091935",
"9  c #131B33",
"0  c #161935",
"q  c #080E33",
"w  c #2B1A29",
"e  c #092627",
"r  c #16262B",
"t  c #083929",
"y  c #15392C",
"u  c #0A2539",
"i  c #13233C",
"p  c #182737",
"a  c #193935",
"s  c #0A3836",
"d  c #242838",
"f  c #24383A",
"g  c #332B2E",
"h  c #2D2B17",
"j  c #50140E",
"k  c #6A190C",
"l  c #712815",
"z  c #4C1D25",
"x  c #4A2429",
"c  c #57262A",
"v  c #572B33",
"b  c #4D2F34",
"n  c #68292A",
"m  c #742B2A",
"M  c #682C33",
"N  c #732D33",
"B  c #782C36",
"V  c #6A3336",
"C  c #763336",
"Z  c #74332B",
"A  c #572619",
"S  c #0A4735",
"D  c #184436",
"F  c #17563B",
"G  c #0C492F",
"H  c #24453B",
"J  c #2E4F37",
"K  c #12683B",
"L  c #235F32",
"P  c #724B35",
"I  c #575334",
"U  c #101D44",
"Y  c #0C2745",
"T  c #132444",
"R  c #162A48",
"E  c #183549",
"W  c #143453",
"Q  c #1B3C5B",
"!  c #183856",
"~  c #0F334D",
"^  c #263848",
"/  c #243B56",
"(  c #2C3248",
")  c #193D62",
"_  c #103A63",
"`  c #223C64",
"'  c #5D3844",
"]  c #194748",
"[  c #195845",
"{  c #1C435C",
"}  c #1D4C5B",
"|  c #184657",
" . c #1D515C",
".. c #195757",
"X. c #0C4C4B",
"o. c #274746",
"O. c #265848",
"+. c #254859",
"@. c #354859",
"#. c #21525D",
"$. c #285858",
"%. c #355351",
"&. c #196748",
"*. c #19754B",
"=. c #1B7855",
"-. c #146A50",
";. c #25674B",
":. c #286955",
">. c #366858",
",. c #277857",
"<. c #34775A",
"1. c #2B724B",
"2. c #1D4B63",
"3. c #1A4765",
"4. c #1D5362",
"5. c #1D566A",
"6. c #1D5973",
"7. c #174A6E",
"8. c #224C64",
"9. c #264A65",
"0. c #235364",
"q. c #23546B",
"w. c #255C6D",
"e. c #2A5C6E",
"r. c #295766",
"t. c #335C6C",
"y. c #375868",
"u. c #255D71",
"i. c #2A5D71",
"p. c #245774",
"a. c #355D71",
"s. c #344C65",
"d. c #1D6770",
"f. c #25626E",
"g. c #2A626E",
"h. c #2A6868",
"j. c #35676A",
"k. c #297767",
"l. c #387669",
"z. c #256273",
"x. c #2B6373",
"c. c #2B6A74",
"v. c #286A77",
"b. c #336373",
"n. c #376976",
"m. c #2C7779",
"M. c #347474",
"N. c #347A76",
"B. c #347C7A",
"V. c #3B7D7B",
"C. c #397677",
"Z. c #4C524D",
"A. c #4C6E54",
"S. c #445A6B",
"D. c #46786A",
"F. c #456776",
"G. c #447B78",
"H. c #4E706C",
"J. c #6F6556",
"K. c #8C3314",
"L. c #8A372F",
"P. c #A73721",
"I. c #934933",
"U. c #AE4F31",
"Y. c #A85C25",
"T. c #C95731",
"R. c #D06E33",
"E. c #F17630",
"W. c #DB641E",
"Q. c #904F47",
"!. c #AC5646",
"~. c #B16D4D",
"^. c #946E54",
"/. c #CF714B",
"(. c #E47548",
"). c #8D3841",
"_. c #198458",
"`. c #288559",
"'. c #338B59",
"]. c #378767",
"[. c #389667",
"{. c #34827C",
"}. c #3C837D",
"|. c #3B8779",
" X c #2C8A6B",
".X c #309D66",
"XX c #43847D",
"oX c #48877B",
"OX c #56887A",
"+X c #4C9271",
"@X c #699077",
"#X c #4DAB71",
"$X c #609B67",
"%X c #5CC179",
"&X c #FB8636",
"*X c #F18C31",
"=X c #F0AC36",
"-X c #D88F2F",
";X c #9C9469",
":X c #D38D4F",
">X c #F08E4A",
",X c #F3B04F",
"<X c #E0A667",
"1X c #F8CB54",
"2X c #F9D16D",
"3X c #FCE774",
"4X c #E5D06A",
"5X c #D2A63C",
"6X c #387B82",
"7X c #2D7881",
"8X c #2D5B82",
"9X c #467B83",
"0X c #527985",
"qX c #6A7D84",
"wX c #3C8582",
"eX c #398783",
"rX c #2D8384",
"tX c #438482",
"yX c #438A83",
"uX c #4B8884",
"iX c #568B85",
"pX c #4C9685",
"aX c #599686",
"sX c #599292",
"dX c #639584",
"fX c #649B85",
"gX c #689A88",
"hX c #749B87",
"jX c #699790",
"kX c #56A886",
"lX c #69A289",
"zX c #74A591",
"xX c #76A8A4",
"cX c #6BC58D",
"vX c #8DAD92",
"bX c #9EAD97",
"nX c #B2CDAF",
"mX c #A8CB9B",
"MX c #FEF898",
"NX c #FCED8C",
"BX c #CBD5B2",
"VX c #D4E8B1",
"CX c #FEFBA8",
"ZX c #F1F2B3",
"AX c #E6D692",
"SX c #D5EACC",
"DX c #FDFCCE",
"FX c #F7F8CA",
"GX c #FEFDD2",
"HX c #FDFEDB",
"JX c #F5FBD7",
"KX c #E8F3D0",
"LX c #FAFEE5",
"PX c #EDFBE8",
"IX c #D0DDCA",
"UX c #CAC1A4",
/* pixels */
"a a E E E a a a a a a a a a E E a a a a a a a E E a a a a a a a a E E p E p E E E ^ ^ a ^ ^ E E ^ ^ ^ ^ ^ p f ^ d f d p d d d d d p d d d d d d d w d 5 E $.#.#. .4.4.4.4.4.4.4.0.0.0.0.0.0.0.0. . .#.#.#.#.#.#.0.0.0. . . .0.0.4.4.4.4. . . .#.#.#.4.4.4.#.#.#.0.4.4. . . . . .4.4.4.4.2.2.2.} } } } | 0.b.b.x.b.w.2.2.4.4.4.4.} 4.} } t.b.#.| } } }  . . .4.4.4.4.4.4.4.4.4. . .4.4.}  . .}  .} |  .e.g.w.g.g.g.g.0.} } } } } } 0.} } } }  . . . . . . . . . .4.4.4.4. . . . . . . . . . .} }  . . .4.4.4.4.4. . . . . . . . .#.#.#.#.#. .} #.} } } #.} } } } } } } } }  .4.4.4. .4.4.4.4.4.4.4.4. . . . .4.4.4.4.4. . . .4. .#.#.#. . . . . . . . .4.0.#.#.0.4.4.4.4. . .4.4.4. .4.4. .} } } } 0. . .4.4. .4.4.4.4.4.4.4. . .}  .| | 0.e.0.t.b.0.| | { { +.{ } e.b.x.x.z.z.x.x.x.x.x.z.z.i.i.x.x.x.x.x.x.x.x.x.x.x.x.x.x.x.x.x.x.x.x.x.x.x.x.x.x.x.x.x.i.i.i.e.e.e.w.u.w.u.u.w.w.p.q.p.q.p.p.w.w.u.u.5.u.z.6.i.w.6.w.w.5.6.6.p.w.q.i.i.z.w.f.g.g.i.i.i.i.i.u.u.z.z.z.i.i.i.i.i.x.e.e.0.} } } } 4.e.x.i.e.e.e.e.e.e.e.e.e.e.e.e.e.e.w.e.e.r.e.e.e.e.e.e.e.e.e.e.e.e.r.r.r.e.e.r.r.r.r.e.e.r.e.e.e.e.e.e.i.i.i.i.i.i.i.i.i.i.e.e.e.e.e.e.e.e.e.i.i.i.i.i.i.i.i.i.e.e.e.e.e.x.x.w.w.w.w.w.w.w.w.w.w.w.w.w.w.w.w.u.u.u.u.p.p.w.w.w.w.w.w.w.w.w.w.w.w.w.w.w.w.w.w.u.u.u.u.u.u.u.u.e.e.e.e.e.e.e.e.u.u.u.u.w.e.e.e.e.e.e.e.e.e.i.i.u.w.w.e.e.w.i.i.i.i.i.i.i.i.i.i.i.i.i.i.i.i.i.e.i.i.i.i.i.i.i.i.i.e.i.i.i.i.i.i.i.i.i.i.x.x.x.x.i.i.i.i.x.x.i.i.i.i.i.i.i.i.i.x.u.u.x.u.u.x.w.} } } | +.t.y.y.y.y.j.y.y.b.r.| | } } } } } } } } } } } } ",
"a a a a a a a a a a a a E a E E E a a a a a a a a a a a a a a a a a a a a a R p E E p p E E a E p p ^ ^ ^ f f ^ f f d r r r d d d d d d r w w w w w d r E #.#.#. .4.4.4.4.4.4.4.0.0.0.0.0.0.0.0. . .#.#.#.#. . .0.0. . . . .0.#.4.4.4.4.4.4.#.#.4.0.4.4. . .#.#.4.4.4. . . . . . . .4.} } 2.2.} } | | | #.b.b.i.b.w.| | 3.2.4.4.}  .| } t.b.0.} | | | | }  . . . . . . . . . . .4.4. . . . .}  . .} 0.g.g.w.f.g.g.g.0.} } } } #.} #.} } } }  . . . . . . . . . .4.4.4.4. . . . . . . . . . .} }  . . . .4.4. .4. . . . . . .4. .#.#.#.#.#. .#.#.} } } } } } } } } } } } } }  . . . . . . . .4.4.4.4. . . . .4.4.4.4. . . . .4.} #.#. . . . . . . . . .4.0.0.#.#.4.4.4.4. . .4.4. . . . . .} } } } } } }  . ...4. . .4.4.4.4.4. .} | | } e.g.0.b.e.#.| | { { { { } e.x.x.x.z.z.x.x.x.x.x.z.z.i.i.x.x.x.x.x.x.x.x.x.x.x.x.x.x.x.x.x.x.x.x.x.x.x.x.x.x.x.x.x.x.e.e.e.e.e.u.u.u.u.u.q.i.i.i.u.p.p.p.w.u.w.w.p.p.p.i.u.q.q.w.u.u.u.w.u.i.u.w.w.w.f.x.g.e.e.i.i.i.i.w.u.u.z.z.i.u.i.i.x.b.e.e.0.} } } 4.q.i.x.x.e.e.e.e.e.e.e.e.e.e.e.e.e.e.e.e.e.e.e.e.e.e.e.e.e.e.e.e.e.e.e.e.e.e.e.e.e.e.t.t.t.t.e.e.e.e.e.e.i.i.i.i.i.i.i.x.i.i.i.e.e.e.e.i.i.e.e.i.i.i.i.i.i.i.i.i.i.i.e.i.i.x.x.w.w.w.w.w.w.w.w.w.w.w.w.w.w.w.w.u.u.u.u.u.w.w.w.w.w.w.w.w.w.w.w.w.w.u.u.w.w.w.w.u.u.u.u.u.u.u.u.e.e.e.e.e.e.e.e.w.w.u.w.w.e.e.e.e.e.e.e.e.e.i.i.w.w.e.e.e.e.i.i.i.i.i.i.i.i.i.i.i.i.i.i.i.i.i.e.i.e.i.i.i.i.i.i.i.e.i.i.i.i.i.i.i.i.i.i.i.x.x.x.i.i.i.i.x.x.i.i.i.i.i.i.i.i.i.i.u.z.x.z.u.i.w.} } } } #.y.j.y.j.j.b.y.t.n.t.#.#.#.} } } } } } } } } } } ",
"E E E E E E E E E a E E E E E E E E a E a E a a E E E E E E a a E E E a a E E p ^ ^ ^ ^ ^ ^ ^ ^ ^ f ^ ^ f p p p p d d r d d d d d d d d d d d w d d @.@.+.#.}  . .4.4.4.4.4.4.4.0.0.0.0.0.0.0.0. .#.#.#.0.0. .0.#.0.#.#.#. .#.#. . .4.4.4.4.4.4.4.4.4.4.4.4.#.0.4.4.4. . . . . . . .2.} } } } } } } } | 0.n.n.b.n.w.3.| 3.2.2.4.} } | | 0.r.} } } } } } }  . ... . . . . . . .} 4. .} } } } } }  .}  .0.0.r.g.g.g.x.r.} } } } #.e.e.} } #. . .}  . . . . . . . . . . . . . . . . . . . .} }  . . . . . . . . . . . . . . .4.4. .#.#.#.#.#. .} } } } } } #.} } } } } } } } } }  . . . . . . . . .0.0.#.#.0. . . .#.#. . . . .} } } } } }  . . . . . . . . . .#.#.2.4.4.4. . . . . . . . . . .#.#.e.e.0.}  .4.4.4.4.4.4.4.5.5.4.4.4.} | } 0.#.} b.n.t.r.e.e.r.r.r.q.i.b.i.x.x.x.x.z.x.x.x.i.u.i.i.x.x.i.x.i.i.x.i.x.x.x.x.x.x.x.x.x.x.x.x.x.x.x.x.x.x.b.x.x.i.e.e.e.e.e.u.u.p.p.p.p.p.q.5.q.i.w.q.q.p.p.p.i.p.q.i.i.e.e.w.w.5.6.p.6.i.x.u.w.w.u.w.u.i.i.e.e.e.e.w.w.u.u.u.u.u.u.i.i.i.0.0.#.} } } } 2.0.0.0.0.0.0.0.0.0.0.0.0.0.0.#.0.#.#.0.0.8.0.#.#.#.0.0.0.0.0.0.0.0.0.0.0.0.0.0.0.9.9.9.9.9.0.e.e.e.e.i.i.i.i.i.i.x.x.x.x.i.i.i.e.i.e.i.i.i.i.i.i.i.i.i.i.i.i.i.i.i.i.i.i.i.i.u.u.u.w.w.w.w.w.w.w.w.w.w.w.u.u.p.u.w.w.w.w.w.w.u.u.u.u.u.u.u.u.u.u.u.u.u.u.u.u.u.u.u.u.u.u.u.u.e.e.e.e.e.w.w.w.w.w.w.w.w.w.e.w.e.e.e.e.e.e.i.i.e.e.e.e.e.e.e.e.i.i.i.i.i.i.i.i.i.i.i.i.i.e.e.e.e.e.e.e.e.i.i.i.i.i.i.i.i.i.i.i.i.i.i.i.i.i.i.i.i.i.i.i.x.x.i.i.i.i.i.i.i.i.x.i.z.z.x.i.i.i.q.| } } | } #.#.#.#.#.0.#.r.b.b.e.r.r.#.} #.#.} #.} } } } } ",
"E E E E E E E E E E E E E E E E E E E E a E E a E E E E E E E E E E E a E p E ^ ^ ^ ^ ^ ^ p p ^ f ^ ^ p p r e e 5 p p r d d d w w w w w 6 p r 5 5 r @.y.$.#.#. . .4.4.4.4.4.4.4.4.0.0.0.0.0.0.0. .#.#.#.0.0.0.0.#.#.#.#. . .#.#. . .4.4.4.4.4.4.4.4.4.4.4.4.4.4.4.4. . . . . . .}  .2.} 2.} } } | | | | #.t.i.e.b.q.} | | } | | | | | | | | | | } } } } }  . . . . . . . . . .}  .} | | } } } } } } | }  .0.g.g.g.g.r.} } } } } b.e.#.} } }  . . . . . . . . . . . . . . . . . . . . . .} }  . . . . . . . . . .4.4.4.4.4.4.4.4.#.#.#.#.0. .} } } } } } } } } } } } } } } } }  . . . . . . . . .0.0.#.#. .} } }  . . . .} } } } } } } }  . . . . . . . . . . . .4.4.4.4. . . . .4.4. .} } } } } b.i.0.} } }  .4.4.4.4.4.5.4.4.4.} } } | | ! | t.n.b.b.b.b.a.a.b.i.b.b.x.x.x.x.x.z.x.x.x.x.x.i.i.x.x.x.x.i.x.i.x.x.x.x.x.x.x.x.x.x.x.x.x.x.x.x.x.x.x.x.x.i.i.e.e.e.e.i.u.u.u.p.u.p.p.p.q.q.0.#.0.8.p.p.p.p.p.q.0.0.0.0.0.0.q.q.p.6.6.p.w.w.u.u.w.u.u.i.i.e.e.e.w.w.u.u.u.u.u.i.i.e.e.} } } } } } } } } } } } } } } } } } } } } } } } } | } } | | } } } } { { } } } } } } } } } } } } { | { { | | e.e.e.e.i.i.i.i.i.i.i.x.x.x.i.i.i.i.i.i.i.i.i.i.i.i.i.i.i.i.i.i.i.i.i.i.i.i.i.z.u.u.u.u.w.w.w.w.w.w.w.w.w.w.w.w.u.w.w.w.w.w.w.w.u.u.u.w.u.w.u.w.u.w.u.u.u.w.u.w.u.u.u.u.u.u.u.u.e.e.e.e.w.w.w.w.w.w.w.w.w.w.w.w.e.e.e.e.e.e.i.i.e.e.e.e.e.e.e.e.i.i.i.i.i.e.e.e.i.i.i.i.e.e.e.e.e.e.e.e.e.e.e.e.i.i.i.i.i.i.i.i.i.i.i.i.i.i.i.i.i.i.i.i.x.i.i.i.i.i.i.i.i.i.x.u.z.u.u.u.i.i.w.} { { | | | ] ! ] | | | #.t.b.t.b.0.} { } } } } } } } } } ",
"E E a p E E E E E E E E a E E E E E p p E E E E E E E E E E E E E E E p p p p p f ^ ^ ^ ^ ^ ^ ^ ^ ^ o.o.^ E E E ^ ^ ^ d d d d w d w d w d f ^ ^ a a +.#.}  .0.4.4.4.4.4.4.4.4.4.4.4.0.0.0.0.0.0.#.#.#.#.#.#.#.#. . . .#.#.#.#.#.#.#.4.4.4.4.4.4.4.4.4.4.4.4.4.4. . . . . . . . . .4.2.} 2.} } 2.0.+.#.#.r.b.b.b.b.w.5.4.4.0.0.2.4.4.0.#.| | | } | | } } } }  . . . . . . . .} } } } } #.0.#.} } } } } } } r.x.g.g.b.0.| } 0.#.#.t.t.#.#.#.} } }  . . . . . . . . . . . . . . . . . . . .} } #.}  . . . . . . . .4.4.4.4.4.4.4.4. . .0.0. .} } } } } } } #.+.} } } } } } } }  . . . . . . . .#.#.#.#.#. .} } } }  . . . .} } } } } }  . . . . . . . . . . . . . .4.4.4.4. . . . .4.4. .} } } } } b.e.0.} }  . .4.4.4.4.4.4.4. .} | } r.#.+.} #.b.a.a.b.b.b.i.i.b.b.b.x.x.x.x.x.i.i.u.i.i.x.x.x.x.g.g.g.g.e.g.g.g.x.x.x.x.x.x.x.x.x.x.x.x.x.x.x.x.x.x.x.x.i.x.e.e.i.i.i.u.p.u.u.u.6.p.q.i.n.b.r.j.n.q.q.p.8.q.a.n.j.j.j.j.n.n.q.q.b.p.p.u.p.u.w.u.u.u.i.i.i.i.i.u.u.u.u.u.u.u.i.i.b.e.#.} #.#.#.#.0.8.} } #.#.#.#.#.#.#.#.#.#.} } #.#.} #.9.0.9.9.0.0.0.0.0.0.0.0.0.0.0.0.0.0.0.0.0.0.0.0.0.0.9.9.e.e.e.e.x.x.z.z.i.i.i.i.i.i.i.i.i.i.i.i.i.i.i.i.i.i.i.i.i.i.i.i.e.e.e.e.e.e.w.w.w.w.w.w.w.w.w.w.w.w.w.w.w.w.w.w.w.w.w.w.w.w.w.w.w.w.w.w.w.w.w.w.w.w.w.w.p.w.w.w.w.w.w.w.u.w.u.u.u.u.i.i.i.i.u.u.w.w.w.w.w.w.w.w.e.e.e.e.e.e.e.e.e.i.e.e.e.e.e.e.i.i.i.i.i.i.i.i.i.i.i.i.e.e.e.e.e.w.e.e.e.e.e.e.e.e.e.e.i.i.e.e.e.e.e.i.i.i.i.i.i.i.i.i.i.i.i.i.i.i.i.i.i.i.u.u.u.u.u.u.i.x.w.2.4.0.0.0.0.#.#.0.0.9.#.0.t.b.a.b.r.2.2.0.0.0.0.0.0.0.0.0.",
"E E E p ^ ^ f ^ ^ ^ ^ ^ ^ ^ ^ ^ ^ ^ f f ^ ^ ^ ^ E E E p ^ ^ ^ ^ p p p p p p d d p p p ^ ^ ^ ^ ^ o.+.$.$.$.$.s.s.y.y.o.p 9 p d d d d d r d @.y.y.y.$.$.#. . .4. .4.4.4.4.4.4.4.4.0.4.0.0.0.0.0.0.#.#.#.#.#.#.#.#. .4.#.#.#.#.#.#.#.#.4.4. .4.4.0.4.4.4.4.4.4.4.4. . . . . . . . . .4.2.} 2.} } 0.n.b.b.a.b.n.n.n.n.c.x.x.b.b.b.b.b.x.b.e.} | } } } } } } | | | | } } | | } } } } } } #.e.t.r.} } | } } } } e.b.e.b.n.0.} 0.t.t.t.t.b.t.t.e.#.} } }  . . . . . . . . . . . . . . . . . . .} } #.#.}  . . . . . . . . .4.4. . .4.4. . .0.0. .} } } } } } } +.+.} } } } } } } } }  . . . . . . . .#. . . .} } } } }  . .} } } } } } } }  . . . . . . . . . . . . . .4.4.4.4.4. . . . . . .}  .0.e.e.t.e.#.} } } } } 4.4. . . . . .} } 0.a.a.t.a.t.b.a.b.b.b.b.b.b.b.x.x.x.i.x.i.u.i.i.i.i.i.x.x.x.x.g.g.g.x.g.g.x.x.x.x.x.x.x.x.x.x.x.x.x.x.x.x.x.x.x.x.x.x.i.e.e.e.e.i.i.u.p.u.u.p.i.u.2.e.9XsXiXuXsXa.0.i.9.r.9XjXiXOXiXiXsXiXt.2.8.2.5.q.u.u.p.p.u.w.u.u.i.i.p.u.u.u.u.u.u.u.i.i.x.e.0.} } } } } } } } } } } +.} +.+.+.+.+.} } } } } } 8.r.e.e.e.e.e.e.e.e.e.e.e.e.e.e.e.e.e.e.e.e.e.e.e.e.e.e.e.e.e.e.e.x.x.z.z.i.i.i.i.i.i.i.i.i.i.i.i.i.i.i.i.i.i.i.i.i.i.e.e.e.e.e.e.e.w.w.w.w.w.w.w.w.w.w.w.w.w.w.w.w.w.w.w.w.w.w.w.w.w.w.w.w.w.w.w.w.w.w.w.w.w.w.w.p.w.w.w.w.w.w.w.u.u.u.u.u.u.i.i.i.i.i.u.w.w.w.w.w.w.w.w.e.e.e.e.e.e.e.e.i.i.e.e.e.e.e.e.i.i.i.i.i.i.i.i.i.i.i.i.e.e.e.e.w.w.w.w.e.e.w.w.e.e.e.e.i.i.e.e.e.e.e.e.e.i.i.i.i.i.i.i.i.i.i.i.i.i.i.i.i.i.u.u.z.u.u.u.u.x.u.5.w.e.e.e.e.e.e.a.b.e.i.b.b.b.a.a.b.e.i.b.x.x.x.x.x.x.b.x.",
"f f d d d d f f f f f f f f f f ^ f f f f ^ ^ f f f f f f f f f f f p f p f d d p p p a ^ E E E | } #.#.#.#.0.0.r.r.+.p p p p p p p p r p o.$.$.#.#.#. . .4.4. .4.4.#.#.4. .4.4.0.0.0.0.0.0.0.0.#.#.0.0. . . . .4. .#.#.#.#.#.#.0.4.4.4. .#.#.0.4.4.4.4.#.#. . .#.#.#. . . . . .} 0.} } 2.} } e.n.b.n.b.b.n.b.n.x.c.x.x.x.b.b.b.b.g.b.e.{ | | ] | | | | | | | | } } | | | } } } } } } e.t.0.| | | } } } } e.b.e.t.b.0.} 0.t.t.t.t.b.t.b.t.#.} #.} }  . . . . . .} } } } } } } } #.#.#.#.} } } #.} } } }  . . . . . . . . . .4.4. . . . . .} } } } } } } } } } } } } } } } } } }  .}  . . . . . . . . . . . . . . . . . . . .} } } } } } } } } } } }  . . . . . .4.4.4.4. . . . .}  . .}  .e.t.t.e.e.#.} } } } |  . . . . . . .} #.r.a.t.t.b.t.t.b.b.b.b.x.x.b.x.x.x.x.i.x.i.i.i.i.i.i.i.x.x.x.x.f.f.x.x.x.x.x.x.x.x.x.x.x.x.x.x.x.x.x.x.x.x.x.x.x.x.x.i.i.e.e.e.e.i.p.p.p.p.p.p.q.q.|  .C.uXoXG.G.#.| 8.{ | j.OXD.H.H.D.G.F.#.} | 8.0.q.9.p.p.p.w.w.w.w.w.e.e.u.u.w.u.u.u.u.i.i.e.e.#.} } } } } } } } } } } } } #.#.} } } } } } } 2.} 8.e.e.e.e.e.e.e.e.e.e.e.e.i.i.i.i.i.i.i.i.e.e.e.e.i.i.i.i.e.f.e.g.x.x.i.i.i.i.i.i.i.i.i.i.i.i.i.i.i.x.i.i.i.i.i.i.w.w.w.e.e.e.e.w.w.w.w.w.u.u.u.u.w.w.w.w.w.p.u.u.u.u.u.u.w.u.u.u.u.w.w.w.u.u.u.u.u.u.u.u.u.u.u.u.u.u.u.u.u.u.u.u.u.u.u.i.i.u.i.e.e.e.e.e.e.e.e.e.e.e.i.i.i.i.i.i.i.i.e.e.i.e.e.e.e.i.i.i.i.i.i.i.e.e.i.i.i.i.i.e.e.e.w.w.w.w.w.w.w.w.u.w.e.e.e.e.e.e.e.e.e.e.e.e.e.e.e.i.i.i.i.i.i.i.i.i.i.i.i.i.i.i.i.u.z.u.z.z.u.z.z.w.i.w.e.e.e.e.e.x.x.x.x.b.b.x.x.x.x.i.x.x.x.x.x.i.e.e.i.i.",
"^ p d p d f f f f f ^ f ^ f ^ f E p f f ^ E ^ p ^ p p p f p f f ^ ^ ^ f f f f f ^ E a ^ +.+.] | | |  . . .4.4.0.} 0.#.| +.+.+.+.+.+.+.o.o.$.r.} #.0. . .4.4. . . . . .#. . .4.4.0.0.0.0.0.0.0.0. .#.0.0. . . . .#.#.0.#.#.#.#.#.0.4.4.4. .#.#.#.4.4.4.#.#.#.#.#.#.#.#. . . . .} }  .} } } } } e.b.b.n.n.b.n.b.n.x.c.b.x.x.x.x.b.x.x.b.t.0.0.0.} } } } 0.r.r.e.e.} } | | } } } } } | | #.r.+.| } e.e.0.} | 0.b.e.0.e.0.| } 0.0.#.#.+.+.0.0.| } } } } }  . . . . .} } } } } } } } #.#.#.#.} } } }  .} } } }  . . . . . . . . . . . . . . . .} } } } } } } } } } } } } } } } } } } } } } } } }  . .} }  . . . . . .#. . . . .} } } } } } } } } } } } } }  . . . . .4.4.4.4. . . . . .4.} | | } 0.#.b.b.e.r.e.e.e.w.} } }  . . . . .} #.r.0.#.#.r.b.b.b.b.x.x.x.b.x.x.x.x.x.b.x.i.i.i.e.e.e.i.x.x.x.x.f.x.x.x.x.x.x.x.x.x.x.x.x.x.x.x.x.x.x.x.x.x.x.x.x.x.i.i.e.e.i.i.i.p.p.p.p.p.u.4.C.9XV.uXaXiXaXiXG.G.9XG.F.G.iX@X@XgXOXOXoXn.G.iXsX0Xb.8.q.u.6.p.w.w.w.w.w.w.w.w.w.u.u.u.u.e.e.i.x.w.0.0.q.e.w.q.q.e.e.e.e.e.e.e.e.e.e.e.e.e.e.e.e.q.e.i.x.e.e.e.e.e.e.e.e.e.e.w.w.w.e.e.e.w.w.e.e.e.e.i.i.i.i.g.f.e.e.i.x.i.i.i.i.i.i.i.i.i.i.x.g.i.i.i.i.i.i.i.i.i.i.u.u.u.u.w.w.w.w.w.u.u.u.u.u.u.u.w.w.w.w.w.w.w.w.w.w.w.w.w.w.w.w.u.w.w.w.w.w.w.w.w.w.w.w.w.w.w.w.w.w.w.w.u.u.u.u.i.i.e.e.i.u.i.e.e.e.e.e.e.e.e.e.e.e.i.i.i.i.i.i.i.i.e.e.i.i.e.e.e.e.i.i.i.i.i.i.e.i.i.i.i.w.e.e.e.w.w.w.w.w.w.w.u.u.u.u.i.w.e.e.e.e.e.w.e.e.e.e.e.e.e.e.i.i.i.i.i.i.i.i.i.i.i.i.i.i.i.u.z.z.z.z.u.z.z.z.u.w.w.u.w.w.x.x.u.u.x.x.x.x.x.b.i.x.x.x.i.x.z.p.i.i.i.b.",
"a a p a a a E a E a E E E E E a E E E a a a a a E a E a a a a a E a E a a a E E E E E +.#.#.#.#. . . . . . . . . . . . .#.#.#.#.#.#.#.#.#.#.#. . . . . . . .#.#.4.4.4.4.4.4.0.0.#.0.0.#.#.#.#.#. . .#.#.#.#.#.#. . . . . . .#.#.#.#.#.#.#.#.#.#.#.#.#.#.#.#.#.#. . . .#. . . . . . .} } } } } 0.n.n.n.n.n.b.b.b.x.x.c.x.x.x.x.x.b.n.b.b.b.b.0.| } | | 9.t.b.b.n.e.| | } | | | | | | | | | | | | r.b.t.} | q.a.e.| } } } #.} | } } #.{ | +.+.#.} } }  .} } }  .#.} } } } } } } #.0.#.#.#.#.} #.#.0.} } } } #.0.} } } } } } #. . . . . . .} } } } { } } } } | | | | +.| | { } #.} } } } } } } } } } } } } } } } } } }  . . .} }  .} } } 0.} } } } } }  .} | }  .} 2.} } 4.4.} } } } } } } } } +.#.t.b.b.n.n.b.n.e.}  . . . . . . . .#.#.#.#.} 0.b.n.n.n.n.n.b.n.b.b.b.b.x.b.b.b.b.b.b.a.b.x.e.x.i.i.x.i.x.x.x.x.x.i.i.i.i.i.i.i.i.x.x.x.x.x.x.x.x.x.i.x.x.i.i.i.i.u.q.p.p.p.p.q.q.| n.iXaXuXpXpXoXiXuXiXuXsXiXG.OXgXdXzXdXoXuXoXOXdXzXjX$.} } | p.p.i.p.6.w.u.w.w.w.w.w.e.u.u.u.u.i.i.i.i.i.i.i.x.x.x.i.i.i.e.e.e.e.e.e.e.g.x.x.i.i.i.i.i.i.i.i.e.e.e.e.w.i.u.i.u.w.w.w.w.w.w.u.w.i.i.i.i.i.i.i.i.g.g.g.g.i.i.i.x.x.i.i.i.i.i.i.i.x.w.w.w.u.u.i.i.i.w.i.p.w.u.w.u.u.u.q.p.i.u.p.p.p.i.u.q.0.0.0.r.0.0.w.4.r.e.0.0.0.q.0.q.0.0.0.0.r.q.q.q.0.0.0.0.0.0.0.0.0.0.0.0.0.r.e.r.0.r.e.e.e.i.i.u.i.i.w.e.e.e.i.i.i.i.i.i.i.i.i.w.w.i.i.i.e.e.i.i.w.w.w.e.e.w.w.e.w.w.w.i.e.w.w.w.w.w.w.e.w.w.w.w.w.w.w.w.i.w.i.i.i.w.w.w.q.w.u.w.i.i.i.i.i.i.w.i.i.i.i.i.i.i.i.i.i.i.u.u.w.w.u.u.u.u.u.u.u.u.u.u.u.u.u.u.x.x.x.x.x.x.x.x.x.z.z.z.z.z.z.z.i.i.x.b.",
"E E E E E E E E E E E E E E E E E E E E E E E E E E E E E E E E ] ] ] ] o.o.o.o.o.] ] +.#.#. . . . . . . . .4.4. .4.4.4. . . . . .0.#.0.0.4.4.4.4.4. . . . .#.#.0.4.4.4.4.4.#.#. .0.0.#.#.#.#.#. . .#.#.#.#.#.#. . . . . . .#.#.#. . . . . . . .#.#.#.#.#.#.#.#. . . . . . . . . . .} } } } } 0.e.e.e.e.e.b.n.n.b.b.x.x.x.b.b.b.b.b.x.e.b.b.0.} } } { 0.t.t.t.a.e.} } 0.2.} 4.} } } } } } } } } 0.t.e.} } 0.e.r.{ } } } #.} | #.#.0.9.r.r.+.+.} } } } } } } } } } } } } } } } } #.} } #.#.#.} } } } } #.} } #.} } } } } } #. . .}  . . .} } } } { } } } } } } } #.#.#.#.#.| } } } } } } } } } } } } } } } } } }  .} } } } }  . . . .} #.} } 0.0. .} }  .} } } } 2.} } 4. . . .} } } } } #.+.#.0.b.b.b.n.b.t.t.r.} } }  . . . . . . . .#.#.} 0.e.e.e.e.e.e.e.e.e.e.e.e.e.e.e.e.e.e.e.e.e.q.q.a.x.i.i.i.i.i.i.i.i.x.x.x.x.x.x.x.x.i.u.x.x.x.x.i.u.x.i.x.i.i.i.i.i.x.u.u.u.p.q.0.b.$.l.oXoXoXoXyXyXoXoXuXuXiXiXG.OXgXaXjXaXXXoXXXXXOXOXOXh.j.n.n.e.p.p.p.p.p.q.q.q.w.w.w.w.i.u.u.u.i.i.i.i.i.z.z.z.x.x.x.x.x.i.i.g.e.e.e.e.e.e.e.e.i.i.i.i.i.i.i.e.w.w.w.w.u.u.w.w.w.w.w.w.w.w.u.u.u.u.i.i.i.i.i.i.x.g.g.g.i.i.i.i.x.x.i.i.i.i.i.i.x.u.x.x.u.u.u.u.q.6.u.p.p.u.p.i.p.u.p.p.u.p.6.u.p.w.q.e.n.C.j.n.n.n.n.n.n.n.j.n.n.n.n.n.n.n.n.n.n.n.n.n.n.n.j.n.n.n.n.n.n.n.n.n.n.n.n.n.n.n.n.b.r.e.i.u.i.i.w.w.e.e.e.e.e.e.e.e.e.e.e.w.i.i.i.w.e.e.e.e.e.e.e.e.w.w.w.i.i.i.e.w.w.w.w.w.w.w.w.w.w.w.w.w.w.w.u.w.i.i.w.w.w.w.w.w.p.p.w.w.u.i.i.i.i.i.i.i.i.i.i.i.i.i.i.i.i.i.u.u.w.w.u.u.u.u.u.u.u.u.u.u.u.u.u.u.x.x.x.x.x.x.x.x.x.z.x.z.z.z.z.z.i.i.i.b.",
"#.#.#.#.#.#.#.#.#.#.#.#.#.#.#.#.#.#.#.#.#.#.#.#.#.#.#.#.#.#.#.#.} } } } +.+.#.#.#.} } #.4. . . . . . . .4.4.4.4.4.4.4.4.4. .4.4. . . .0.4.4.4.4.4.4. . .4.4.#.#.#.#.#.#.#.#.#.#. . .#.#.#.#.#.#. . . . . . .#.#. . . . . . . . .#.#. . . . . . .#.#.#.#.#.#.#.#. . . . . . . . .} } } } } } } 0.} } } } 0.a.b.b.n.b.b.b.b.b.x.x.b.c.b.x.b.b.x.e.x.e.t.a.n.n.b.n.n.i.i.b.i.i.x.e.i.e.e.e.e.e.e.e.e.b.b.e.e.b.b.i.| { } } #.} } r.b.t.b.n.t.| +.#.} } } } } } } #.#.#.#.#.#.#.#.#.#.} #.#.#.#.+.+.} } 0.0.} } #.#.} } } } } } } } } }  .} } } } } 0.0.e.e.e.e.e.e.b.a.t.b.e.{ { } } } } } } } } } } } } } } } } } #.#.} } } #.} } } } } } } } e.b.0.| | } } } } | 2.} } } } } } | } } } } } } #.#.b.t.y.t.r.#.#.} } .... . . . . . . . . .#.} } 0.} } } } } } } } } } } } } } } } +.#.} } } } e.i.w.w.w.w.w.w.w.w.u.u.u.i.i.i.i.i.e.e.e.x.x.e.i.i.i.i.i.i.i.i.i.i.w.p.i.i.i.0.e.sXuXiXpXoXoXoXyXyXyXoXuXyXuXuXXXoXXXl.XXXX}.yXyXyXoXXXXXaXjXjXxXt.8.9.q.p.p.p.q.i.q.w.w.w.u.u.u.u.u.u.u.u.i.z.z.z.z.z.i.x.x.i.i.e.e.e.e.e.e.e.e.e.i.i.i.i.i.i.e.e.e.e.w.w.w.w.w.w.u.i.i.i.i.i.i.i.i.i.i.i.i.i.i.i.u.u.u.u.e.e.e.e.i.i.i.i.i.i.i.i.w.z.z.u.u.p.p.p.i.p.i.p.u.u.5.6.w.u.p.p.p.6.6.w.w.w.0.n.sXjXsXdXjXiXiXaXiXiXiXsXsXsXsXsXsXjXjXjXsXsXaXsXaXaXsXsXsXsXsXsXsXsXsXsXsXjXsXsXsXjXjXiX0.w.x.u.i.i.e.e.e.e.e.e.e.e.e.e.0.w.w.i.i.i.i.i.i.i.i.e.i.i.e.w.w.w.w.w.w.u.w.w.x.u.w.w.w.x.w.q.w.w.w.w.u.u.p.p.i.i.u.w.p.u.i.i.u.u.u.u.u.u.i.u.e.e.i.i.i.i.i.i.i.i.i.i.i.i.u.u.w.w.u.u.u.u.u.u.u.u.u.u.u.u.w.u.x.x.i.x.x.x.x.x.i.x.x.x.i.z.i.i.u.w.i.b.",
"0.0.0.#.0.#.0. .0.#.0.0.0.#.#.#.#.#.#.#.#.#.#.#.#.#.#.#. . . . . . .4. .#.#.0.#.0.0.4.4. .} }  . . . . .4.4.4.4.4.4.4.4.4.4.4.4.4.4.4. .4.4.4.4.0.0.#. . .0.#.#.#.#.#.#.#.#.#.#. . .#.#.#.#.#.#. . . . . . . . .#. . . . . . . . . . . . . .#.#.#.#. . . . . . . . . .#. . . . .} } } }  .} }  .} } } } 0.b.n.b.n.n.b.n.b.b.b.b.x.b.b.b.b.b.c.x.b.b.b.b.n.b.b.b.b.b.b.b.x.x.x.x.x.x.x.g.x.g.i.i.x.b.b.i.x.b.x.i.| | { } #.| | r.b.t.t.b.0.| #.} } } } } } } } } } } } } } } } } } } #.#.} { } #.} } +.} } } } } } } } } #.} } } } } } } } } } } r.e.e.e.i.x.b.b.n.b.b.n.e.{ | | } } } } } } } } } } } } } } } } } } } } } } } } } } } } | | r.t.#.| | | } } } } 2.} } } | } } } } } } } +.+.+.#.b.b.t.b.r.} } | } } .... . . . . . ... .#. .} #.} } } } } } } } } } } } } } } } | } +.#.} 8.e.i.x.x.x.x.x.x.x.x.x.x.x.x.i.i.i.e.e.e.e.e.e.e.i.i.i.i.i.i.i.i.i.i.p.i.u.q.0.| } G.iXoXoXoXoXoXyXyXyXXXyXyXyXuXXXuXXXV.XXtXtXyXyXyXyXoXXXlXhXdXjXo.E | #.} 2.2.} 8.q.q.q.q.w.w.w.w.u.u.u.u.i.i.i.i.z.z.z.z.x.x.i.i.e.e.e.e.e.e.w.w.i.i.i.i.w.e.e.e.e.e.w.w.w.w.e.e.i.i.i.i.i.i.i.i.i.i.i.i.i.i.i.i.i.u.u.u.e.e.e.e.i.i.i.e.u.i.i.u.u.i.u.6.p.u.p.u.u.p.p.q.q.w.4.4.4.5.5.4.4.4.4.4. ...} j.iXsXiXaXdXiXiXaXiXaXaXiXaXaXaXaXaXaXiXiXaXaXaXaXaXaXaXaXaXaXaXaXaXaXaXaXaXaXsXaXaXsXsXuX.. .4.4.q.0.0.#.#.#.#.#.#.#.#.#.r.w.r.e.e.q.i.i.e.e.w.w.w.w.w.w.w.e.w.w.w.w.w.w.w.u.w.w.w.w.w.q.q.q.p.u.p.p.p.p.q.w.w.q.p.u.u.u.p.w.p.i.u.w.w.w.e.i.i.i.w.i.i.i.i.i.i.i.i.u.u.u.w.w.u.u.u.u.u.u.u.u.u.u.u.u.w.w.u.u.i.i.x.x.x.x.i.x.x.i.i.i.i.i.i.i.i.b.",
"}  .} } } } } } } } } } } } } } } } } } } } } } }  . .} } }  . . . . . . . . . . . . . . . . .4. . . . . . . .4. . . . . . . . . . . .#. . . . .#.#.#. . . .#.#.#. . . . . . . . . . . . . . . . . .#.#.#. . . .#.#. . . . . . . . . . . .#.#.#. . . . . . . . . . . . . . . . .}  .} }  .} } } 0.0. .} 0.e.r.0.0.0.0.0.0.0.0.e.g.x.b.b.x.x.x.x.x.x.a.b.b.b.i.x.i.i.x.x.u.x.x.w.x.u.i.w.i.w.i.i.x.x.x.x.x.x.x.x.q.q.q.e.e.#.| r.t.r.t.t.r.0.r.} } } } } } } } } } } } } } } } } } #.#.#.+.+.0.t.r.#.} +.+.#.#.} #.#.} } } } } } #.#.#.} } } } } w.w.e.e.i.x.x.x.e.x.x.b.e.r.r.} } } } } } } } } } } } } } } +.} } } +.} } } +.#.}  .} } | | r.t.+.0.r.+.| } } } } } } } } 0.r.0.r.e.r.0.r.r.r.r.#.r.r.y.r.} } } } }  .} }  . . .}  .} }  .} } #.0.0.0.0.#.#.#.#.#.#.#.#.#.} #.#.#.#.#.#.+.#.e.a.e.w.w.w.w.w.f.f.w.w.e.e.e.e.e.e.e.e.e.e.e.e.i.i.i.i.i.i.i.i.i.i.p.i.q.q.6XuXG.aXXXoXXXoXoXoXyXpXyXyXyXyXyXyXtXyXuXtXuXuXeXwXwXeXwXyXl.pXOXOXhXH.H.OXOXG.F.G.G.G.q.q.q.q.u.w.w.w.u.u.u.u.u.u.i.i.i.i.z.z.i.i.i.i.i.i.i.i.i.i.u.u.i.i.i.i.i.i.i.i.u.u.i.i.i.i.i.i.i.i.i.i.e.e.i.i.e.e.e.e.e.e.e.i.i.i.i.i.e.e.e.e.e.e.e.e.u.u.u.u.i.z.i.u.u.i.p.p.i.q.q.q.n.9XC.C.6X9XV.G.9XuXuXuXuXuXG.oXsXaXOXaXiXiXiXiXiXiXaXaXaXaXaXaXaXaXiXaXaXaXaXaXaXaXaXiXaXaXaXaXaXaXaXaXiXiXaXiXiXiXiXiXG.uXuX9X9XG.G.G.9X9X9X9X9X9X9X9X9XC.r.w.e.w.i.i.e.e.e.e.e.w.w.i.w.w.x.w.w.w.w.u.u.u.u.w.w.w.u.u.w.w.u.u.u.u.p.u.q.i.w.q.w.w.p.p.i.p.u.i.u.w.i.i.q.e.i.i.i.i.u.u.i.i.i.u.u.u.i.u.e.e.u.u.u.i.i.i.u.u.u.u.i.i.e.e.w.w.i.i.i.i.i.i.i.i.i.i.i.i.i.i.i.u.i.x.",
"} } } } } } }  .} } } } } } } } } } #. . . . . . . . . . . . . . . . . . . . . .}  . . . . . .4. . . . . . . . . . . . . . . . . . . .#. . . . .#.#.#. . . . .#.#.#. . . . . . . . . . . . . . . . .#.#. . . . .#.#. . . . . . . . . . . . .#.#. . . . . . . . . . . . . . . . . . .} }  .} } } } } } } } 2.} | } | | } | | #.e.b.b.n.b.b.b.x.x.x.b.b.b.n.n.b.b.x.x.x.x.x.x.x.x.x.x.x.x.x.x.x.x.x.x.x.x.x.b.b.x.b.b.b.b.t.+.| 9.t.t.t.b.b.b.t.} | } } } } } } } } } } } } } } { | } +.} } } r.b.r.#.| } +.+.#.+.#.#.} } } } } } } } } } } } } } e.e.e.x.x.x.x.x.x.x.x.b.b.b.b.0.| | | | | | | { | | | | | | | | | | | | | | +.#.} } } } | +.t.b.t.n.n.r.| | | ~ | | { | | 0.b.b.b.b.b.b.b.b.a.t.E | ] +.#.| } } } } } } } } } } }  .} } } } } 0.} } } }  . .} #.} } } } } } } } #.#.} +.} #.t.b.e.e.e.e.e.e.e.e.e.e.e.e.e.e.e.e.e.e.i.i.i.i.a.x.i.i.i.i.i.i.i.i.p.p.q.0.9XsXuXuXpXoXoXyXyXXXyXyXyXyXyXyXyXyXuXuXtXtXtXtXwXwXwXeXyXsX}.uXoXOXzXzXzXvXhXOXG.uXiX0Xq.q.p.q.q.u.w.w.u.u.u.u.u.u.u.u.z.z.z.z.i.i.i.i.i.i.i.i.i.i.u.u.i.i.i.i.i.i.i.u.u.u.i.i.i.i.i.i.i.e.i.i.e.i.i.e.e.e.e.e.e.e.e.i.i.i.i.i.e.e.e.e.e.e.e.w.u.u.u.u.p.u.u.u.u.p.5.q.q.0.4.0.n.uX9XuXG.G.G.oXiXjXjXdXdXdXaXaXaXiXOXaXaXaXiXiXOXOXOXOXOXOXOXOXOXOXOXOXOXOXOXOXOXOXOXOXOXOXOXOXOXOXOXOXOXOXOXOXOXOXOXOXiXsXsXaXsXaXiXiXiXiXsXiXsXsXsXsXjXG.0.0.e.e.x.i.i.e.e.w.w.w.w.q.w.w.w.u.w.w.w.w.u.u.u.u.w.5.5.w.q.q.q.q.q.q.q.w.0.0.0.0.w.w.w.z.x.5.w.p.q.0.r.q.0.q.q.w.i.i.u.q.u.i.u.u.u.u.i.i.w.w.u.u.u.i.i.i.u.u.u.u.i.u.e.e.w.w.e.i.i.i.i.i.i.i.i.i.i.i.i.i.u.u.w.i.",
"} } } } } } } } } } } } } } } } } } } } } } }  .} } } } } } }  . . . . . . . . .} } }  .}  . . . . . . . . . . . . . . . . . . . . .}  .}  .} } #.#.#. . . . . . . . . . . . . .#.#. . . . . . . . . . . . . . .#. . . . .#.#.#.#.#. . . . . . . . . . . . . . . . . . . . . . . .#. .}  . .} }  . .4.4.4.4.4.4.4. . . .} } 0.e.t.e.e.b.n.n.b.x.x.x.x.x.n.n.x.x.x.x.z.z.x.z.z.z.z.x.x.x.x.x.x.x.z.x.z.z.z.z.z.z.x.x.e.e.t.+.+.#.t.t.r.0.y.t.t.+.} } } +.+.+.+.} } } } +.+.+.+.+.+.} } } } #.0.t.r.+.+.+.+.+.#.#.#.#.#.} } } } } #.#.} } } } } } e.e.e.w.i.u.u.z.x.x.x.x.e.e.a.8.{ { | | { { { { { { { { } } { { } | | { +.+.| | | | | } | +.r.y.r.t.a.+.| | +.} } #.#.| | 0.b.b.b.b.b.b.b.n.b.a.+.+.+.+.#.} } #.} } } } #.} } } } #.} } } } } #.8.8.4. . . . . .} } } } } } } } #.#.} #.#.#.t.t.e.e.e.e.e.e.e.e.e.e.e.e.e.t.e.e.e.e.e.e.e.e.e.i.i.i.i.i.i.i.i.p.p.p.w.4.n.uXoXoXoXoXXXXXXXXXXXyXXXXXXXyXyXyXuXyXuXuXyXyXyXwXeXeX{.wX}.uXXXiXzXhXdXgXOXG.G.G.9X9Xq.p.q.p.p.u.w.w.u.w.w.w.w.u.u.u.u.u.u.i.i.i.i.i.i.i.i.i.i.i.i.i.u.u.u.u.u.u.u.u.u.u.i.i.i.i.i.i.w.w.e.e.e.e.e.e.e.e.e.e.e.e.e.e.e.e.e.e.e.e.e.e.e.e.w.w.u.w.u.p.6.p.u.u.p.5.q.b.e.g.r.r.j.G.D.G.G.G.G.G.OXiXiXOXiXiXiXiXOXiXaXaXaXiXOXdXvXhXhXhXhXhXhXhXhXhXhXhXvXvXvXhXvXvXvXvXhXhXhXhXvXhXvXvXvXhXvXhXhXhXhXdXOXOXiXiXiXiXuXuXOXOXOXOXOXOXuXuXiXG.r.e.e.0.w.q.w.q.0.q.i.x.i.w.x.w.5.w.w.5.5.w.w.5.5.u.x.g.w.w.e.e.e.e.e.e.g.g.e.e.e.e.x.w.5.w.5.4.w.x.e.e.e.e.b.i.w.q.w.i.u.w.w.w.w.w.w.w.w.w.w.w.w.w.w.w.w.w.w.w.u.u.e.w.w.e.w.w.w.e.i.i.i.i.i.i.i.i.i.i.i.i.e.w.w.i.",
"} } } } } } } } } } } } } } } } } } } } } } } } }  .} } } } }  . . . . . . . . . . .}  .}  .} }  . . . . . . . . . . . . . . . . . . . .}  .} } #.#.#. . . . . .}  . . . . . . . .#.#. . . . . . . . . . . . . .#. . . .#.#.#.#. . . . . . . . . . . . . . . . . . . . .#.#. . . .$. .}  . .}  .4. . .4.4.4.4.4.4. . .4. .| | } } } } 0.e.x.x.x.b.b.b.b.n.n.b.x.x.x.z.z.x.x.z.z.x.x.x.x.x.x.x.x.w.z.x.z.z.z.z.z.z.x.x.x.b.t.y.a.b.t.} | #.t.b.t.t.t.t.t.b.b.t.t.t.t.t.t.t.e.e.t.b.t.e.e.e.t.a.b.b.t.t.b.t.t.a.b.#.#.#.} } } } } } } } } } } } } e.i.i.x.i.x.x.z.x.z.x.x.e.e.b.r.t.e.e.e.e.t.a.t.t.t.t.t.t.t.t.t.t.t.t.t.b.t.0.| | } | } | ! { | ! | +.! ! } t.b.t.t.r.} | 0.b.t.b.b.b.b.b.n.b.a.t.a.+.+.#.} } } } } #.+.#.#.} } } #.#.} #.#.} } 2.2.} } } } } } } } } } } } } } } #.} #.} { 9.#.} } } } } } } } } } } } +.+.+.+.#.#.#.} #.8.8.0.e.i.i.i.u.i.i.p.p.p.5. .M.iXoXoXoXoXXXXXyXyXyXyXXXXXyXyXyXyXyXtXG.yXXXXXXXyXyX}.yX}.}.yXV.uXG.D.oXOXoXoXoXiXiX0Xq.p.p.p.p.p.p.w.w.w.w.w.w.u.u.u.u.u.u.i.u.u.i.i.e.e.e.e.w.e.w.w.u.u.u.u.u.u.u.u.u.u.i.i.i.i.i.e.w.w.e.e.e.e.e.i.e.e.e.e.e.e.e.e.e.e.e.e.e.e.e.w.w.w.w.u.w.u.u.u.u.u.u.p.u.q.e.9XsXjXsXiXdXjXiXdXaXdXaXiXaXdXaXaXaXiXaXaXiXaXaXiXdX@X@XmXPXPXPXPXPXPXLXJXJXJXJXJXJXJXJXJXJXJXJXPXPXJXJXJXJXJXJXJXPXPXJXJXPXPXPXSXOX@XaXiXaXaXiXiXiXiXiXiXiXiXiXiXiXuXC.9Xn.q.e.e.e.w.w.b.9XuXuX9X9Xx.w.w.w.w.w.g.e.q.w.C.uXuX9XtXtXtXtXuXuXuXuXuXuXuXuXuXuXn.w.w.q.w.n.uXsXuXuX9XsX9Xn.e.q.w.e.w.w.w.w.w.w.w.w.w.w.w.w.w.w.w.w.w.w.w.u.u.u.w.w.e.w.w.w.e.e.i.i.i.i.i.i.e.e.e.i.e.i.e.e.i.",
"} } } } } } } } ~ | | } } } } } | | ] ] ] | | } } } } } } } | | } | }  .} |  . .}  . . .} } } } } } }  . . . . . . . . . . . . . .} } } }  .}  .} } } } } }  .}  . . . . . . . . . . . . . . . . . . . . . . . .#.#.#. . . . .#.} #. . . . . . .#.#.#.#.#.#. . . . . . . . .#.#.#.#. . . . .}  . . . . . . . . .4.4.4.4. . . . . .} } 0.x.n.n.b.b.n.b.b.n.n.b.n.x.g.x.x.x.f.x.x.x.x.x.x.x.z.z.z.f.x.x.z.x.v.x.z.z.z.z.i.i.i.i.i.b.a.} ~ } a.a.a.a.i.i.e.e.e.e.e.e.e.e.e.e.g.x.g.e.e.i.i.i.i.i.i.i.x.x.x.x.a.a.a.0.} { } #.} } } } } } } } | | | e.e.e.w.w.w.w.w.x.x.x.x.x.x.x.x.i.i.i.e.e.e.i.e.e.e.e.i.i.i.i.i.a.a.a.a.b.e.#.! | | | | | | | ! | | ! ! ! { #.r.r.t.t.~ ~ r.e.n.g.g.x.x.x.x.b.b.b.r.} | | | { } } } } } { { { } } } } } } } } } } } } } } } } } } } } } } } } } } { { { { { { { } } } } } } | | } } { { { { +.+.+.+.} | } } #.#.e.e.i.i.i.w.u.u.u.p.q.} M.yXoXoXoXXXXXXXyXyXyXyXyXXXyXyXyXyXyXyXtXtXyXtXtXwXwX}.yXyXyXyXyXyXoXoXuXuXoXXXoXiXuX9Xq.7.p.p.p.6.i.p.u.p.w.w.w.p.u.u.u.u.u.u.u.u.i.i.u.u.u.u.w.w.w.w.w.w.w.w.w.w.u.u.i.i.i.i.i.e.e.e.e.e.e.e.e.w.e.e.e.e.e.e.i.i.i.e.w.w.w.u.u.u.u.w.w.u.u.p.p.6.5.u.u.6.5.} } | ] G.jXdXdXdXdXdXaXaXdXiXaXaXiXiXaXiXiXdXOXOXH.D.H.A.H.A.A.bXPXLXJXHXGXGXGXGXGXGXHXHXGXGXGXGXGXGXGXGXGXGXGXGXGXGXGXGXGXJXHXHXJXHXJXSXZ.A.A.D.>.D.D.D.>.D.G.iXOXOXiXiXiXoXC.9X6X0.2.0. . .| e.C.tXG.uX9Xg.0.e.q.0.0.|  .|  .j.9XuXtXuXuXtXtXXXuXuXoXoXuXuXuXuXtXx. .} 4.} g.uXuXoXoXoXuXuXg.}  .4.4.q.q.i.q.i.w.u.u.u.w.i.u.w.p.w.q.w.q.w.i.w.i.u.u.u.e.e.e.i.i.w.i.x.e.e.e.e.e.e.e.e.e.e.e.e.",
"} } } } } } } } } } #.#.} } } } } } | | | } } #.} } } } } } 0.e.r.#.} } } }  .}  .} } } } } } } } } }  . . . . . . . . . . . . .} } } } } } } } } } } } } }  . . . . . . . . . . . . . . . . . . . . . . . . . .#.#.#. . . . .#.} #. . . . . . .} } } } } } } }  . . . . . .#. .#.#. . . . .}  . . . . . . . . . .4.4. . . .4.4.4. .} 4.q.w.e.r.0.e.b.t.b.t.e.0.q.0.0.w.x.x.x.x.x.x.b.b.x.x.x.x.x.x.x.x.x.x.x.u.z.z.z.z.i.i.i.i.i.b.q.2.e.b.i.i.i.i.i.i.i.i.i.i.i.i.i.i.z.z.z.x.i.i.i.i.x.x.i.i.x.x.x.x.x.x.x.x.e.0.0.0.r.0.0.w.q.q.q.q.0.0.0.0.e.e.e.e.z.z.u.u.x.x.x.x.x.x.x.x.u.z.u.u.e.e.i.i.e.e.e.e.i.x.x.i.x.a.a.b.b.b.r.} q.q.q.q.q.r.r.r.r.r.9.9.#.r.y.a.9.+.r.0.} e.e.g.g.g.x.x.x.x.x.x.n.t.r.0.0.0.0.0.r.r.r.0.0.0.r.0.0.0.0.0.0.0.0.0.0.0.0.0.0.0.0.0.r.0.0.0.0.r.r.r.0.0.r.r.r.r.0.0.0.0.0.0.0.0.0.0.0.0.0.0.r.r.r.r.r.r.r.0.r.r.r.e.e.e.e.e.e.w.w.u.p.p.5.} M.yXoXXXXXXXXXXXtXtXuXuXyXyXyXyXyXyXyXyXtXtXtXtX}.wXwX}.yXyXyXyXyXyXyXyXyXyXyXyXuXiXiX0Xq.q.p.6.p.p.u.6.6.5.w.w.p.u.u.i.w.u.w.w.w.w.w.e.w.w.w.w.w.w.w.w.w.w.w.w.w.w.u.u.i.i.i.i.e.e.e.e.e.e.e.e.w.w.e.w.e.e.e.e.i.i.i.w.w.w.w.u.u.u.w.w.w.w.6.6.6.u.u.5.6.6.6X9X9XG.F.iXdXdXdXdXaXaXaXaXiXaXdXaXaXiXaXaXiXiXOXvXnXIXIXIXIXIXnXSXLXGXGXDXGXGXGXGXGXGXGXGXDXDXGXDXGXGXGXGXGXGXGXGXGXDXGXGXGXDXGXGXGXHXHXKXnXnXnXnXnXnXnXnXnXnXjXiXOXiXiXiXaXoXC.G.n.4.g.9XuXiX9XuX9XXXG.G.G.g.0.e.r.e.G.uXG.G.G.G.XXXXXXXXXXXXXXuXoXoXoXoXoXXXXXoXuXC.n.C.n.M.V.uXXXXXXXXXXXtXM.j.n.G.9Xb.q.i.q.u.4.w.w.5.u.i.u.w.u.u.w.u.i.i.i.i.p.i.u.u.w.w.w.i.i.i.i.i.e.e.e.e.e.e.e.e.e.e.e.e.",
"#.#.0.0.0.0.#.#.#.0.0.0. .} } } #.#.+.+.#.#.#.#.#.} } } } | r.n.b.0.} } } } } | } } } } } } } }  . .} } }  . . . . .#. . . . . . . . . . . . . . . . . . . . . .} } } } } }  . . . . . . . . . . . . . . . . . .#. . . . . .#.#.}  . . . . . . .} } #.#.#.} } }  . . . . . . . . . . . . . . . . . . . . . . . . . . . . . . . .4.} } } } } } } } t.n.b.b.b.r.| } | } 0.x.b.b.x.x.x.b.b.x.x.x.x.b.b.b.b.x.b.x.x.i.z.z.z.x.x.i.i.i.b.x.i.b.b.i.i.x.x.x.x.i.i.i.i.u.z.u.u.z.z.z.z.z.z.z.z.z.z.x.x.x.x.x.x.x.i.i.i.b.i.i.a.b.i.i.x.i.i.i.i.e.e.e.e.e.e.e.e.w.w.u.u.i.i.i.x.i.u.x.x.z.z.z.u.e.i.i.i.i.i.i.i.x.x.i.i.x.b.i.i.b.b.b.e.a.i.a.a.a.a.a.a.a.a.t.t.t.t.a.n.+.Y +.b.b.b.b.b.x.x.x.x.x.x.x.x.b.b.x.i.x.x.i.e.a.i.i.i.i.i.i.i.e.e.i.i.i.i.i.i.i.i.i.i.i.i.i.e.a.i.a.i.i.i.i.a.i.i.i.i.i.i.i.i.e.e.e.e.e.e.e.e.t.a.i.i.i.t.t.t.a.t.t.t.t.t.t.b.e.e.e.e.w.w.w.w.p.p.6.} M.tXXXXXXXXXXXXXtXtXtXtXtXtXyXtXyXyXyXyXyXtXtXtX}.}.}.}.tXtXtXyXyXyXyXyXyXyXyXyXuXiXaXuX| 5.q.3.p.p.p.p.u.p.w.w.w.w.w.w.w.e.e.e.e.r.e.e.e.w.e.w.e.i.i.i.e.w.e.e.e.e.e.e.e.e.i.e.e.e.e.e.e.e.e.e.e.e.e.e.e.e.e.e.i.i.i.i.i.i.i.i.u.w.w.w.w.6.6.6.6.u.u.5.4.r.sXjXjXjXsXjXdXdXaXaXaXaXaXaXaXaXpXiXiXaXiXOXOXOXH.bXPXPXPXPXPXLXJXHXHXFXGXGXGXGXGXHXGXGXGXGXGXDXGXGXDXGXDXGXGXGXGXGXGXGXGXGXGXDXDXGXDXGXHXGXHXLXLXLXLXLXLXLXLXPXzXoXuXiXoXOXiXG.l.C.c.4.n.jXaXjXsXsXG.G.XXG.tXj.r.e.#.r.iXxXjXjXjXiXoXG.tXXXtXtXyXuXtXXXXXXXoXoXXXXXoXXXXXuXuXuXuXXXXXXXtXtXuXuXtXuXuXsXsXC.2.w.q.i.q.u.u.5.q.q.q.q.w.w.q.q.q.q.q.q.q.q.u.u.w.w.w.u.u.x.i.w.e.e.e.e.e.e.e.e.e.e.e.e.",
"#.#.0.0.0.0.#.#. . .#. .} }  .#.#.#.#.+.#.} #. . .} } } } | 0.n.t.0.+.} } } } | } } } } } } } } } } } } } }  . . . .#.#. . . . . . . . . . . . . . . . . . . . .} } } } } }  . . . . . . . . . . . . . . . . . . . . . . . .#.#.}  . . . . .} } #.#.#.#.#.#.#.#. . . . . . . . . . . . . . . . . . . . . . . . . . . . . . . . . .} } } } } } } } e.b.b.b.b.0.} } } } 0.e.x.e.e.e.e.i.i.i.i.i.x.e.e.e.e.i.b.b.i.i.u.u.z.i.x.i.i.x.x.x.x.b.i.i.x.x.x.x.x.u.i.e.u.u.u.u.u.z.z.z.z.i.z.z.z.z.z.z.z.z.z.x.x.x.x.i.i.x.i.i.i.b.i.i.i.i.i.i.i.i.e.e.e.e.e.e.g.g.g.z.x.i.i.i.i.i.i.i.x.z.z.z.u.e.e.i.i.i.i.i.i.i.x.i.i.x.x.x.i.i.x.i.i.x.x.i.i.i.i.i.b.b.a.a.a.t.t.b.b.9.Y | b.b.b.b.g.x.x.x.x.x.x.x.x.x.x.x.x.x.x.x.i.i.i.i.i.i.i.i.i.e.e.i.i.i.i.i.i.i.i.i.i.i.i.i.i.i.i.i.i.i.i.i.i.i.i.i.i.i.i.i.i.i.e.i.i.i.i.i.i.i.i.i.i.i.i.i.i.t.i.i.i.i.e.e.e.e.e.e.e.w.w.w.w.q.p.6.3.m.tXXXXXXX}.}.}.wXwXtXtXtXtXtXtXyXtXtXtXtXtXtX}.}.}.}.}.XX}.tXtXyXyXyXyXyXyXyXyXoXuXuXuX} 0.0.8.i.7.7.p.p.u.w.5.5.w.u.w.w.w.e.e.e.r.e.e.w.w.w.w.u.u.u.u.u.w.w.w.w.w.w.w.e.e.e.e.e.e.e.e.e.e.e.e.e.e.e.e.e.e.e.e.i.i.i.i.i.i.u.u.w.w.w.6.6.6.6.6.6.u.6.x.#.$.G.iXiXjXjXaXaXaXaXaXaXaXaXpXpXpXaXaXaXOXOXdX@X@XH.bXJXLXJXHXJXHXHXHXGXDXHXGXGXGXGXGXGXGXGXGXGXGXGXGXDXDXDXGXGXGXGXGXGXGXGXGXGXDXDXGXDXDXGXGXGXGXGXJXGXHXHXGXHXPXzXoXaXiXoXiXOXG.l.G.n...j.iXOXiXOXaXG.G.XXG.M.f.#.g.r.h.G.sXsXjXsXuXG.G.uXuXuXtXtXtXtXXXXXXXXXoXoXXXXXXXXXoXoXuXXXXXyXyXyXyXtXG.G.G.G.uXiXC.r.e.4.w.w.w.5.i.w.w.r.r.w.w.w.r.e.e.b.i.e.q.i.i.i.w.u.u.w.u.i.e.e.e.e.w.e.e.i.e.e.e.e.e.",
" . . . .#.#. . . . . . . .#.#.#.} } #.} } } } }  .} } } } } } #.0.+.| { | | } } } } } } } } } } } } } } }  . . .} } } }  . . . . . . . . . . . . . . . . . . . . . . . . . . . . . . . . . . . . . . . . . . . . . . . . . . . . . . . . .} } } } } } } } } } } } } }  . . . . . . . . . .} } }  . . . . . . . . . . . .}  .}  .} } }  . . . . .} #.0.#.0.#.} } #.} } #.0.#.} } 0.0.e.e.e.e.i.t.#.+.#.r.r.e.i.e.i.u.u.u.i.x.i.i.x.x.i.i.i.i.i.x.x.x.z.z.u.u.u.u.u.u.u.u.u.u.z.u.u.u.u.z.z.z.z.z.z.z.z.z.x.i.i.i.i.i.i.i.i.i.u.w.u.u.u.w.e.e.e.e.g.g.g.g.g.g.g.g.g.e.e.g.e.e.e.e.e.e.e.e.e.e.e.e.i.i.i.x.i.i.i.x.x.x.x.x.i.i.i.x.x.i.x.i.i.x.x.b.i.i.a.a.a.a.a.b.a.0.r.b.b.x.x.x.x.x.x.x.x.x.x.x.x.x.i.x.x.x.x.i.i.i.i.i.i.w.w.w.i.i.i.i.i.i.i.i.i.i.i.i.i.i.i.i.i.i.i.i.i.i.i.i.i.i.i.i.i.u.u.w.e.e.e.e.i.i.i.i.i.i.i.i.i.i.i.i.i.i.i.i.i.e.w.w.e.w.w.w.w.w.w.p.6.p.6.3.C.uXyXXXXXXX}.}.wXwXXXXXtXtXtXtXtXtXtXtXtXXXXX}.}.}.}.}.}.XXXXtXXXyXyXyXyX}.yXyXXXyXuXuXoXuXuX0X0Xe.p.p.6.6.6.6.5.u.u.u.u.w.w.w.w.w.e.w.w.w.w.w.u.u.u.u.u.i.i.i.i.i.i.e.e.e.e.e.e.e.e.e.e.e.e.e.e.e.e.e.e.e.e.e.e.e.i.i.e.e.e.w.w.w.u.6.6.6.6.u.u.6.3.n.jXiXjXgXaXdXaXaXaXaXaXaXaXaXpXpXpXpXpXaXOXOXvXPXPXKXSXKXLXHXFXDXHXGXGXGXDXDXGXDXGXGXGXGXGXGXDXDXGXGXGXGXGXGXGXGXGXGXGXGXGXGXGXGXGXGXGXGXDXDXDXDXDXDXDXDXDXGXDXDXHXJXhXOXiXuXOXaXiXiXiXsXsXiXfXxXzXaXoXaXG.G.G.V.tXV.G.sXjXjXiXG.oXG.G.C.M.n.n.M.n.n.M.M.M.M.M.c.V.tXtXXXXXXXXXXXXXXXXXXXyXtXwXtXyXXXXXXXXXuXuXuXsXuXe.r.e.w.w.9X9X9X9X9XtXuXuXuX9X9X9X6Xe.q.e.e.w.w.u.u.w.w.i.e.w.w.w.w.w.w.w.w.i.i.i.i.",
" . . . . . . . .#. . . .}  . . .} } #.} } } } } } } } } } } } | | | | { | | } } | } } } | | } } } } } } } } } } } } }  . . . . . . . . . . . . . . . . . . . . . . . . . . . . . . . . . . . . . . . . . . . . . . . . . . . . . . . . .} } } } } } } } } } } } } } }  . . . . . . . . .} } } }  . .}  . . .#. . . . . .} } }  .} } } }  . .#. .} } } } } } } } } } #.} } } } } 0.0.r.e.e.t.b.b.} | +.0.0.r.e.w.i.i.u.u.u.x.i.i.x.i.i.i.x.x.i.x.i.z.z.u.u.u.u.u.w.w.e.e.u.u.u.u.u.u.u.u.z.z.z.z.z.z.z.z.x.x.i.i.u.u.u.i.i.i.u.u.u.u.u.i.e.e.e.e.e.e.e.e.w.w.w.e.e.e.e.e.e.e.e.e.e.e.e.e.e.e.e.e.i.i.i.i.i.i.i.i.i.i.x.x.x.x.x.x.x.x.x.x.i.i.x.x.i.i.x.b.b.b.b.n.b.n.n.b.b.b.x.x.x.x.x.x.x.x.x.x.x.x.x.x.x.x.x.x.i.i.u.u.u.u.w.w.i.i.i.i.i.i.i.i.i.i.i.i.i.i.i.i.u.i.i.i.i.i.i.i.i.i.i.i.u.u.u.u.e.e.e.i.i.i.i.i.i.i.i.i.i.i.i.i.i.i.i.i.i.i.e.w.w.w.w.w.w.w.w.q.6.p.6.3.C.yXyXXXXXyX}.}.tXwXtXXXtXtXtXtXtXXXXXXXXXXX}.}.}.}.}.}.}.XXXXXXXXXXXXyXXX}.wXwXXXpXpXuXuXiXiXiXuX0.3.3.p.6.p.6.6.p.p.6.w.u.w.w.w.w.w.w.w.w.w.w.w.p.u.u.u.u.u.u.u.w.w.w.e.e.e.e.e.e.e.e.e.e.e.e.e.e.e.e.e.e.e.e.e.e.i.i.e.e.w.w.w.w.p.6.6.u.6.u.6.q.| n.zXdXdXaXaXaXaXfXaXaXaXsXaXaXpXpXiXoXD.D.A.>.vXPXPXLXLXHXHXHXGXDXGXDXFXDXDXDXGXGXGXGXGXGXGXDXDXDXDXGXGXGXGXGXGXGXGXGXGXGXGXGXGXGXGXGXHXHXGXDXDXDXGXGXGXDXDXDXDXFXGXKX@XH.D.D.OXD.iXdXiXaXsXiXgXvXvXzXoXiXG.G.G.V.C.M.M.oXlXaXD.[ :.$.$.>.j.j.j.j.h.j.M.h.M.M.c.h.9XuXuXtXuXuXyXuXyXXXXXXXXX}.V.V.N.C.N.C.C.l.l.oXsXuX#. . . . .9XG.G.9XtXtXtXuXuXuXuXuXG.e.0.0.q.w.q.w.x.w.w.i.w.e.w.e.w.w.w.w.w.w.w.i.u.",
" . . . . . . . . . . .} } } } }  . . .} } }  . . .} } } } | } 0.#.#.0.0.0.0.0.0.0.0.0.0.0.0.+.} } } } } } } } } } }  . .}  . . . . . . . . . . . . . . . . . . .#.#.#.#.} } } } } } } } } #. . . . . . . . . . . . .} } } } }  .}  .} } } } } } 0.0.r.r.r.r.r.0.} } } }  . . . . . . . .} } } } } } } } } } } } } } } } } } } } } } } }  . . .}  . .} }  .} } #.} }  . . . . . .#.0.0.r.r.r.e.e.+.] +.r.r.r.e.e.e.e.u.u.i.i.i.i.i.i.x.x.x.x.x.i.i.i.i.u.u.i.i.u.u.u.i.i.e.u.e.w.i.i.i.u.z.z.z.z.z.z.z.z.z.i.i.i.u.z.x.i.i.i.i.u.u.u.u.u.w.w.w.w.w.f.w.w.e.e.e.e.e.e.e.e.e.e.e.e.e.e.e.e.e.e.e.e.i.i.i.i.i.i.i.i.x.i.i.x.x.x.x.x.x.x.x.x.i.i.i.i.x.x.i.x.x.b.b.b.e.x.i.e.i.x.x.x.x.x.x.x.x.x.x.x.x.x.x.x.x.x.x.x.u.u.u.u.u.u.u.u.i.i.i.i.i.i.i.i.i.i.u.i.i.i.i.i.i.i.i.i.i.i.i.u.u.u.u.u.u.u.i.u.u.u.u.u.u.u.u.u.u.u.i.u.i.u.i.u.i.i.i.u.i.u.w.w.w.w.w.w.w.w.q.q.6.p.6. .C.yXXX}.XXXX}.}.tXtXtXtX}.wXtX}.}.}.tXtXXXXX}.}.}.}.}.}.}.}.XXXXXXXXXX}.yX}.wXwX}.yXpXyXyXuXOXiXiXj.b.i.6.6.6.6.6.q.q.0.q.q.w.w.w.w.w.w.w.w.w.w.u.w.u.u.w.w.w.w.w.w.w.w.e.e.e.e.e.e.e.e.e.e.e.e.e.e.e.e.e.e.e.e.e.e.u.w.e.e.w.u.u.p.u.6.6.u.6.6.4.9Xj.D.iXaXdXdXaXaXaXaXaXaXaXaXaXaXpXaXOXvXnXnXnXmXBXLXJXHXHXGXGXGXGXGXHXGXGXGXGXGXGXHXGXGXGXGXGXDXDXDXDXGXGXGXGXGXGXGXGXGXGXGXGXGXGXGXGXHXGXGXHXGXGXDXGXGXGXGXGXDXDXDXHXJXmXbXbXmXnXdXG.iXoXoXiXOXdXzXzXjXoXuX}.V.V.G.G.uXoXpXlXlXaXoXiXOXOXOXiXiXoXoXoXiXuXV.M.C.C.M.9XG.V.V.V.V.V.V.V.V.V.V.N.XXoX|.oXoXoXXXoXoXXXOXiXuXj.M.M.M.M.tXoXXXuXuXXXG.XXXXXXXXuXG.j.j.n.n.n.w.q.e.e.e.i.w.i.w.e.w.w.w.q.w.w.w.w.w.",
"#. .#. .#. .#. .#. .}  .#.#.} }  . .} } } }  . . .} }  .} | 0.n.n.b.b.n.n.b.n.b.b.b.b.n.F.b.r.| } } } } } } } } } } #. .}  . . . . . . . . . . . . . . . . . . .} #.} } } } } } } } } #.#.#. .}  . . . . . . . . . .} } } } }  .}  .} } } } } } b.b.b.b.b.b.a.b.} } } } }  . . . . . .} } } } } } } } } } } } } } } } } } } } }  .} } }  . .} } }  . .}  .} } }  . . .} }  . .} } } } } } } | } +.] +.r.r.r.e.e.e.w.i.u.i.i.i.i.x.x.b.x.i.i.x.i.i.i.i.u.i.i.i.u.e.e.i.t.t.e.t.t.t.t.e.i.u.z.z.z.z.z.z.z.z.i.i.i.u.z.z.u.u.i.i.u.u.u.u.u.w.w.w.w.w.w.w.w.e.e.w.w.e.e.e.e.e.e.e.e.e.e.e.e.e.e.e.e.i.i.i.i.i.i.i.i.x.i.i.i.x.w.z.x.i.z.x.x.x.i.i.i.i.e.e.i.i.x.i.i.b.x.i.b.b.x.x.x.x.x.x.x.i.x.x.x.x.x.x.i.i.i.i.i.u.u.u.u.u.u.u.u.u.u.u.u.u.u.u.u.u.u.u.u.u.u.u.u.u.u.i.i.i.i.i.u.u.u.u.u.u.u.u.u.u.u.u.u.u.u.u.w.u.u.u.u.u.w.u.u.w.w.w.w.w.w.w.w.w.w.w.w.w.w.q.q.5.q.6.} M.yXXX}.XXXXXX}.tXtXtXtXwXwXtX}.XXwXtXXXXXXX}.}.}.}.}.}.}.}.}.XXXXXXXX}.yXyXyXwX|.}.|.}.yXyXoXpXaXoXsX9X3.7.6.6.p.i.e.e.q.q.w.w.w.w.i.i.i.w.u.w.w.w.w.p.w.w.w.w.w.w.w.w.e.e.e.e.e.e.e.e.e.e.e.e.e.e.e.e.e.e.e.e.e.e.u.w.w.w.u.u.u.u.u.u.6.p.6.5.0.xXjXjXD.D.aXdXaXaXsXaXaXaXaXaXaXaXaXOXA.nXPXPXPXLXHXJXHXHXGXDXGXGXGXHXFXGXGXDXHXHXDXGXGXGXGXGXDXDXDXDXDXGXGXGXGXGXGXGXDXDXGXGXGXGXGXGXHXHXGXGXGXGXGXGXDXGXGXGXGXGXDXGXFXHXKXLXLXLXPXvXH.OXD.D.G.D.D.OXdXgXuXpX{.V.V.G.XXsXjXlXaXaXaXlXaXfXgXjXlXjXzXjXjXzXsXV.h.M.M.M.M.c.h.h.h.h.h.c.M.c.M.h.l.oXaXpXpXpXaXpXaXaXaXaXaXsXuXsXiXaXaXaXaXaXsXaXyXXXyXyXuXoXuXuXXXuXiXsX9Xx.0.e.e.e.i.i.e.e.e.e.e.w.e.e.e.e.q.q.",
"+.} } } } } +.} } } } } } } } }  . .} } } } } }  .} } } } } 4.x.b.b.n.n.c.x.b.n.t.t.a.a.n.t.+.+.#.| | } | | } | } } } } } } } } }  . . . . . .#. . . . . . . .#.#.#.#.#.#.#.#.#.#.} } } } } } } } } } } } } } } #.} #.#.} } } #.}  .#.} } } } } e.t.b.b.t.b.a.t.} } } } } } } } } } } } } } } } } +.+.+.+.+.+.+.+.} #.} #.} #.}  . . . .} } } } } } } } } } } } } } } } } } } } } } } } } #.#.+.} +.#.r.r.r.b.e.e.w.w.w.w.e.e.i.i.i.i.i.i.i.i.i.i.i.i.i.i.i.i.e.t.y.y.y.y.y.y.y.y.y.r.0.n.f.x.w.w.f.z.w.w.x.i.u.u.z.z.z.u.i.i.u.u.u.u.u.u.u.u.u.w.w.w.w.w.e.e.e.e.i.i.i.e.e.e.e.e.e.e.e.e.e.e.e.e.e.e.e.e.e.e.e.e.e.e.e.e.x.x.x.i.i.x.z.i.i.i.i.i.i.i.i.i.i.i.i.x.x.x.x.x.x.x.x.x.x.i.i.i.i.i.i.i.i.i.i.i.i.i.i.i.i.i.i.i.i.u.u.u.u.u.u.u.u.u.u.u.u.u.u.u.u.u.u.i.e.e.e.e.e.i.i.i.i.i.u.u.u.u.u.i.i.i.i.u.i.i.i.i.i.i.i.i.i.i.u.u.w.w.u.u.w.w.w.u.w.w.w.q.w.0.q.q.6.6.3.C.tX}.XXXXXXXXXXtXtXtXtX}.}.}.}.}.}.}.}.}.}.}.}.}.}.}.}.{.}.}.}.}.}.XXXX}.}.}.yX|.|.|.}.eXeXyXuXoXiXuXG.~ 5.3.7.p.9X0Xb.2.q.q.q.u.u.q.q.q.u.p.u.w.5.u.w.5.5.w.w.w.w.w.x.w.w.w.w.w.w.e.e.e.e.e.e.e.e.e.e.e.e.e.e.w.w.u.u.w.z.5.i.u.p.6.6.4.4.0.} $.uXdXiXD.D.dXaXaXaXsXaXaXaXpXpXaXaXOX@XA.bXLXLXJXGXHXGXDXDXDXGXGXGXGXGXGXGXGXGXGXGXGXGXGXGXGXGXDXDXDXDXGXGXGXGXGXGXGXGXGXGXGXGXGXGXGXGXGXGXGXGXGXDXDXDXGXGXGXGXDXDXDXDXDXDXFXGXHXHXKX;XH.D.D.D.H.H.H.H.@XdXXXyX}.k.l.l.l.OXgXjXaXjXjXjXsXjXjXsXjXzXjXlXlXlXzXl.:.j.h.h.h.h.M.h.h.j.f.n.M.6XC.c.M.uXaXpXpXpXpXpXpXpXpXpXaXpXpXpXpXpXpXaXaXpXaXaXXX}.yXyXXXXXuXuXuXXXtXuXG.r.0.0.e.i.q.e.e.e.0.r.0. .r.#.#.+.r.| ",
"#.#.#.#.#.#.#.#.#.#.#.#.#.#.#.#.} } } } } } } }  . .}  .} } 0.x.x.x.x.c.c.x.x.n.a.a.a.a.a.n.t.t.r.{ #.t.t.e.t.t.} } } } } } } } }  . . . . . . . . . . . . .#.#.} } } }  . . . .} } } } } } } } } } } } } } } } #.#.#.#.#.} } } } } #.} } } } | e.t.b.b.t.b.b.t.} } } } } } } } }  .#.#.} } } } +.+.+.+.+.+.+.+.#.#.#.#.#.#.#.#.} } } } #.#.} } } } } } } } } } } } } } } } } } } #.#.#.+.#.#.+.+.] +.+.| #.e.r.e.e.w.w.w.e.e.i.i.i.i.i.i.i.i.i.i.i.i.i.i.i.i.e.y.^ i 5 p p p p p i p E t.e.x.g.g.e.w.w.u.x.i.i.i.i.z.z.u.i.i.i.u.u.u.u.u.u.w.w.w.w.w.w.e.e.e.e.e.e.e.i.e.e.e.e.e.e.e.e.e.e.e.e.e.e.e.e.e.e.e.e.e.e.e.e.e.e.x.x.i.i.i.z.i.i.i.i.i.i.i.i.i.i.i.i.x.x.x.x.x.x.x.x.x.x.i.i.i.i.i.i.i.i.i.i.i.i.i.i.i.i.i.i.i.i.u.u.u.w.u.w.u.w.u.w.u.w.u.w.u.w.u.w.e.e.e.e.e.e.e.i.i.i.u.u.i.u.i.i.i.i.i.i.i.i.i.i.i.i.i.i.i.u.u.u.w.w.u.w.u.u.u.p.u.u.q.q.q.q.0.0.5.q.6.| n.tX}.}.XXXXXXXXtXtXtXtXtXwX}.}.}.}.}.}.}.}.}.}.}.}.}.}.}.}.}.}.}.}.XXXX}.}.}.}.XX|.}.|.eX|.eXpXyXiXaXuX9X9Xi.q.e.0X0Xj.8.q.e.w.i.e.q.w.q.i.q.6.w.5.6.5.u.u.u.w.u.w.w.w.w.w.w.w.w.w.w.e.e.e.e.e.e.e.e.e.e.e.e.w.w.w.u.w.w.6.5.i.p.i.u.x.iX9X0XG.G.iXdXaXOXiXjXaXjXsXsXaXaXaXpXiXaXOXzXSXIXKXHXHXHXHXGXDXDXDXDXGXGXGXGXGXGXGXGXGXGXDXGXDXGXGXGXGXDXDXDXGXGXGXGXGXGXGXGXGXGXGXGXGXGXGXGXGXGXGXDXDXDXDXDXDXGXGXGXDXDXDXDXDXDXDXGXGXFXGXLXSXKXSXSXKXSXSXKXPXPXbX:.}.}.l.lXvXvXgXOXoXj.M.j.C.j.XXXXM.j.j.j.l.>.OXxXgXfXjXjXzXiXV.G.G.tXC.g.M.n.M.C.M.M.uXaXpXpXpXiXpXpXpXpXpXpXoXpXpXpXpXpXpXpXoXpXaXyX{.}.}.}.}.XXoXyXXXXXXXuX9XiX0XF.n.e.e.e.r.e.9XsXiXiXG.jXxXjXj.",
"#.#.#.#.#.#.#.#.+.+.#.#.+.#.+.} } } } } #.#. .}  . . .4.} } 0.x.x.c.c.x.c.x.x.n.b.t.n.a.a.F.n.n.r.| { e.a.t.a.b.{ } +.} +.} +.} } }  . . . . . . . . . . . . . . . . . . . .} } } } } } } } } } } } } }  . . . .} } #.#.#.#.} } } } } } } } } | e.e.b.a.a.b.a.e.} } } } } } } } } } } } } } } } } } } } } } } } +.+.+.+.+.+.+.+.} } } } +.+.} } #.#.#.#.#.#.#.#.#. .#.} #.} #.#.} } #.+.| } #.#.+.+.+.| | +.t.e.e.e.w.w.w.e.e.i.i.i.x.i.i.i.i.i.i.x.u.u.u.u.w.e.y.p X O O O O   o O X f S.y.b.t.b.b.g.f.x.w.w.x.i.u.u.u.u.i.i.e.w.w.w.w.u.u.u.u.z.z.u.z.i.i.e.i.e.e.e.e.e.e.e.e.e.e.e.e.e.e.e.e.e.e.e.e.i.i.i.i.e.e.e.e.e.e.e.x.i.i.i.i.i.i.i.i.i.i.i.i.i.i.i.i.i.i.i.x.x.x.a.a.a.a.i.i.i.i.i.i.i.i.i.i.i.i.i.i.i.i.i.i.i.i.i.i.e.e.e.e.i.e.e.e.e.e.e.e.e.e.e.e.e.e.e.e.e.e.e.e.e.e.e.e.e.e.e.e.i.i.i.i.i.i.i.i.i.e.i.u.u.u.u.w.w.w.u.5.5.q.6.5.p.p.p.p.q.q.q.q.7.p.p.3.M.uXyXyXXXXXXXXXXXtXtXXXXXXX}.}.XXXX}.}.}.}.XXXXXXXXXX}.}.}.}.}.}.}.}.}.}.}.}.}.}.XX}.}.|.|.|.yXyXpXpXuXaXuXe.| | F.F.%.E | | | | | | } | } }  .5.6.u.6.6.6.6.6.u.i.i.p.u.w.w.w.w.w.w.w.w.w.w.w.e.e.e.e.e.e.e.w.u.w.w.w.z.u.6.u.q.q.}  .iXuXiXiXOXiXdXdXdXjXdXaXaXiXaXaXpXoXoXD.H.A.@XPXLXHXFXGXHXGXGXGXGXGXGXGXGXGXGXGXGXGXGXDXDXDXDXDXDXDXDXDXGXGXGXGXGXGXGXGXGXGXDXDXGXGXGXGXGXGXGXGXDXDXDXDXDXDXDXDXDXDXDXDXDXDXDXDXFXDXLXLXLXJXLXHXLXHXJXLXLXLXHXHXLXnX;.pXXXl.zXnXnXgXG.uXf.f.g.w.g.9X9Xx.4.0.0.r.| G.xXxXxXzXzXxXsXC.V.uXoXM.$.h.h.M.M.h.M.XXiXuXaXsXaXsXsXpXpXpXpXpXaXpXpXaXpXpXpXpXpXpXyX{.wXwXwX}.}.XXyXXXXXXXG.iXjXuXn.j.r.#.#.#.#.G.sXiXiXG.zXvXvXA.",
"#.#.#.#.#.#.#.#.#.#.#.#.#.#.#.#.#.} } } } #.} } }  .4.4.} } 0.x.x.c.c.x.c.x.x.n.n.r.t.a.s.t.a.b.r.#.#.r.t.t.t.b.+.+.+.+.#.#.#.#.} } } }  . . . . . . . . . . . . . . . . . . .} } } } } } } } } } } } } } } } } } } } } } #.#.} } #.#.} #.#.} } r.e.x.i.x.b.b.e.2.2.2.2.4. .#.#.} } #.#.} } } } #.#.+.+.#.#.#.#.#.#.#.#.#.#.#.#.#.#.#.#.#.#.#.#.#.#.#.#.#.+.#.+.#.} } } #.} } } #.#.#.#.+.#.y.t.+.+.+.+.+.r.a.e.e.e.w.w.w.e.e.i.i.i.x.i.i.i.i.x.x.x.u.u.u.u.w.e.t.+.E ^ ^ ^ ( ( ( 3 o d Z.@.@.@.+.t.b.g.x.w.e.x.u.u.u.u.i.i.e.e.z.u.u.u.u.u.u.u.z.z.u.u.i.i.e.i.i.e.e.e.e.e.e.e.e.e.e.e.e.e.e.e.e.e.e.e.e.i.i.i.e.e.e.e.e.e.e.i.i.i.i.i.i.i.i.i.i.i.i.i.i.i.i.i.i.i.i.i.i.x.a.a.a.a.i.i.i.i.i.i.i.i.i.i.i.i.i.i.i.i.i.i.i.i.i.i.e.e.e.e.e.e.e.e.e.e.e.e.e.e.e.w.e.e.e.e.e.e.e.e.e.e.e.e.e.e.e.e.e.e.e.e.e.e.e.i.e.e.w.w.u.w.w.w.5.w.u.w.w.p.p.p.p.p.p.p.p.q.q.q.q.q.q.3.M.uXXX|.XXXXXXXXXXXXXXXXXXXX}.}.XXXX}.}.}.}.XXXXXXXXXXXX}.}.}.}.}.}.}.}.}.}.}.}.}.}.}.|.|.|.|.wX}.XXoXoXoXoXh.$.y.G.G.H.H.F.G.F.F.G.G.G.G.G.G.9Xx.4.u.6.p.6.u.u.u.p.p.p.u.p.p.p.u.w.w.w.w.w.w.w.e.e.e.e.e.e.w.w.w.w.w.u.6.u.p.i.q.b.j.j.iXOXiXaXiXaXiXaXaXaXiXaXaXaXaXaXOXzXvXbXbXbXbXKXFXGXHXHXGXDXGXGXGXGXGXGXGXGXGXGXDXDXDXDXDXDXDXDXDXDXDXDXGXGXGXGXGXGXGXGXGXGXDXDXGXGXGXGXGXGXGXGXGXDXDXDXDXDXDXDXGXDXDXDXDXDXDXDXDXGXIXnXIXBXBXJXJXFXFXFXJXJXFXFXJXnX[ pXV.l.zXvXvXdXsXsXx.v.v.w.x.6X6Xx.w.u.u.w.x.9XsXsXjXaXfXlXG.g.C.sXiXoXG.oXG.XXXXG.XXiXaXaXyXyXyXyXyXyXoXoXXXoXpXpXpXpX+X+XaXoXoXuXXX}.wXeXwXeXwX}.}.}.XXoXoXOXaXoXD.G.D.j.n.j.j.G.oXG.oXD.gXgXdXA.",
"+.} } } } } } +.} } } } { { { | } } | | } } } } }  .4.4.2.} 0.x.x.c.c.x.c.x.x.b.t.! ! { { +.e.b.a.a.e.e.r.e.t.b.| | +.+.+.+.+.} } } } }  . . . . . . . . . . . .} } }  . . .} }  . .} } } } } } } } } } } } } } } } } } } } #.} } } } } { } } | e.e.x.x.i.x.x.e.{ { } } } } } } } } } } | | | } } } } } } } } } } } { { +.+.+.+.+.+.+.+.+.+.} } +.+.#.+.#.+.#.+.#.#.+.+.+.+.} } } } +.+.+.9.t.b.+.+.+.+.+.0.t.e.e.e.w.w.w.w.i.i.i.e.e.e.e.e.e.f.g.f.f.f.f.f.w.w.w.e.t.t.a.S.S.S.S.d O X X O O O u r.b.w.f.w.x.x.u.u.u.u.i.i.e.e.g.g.g.e.i.i.z.z.x.x.i.u.i.i.i.i.i.i.i.i.i.i.i.i.e.e.i.i.i.i.i.i.e.e.e.e.e.e.e.e.e.e.e.e.e.e.e.e.i.i.i.i.i.i.i.i.i.i.i.i.i.i.i.i.i.i.i.i.i.i.i.i.x.x.i.i.i.i.i.i.e.e.e.e.i.i.e.e.i.i.i.i.i.i.i.i.e.e.e.e.e.e.e.e.e.e.e.e.e.e.e.e.e.e.e.e.e.e.e.e.e.e.e.e.e.e.e.e.e.e.e.e.e.e.e.e.w.w.w.w.w.w.w.w.w.w.w.w.5.4.2.2.q.q.q.q.q.q.q.q.5.2.9.} C.uXuXoXyXXXXX}.XXXXXXXX}.}.}.}.XX}.}.}.}.}.XXXXXXXXXXXXXXXXXX}.}.}.}.}.}.}.}.}.}.}.}.|.|.|.eXwXwXXXoXoXoXiXXXG.OXxXzXhXvXvXvXvXvXvXvXvXvXzXvXxXG.8.i.u.p.q.p.u.q.5.u.i.p.p.u.u.u.w.w.w.w.u.u.w.e.e.e.e.w.w.w.w.u.w.w.w.p.x.u.q.0.0XsXiXdXdXdXdXaXaXaXaXaXaXOXaXaXaXaXOXD.nXPXPXLXLXJXHXGXGXHXGXGXGXGXGXGXGXGXGXGXGXGXDXDXDXDXDXDXDXDXDXDXDXDXDXGXGXGXGXHXGXGXGXGXGXGXGXGXGXGXGXGXGXGXHXGXGXGXGXGXGXGXGXGXGXGXDXDXDXDXDXHXJXvXZ.H.A.J.KXHXHXGXHXHXHXHXHXPXnXX.}.V.V.OXG.D.D.0X9X .5.z.z.5.w.w.5.w.u.u.p.4.5.w. .0.#.j.l.C.#.G.xXzXfXlXlXzXzXzXlXlXzXzXjXV.B.{.{.}.}.}.}.l.}.pXpXpXpX+XpXaXoXl.N.V.V.wX{.wXwXeX}.}.}.uXaXaXaXaXiXiXdXaXaXiXsXiXiXpXOXaXOX+XoXOXXX",
"+.} } } } } +.} } } } } +.+.+.+.} } } } } } }  .}  .4.4.4.4.0.e.e.x.c.x.x.x.x.b.t.! ! +.{ #.0.e.i.b.a.r.0.q.e.t.| | { +.+.+.+.{ } }  . .} }  . . . . . .} } } } } } } } }  .} } } } } } } } } } } } } } } } } } } #.#.} } } #.} } } } { { } } | e.x.x.x.e.x.x.e.| { { { } } } } } } } } } +.} } } } } } } } } } } } +.+.+.+.+.+.+.+.+.+.+.} } } #.#.#.#.#.#.#.#.#.#.#.#.#.#.#.#.} } +.} +.+.t.t.+.+.+.+.| 0.e.e.e.w.w.w.w.w.i.i.i.e.e.e.e.e.e.w.g.f.f.f.f.f.w.w.w.w.i.e.e.e.e.y.@.i < 6 > 6 w 6 1 y.n.g.x.w.z.w.u.u.u.u.i.i.e.e.x.x.x.x.x.x.z.z.x.x.i.i.i.i.i.i.i.i.i.i.i.i.i.i.e.e.i.i.i.i.i.i.e.e.e.e.e.e.e.e.e.e.e.e.e.e.e.e.i.i.i.i.i.i.i.i.i.i.i.i.i.i.i.i.i.i.i.i.i.i.i.i.x.x.i.i.i.i.i.e.e.e.e.e.i.i.e.e.i.i.i.i.i.i.x.x.e.e.e.e.e.e.e.e.e.e.e.e.e.e.e.w.e.e.e.e.e.e.e.e.e.e.e.e.e.e.e.e.e.e.e.e.e.e.e.e.w.w.w.w.w.w.w.w.u.w.5.5.5.5.5.4.4.4.4.2.2.2.2.2.#.} } | j.XXXXXXyXXXXX}.XXXXXXXXXX}.}.}.XXXX}.}.}.}.XXXXXXXXXXXXXXXXXXXXXX}.}.}.}.}.}.}.}.}.}.}.}.}.|.eXeX|.yXyXoXuXoXoXOXzXzXhXhXzXzXzXzXzXzXhXzXhXzXzXj.] #.} 0.} #.0.0.0.q.4.p.p.u.u.p.w.w.w.w.w.w.w.e.e.e.e.w.w.w.w.p.p.w.u.5.q.q. .| G.iXOXOXdXaXaXaXaXdXaXaXaXaXaXpXaXaX@XA.bXJXJXKXHXHXGXHXDXDXDXDXDXGXGXGXGXGXGXGXGXGXDXDXDXDXDXDXGXGXGXGXGXDXDXGXGXGXGXGXGXHXGXGXHXGXGXGXGXGXGXGXGXHXHXGXGXGXGXGXGXGXGXGXGXGXGXDXDXDXGXGXJXvXA.@XA.@XSXPXJXJXJXJXLXJXPXPXnX..yXiXuXOXG.G.oXG.C.4.w.5.5.w.w.w.w.u.p.p.p.v.z.u.w.w.w.G.C.j...l.jXzXlXzXzXzXlXlXlXlXlXlXsXV.{.wXwXyXyXyXyX{.XXpXpXpXpXpXpXpXoXl.l.N.XXtX{.wXwXwXwX{.}.uXaXiXaXiXiXaXaXiXaXiXaXiXiXiXpXaXOXpXoXpXpX",
"t.t.e.e.e.e.t.t.e.e.e.t.t.t.t.t.r.r.r.r.#.} } } } 4.4.4.4.4.4.0.4.e.b.c.x.x.x.b.n.r.a.b.b.b.e.x.x.x.b.x.e.e.b.b.e.e.r.t.t.t.t.t.} } } } } } } } } } } } } } } } } } } } } } } } } } } } } } } } } } } } } } } } #.0.r.r.0.0.r.r.e.e.e.r.y.e.e.r.e.x.x.g.w.x.x.i.e.e.e.e.e.e.e.e.t.t.t.t.t.t.t.t.e.e.t.t.e.e.r.r.r.y.y.y.y.y.t.t.r.e.r.r.r.e.e.e.r.r.r.r.r.r.r.r.r.r.r.r.r.r.r.r.r.r.r.r.r.t.t.t.r.r.r.r.9.r.t.e.e.w.w.w.u.i.i.i.i.g.x.x.e.i.e.g.g.g.f.f.w.w.w.w.i.i.i.i.i.x.x.x.b.s.@./ 6 > > > p a.n.g.x.w.u.w.u.u.z.z.i.i.w.w.g.g.x.x.x.x.x.x.x.x.i.i.i.i.i.u.e.e.e.e.e.e.e.e.e.e.i.i.i.i.i.i.i.i.i.i.i.i.i.i.e.e.i.i.i.i.i.i.i.i.i.i.i.i.i.i.i.i.i.i.i.i.i.i.i.i.i.i.i.i.i.x.x.x.i.i.x.i.e.e.e.g.g.g.e.e.e.e.e.e.e.e.e.e.x.x.e.e.e.e.g.g.g.e.e.e.e.e.e.e.e.e.e.w.w.w.f.f.e.e.e.e.e.e.e.e.e.e.e.e.e.e.e.e.e.w.u.u.u.u.p.p.5.5.6.p.5.5.x.6X9X9XG.G.G.G.G.G.G.G.G.G.9Xn.G.oXoXuXoXXXXXXXXXXXXXXXXXXX}.}.XXXXXXXX}.}.XXXXXXXXXXXXXXXXXXXXXXXX}.}.}.XXXX}.}.}.}.}.|.|.|.}.|.}.|.eXwXyXXXXXC.OXOXOX+XOXgXlXgXhXhX@XhXhXhXzXdXOXiXiXsXiXiXiXiXsX9X0.q.p.p.p.u.p.p.w.w.w.w.w.w.w.w.u.w.w.w.w.w.5.p.p.i.u.n.0XG.iXdXOXdXdXiXaXdXaXdXaXaXaXaXaXaXdXdXnXBXKXLXHXDXHXGXGXHXHXHXHXGXDXDXGXGXGXGXGXGXGXGXGXDXDXDXGXGXGXGXGXGXGXGXGXGXGXGXGXHXGXGXHXHXHXHXHXGXGXGXGXGXHXHXGXGXGXGXDXGXGXGXGXGXGXGXGXDXDXDXDXHXJXSXSXSXSXIXnXmXmXmXmXmXnXnXnXnXzXk.wXuXuXiXaXuXiXuXiXiXsXC.f.x.z.z.z.u.w.p.6.u.5.u.w.w.h.uXG.iXiXiXuXuXoXoXG.oXoXoXoXoXOXuXuXV.{.}.wXwXyXtXXXXXXXuXXXoXpXoXoXaXoXoXoXoXuXuX{.wXwXwXwXwX}.tXyXXXXXXXXXoXXXG.XXG.XXXXXX}.|.pXoXpXpXpXpX",
"b.b.b.b.b.b.b.b.b.b.b.b.b.b.b.b.b.n.n.b.r.#.} } }  .} } 4.} | } | r.x.b.x.x.x.b.n.b.n.b.b.n.x.x.x.x.x.c.b.x.x.b.b.b.b.b.b.n.n.b.} } } } } } } } } } } } } } } } } } } } } } } } } } } } } | } } } } } } } } } } #.e.b.b.t.b.b.b.a.b.b.a.b.b.b.i.x.x.x.g.i.x.x.i.x.x.x.x.b.b.b.b.b.b.b.b.t.t.b.b.b.b.t.t.t.b.t.t.t.t.t.t.t.a.a.a.t.t.t.t.a.a.i.i.a.a.a.a.a.a.a.a.a.t.t.t.g.g.e.e.b.t.b.b.e.t.b.e.a.e.a.b.e.e.b.i.w.w.w.w.u.i.i.i.i.g.g.g.e.e.e.e.e.g.w.w.w.e.e.e.i.i.u.i.i.6.6.z.x.t.F.@.; > w 6 p a.t.w.x.w.u.x.z.z.u.u.i.i.u.f.g.g.g.g.i.u.z.z.x.x.x.i.i.i.i.t.t.t.e.e.e.e.e.w.e.e.i.i.i.i.i.i.i.i.i.i.i.i.i.i.e.e.e.i.i.i.i.i.i.i.i.i.i.i.i.i.i.i.i.i.i.i.i.i.i.i.i.i.i.i.i.i.x.x.i.i.x.x.e.e.g.g.e.e.e.e.e.e.e.e.e.e.e.e.x.g.e.e.e.e.g.g.e.e.e.e.e.e.i.i.i.i.w.w.w.w.f.f.f.f.w.w.e.e.i.i.i.i.e.w.w.w.w.u.u.u.u.u.p.u.u.u.6.6.5.u.6.4.f.tXsXuXuXuXuXuXuXiXuXuXuXuXiXG.uXoXXXoXoXXXXXXXXXXXXXXXXXXXXXXXXXXXXXXXXXXXXXXXXXXXXXXXXXXXXXXXXXXXXX}.XXXXXXXXXXXX}.}.XX}.|.XXoX|.|.eXeXyXyXyX}.uXG.D.l.oXdXjXgXgXhXhXfXlXfXgXzXzXzXzXjXzXzXhXzXxXuX] 0.q.q.p.u.p.p.p.p.w.w.q.w.w.w.w.w.w.w.w.w.6.6.p.u.2.n.jXdXiXiXiXdXdXiXdXdXaXdXaXfXaXaXaXaXD.H.SXLXHXGXGXGXGXFXHXDXGXGXDXDXGXGXDXGXGXGXGXGXGXGXGXGXGXGXGXGXGXGXGXGXGXGXGXGXGXDXDXHXHXHXGXHXHXHXHXGXHXGXHXHXHXHXHXGXGXDXDXGXGXGXGXGXGXGXGXDXDXDXDXDXJXHXHXFXLXPX@Xo.%.%.O.O.O.O.O.O.>.j.l.D.D.D.D.G.OXOXiXjXxXG.| w.w.w.u.w.u.u.p.u.5.5.w.5.h.sXXXaXxXsXj.j.l.C.C.C.l.l.l.l.C.C.C.V.{.wXwXwX}.}.}.yX}.}.}.oXaXaXpXpXpXaXaXaXaXpX|.|.|.{.wXtXwX}.V.V.}.V.V.XXXXG.XX}.}.B.{.M.N.pXpXpXpXpXpX",
"i.x.x.x.x.x.x.x.x.x.x.x.x.x.x.x.x.b.b.a.0.} } } } } 4.} 2.4.2.2.} w.x.x.x.b.x.x.x.x.x.b.b.x.x.x.x.x.x.x.x.x.v.x.v.x.x.x.b.b.a.a.{ } 8.} } #.0.} } } } | } 0.0.} 0.0.0.} r.8.4.4.} } #.9.0.0.8.#.0.} | +.+.} } | } e.b.e.e.i.e.w.i.i.i.i.e.g.g.e.i.i.i.x.i.u.u.u.z.z.z.x.x.x.i.i.i.i.a.i.i.i.i.g.e.e.e.e.e.e.e.e.e.e.e.e.e.e.e.e.e.e.e.e.e.e.e.e.i.i.i.i.i.i.i.i.e.e.e.w.w.w.e.e.e.e.e.e.w.w.u.i.i.i.i.i.i.i.i.i.u.u.u.u.i.u.u.u.x.i.i.e.e.e.i.e.i.i.i.i.i.i.i.i.u.u.u.u.z.z.i.i.x.i.t.s.: 6 > > p a.b.w.x.z.w.f.f.u.u.u.i.i.z.z.z.z.z.z.z.z.z.x.x.z.x.b.a.+.@.@.y.^ y.t.0.e.w.u.u.i.i.i.e.i.e.e.i.i.i.i.i.i.i.i.i.i.i.i.i.e.i.i.i.i.e.e.i.e.e.i.i.i.e.e.i.i.i.i.e.e.i.e.e.e.x.x.x.i.e.e.e.e.e.e.e.e.e.e.e.e.e.e.e.e.e.e.i.e.e.e.i.i.i.i.i.i.i.x.w.w.i.i.u.w.u.w.u.u.w.w.z.f.w.w.f.f.f.e.i.i.i.i.z.w.w.w.w.z.w.z.5.z.u.u.6.p.6.p.6.7.6.6.w.uXyXXXoXoXoXoXyXXXXXXXoXoXXXXXXXXXXXXXXXXXXXXXXXXXXXXXXXXXXXXXtXtX}.XXXXXXXXXXXXXXXX}.XXXXXXXXXXXXXXXXtXtXtXyXXXXXwXwXXXXXXXoX}.|.wXeXyXeXyXeXwXyXuXuXXXG.jXjXhXgXgXgXlXlXgXgXgXfXgXgXgXlXgXgXhXzXOX>.j.e.b.n.4.u.q.p.u.u.i.4.w.u.u.w.u.w.w.u.5.6.6.6.u.4.b.sXiXOXiXiXiXsXsXaXgXaXaXdXiXaXgXOXvXbXvXSXHXHXGXGXGXGXGXGXGXGXGXGXGXGXGXGXGXGXDXDXGXGXGXGXGXGXGXGXDXDXDXDXDXGXGXGXGXGXGXGXHXGXHXGXGXGXGXHXGXGXHXGXGXGXHXGXGXGXGXGXGXGXGXGXGXGXGXGXGXGXGXDXGXFXDXGXFXHXKXBXbXbXbXbXvXvXvXvXvXvXvXvXvXvXvXvXzXG.iXOXjXjXG.j.C. .x.u.i.u.u.p.5.p.u.u.4.g.uXXXaXgXaXoXOXoXG.V.G.G.G.V.G.V.G.V.tXwXwXB.{.wXwX}.XXXXXXXXoXoXoXoXuXuXoXoXaXaXOXXXXX}.yXyX{.{.wXXX}.}.tXtXtXXX}.{.{.wX{.wXB.N.pXpXpXpXpXpX",
"z.z.z.z.z.z.x.x.x.x.x.x.x.x.x.x.x.x.a.t.8.{ | } } } 8.0.4.2.} } } w.x.i.i.x.x.v.x.x.x.x.x.x.x.x.x.x.x.x.x.x.v.v.v.v.v.x.x.b.b.b.{ } 8.} } } } } } } } } 0.b.e.a.x.e.b.e.b.t.b.b.b.b.a.t.a.b.b.b.b.r.+.+.+.#.#.} } e.b.e.e.i.x.i.i.i.z.z.z.f.f.f.i.i.i.i.i.u.u.i.z.z.z.z.z.x.x.i.i.i.i.i.i.x.x.x.g.g.g.g.g.g.e.e.e.e.e.e.e.e.e.e.i.i.i.i.u.u.u.u.i.i.i.i.i.i.i.i.e.e.w.w.f.w.w.e.i.i.i.f.f.z.u.u.u.u.u.u.u.u.u.u.u.u.u.u.u.u.u.u.x.i.i.e.e.e.i.i.i.i.i.i.i.i.i.i.u.u.u.z.z.z.i.i.u.w.i.s.- 6 > > p y.t.e.e.e.e.w.f.z.u.u.i.u.i.z.z.z.z.z.z.z.z.z.x.i.e.t.@.7 : o 3 o @.y.r.e.w.x.u.i.i.i.i.i.i.e.i.i.i.i.i.i.i.i.i.i.i.i.e.e.i.i.i.i.i.i.i.i.e.i.i.i.i.i.i.i.i.i.e.e.i.i.e.e.x.x.i.a.e.e.e.e.e.e.e.e.e.e.e.e.e.e.e.e.e.e.e.e.e.e.i.i.i.i.i.i.i.i.x.x.i.i.i.i.i.u.u.i.u.u.z.z.u.z.f.f.f.u.u.i.i.z.z.u.z.u.u.z.6.u.z.v.6.u.6.u.5.6.u.6.p.4.4.tXuXoXoXoXoXXXyXXXoXXXXXXXXXXXXXXXXXXXXXXXXXXXXXXXXXtXtXtXXXXXtXtX}.XXXXXXXXXXXXXX}.}.}.}.}.}.}.}.XXXXtXtXtXXXXX}.yXwXXXXXXXXXXX}.wXyXyXyXyXeXwXeXwXtXyXXXjXjXhXgXgXgXlXlXfXfXfXgXgXgXgXfXgXgXgXzXhXgXjXjXxXsX0.0.w.u.6.6.x.w.u.5.6.6.w.5.5.5.5.6.6.6.6.} j.sXOXiXiXiXM.h.iXjXgXaXfXaXlXsXaXD.nXPXKXLXHXGXGXGXGXGXGXGXGXGXGXGXGXGXGXGXGXGXDXDXGXGXGXGXGXGXGXDXDXDXDXDXDXGXGXGXGXGXGXGXHXHXHXHXHXHXGXDXHXGXGXGXGXGXHXHXGXGXGXGXGXGXGXGXGXGXGXGXGXGXGXDXDXDXGXGXDXHXHXKXHXHXHXHXJXJXJXJXLXJXJXJXHXLXLXPXPXhXH.OXzXzXxXxXsXe.e.w.w.w.w.q.w.p.u.6.4.h.uXuXV.l.oXfXlXOXC.V.V.V.V.V.V.V.V.V.V.V.wXwXeXwXwX}.tXXXXXXXXXXXXXXXV.G.C.V.OXaXaXpXaXaXaXpXXXV.{.}.V.|.V.V.V.V.}.}.{.{.{.eX{.{.pXpXpXpXpXpX",
"z.z.z.z.z.z.z.z.x.x.x.x.x.x.x.x.x.x.b.i.9.{ } } } { { } } } } } | w.x.z.u.z.x.x.x.x.x.x.x.x.x.x.x.x.x.x.x.x.x.v.v.v.x.x.x.b.b.b.| | { } } } } } } | } } 0.t.t.b.a.r.g.e.e.r.b.y.y.a.b.t.i.b.a.a.t.0.| | | } } | } e.x.e.w.e.e.x.i.i.i.z.z.z.z.z.i.i.i.i.u.u.i.i.i.i.i.i.x.x.x.x.e.e.e.e.e.e.g.g.e.e.g.g.x.x.i.i.i.i.i.i.i.i.i.i.i.i.i.i.u.u.i.i.i.i.i.i.i.i.i.i.e.w.w.w.w.w.w.i.i.i.u.u.u.u.i.i.u.u.u.u.u.u.u.u.u.u.u.u.u.u.u.u.i.e.e.e.e.i.i.x.i.i.i.i.i.i.i.i.u.z.u.u.z.z.u.i.u.e.a.s.- > 6 + ( S.F.F.n.t.b.e.z.z.z.z.u.x.z.z.z.z.z.z.z.z.z.z.x.a.t.y.S.0 o @ @ @ ( S.s.t.r.i.i.i.i.i.i.i.i.i.i.i.i.i.i.i.i.i.i.i.i.i.i.i.i.i.i.i.i.i.i.i.i.i.i.i.i.i.i.i.i.i.e.e.e.e.e.e.i.x.i.i.e.e.e.e.e.e.e.e.e.e.i.e.e.e.e.e.e.e.e.e.e.e.e.e.e.e.x.z.z.z.u.u.u.u.u.u.u.i.u.p.u.u.u.u.u.z.6.d.f.f.u.u.z.z.w.u.z.5.5.u.6.6.6.6.6.6.5.6.5.4.} 2.4.| | 6XyXuXoXoXyXyXwX}.XXXXXXXXXXXX}.}.}.}.XXXXXXXXXXXXXXtXtXtXtXtXXX}.}.}.XX}.}.}.}.}.}.XX}.}.}.}.}.}.}.}.wXwXwX}.|.|.}.XXyXXXXXXXyXyXyXyXyXyXeX|.|.eXwXtXV.G.jXjXgXgXgXlXfXlXfXfXgXgXgXgXgXgXgXgXgXgXjXzXzXjXzXiX] | #. .q.3.p.6.w.5.6.u.u.5.5.5.6.5.5.6.2.} h.OXOXOXOXiXj...uXaXaXaXaXaXaXoXOXA.bXLXJXGXHXGXGXGXGXDXDXGXGXGXGXGXGXGXGXGXGXDXDXDXDXDXDXGXGXGXGXGXDXGXDXDXGXGXHXHXHXHXHXHXHXHXGXGXGXHXHXHXHXGXGXGXGXGXGXHXGXGXGXGXGXGXGXGXGXGXGXGXGXGXGXDXDXDXDXGXDXDXGXHXGXGXGXGXHXHXHXHXGXGXGXGXHXHXHXHXKXJ.Z.A.H.H.OXgXiX$.0.q.w.q.q.r.w.0.5.5.4.f.V.V.yXG.oXxXxXiXM.V.C.C.C.C.C.C.C.C.l.V.C.{.wXwX{.eXyXtXtXXX}.}.}.|.XXXXG.}.OXaXsXsXaXaXaXpXXXV.V.XXl.l.V.V.V.V.V.|.{.{.{.eXB.{.pXpXpXpXpXpX",
"z.z.u.z.x.z.x.z.x.x.x.x.x.x.x.x.x.x.b.b.e.0.r.e.t.9.{ } } } } 8.| q.x.x.x.z.z.x.i.i.b.x.x.i.x.x.x.i.i.x.i.x.x.x.x.x.x.x.x.x.x.x.q.0.q.e.e.#.} } } } } } #.0.0.e.a.e.c.c.g.g.b.! E +.t.b.x.b.a.i.b.e.r.r.r.r.0.} } e.x.e.w.e.e.x.i.i.i.i.x.z.x.x.i.i.i.i.u.u.z.i.i.i.i.i.i.x.x.x.g.g.g.e.e.e.e.e.e.e.e.g.x.x.i.i.i.i.i.i.i.i.i.i.u.u.i.i.i.i.i.i.i.u.i.i.i.i.i.u.w.w.w.w.w.e.i.i.i.i.u.u.i.i.i.i.i.i.u.u.u.u.u.u.u.u.u.u.u.u.u.i.e.e.e.e.i.i.i.x.i.i.i.i.i.i.i.x.i.u.u.u.z.z.z.i.u.i.a.s.- 6 6 > 0 ^ ( R R R t.a.u.z.z.z.z.z.z.z.z.z.z.z.z.z.z.f.e.t.@.( ( 6 @ > w @ d d ^ y.t.e.i.i.i.i.i.i.i.i.i.i.i.i.i.i.i.i.i.i.i.e.i.i.i.i.i.i.i.i.i.i.i.i.i.i.i.i.i.i.i.i.e.e.e.e.e.e.i.x.i.e.e.e.e.e.e.e.e.e.e.e.i.e.e.e.e.e.e.e.e.e.e.e.e.e.e.g.z.z.i.i.i.i.i.i.u.u.i.x.u.8Xv.u.u.u.z.v.z.z.z.z.u.z.z.z.5.u.z.u.u.x.z.p.6.8X6.6.5.6X6XC.C.V.V.C.M.yXuXyXuXyXyXwXwX}.XXXXXXXXXXXX}.}.}.}.XXXXXXXXtXtXtXtXtXtXtXtXtXwXwXwXtXwXwX}.}.wX}.}.}.}.}.}.}.}.}.}.wXwX}.}.|.|.}.XXyXyXXXXXyXeXyXyXyXwXeX{.|.eX}.XXXXXXlXlXlXgXgXgXlXlXfXfXgXfXfXfXfXdXfXgXlXgXgXgXgXgXhXjXOXiXiXiXuXp.p.6.p.6.6.p.5.5.6.6.u.p.6.w.9X9XOXgXOXdXdXdXaXOXaXaXaXaXaXsXaXgXIXnXSXLXHXHXGXGXGXGXGXDXDXDXGXGXGXGXGXGXGXGXDXDXDXDXDXDXDXDXGXGXGXGXGXGXGXGXGXGXHXHXHXHXHXHXDXGXGXHXGXHXFXGXHXHXGXGXGXGXHXGXGXGXGXGXGXGXGXGXGXGXGXGXGXGXGXDXDXDXDXDXGXDXDXHXDXDXGXDXGXGXGXGXDXDXDXDXDXDXGXHXLXBXBXIXnXIXvXdXsXM.V.6X9XC.V.V.V.C.C.C.C.C.tXwXyXXXXXoXaXXXC.G.aXaXaXaXaXaXiXaXiXaXXXV.}.{.{.wXwXtXXXXX}.}.}.}.XXyXXXXXXXXXXXXXXXXXoXXXV.V.oXiXoXoXoXuXuXXX}.N.{.{.B.wX{.{.pXpXkXpXpXpX",
"x.u.x.z.x.x.x.x.x.x.x.x.x.x.x.x.x.i.x.b.i.i.b.b.n.r.{ { { { | | | 0.x.x.x.z.u.x.i.e.t.t.b.b.x.x.i.i.i.i.i.x.x.x.x.x.x.x.x.x.x.x.x.x.b.n.x.0.| | } | } } | | { 0.a.g.C.C.m.C.F.i - ^ t.b.b.b.n.n.n.e.e.t.t.e.#.| } r.g.e.e.w.w.u.i.i.i.i.i.u.i.u.i.i.i.i.i.z.z.z.u.u.u.z.u.z.z.x.x.x.z.z.x.i.i.i.i.i.i.i.i.i.i.i.i.i.i.i.i.i.i.i.u.i.i.i.i.i.i.i.i.i.i.i.i.i.i.u.u.w.w.w.w.w.u.u.i.u.u.i.i.i.i.i.i.i.i.u.u.u.e.e.e.e.e.e.i.e.i.e.e.e.e.e.i.i.i.x.i.i.i.x.i.i.i.x.x.x.i.u.z.z.z.z.u.i.a.+.O > > o O X o O O 2 r.b.i.u.z.x.z.z.z.z.z.z.z.z.z.z.z.f.e.t.^ X ; o O @ @   O O u r.a.e.i.i.u.i.i.i.i.i.i.i.i.i.i.i.i.i.i.i.i.e.i.i.i.i.i.i.i.i.i.i.i.i.i.i.i.i.e.i.i.i.e.e.e.e.e.e.a.i.i.x.e.e.e.e.e.e.e.e.e.e.i.i.i.e.x.x.x.i.i.i.x.x.i.i.e.g.z.z.z.i.i.x.i.u.w.0.0.w.w.u.p.5.p.u.6.6.v.v.v.p.u.u.6.6.6.u.w.w.0.4.5.7.p.p.5.4.4.9XsXiXsXsXsXsXuXpXyXyXyXyXyXeXwX}.|.|.}.}.}.}.}.}.}.}.XXXXtXXXtXtXtXtXtXtXtXtXtXwXtXtXeXeXtXtXwXwXXXXX}.}.wXwX}.}.}.}.}.}.}.}.XXXXXXXXXXyXXXXXwXwXyXyXyXeXeX{.{.eXB.}.C.D.fXgXlXgXgXlXfXfXfXfXfXfXfXfXfXfXdXdXfXgXlXgXgXfXdXhXhXxXhXzXsXp.6.6.u.6.6.6.6.6.6.6.5.5.4.} jXjXjXzXdXhXgXjXfXfXaXaXaXgXaXaXD.OXPXLXHXHXFXGXGXHXHXHXGXGXGXGXGXHXGXGXGXGXDXDXGXGXGXGXGXGXDXGXGXGXHXGXHXHXHXGXGXGXDXDXGXGXHXGXGXGXGXHXJXHXJXLXJXHXGXHXHXGXGXGXGXGXGXGXGXGXGXGXGXGXGXGXGXGXGXDXDXDXDXDXGXGXDXGXGXGXDXDXDXDXDXDXDXDXDXDXDXDXGXGXHXHXLXLXPXPXvXD.sXtXuX9XuXtXuXtXG.oXG.XXXXV.XXV.V.G.C.l.l.D.G.oXlXlXlXlXlXlXlXlXjXlXOXC.V.V.}.}.wXtXXXXX}.}.}.}.V.tXXXV.}.V.V.V.V.V.}.{.V.XXiXsXaXaXaXsXsXaXXXV.{.}.{.wX{.{.pXpXkXpXpXpX",
"u.i.x.x.x.x.x.x.x.x.x.x.x.x.x.x.z.u.x.x.x.i.b.n.b.r.} } 8.2.} { } q.x.x.z.u.w.i.e.r.9.r.a.t.i.x.i.i.i.i.i.i.x.x.x.x.x.x.x.x.x.x.x.u.x.b.i.0.} } } } 0. .} } } e.b.g.b.f.z.M.F.i O ^ b.b.x.x.x.x.i.w.e.e.e.r.0.| #.e.x.g.g.g.w.w.i.i.i.i.i.i.i.i.i.i.i.z.z.z.i.z.u.u.u.u.u.i.x.x.x.x.z.z.x.i.i.i.i.i.i.i.i.i.i.i.i.i.i.i.i.i.i.i.u.u.i.i.i.i.i.i.i.i.i.i.i.i.i.u.u.u.w.w.e.e.i.i.u.u.u.i.i.i.i.i.i.i.i.i.i.i.e.e.e.e.e.e.e.e.e.e.e.e.e.e.e.i.i.i.i.i.i.i.i.i.i.i.i.x.i.i.z.z.z.z.z.x.t.s.7 d p p 0 ; 6 6 4 1 t.b.i.i.i.i.x.z.z.z.z.z.z.z.z.z.f.f.t.a.^ O ; d d d d d p 9 E y.a.e.i.u.u.i.i.i.i.i.i.i.i.i.i.i.i.i.i.i.i.e.i.i.i.i.i.i.i.i.i.i.i.i.i.i.i.e.e.e.i.i.e.e.e.e.e.e.i.i.b.x.e.e.e.e.e.e.e.e.e.e.i.i.e.e.x.i.x.x.i.x.x.x.i.i.i.g.z.z.z.i.p.i.u.w.i.g.e.g.g.x.g.f.x.b.u.6.p.p.p.p.6.6.d.6.6.6.w.g.b.r.e.i.i.q.q.e.r.G.oXG.oXoXXXuXoXuXXXyXyXyXyXeXeXwX}.}.|.|.|.}.}.}.}.}.wXwXtXtXtXtXtXtXtXtXtXwXwXwXtXtXeXeXtXtXeXeXwX}.}.}.wXwXwX}.}.}.}.}.}.}.XXXXXXXXyXyXyXwXwXwXeXeXyXeXwX{.wXwXB.yXXXD.aXfXlXgXlXlXfXfXgXgXfXfXfXfXfXlXlXfXdXgXgXgXlXlXfXhXfXhX@XzXsX4.6.p.p.6.6.6.6.6.6.6.4.w.c.g.iXdXdXgX@XgXfXgXlXlXfXaXaXaXOXdXhX@XSXLXFXHXHXHXHXGXHXHXGXGXGXGXHXHXHXGXGXGXDXDXGXGXGXGXGXGXGXDXGXHXGXGXHXHXHXHXGXGXGXGXGXGXHXHXHXGXGXHXLXLXBXKXKXLXHXHXHXGXHXGXGXGXGXGXGXGXGXGXGXGXGXGXGXGXGXGXDXDXGXDXDXDXDXDXDXDXDXDXDXDXDXDXFXFXFXDXDXDXDXDXGXHXHXJXSXSXvXaXiXXXtXV.tXtXtXC.G.oXXXXXoXXXXXG.XXXXXXD.D.D.G.G.fXdXfXfXfXgXgXgXdXfXoXG.XXXXyX}.tXtXXXXX}.}.{.{.wXtXwX{.}.wX}.tXV.V.{.{.V.}.uXaXiXpXiXaXsXsXyXV.{.}.{.eX{.{.pXpXkXkXpXpX",
"i.i.i.i.i.i.i.x.x.x.x.x.x.x.z.z.z.u.x.x.u.u.x.x.b.e.e.e.e.x.e.e.r.e.x.f.z.w.w.i.r.{ ! +.e.e.w.e.i.i.i.i.i.i.i.x.x.x.x.x.x.z.z.z.z.z.x.x.x.i.e.e.i.e.x.e.i.b.i.n.n.x.e.r.f.M.F.p X @.n.x.x.x.i.i.b.x.x.x.b.b.b.e.e.g.x.g.x.x.u.x.i.i.i.i.i.i.i.i.i.i.z.z.i.i.i.z.z.z.z.u.i.i.i.i.i.u.u.u.i.i.i.i.i.i.i.i.i.i.i.i.i.i.i.i.i.i.i.i.i.i.i.i.i.i.u.u.e.i.i.i.i.i.u.u.u.u.w.w.e.e.u.u.u.u.i.i.e.i.i.u.i.i.i.i.e.w.e.e.e.e.e.e.e.e.e.e.g.g.e.e.e.e.e.e.e.e.i.i.i.i.i.i.i.z.i.i.z.z.z.z.z.x.i.b.@.S.y.S.Z.6 > > 3 < a.a.x.x.a.t.t.e.z.z.i.i.i.i.i.i.e.e.y.y./ X 5 @.S.@.@.y.y.s.y.a.e.e.i.i.i.i.i.i.i.i.i.i.i.i.i.i.i.i.i.i.i.i.i.i.i.i.i.e.e.i.i.i.i.i.i.i.i.e.i.i.i.i.e.e.e.e.e.e.i.a.a.i.e.e.e.e.e.e.e.e.e.e.e.e.e.e.e.i.e.e.i.i.i.x.i.i.i.x.x.z.z.z.z.x.u.x.9X9XG.G.G.G.G.G.uX9Xn.u.6.u.p.6.8X6.6.6.z.6.z.tXsXuXiXsXn.e.n.iXXXuXoXoXuXiXoXiXoXpXyXpXyXyXyXeXeXwXeXwX|.}.}.}.}.}.}.}.wXwXwXwXwXwXwXwXtXeXeXwX}.}.tXtXwXeXeXeXeXeXeXwX}.}.wXwXwXwXwXwXwXwXwXwXwXwXtXwXwXwXwXwXwXwXeXeXeXwX{.V.{.V.V.iXjXaXzXlXlXlXgXfXgXgXfXgXgXfXfXfXaXfXfXfXfXgXgXgXdXfXfXhX@XhX@XzXsX4.p.p.6.6.6.6.6.5.6.5.4.6XsXsXgXhXgXgXdXgXdXfXfXOXaXaXfXfXOXnXPXSXLXLXHXHXJXFXHXHXHXHXHXGXGXGXHXHXHXGXGXGXGXGXGXGXGXGXHXGXHXGXGXGXGXGXHXHXHXHXHXGXGXGXJXHXHXHXJXJXHXJXJXBXh h SXLXHXHXHXGXHXDXGXGXGXGXGXGXGXGXGXGXGXGXGXGXGXGXGXDXGXDXFXDXDXDXDXDXDXDXDXDXDXDXDXDXDXDXDXDXDXDXGXGXJXIX@XhX@XiXaXuXuXuXuX9XtXC.aXlXfXaXfXjXjXjXjXjXjXlXjXjXjXjXgXlXlXlXgXgXjXgXgXlXdXjXaXXXtXV.XXXXXXXX}.}.{.{.wXwXwX{.}.{.V.{.wX{.{.wXB.V.}.XXXXXXG.XXXXXX}.V.{.}.{.wX{.{.pXpXpXpXpXkX",
"i.i.i.i.i.i.i.x.x.x.x.x.x.x.z.z.x.i.x.v.z.z.x.x.x.b.b.x.x.x.b.b.b.b.x.f.z.w.e.a.s.! E #.a.b.e.x.i.i.i.i.i.i.i.i.x.x.x.x.x.z.z.z.z.z.z.z.z.x.x.x.x.x.x.u.x.x.e.x.b.b.a.n.M.n.F.p O ( b.g.x.b.x.x.x.x.x.x.e.a.b.e.g.b.x.w.x.x.x.x.i.i.i.i.i.i.i.i.i.z.i.z.i.z.u.u.z.z.u.i.i.i.i.i.i.i.i.i.i.i.i.i.i.i.i.i.i.i.i.i.i.i.i.i.i.i.i.i.i.i.i.i.i.u.u.u.w.u.u.i.i.i.u.u.u.u.w.w.e.u.u.u.u.i.i.i.e.i.u.u.u.i.i.i.e.w.e.e.e.e.e.e.e.e.e.e.e.e.e.e.e.e.e.e.e.e.i.i.i.i.i.i.i.z.i.z.z.z.z.z.z.x.w.b.t.F.y.S.S.> > 6 6 9 a.a.x.x.t.a.y.t.e.e.i.i.a.a.t.t.t.y.y.S.( O < @.S.s.r.y.y.y.t.e.r.b.i.i.i.i.i.i.i.i.i.i.i.i.i.i.i.i.i.i.i.i.i.i.i.i.i.e.i.i.i.i.e.e.i.i.i.i.i.i.i.i.e.e.e.e.e.e.i.x.a.i.e.e.e.e.e.e.e.e.e.e.e.e.e.e.e.e.e.i.i.i.i.e.i.i.i.i.e.x.i.z.z.i.5.x.0XiX0XH.G.OXG.G.iXuXx. .4.5.5.6.6.6.6.6.6.5.w.uXsXoXiXsXj.#.j.sXiXuXiXsXuXiXoXuXoXuXyXyXyXyXyXyXeXeXyXeXwXwXwXwXwXwXwXwXwXwXwXwXwXwXwXwXeXeXeXwXXXXXG.G.tXwXeXeXeXeXeXwXeXeXwXeXeXwXwXwXwXwXwXwXwXeXeXeXeXeXwXwXwXeXeXeXyX{.V.V.C.j.j.oXzXaXgXdXgXlXlXgXgXgXfXfXgXgXfXfXlXfXaXfXfXfXgXgXgXfXfXlX@XzXhXgXiXX.| | | 3.6.6.3.| | X.X.n.jXdXdXgXdXfXfXfXaXfXlXaXlXOXfXOXJ nXLXLXLXLXLXLXLXLXLXHXHXHXHXHXGXGXGXHXGXGXGXGXGXGXGXGXGXGXHXHXHXHXHXGXGXGXHXHXHXHXHXJXJXJXPXPXPXPXLXLXLXLXLXBX    IXLXHXJXHXGXHXGXGXGXGXGXGXGXGXGXGXGXGXGXGXGXGXGXGXDXGXHXHXHXGXDXDXDXDXDXDXDXDXDXDXDXDXDXDXDXDXDXHXGXLXIXA.H.H.D.>.>.>.>.>.>.l.D.OXfXfXaXgXgXgXgXjXgXgXgXgXgXfXgXgXlXlXlXjXjXjXjXgXfXjXzXsXV.XX}.}.XXXXXX}.}.{.{.{.wXV.{.wX}.B.{.wXB.eXeX{.{.V.{.C.l.l.l.l.C.V.V.V.{.B.eX{.{.sXaXpXpXsXaX",
"i.i.i.i.i.i.i.i.i.i.x.x.x.x.x.x.x.z.z.z.z.z.z.z.x.x.x.x.x.e.b.b.b.b.w.x.x.u.i.t.t.! E r.a.e.e.w.z.i.i.i.i.i.i.i.i.x.x.x.x.x.x.x.z.z.z.z.z.x.x.x.x.z.x.u.x.b.u.x.x.n.^ E r.n.F.i O ( b.x.b.b.u.x.x.z.z.z.w.e.i.b.i.x.x.x.x.x.i.i.i.i.u.u.i.i.i.i.u.z.w.v.w.u.i.e.i.b.i.0.0.a.b.i.e.e.w.e.i.e.a.a.i.e.e.e.e.e.e.w.i.i.e.e.i.i.i.i.i.i.i.w.w.w.e.e.e.e.e.e.e.e.e.i.i.u.w.w.i.i.i.u.u.i.e.r.a.x.x.z.u.i.i.i.e.e.e.e.e.e.e.e.e.e.e.e.e.e.e.e.e.e.e.e.e.e.e.e.e.e.i.i.i.u.u.u.z.z.z.z.z.z.z.w.e.a.@.p ( 6 6 6 > 5 y.t.b.e.t.+.^ ^ t.a.9.R / ^ / ( ( ( ( ( d o , y.y.e.t.t.t.e.e.e.a.i.i.i.i.i.i.i.i.e.e.e.e.e.i.i.i.e.e.e.e.e.e.e.e.e.e.e.e.e.e.e.e.e.e.e.e.e.e.e.e.e.e.e.i.e.e.e.x.b.x.x.i.i.e.e.e.e.e.e.e.e.e.e.e.e.x.x.x.x.e.e.e.e.i.i.i.x.e.g.i.u.u.z.z.f.n.F.S.%.%.%.o.%.%.+.G.C.G.tXuXc.4.v.6.6.i.i.q.uXiXoXOXOXG.l.G.iXiXC.j.G.G.j.XXuXXXyXtXyXuXeXyXyXwXyXyXyXwXwXwXwXwXwXwXwXwXwXwXwXwXwXwXwXyX{.C.XXaXD.iXjXaXV.}.yXeXeXwXwXeXeXyX{.eXeXeXeXeXeXwXeXwXtXwXeXeXeXeXeXeXeXeXeXyXV.aXaXOXOXOXdXhXgXgXgXgXgXgXgXgXgXgXgXgXgXgXgXgXgXgXgXgXgXgXgXgXgXgXgXgXfXhXhXdXuXuXG.iX0Xe.0.6XuXuXG.G.OXdXgX@XgXaXaXfXaXaXkXaXaXlX@XhXnXnXSXHXLXBXvXbXbXbXbXbXBXLXJXJXHXGXGXDXGXFXGXHXFXGXHXHXHXHXHXHXHXHXHXGXHXDXGXGXHXHXJXLXnXnXnXnXnXnXnXnXbXbXbXbXUXUXUXLXHXHXHXGXGXGXGXGXGXGXGXGXGXGXGXGXGXGXGXGXGXGXGXGXGXGXGXGXGXGXGXDXDXGXDXDXDXDXDXDXDXDXDXGXGXGXGXDXGXGXKXBXnXnXnXnXnXnXnXnXIXdXOXaXlXaXfXgXgXlXdXgXgXgXdXdXgXjXfXlXlXOXoXOXiXiXiXgXgXiXOXuXXXXX}.}.}.}.}.{.}.{.B.{.{.{.{.V.V.{.{.{.{.wXeXB.{.{.|.l.pXaXoXiXiXXXV.V.eXeXwX{.N.yXXXyXyXyXyX",
"i.i.i.i.i.i.i.i.x.i.x.x.x.x.x.x.x.x.x.z.z.z.z.z.x.z.x.x.x.x.b.b.t.b.e.z.z.w.i.t.r.E E 9.t.e.e.w.z.z.i.i.i.i.i.i.i.i.x.x.x.x.x.x.z.z.z.z.z.z.z.z.x.u.z.z.z.x.u.x.b.r.- O ! n.F.p O ( a.g.x.x.u.x.x.z.z.x.x.x.e.e.i.x.x.x.x.x.i.i.i.i.u.u.u.i.i.u.z.z.w.x.w.e.e.t.e.e.0.} } 0.e.e.i.e.i.e.e.e.t.t.a.e.e.e.e.e.x.e.i.i.i.e.i.i.i.i.i.i.i.i.w.w.e.e.e.e.e.e.e.e.e.e.i.i.w.w.u.u.u.u.u.i.t.b.a.e.w.w.w.i.i.i.e.e.e.e.e.e.e.e.e.e.e.e.e.e.e.e.e.e.e.e.e.e.e.e.e.e.i.i.i.i.u.u.z.z.z.z.z.z.z.z.e.t.^ : 6 @ @ + + 6 S.F.r.b.r.1 X p y.y.E - : ; > O > > o o + O X @.y.e.e.e.t.i.a.a.a.i.i.i.i.i.i.i.e.e.e.e.e.e.e.e.i.e.e.e.e.e.e.e.e.e.e.e.e.e.e.e.e.e.e.e.e.e.e.e.e.e.e.e.i.i.e.e.x.x.x.x.i.e.e.e.e.e.e.e.e.e.e.e.e.e.x.x.i.x.i.i.e.e.i.x.i.x.e.x.i.z.v.z.6.w.g.$.a     O . o   $ F.iXOXsXjXB...6.q.v.q.q.r.iXaXOXoXOXiXdXdXiXOXj.$.$.h...C.uXoXuXtXyXyXyXyXyXtXyXtXV.V.V.V.V.}.}.V.V.V.V.V.V.G.G.G.V.}.V.V.sXzXOXhXzXzXD.C.}.eXeXeXtXeXrXeX{.eXeXeXeXeX{.{.{.wXeXeXeXeXeXeXeXeXeXeXyX}.G.jXzXhXzXdXgXhXgXgXgXgXgXgXgXgXgXgXgXgXgXgXgXgXgXgXgXgXgXgXgXgXgXgXgXgXgXgXgXzXjXzXzXxXjXj.#.iXjXzXgXdXgXgXgXfXlXfXaXaXaXfXaXaXfXgXOXhXPXLXHXLXKXJ.  $ X r a $ @XLXLXJXLXJXGXDXHXHXDXFXGXHXGXHXHXHXHXHXGXHXHXFXHXDXHXDXHXHXLXSXA.J O.$.O.$.>.r &     & vXLXLXHXHXHXGXGXGXHXHXGXGXGXGXGXGXGXGXGXGXGXGXGXGXGXGXGXGXGXGXGXGXGXGXDXGXGXGXGXDXDXDXDXDXDXDXGXGXGXGXDXGXHXGXJXJXPXLXJXJXJXLXLXPXvX@XdXlXfXfXlXgXfXgXgXgXfX@XdXgXgXgXlXlXOXD.l.l.l.G.lXfXoXl.l.C.V.C.V.V.V.V.V.V.V.V.V.V.V.V.V.V.V.V.V.C.B.{.{.{.}.{.V.aXaXaXsXaXXXC.wXwXwXeXeXB.yX}.tX}.tXXX",
"i.i.i.i.i.i.i.i.x.x.i.x.i.i.x.i.i.i.i.x.z.z.z.z.z.z.z.z.x.i.t.r.r.t.i.f.z.w.i.i.r.{ | r.e.e.i.e.z.z.x.x.i.x.x.x.i.x.i.i.x.x.x.x.x.z.z.z.z.z.z.z.z.u.z.z.z.z.z.x.n.a.; - +.F.a.u X ( b.x.x.x.x.x.i.w.w.x.x.x.i.i.i.i.i.i.x.x.i.i.i.i.u.u.u.u.u.u.u.x.w.c.n.b.9.a.t.b.e.#.0.e.b.b.e.e.e.e.e.a.a.t.t.e.e.e.e.e.e.e.e.e.e.e.e.e.e.e.i.i.i.i.e.e.e.e.e.e.e.e.e.i.i.i.i.i.w.w.w.u.u.u.i.i.a.s.+.r.g.x.w.w.e.i.w.w.i.e.e.e.e.e.e.e.e.e.g.g.g.g.e.g.g.g.e.e.e.e.e.e.e.i.i.i.u.u.z.z.z.z.z.z.z.w.b.a.^ ; w @ w 6 > w S.@.y.j.y.r , d S.S.d > > > w > 6 > 6 > 6 0 5 @.t.b.e.i.i.i.i.i.i.i.i.i.i.i.i.i.e.e.e.e.e.e.e.e.e.e.e.e.e.e.e.e.e.e.e.e.e.e.e.e.e.e.e.e.e.e.e.e.e.e.e.e.e.e.e.e.i.x.x.i.e.e.e.e.e.e.e.e.e.e.e.e.i.i.i.i.i.i.i.i.x.x.x.x.x.x.x.x.i.z.v.z.6.z.x.t./ 1 p 6 6 w > 5 H.G.D.aXaXM...w.2.2.e.r.$.oXiXoXOXiXOXOXOXjXjXH.y.F.j...V.uXyXyXtXyXeXeXyXwXyXXXV.uXoXoXG.G.D.D.G.G.G.G.G.G.G.G.G.G.oXG.n.uXaXG.@XhXdXD.OXG.eXeX6XeXeXeXeXeXeXeXeXrXeXeXyX{.yXeXeXeXeXeXeXeXeXeXeXeX}.XXfXgXhXzXhXhXhXgXgXgXgXgXfXfXgXgXgXgXgXgXgXgXgXgXgXgXfXgXgXgXgXgXgXgXgXgXgXgXdX@XgXdXhXaXj.$.iXjXzXgXgXgXfXdXgXlXfXfXaXaXlXaXfXOXhX@X@XKXHXGXLXLXvXr / @.y.S.a hXPXPXKXKXKXHXGXDXHXHXGXHXGXFXHXHXHXGXGXGXGXGXHXHXDXHXDXHXHXLXPXH.D.l.M.V.M.sXS.r % Z.Z.bXLXJXGXHXGXGXGXHXHXHXGXGXGXGXGXGXGXGXGXGXGXGXGXGXGXGXGXDXGXGXGXGXGXGXGXGXGXGXGXGXGXDXDXDXDXDXDXDXGXGXHXGXHXHXHXHXHXHXHXHXGXHXHXJXvX@XzXgXzXaXfXfXfXlXgXfXgXaXdXgXgXgXlXlXOXoXG.G.D.oXzXgXoXD.oXXXXXXXXXXXXXXXXXG.V.G.G.XXXXXXG.G.G.G.XXV.V.{.{.}.{.V.XXaXsXaXsXsXuXtXwXeXeXeXwX{.tX}.tXtXtXtX",
"i.i.i.i.i.i.i.x.x.x.x.i.i.i.i.i.i.i.i.i.z.z.z.z.u.w.f.z.x.e.9.! ! r.e.x.z.w.u.i.i.r.r.e.e.i.i.e.z.z.x.x.i.x.x.x.x.x.x.i.x.x.i.x.x.z.x.z.z.z.z.z.z.z.z.z.z.z.x.x.a.y.< - @.F.a.u O ^ b.b.x.x.g.t.b.i.w.w.x.x.i.x.i.i.i.i.x.x.i.i.i.z.u.z.u.u.u.u.z.v.w.w.e.! 2 u y.t.t.r.r.t.t.t.t.e.t.y.y.a.t.9.{ #.r.e.e.e.e.e.e.e.e.e.e.e.e.e.i.i.i.i.i.e.e.e.e.e.e.e.e.i.i.i.i.u.w.w.w.w.u.u.u.t.r.u 2 / t.r.e.w.e.w.w.w.i.i.w.e.e.e.e.e.e.e.g.g.g.g.e.e.g.g.e.e.e.e.e.e.e.e.i.i.u.u.z.z.z.z.x.z.z.w.b.a./ > w > > @ @ @ p 2 E y.S.p 4 0 ^ ( d @ > 6 6 > w > > > ( S.s.F.b.t.i.i.i.i.i.i.i.i.i.i.i.i.i.i.e.e.e.e.e.e.e.e.e.e.e.e.e.e.e.e.e.e.e.e.e.e.e.e.e.e.e.e.e.e.e.e.e.e.e.e.e.e.e.e.i.x.i.i.e.e.e.e.e.e.e.e.e.e.e.i.i.i.e.i.i.i.i.i.i.x.x.x.x.x.x.z.z.z.z.z.z.6.i.b.a.y.S.0 > w 6 6 d 2 %.OXiXG.V.uXn.0.sXuXG.iXiXoXG.G.y $ r H.H.p X p F.$.G.iXXXXXtXuXyXeXyXyXuXG.C.lXlXlXlXhXhXhXlXlXhXhXhXhXhXhXhXhXzXuXM.V.V.>.@XhX@X@XvXsXeXeXrXeXeXeXeXeXeXeXeXeXrX{.yX{.tXB.eXeXeXeXeXeXeXeXeXeXXXN.oXD.D.hXhXhXgXgXgXgXgXgXfXgXgXgXgXgXgXgXgXgXgXfXgXgXgXgXgXgXgXgXgXgXgXgXgXgXlXfXfX@XgXhXdXdXiXgXgX@XfXgXgXdXgXfXaXaXaXaXfXaXlXOXnXPXKXHXHXHXFXLXvXr +.+.Q ! E %.H.H.A.A.@XSXGXDXGXHXFXGXGXHXHXHXGXGXGXGXGXGXHXGXGXHXGXHXJXLXSXH.D.j.wXyX..G.S.O r IXLXJXLXFXGXGXDXDXGXHXHXHXGXGXGXGXGXGXGXGXGXGXGXGXGXGXGXGXDXDXDXDXGXGXGXGXGXGXGXGXGXGXGXGXDXDXDXDXDXDXGXGXGXGXDXDXGXGXGXDXDXDXFXDXHXHXKXKXnXOXdXgXOXdXgXgXgXfXgXdXdXgXgXgXgXlXfXaXfXfXdXgXfXlXgXfXaXaXaXaXaXjXjXjXfXfXfXfXfXfXfXfXfXfXfXgXjXoXV.N.V.V.V.V.l.XXXXXXoXXXG.V.{.wXeXeXwXwXtXtXyXuXtXyX",
"e.e.e.e.e.e.g.g.x.x.x.g.i.x.x.x.i.i.i.i.i.z.z.z.u.u.z.z.x.i.9.E E y.a.x.x.f.u.i.b.i.x.x.x.x.i.u.i.e.g.g.x.x.e.e.x.x.x.x.x.x.i.i.x.x.x.x.x.z.z.z.z.u.z.x.x.x.x.e.F.s.X O | F.a.u O ( F.n.a.b.n.t.t.a.t.e.e.w.e.x.i.i.i.i.x.x.i.i.i.x.z.z.z.z.z.i.u.x.u.x.b.+.- p S.F.F.S.F.S.S.y.F.y.S.y.y.a.y.+.~ | 0.e.e.e.e.e.e.e.e.e.e.e.e.e.i.i.i.i.i.i.i.w.i.e.i.e.i.i.i.i.u.u.w.f.u.u.z.u.w.b.y.2 O ^ S.t.e.w.w.w.w.w.i.i.e.e.e.e.e.e.e.e.e.e.e.e.e.e.e.e.i.i.i.i.e.e.e.e.i.i.u.z.z.z.z.z.z.z.x.x.b.y.^ : > o > o + O o O p S.S.6 o 6 p p > @ @ ; O X ; O X X ( S.y.b.b.i.i.i.i.i.i.i.i.i.i.i.i.i.i.i.i.i.i.i.e.e.e.e.e.e.e.e.e.e.e.e.e.e.e.e.e.e.e.e.e.e.e.e.e.e.e.e.e.e.e.e.e.e.e.e.i.a.i.a.e.e.e.e.e.e.e.e.e.e.e.e.i.i.e.e.i.i.i.i.x.x.x.x.x.x.z.z.z.z.u.z.z.6.w.u.i.t.S.0 > 6 > > 6 O %.dXdXuX9X9Xx.| uXuXaXiXiXiXiXiXr . r H.H.r O p j.} G.iXG.oXoXG.uXwXeXwXXXG.D.gXhXhXhXhXhXhXhXhXhXhXhXhXhXhXhXhXzXuXm.m.m.h.aXzXhX@XvXiXm.m.{.m.m.m.M.N.B.6X6XeXeX{.N.M.C.M.wXeXeXeXeXeXeXeXeXeXwXM.XXD.D.dXgXgXgXgXgXgXfXfXfXfXgXgXfXfXgXgXgXgXgXgXgXgXgXgXgXgXgXgXgXgXgXgXgXgXgXfXfX@XfXgXdXjXjXjXgXdXdXgXgXfXfXaXaXaXaXaXfXdX@XA.bXLXLXGXFXDXGXLXhX2 +.+.| #.E o.G.D.j.O.H.PXHXHXGXJXHXLXLXKXHXHXHXGXGXGXGXGXHXHXHXHXJXLXLXLXPXH.>.h.sXsXX.] $   & BXLXJXFXHXDXDXDXDXGXGXGXGXGXGXGXGXGXGXGXGXGXGXGXGXGXGXGXGXDXDXDXDXDXDXDXDXDXDXGXGXGXGXGXGXGXGXGXGXGXGXGXGXGXGXHXHXGXGXGXGXDXGXHXGXFXHXJXLXBXZ.D.OXoXOXgXgXjXjXgXgXgXgXgXgXlXzXzXlXzXzXlXzXgXlXlXlXgXgXzXzXjXzXlXgXjXgXgXhXgXgXgXgXgXgXgXgXzXiXG.V.V.V.V.G.V.G.C.l.l.C.C.V.wXwXeXwXwXwX}.tXtXuXtXuX",
"e.e.e.e.e.e.g.g.x.x.x.g.i.x.x.i.i.i.i.i.i.u.u.u.x.z.z.z.x.a.s.! ! t.b.x.x.z.x.x.x.x.x.x.z.z.z.u.i.e.g.g.x.i.e.e.x.x.x.x.i.x.i.i.x.x.i.x.i.x.x.x.u.u.u.x.x.x.x.9.^ @.^ E 0.n.a.u X ( a.t.r.t.s.^ E s.t.e.e.g.e.i.i.i.i.x.x.g.e.e.x.z.z.z.z.z.z.z.u.x.u.e.a.+.X p @.@.@./ / @./ / / ^ @.@.s.a.y.r.#.0.r.e.e.w.w.w.e.e.e.e.e.e.e.e.i.i.i.i.i.i.i.i.i.i.i.i.i.i.i.i.u.u.w.z.u.u.z.z.w.b.y.p ; ( / ^ e.w.w.w.w.w.i.i.e.e.e.e.e.e.e.e.e.e.e.e.e.e.e.e.i.i.e.e.e.e.e.e.i.i.u.u.z.u.z.z.z.z.x.x.x.e.+.R ^ ^ ( ( ( ( ( ^ ^ @.( 6 6 d 0 0 6 > 6 ( ( ^ ( ( / ^ +.t.0.e.i.b.i.i.i.i.i.x.i.i.i.i.i.i.i.i.i.i.e.i.e.e.i.e.e.e.e.e.e.e.e.e.e.e.e.e.e.e.e.e.e.e.e.e.e.e.e.e.e.e.e.e.e.e.e.e.i.a.a.i.e.e.e.e.e.e.e.e.e.e.e.e.e.e.e.e.i.i.i.i.x.x.i.x.x.x.z.z.z.i.z.z.z.6.z.i.i.t.S.9 6 6 w > w > ( H.S.G.n.M.M.h.}.oXOX>.y.S.S.S.r o 6 Z.Z.9 o d S.+.G.iXD.iXdXiXXXtXtXC.oXaXOXfXhXhXhXhXhXhXhXhXhXhX@X@X@X@X@X@XhXG.m.6X{.h.aXzXlX@XvXdXM.m.sXsXsXsXsXsXsXsXB.eXsXpXoXaXaXaXiXpXwXeXeXeXeXeXeXeXwXN.aXiXOXhXgXgXgXgXgXgXgXgXfXfXgXgXfXfXfXgXgXgXgXgXgXgXgXgXgXgXgXgXgXgXgXgXgXgXfXfXgXgXfXgXdXdXfXgXdXaXfXfXdXfXfXaXaXaXfXfXaXgXnXmXBXJXFXHXHXHXGXLXvXr @.+.! { E @.G.j.G.D.@XKXGXJXJXLXSXBXKXLXHXHXHXGXGXGXGXHXHXGXGXGXJXLXBXvXbXS.j.g.V.tX$.a dXbXbXKXLXGXDXDXDXDXDXGXGXGXGXGXGXGXGXGXGXGXGXGXGXGXGXGXGXGXGXGXGXDXGXDXGXDXDXDXDXDXGXGXGXGXGXGXGXGXGXGXGXGXGXGXGXHXHXGXDXDXDXDXDXDXGXGXDXDXFXJXKXmXnXdXOXaXfXfXjXgXgXgXgXgXgXgXOXdXaXOXiXiXOXaXlXlXgXgXgXgXgXaXaXjXfXaXgXhXhXhXfXfXfXfXfXhXgXgXhXOXD.XXXXXXXXXXoXuXoXoXoXoXuXuXuXV.V.wXwXV.M.V.V.G.C.XX",
"f.f.w.w.g.g.e.e.i.i.e.g.x.x.i.i.i.i.i.i.i.i.i.i.i.x.z.u.i.a.s.! E a.b.x.x.z.x.i.u.i.x.z.z.z.z.z.x.e.e.g.x.x.e.e.g.g.x.x.i.i.i.i.i.x.i.i.i.x.x.x.u.z.u.x.i.b.a.{ O p j.G.c.n.y.i O d @.+.| @.^ , 2 / y.e.e.x.i.e.i.i.i.u.u.w.e.e.i.z.z.z.z.z.z.z.z.z.x.e.a.@.O 0 ; ; X O O + > > ; X p ^ E +.9.0.b.e.g.g.w.f.f.w.x.x.x.x.g.x.i.i.x.x.i.i.i.i.i.i.i.i.i.i.i.i.i.i.u.z.z.z.u.z.z.z.w.t.s.0 @ > X X e.w.w.w.w.w.w.e.w.w.e.e.e.e.e.e.e.e.e.e.e.e.e.e.g.g.e.e.e.e.e.e.i.i.u.u.i.i.z.z.z.z.u.z.z.x.b.t.a.a.n.a.F.y.F.F.^ X o > 6 > > > > o 9 S.a.a.a.a.y.y.t.n.x.b.x.x.i.i.i.i.i.e.e.e.e.e.i.i.i.i.i.i.e.e.e.e.i.i.i.e.e.e.e.e.e.e.e.e.e.e.e.e.e.e.e.e.e.e.e.e.e.e.e.e.e.e.e.e.e.e.i.i.x.x.e.e.e.e.e.e.e.e.e.e.e.e.e.e.i.x.x.x.e.e.e.i.i.i.x.x.z.u.i.i.x.z.u.6.6.z.i.a.y.5 6 > 6 > > >   X . o.j.C.uXuXoXuXH.e   O     @ @ @ > > O @ 6 S.+.G.OXD.zXvXzXoXuXuXV.iXxXzXhXhXhXlXlXlXlXlXlXlXlXhXhXhXhX@XhXhXD.M.6X6Xh.dXzXgX@XvXdXM.M.vXxXxXzXvXzXvXxXj.l.jXzX@XmXvXvXzXxXV.6XeXeXeXeXeXyXyXV.jXzXhXhXfXfXgXlXlXlXfXfXfXgXgXfXfXfXfXfXgXgXgXgXfXgXgXgXgXgXgXgXfXfXgXfXfXfXgXgXgXgXgXfXdXdX@XdXfXfXfXfXfXgXfXfXfXaXfXaXOXhXPXPXLXHXDXGXHXGXGXLXvXr %.%.+.+.^ ^ E 2 y.dXvXJXHXHXHXKXJ.& ;XJXLXHXHXHXHXHXHXHXGXDXHXHXLXPXJ.  $ ] g.4. .5.g.s nXLXLXJXFXDXHXGXDXGXGXGXGXGXGXGXGXGXGXGXGXGXGXGXGXGXGXGXGXGXGXGXGXGXGXGXGXGXGXGXGXGXGXGXGXGXGXGXHXGXGXGXDXDXDXGXGXGXGXGXDXDXDXGXDXDXDXDXDXDXDXDXFXLXPXhXD.aXlXlXgXgXgXgXhXgXgXfXD.G.l.j.j.j.l.D.lXlXgXlXlXgXgXOXl.oXG.G.OXgXhXfXfXfXfXfXfXhXhXhXhXOXG.oXiXuXuXiXOXOXOXiXaXiXaXsXuXB.N.V.tXV.h.h.h.h.h.C.",
"f.f.w.w.e.e.e.e.i.i.g.g.g.x.i.i.i.i.i.i.i.i.i.i.i.i.z.u.e.i.9.~ ~ y.b.i.x.z.i.e.i.x.x.x.z.z.z.x.x.e.e.g.x.x.e.e.g.x.x.x.x.i.i.x.i.i.i.i.i.i.x.x.u.x.z.x.g.n.t.! O p y.n.f.c.F.1 O d @.o.+.S.( X - / a.e.e.x.g.e.i.i.i.u.u.w.e.e.z.z.z.z.z.z.z.z.z.u.b.t.S.@.O 6 > 6 > o ; ; O O ; ; R ^ E +.9.e.e.w.e.w.w.g.g.f.x.x.x.x.x.x.x.x.x.x.i.i.i.i.i.i.i.i.i.i.i.i.i.i.u.z.z.z.z.z.z.f.e.a.S.0 > w > , t.w.u.u.u.w.w.w.w.w.w.e.u.e.e.e.e.e.e.e.e.e.e.e.e.e.e.e.e.e.e.e.i.i.u.i.i.i.z.z.z.z.x.x.z.f.x.x.x.i.i.e.n.t.t.y.@.O > 6 > > w > ; O X s.t.r.r.t.t.t.q.x.w.x.x.i.i.i.i.i.i.e.e.e.e.e.i.i.i.i.i.i.e.e.e.e.i.i.i.e.e.e.e.e.e.e.e.e.e.e.e.e.e.e.e.e.e.e.e.e.e.e.e.e.e.e.e.e.e.e.i.x.x.i.e.e.e.e.e.e.e.e.e.e.e.e.e.e.i.i.x.x.e.e.e.i.i.i.x.x.u.u.i.i.w.w.u.z.z.u.u.i.y.2 ; > > > > 6 w 3 X y.G.j.XXoXiXjXH.r + 6 w 6 @ o O X - O X 5 y.+.0XiXG.zXvXdXoXG.oXl.D.zXhXhXhXhXhXlXlXlXlXlXhXhXhXhXzXzXzXzXzXD.j.n.j.$.iXzXhXhXvXdXj.:.vX@XzX@X@X@XvXvX>.D.gXzXOXvX@XhX@XzXl.C.V.tXwX}.}.XXXXl.gXzXhXhXhXzXhXlXlXlXgXgXgXgXgXgXfXfXfXgXgXgXgXfXfXfXfXgXgXfXgXgXgXgXgXfXgXgXgXgXgXgXgXfXgXdXdXdXfXfXfXfXdXgXfXaXaXaXgXOXOXhXPXJXGXGXHXHXGXHXGXLX;X  r r e e r r r $ j.jXvXPXLXPXPXPXZ.  vXLXLXLXHXHXHXHXHXHXHXHXHXHXLXLXJ.  $ y.r.4.x.q.n.u nXLXJXHXHXDXDXDXDXGXGXGXGXGXDXDXGXGXGXGXGXGXGXGXGXGXGXGXGXGXGXGXGXGXGXGXGXGXGXGXGXGXGXGXDXGXGXGXHXHXGXGXDXDXDXGXGXGXGXGXDXDXDXDXDXDXFXDXDXDXDXDXDXHXPXhXOXiXfXlXgXgXlXlXlXhXjXjXG.oXG.M.n.M.C.G.zXlXgXgXgXgXlXaXD.iXOXoXaXzXlXgXhXhXhXhXhXhXhXhXzXiXoXiXaXiXiXiXiXiXiXaXdXaXaXsXuXl.M.V.yXV.h.$.h.h.h.V.",
"x.x.i.u.x.x.x.x.e.e.e.e.e.e.g.e.e.e.e.e.e.e.e.e.e.e.w.w.u.i.i.t.e.e.a.i.z.x.w.e.x.w.i.x.x.x.z.z.x.x.x.x.i.x.x.x.x.x.x.x.i.e.e.e.i.i.i.i.e.i.i.z.x.v.z.w.x.t.F.^ O p y.b.x.x.t.1 ; 3 d p p d d > : +.a.e.w.x.w.w.i.i.i.i.u.u.i.u.z.z.u.z.u.u.z.6.z.g.r.i R d > > > O ( S.s.s.s.@.@.s.y.r.r.e.e.e.e.w.f.g.f.z.z.z.z.z.g.g.x.x.x.x.x.x.g.g.x.x.u.u.i.i.i.i.i.i.i.i.i.i.x.x.6.v.w.b.+.1 p 6 6 > > : r.w.u.i.i.u.w.f.5.w.w.w.u.w.w.x.e.e.e.e.e.e.e.e.i.e.e.e.e.e.e.e.e.e.g.g.g.g.z.z.z.z.z.z.z.z.z.z.x.x.x.x.i.i.a.a.@.X > > > 6 > X @.s.y.r.e.e.e.e.e.e.i.x.x.u.i.i.i.i.i.e.i.i.i.i.i.i.i.i.e.e.e.e.e.e.e.e.e.e.e.e.e.e.e.e.e.e.e.e.e.e.e.e.e.e.e.e.e.e.i.i.i.i.i.e.i.i.i.i.a.i.a.a.b.a.i.i.i.i.i.e.i.i.i.i.i.i.i.i.i.i.i.i.i.i.i.i.i.x.x.x.x.x.x.x.u.u.z.z.z.z.z.x.e.y.S.( @ > 6 6 > w o @.F.j.tXG.o.p ( > @ w > ; S.y.y.r.r.r.r.r.t.r.t.t.j.j.j.OXgXgX@XOX@XhXhXhXhXhXlX@X@X@X@X@XhXhXzXhXD.>.D.H.>.zXzXhXlX@X@XhX@XhXhXhX@X@X@X@XhX@XvXOXH.hXH.jXH.H.A.bX@XzX@XzXhXzXjX:.>.aXaXiXiXOXOXOXOXD.H.gXhXdXgXgXfXhXhXhXhXjXfXfXfXgXdXgXgXfXgXgXfXgXfXfXfXgXgXgXgXgXgXgXgXgXgXgXgXgXfXdXdXdXfXfXdXdXgXfXgXaXlXaX@XIXSXSXHXHXHXGXGXGXHXHXHXJXKXSXSXIXSXSXSXSXIXPXbXa H.dXdXhXhXdXa r %.H.J.@XJ.bXLXJXHXJXHXFXLXBXJ.;XnXbXnX- y.t.0.b.r.a BXLXJXHXHXDXGXDXDXDXDXGXGXGXDXDXGXGXGXGXGXGXGXDXDXGXGXGXGXGXGXGXGXGXGXGXGXGXGXGXGXHXGXFXDXHXGXGXGXHXGXGXHXGXGXHXGXGXGXGXGXDXDXDXGXGXDXDXDXDXDXDXDXGXPXhXG.iXaXOXiXOXOXOXOXOXiXiXOXiXoXXXoXG.G.OXlXgXlXfXfXlXhXlXhXjXiXG.oXuXOXOXiXOXG.G.OXOXuXiXiXC.r.g.b.b.b.b.j.j.e.j.j.j.OXaXOXaXaXoXXXXXuXsXXXC.uXG.",
"x.x.i.i.x.x.x.x.e.e.e.e.e.e.g.g.e.e.e.e.w.e.e.e.e.e.w.w.u.i.i.i.x.x.b.i.u.x.b.n.t.b.b.x.x.z.z.z.x.x.x.x.x.x.x.x.x.x.x.x.e.e.e.e.i.i.i.i.e.e.x.z.z.x.z.x.n.t.S.^   p y.b.x.n.a.1 O > p , ; O O O X ^ b.g.x.x.w.u.i.i.i.i.u.z.u.u.u.z.z.z.z.z.z.u.x.b.s.2 X > > > > O / F.n.b.a.y.y.y.t.e.e.e.i.i.u.f.g.f.f.z.z.x.z.f.g.g.x.x.x.x.x.x.x.g.x.x.x.x.i.i.i.i.i.i.i.i.i.i.x.x.u.b.w.n./ X 3 > ; > 6 - r.u.z.u.i.u.w.f.5.z.z.u.x.z.w.u.e.e.i.i.i.i.i.i.e.e.e.e.e.e.e.e.e.e.e.e.g.g.x.x.z.z.z.z.z.z.z.x.x.x.x.i.i.i.a.a./ O @ @ @ @ > O @.y.t.r.e.e.e.e.x.x.x.x.i.i.i.i.i.i.i.i.i.i.i.i.i.i.i.i.e.e.e.e.e.e.e.e.e.e.e.e.e.e.e.e.e.e.e.e.e.e.e.e.e.e.e.e.e.e.e.e.i.i.e.e.i.i.i.i.i.i.a.a.b.a.i.i.i.i.i.e.i.i.i.i.i.i.i.i.i.i.i.i.i.i.i.i.x.x.x.x.x.x.x.x.z.z.z.z.z.z.z.z.x.e.S./ X > ; + > @ X @.G.j.F.iX@.O @ > > @ - - y.t.x.g.x.e.e.e.e.0.e.0.0.0.$.G.zXzXzXzXzXvXvXzXzXzXzXzXzXzXzXzXhXhXvXzXH.>.j.j.%.hXvXvXvXzXzXvXzXzXzXzXzXzXzXzXzXhXvXOXH.dXiXbXH.S.D.vXhXzXhXzXhXxXjX$.>.zXlXaXgXaXOXgXdXD.D.dXzXzXzXlXlXhXhXhXgXzXlXfXjXjXgXgXgXgXjXdXdXdXfXhXgXgXgXgXgXgXgXgXgXgXgXgXgXgXfXfXfXdXfXfXdXdXgXfXaXaXlXdX@XSXLXHXGXGXGXGXHXHXGXGXHXHXGXGXJXHXHXHXHXLXLXPXbXu o.] ] u e E p p 2 O   $   J.KXJXHXHXHXJXLXnX  & nXPXIXE E R u E s . nXLXLXHXGXGXDXGXDXDXDXGXGXGXGXGXGXGXGXGXGXGXDXDXDXDXGXGXGXGXGXGXGXGXGXGXGXGXGXGXHXDXDXGXGXDXGXHXGXHXHXGXGXGXGXGXGXGXGXGXGXGXGXGXHXGXDXDXDXDXDXDXDXGXPXhXOXiXOXOXiXiXOXOXOXOXiXiXiXiXiXaXsXiXoXaXzXzXzXlXzXzXlXzXlXgXOXD.G.D.D.j.D.D.D.D.D.D.D.D.G.$.] | } } #.r.r.r.#.r.#.$.uXjXiXaXiXG.D.G.uXsXoXl.G.G.",
"x.x.x.x.x.x.x.x.x.e.x.x.e.x.x.g.e.e.e.w.w.w.e.w.e.w.w.w.w.w.i.i.z.x.b.i.e.b.+./ +.t.b.i.i.x.x.i.i.i.x.x.e.i.x.x.x.x.x.x.i.i.e.e.e.e.e.e.e.e.u.z.w.x.i.n.a.+.s.( O p y.t.f.b.a.1 ; 6 d 9 ^ ^ ^ / R s.b.f.x.z.w.x.i.i.i.i.z.z.u.u.u.z.z.z.u.u.w.i.r.+./ 5 ; 6 6 6 > X ( S.a.t.t.t.t.a.t.e.i.u.i.x.u.u.z.x.z.z.x.x.z.z.x.x.x.x.x.x.g.g.x.x.x.x.i.i.i.i.i.i.i.i.i.u.v.z.i.z.x.b.+.S.( o 4 6 3 6 6 - r.w.z.6.i.u.u.u.z.z.w.w.w.5.d.z.w.w.i.i.i.i.i.i.e.e.e.e.e.e.e.e.e.e.g.e.i.i.x.x.z.z.u.u.u.u.u.u.x.x.x.u.i.i.a.a.@.p d 6 > 6 ( p +.t.t.e.e.x.x.x.x.x.i.i.i.i.i.i.i.i.i.i.i.i.i.i.e.i.i.i.e.e.e.e.e.e.e.e.e.e.e.e.e.e.e.e.e.e.e.e.e.e.e.e.e.e.e.e.e.e.e.e.e.e.e.e.i.i.i.i.i.i.a.a.i.i.x.i.i.i.i.i.i.i.i.i.i.i.i.i.i.i.i.i.i.i.i.i.x.x.x.x.x.x.x.x.z.u.u.z.z.z.z.z.f.e.t.s.p ^ d ( d o o ( S.y.S.H.( @ > w > 0 ( R t.e.e.w.w.w.w.e.q.q.i.q.w.w.w.C.iXsXiXaXdXdXjXaXjXjXjXsXgXgXfXfXjXjXjXjXG.j.n.n.j.iXjXjXgXiXdXdXjXjXjXjXjXjXjXgXjXjXzXiX0XjXsXvXF.j.F.jXjXzXjXxXjXxXjXn.F.jXiXiXdXaXaXgXgXOXG.dXhXgXgXdXgXlXhXhXhXhXfXaXaXaXdXhXfXgXgXgXgXgXfXgXgXgXgXgXfXfXgXgXgXgXgXgXgXgXfXfXfXfXgXgXdXfXgXfXgXgXlX@X@XSXLXJXGXGXGXGXGXGXGXDXGXGXGXGXHXHXGXGXDXGXJXLXbXa r.0.#.e.b.r.E ^ ^ p ^ f $ J.LXLXJXHXLXBXnXvX% r hXbXjX^ p qXhXhXhX@XBXIXKXHXJXHXHXDXDXGXGXGXGXGXGXGXGXGXGXGXGXGXDXDXDXDXGXGXGXGXGXGXGXGXGXGXGXGXHXHXHXHXGXHXGXGXGXFXFXGXHXHXGXGXGXGXGXGXGXGXGXGXGXGXGXGXDXDXDXDXDXDXGXHXPXhXOXiXiXaXiXiXOXOXOXOXiXiXaXsXuXG.uX9XG.0XsXsXsXsXjXiXaXzXzXhXOXOXOXOXOXOXD.OXOXOXOXOXOXOXOXD.D.D.D.D.j.$.r.t.e.i.e.g.G.OXOXgXaXG.G.oXOXaXG.G.OXj.",
"x.x.x.x.x.x.x.x.x.x.x.x.e.g.x.g.e.e.e.w.w.w.e.e.w.w.w.f.w.w.i.u.u.z.x.i.x.t.R X p s.a.a.x.x.b.i.i.i.e.e.e.i.e.i.x.x.x.i.i.i.i.e.e.e.e.e.e.f.z.z.x.e.e.e.+.- : X X p y.a.g.n.y.1 O > ; 2 s.F.a.n.t.b.x.w.z.i.u.i.i.i.i.i.z.z.u.u.u.z.z.6.u.i.e.n.i - : 4 > > ; > 4 ; ^ S.b.t.e.e.a.i.e.e.w.w.u.u.x.x.x.x.x.z.x.x.z.z.x.x.x.x.x.x.g.g.g.x.x.x.i.i.i.i.i.i.i.u.u.u.u.z.z.i.i.{ - - ; o > > 6 6 > : r.z.z.6.u.u.u.i.u.u.w.e.e.w.6.z.w.w.w.e.i.e.e.e.e.e.e.e.e.e.e.e.e.e.e.e.i.i.i.x.z.z.u.u.u.u.u.u.w.u.u.u.i.i.i.t.a.S.S.p ; ( S.S.r.t.t.e.x.x.x.x.x.x.i.i.i.i.i.i.i.i.i.i.i.i.i.i.i.e.i.e.e.e.e.e.i.i.e.e.e.e.e.e.e.e.e.e.e.e.e.e.e.e.e.e.e.e.e.e.e.e.e.e.e.e.e.e.i.i.i.i.i.i.a.a.i.i.i.i.i.i.i.i.i.i.i.i.i.i.i.i.i.i.i.i.i.i.i.i.i.x.x.x.i.i.x.x.x.u.z.z.z.z.z.z.6.w.e.t.r.y.y.S.S.o o o   O O O > > > > : ( F.a.t.e.w.w.w.w.e.w.i.u.p.p.u.u.5.w.} | | } } } } } | | | | X.X.] ] } | } #.} 4.w.w.4.0.} | | |  .| } | | | | | | ] ] | } | } } | { r.8.} } } | | | | | } } } } | h.sXiXOXdXiXD.D.G.D.D.G.D.OXhXhXhXhXOXG.G.G.G.oXgXhXhXdXgXjXhXgXdXhXgXgXgXfXfXgXgXgXgXgXgXgXgXfXfXfXfXgXgXfXgXgXdXdXdX@X@X@XIXHXJXGXGXGXGXGXGXDXGXGXGXGXDXDXDXDXDXDXDXGXLXbXe s.n.e. .} +.S.H.S.i ^ p   J.LXLXKXLXKXZ.  . p r X   r . $ nXPXPXPXLXbX  h BXHXJXGXHXGXGXGXGXGXGXGXGXGXGXGXGXGXGXGXDXDXDXGXGXGXGXGXGXGXGXGXGXGXHXHXHXFXHXJXLXJXLXGXBXVXFXHXHXGXHXGXGXGXGXGXGXGXGXGXGXGXGXDXDXDXDXDXDXDXGXJXhXOXiXuXiXiXiXiXOXOXiXiXiXiXaXC... .e.e.e.4.0.0.0.0. .$.G.zXzXlXlXzXzXzXhXdXhXzXzXzXzXzXzXzXxXzXzXxXxXOXO.0.w.q.i.e.r.r.] j.iXdXiXdXaXOXOXOXsXjXD.",
"x.x.u.u.x.x.x.x.x.x.x.x.g.g.g.g.e.e.e.i.e.e.e.e.w.w.f.f.w.u.i.u.z.z.x.w.g.t.p O p y.n.a.x.x.i.e.i.e.e.e.g.g.x.x.x.i.i.i.i.i.i.i.i.i.i.i.u.u.z.z.x.i.e.n.s.2 0 6 > d S.y.a.a.s.9 O 4 ; - +.n.i.x.b.x.z.z.v.x.w.w.i.u.i.i.u.u.u.u.u.z.z.6.z.x.r.S.^ ; > 6 > ; ; - : - E y.b.b.i.x.e.e.e.w.u.u.z.z.x.x.x.x.x.x.x.x.i.i.i.i.i.u.i.x.f.z.x.x.x.x.i.i.u.u.u.u.i.i.i.i.z.z.z.x.F.y.- 5 > 6 6 3 ; ; ; 2 r.z.z.d.u.u.u.i.5.i.t.y.y.b.i.w.w.w.w.e.w.w.w.w.w.e.e.e.e.e.i.e.e.e.i.i.i.i.i.i.i.u.u.u.u.u.u.u.u.u.u.u.u.i.i.a.r.a.S.u X p y.y.e.g.x.e.x.x.u.x.i.i.i.i.i.i.i.i.i.i.i.i.i.i.i.i.i.i.i.i.e.e.e.e.i.i.i.e.e.e.e.e.e.e.e.e.e.e.e.e.e.e.i.i.i.i.e.e.i.i.e.e.e.e.e.i.i.i.i.i.i.i.x.x.x.x.i.i.i.i.i.i.i.i.i.i.i.i.i.i.i.i.i.i.i.i.i.i.i.i.x.x.x.x.i.x.u.u.u.u.u.u.u.z.z.x.u.x.e.b.r.a.@.O @ > O 4 > > O > X - : R a.r.e.x.x.z.u.u.u.i.w.w.u.p.u.u.5.5.u.w.w.w.u.w.w.i.i.i.i.u.z.z.z.f.x.w.q.w.q.p.p.p.x.u.5.w.w.u.z.5.x.x.i.i.i.w.e.e.e.e.i.i.i.i.i.i.i.i.b.q.b.e.x.i.x.u.x.x.x.0.0.G.xXjXjXjXsXiX9XuXuXuXuXG.iXzXhXhXzXaXoXoXoXG.iXjXgXhXjXgXjXjXjXjXjXhXgXgXgXgXgXgXgXgXgXgXgXgXfXfXfXfXgXgXfXgXgX@X@XhX@X@X@XBXJXGXHXGXHXHXHXHXGXGXHXHXGXGXDXGXGXGXDXDXGXGXvX= o.E | w.b.E u X p 1 R p # H.PXLXLXLXPXH.3 f ^ p d f   r & bXLXHXLXLXbX& g KXHXFXDXGXDXDXGXGXGXGXGXGXGXGXGXGXGXGXGXGXGXGXGXGXDXDXDXDXGXGXGXGXGXGXGXGXGXHXKXPXPXPXJXVXVXFXGXHXHXHXGXGXGXGXGXGXGXGXGXGXGXDXDXDXDXDXDXDXDXGXPXhXOXsXpXpXiXiXiXiXiXiXiXiXiXiXC.$. .w.w.u.u.x.x.x.b.e.g.iXzXzXzXzXzXzXjXgXOXgXzXzXjXhXzXhXzXzXzXjXjXzXG.O.e.x.i.i.i.i.e.#.j.sXjXiXdXiX@XdXdXjXxXG.",
"x.u.u.u.x.x.x.x.x.x.x.x.g.g.g.g.e.e.i.i.i.i.i.e.e.w.f.f.u.u.u.i.w.x.x.g.b.t.( X p S.n.e.x.x.i.i.i.e.e.e.e.e.x.x.i.i.i.i.i.i.i.i.i.i.i.z.u.z.z.z.x.i.i.a.s.: 4 6 > 6 ^ E R R ( 4 O ( S./ t.b.x.x.f.x.z.z.x.i.i.x.u.u.i.i.u.u.i.u.u.z.z.6.x.0.R ^ 0 > > > X ( s.@.S.@.y.F.b.i.i.e.e.e.e.e.u.z.z.z.x.x.x.x.x.z.i.i.i.i.i.i.i.i.i.x.z.f.g.g.x.u.i.i.u.u.u.u.i.i.i.z.v.v.z.w.n.y.- 4 6 > 6 6 : ( @.+.e.x.z.f.u.u.u.i.w.b.+.u u r.n.e.e.e.e.e.e.e.e.w.w.w.e.e.e.e.i.i.i.e.i.i.i.i.i.i.i.i.u.u.u.u.u.u.u.u.u.u.i.i.x.i.b.b.F.@.+.+.b.e.e.g.g.w.x.x.w.x.i.i.i.i.i.i.i.i.i.i.i.i.i.i.i.i.i.i.i.i.e.e.e.e.i.i.e.e.e.e.e.e.e.e.e.e.e.e.e.e.e.e.e.e.i.i.e.e.i.e.e.e.e.e.i.i.i.i.i.i.i.i.i.x.i.i.i.i.i.i.i.i.i.i.i.i.i.i.i.i.i.i.i.i.i.i.i.i.i.i.x.x.x.x.i.i.i.u.u.x.i.u.x.i.z.z.w.z.w.g.r.t.@.O > ( S.( @ > @.S.@.@.@.9.e.i.w.w.w.u.w.w.w.w.w.u.u.u.u.u.z.x.u.u.u.z.i.i.u.u.u.u.6.6.z.u.u.p.w.w.u.u.p.p.u.u.6.5.u.z.z.i.i.u.u.i.i.p.u.u.u.x.i.i.i.u.u.u.p.i.p.6.i.p.x.q.u.i.u.u.u.6.p.i.w.e.b.y.y.j.j.e.e.g.g.g.g.$.G.zXhXhXhXiXoXoXtXG.G.OXD.dXjXjXjXgXhXhXgXhXgXgXgXgXgXgXgXgXgXgXgXgXfXfXfXfXgXgXfXgXdX@XSXPXSXSXBXJXLXGXHXHXGXGXHXHXGXGXGXJXGXGXGXDXGXGXDXHXHXHXKXnXIX0Xn.q.| @.nXIXbXX ( f 6 Z.vXvX;XvXhX@.p d p ( ( % J.BXUXJXHXHXHXHXKXBXKXHXFXHXDXFXDXDXGXGXGXGXDXGXGXGXGXGXGXGXGXGXGXGXGXGXDXDXDXDXGXGXDXGXGXHXGXGXHXSXvXvXvXvXmXKXFXGXHXJXGXGXGXGXGXGXGXGXGXGXGXDXGXDXDXDXGXGXGXDXDXHXJX@XD.OXuXaXiXiXiXiXiXOXOXOXiXiXoXG.9Xn.u.x.u.u.u.i.x.i.w.n.G.G.D.D.D.G.G.G.D.D.OXG.D.F.D.D.D.F.F.F.F.G.n.r.w.u.u.p.q.w.e.e.e.n.j.y.$.>.D.OXH.y.F.$.",
"i.i.u.u.x.x.x.x.i.i.x.x.g.e.e.g.e.e.i.x.u.i.i.i.e.w.w.w.f.w.u.i.e.e.b.b.b.y.d X p S.a.w.x.z.x.x.e.e.e.e.e.e.e.x.i.i.i.i.i.i.i.i.e.e.e.w.w.w.u.u.z.i.e.a.9.2 < 4 > o < X - O : , X / 0XF.n.b.x.x.x.v.z.z.z.i.i.x.u.w.i.i.u.u.i.i.z.z.z.u.x.#.2 : O ; ; X O ^ S.y.S.y.a.t.e.e.x.x.i.i.i.i.i.z.z.z.z.x.x.i.i.i.i.u.i.i.i.i.i.i.i.x.u.f.e.w.z.u.i.e.u.u.u.u.i.z.z.z.u.u.b.b.F.s.- ; 6 > 3 6 X / F.b.e.x.x.w.z.z.u.i.t.S.^ X 2 +.n.a.y.y.y.y.e.e.e.e.w.w.e.e.e.e.i.i.i.e.i.i.i.i.i.i.e.e.e.e.e.e.e.e.u.i.i.i.i.i.i.x.i.e.b.t.b.e.b.e.e.x.w.f.x.x.u.i.i.i.i.i.i.i.i.i.i.i.i.i.i.i.i.i.i.i.i.i.e.e.e.e.e.e.e.e.e.e.e.e.e.e.e.e.e.e.e.e.e.e.e.e.i.e.e.e.i.i.e.e.e.e.i.e.i.i.i.i.i.i.x.x.i.i.i.i.i.i.i.i.i.i.i.i.i.i.i.i.i.i.i.i.i.i.i.i.i.i.i.i.x.x.x.i.i.i.i.x.x.x.x.x.w.u.w.x.w.x.g.b.+.O - ( H.S.o O @.F.S.F.t.a.e.x.i.i.u.u.u.u.u.u.u.u.u.w.5.5.w.w.u.u.u.i.i.u.u.u.u.u.u.u.u.u.u.u.w.u.i.u.u.6.6.u.u.z.z.u.u.p.u.z.p.u.p.u.u.u.i.i.w.q.q.w.w.u.w.w.x.i.i.p.i.p.i.x.u.z.v.p.i.v.i.q.r.0.0.0.0.0.q.q.4.0.0.} G.zXhXhXzXdXoXuXuX9XG.G.l.OXgXhXhXhXhXhXhXhXfXfXfXfXgXgXgXgXgXgXgXgXfXfXfXfXgXfXdXgXdX@XSXLXPXLXJXHXGXDXGXGXGXGXGXGXGXGXHXHXHXHXGXGXGXJXHXGXFXDXHXLXPXH.9X0.s a IXLXIX              .     r f r         J.LXLXHXDXDXDXHXHXHXJXFXFXHXDXGXDXDXGXGXGXGXGXGXGXHXGXGXGXGXHXHXHXGXGXGXDXDXGXGXGXGXGXGXHXHXGXGXHXBXA.D.G.>.vXLXJXHXHXGXGXGXGXGXGXGXGXGXGXGXGXDXGXDXDXDXDXDXGXGXDXFXKX;X@XOXoXiXiXiXiXiXiXiXOXOXOXOXOXiXiXc.4.u.z.w.u.u.z.x.w.w.0. .#.#.#.r.r.r.r.e.b.b.r.0.r.r.0.0.0.e.r.0.e.w.w.u.u.u.p.p.w.e.w.e.0.#.#.$.G.jXn.| r.#.",
"i.i.u.u.x.x.x.x.i.i.i.x.e.e.e.e.e.e.x.u.u.u.u.u.w.w.w.e.e.e.u.i.a.y.y.r.t.y.d X p S.t.w.x.z.z.w.e.e.e.e.e.e.e.x.i.i.i.i.i.i.i.i.e.e.e.w.w.w.u.z.u.z.w.b.r.u i 0 6 > 9 1 0 > 4 p 1 ^ F.a.x.x.c.x.x.x.z.z.x.x.w.w.f.w.i.i.i.u.u.u.z.u.z.u.n.s.2 : d ( ( ^ i +.t.y.y.y.b.b.t.x.x.w.i.i.i.i.i.i.z.x.i.x.i.i.i.u.u.u.i.i.i.i.i.i.i.i.w.w.w.w.u.w.e.w.u.u.u.z.z.z.z.z.z.u.x.e.y.s.1 d 3 4 3 4 X ^ t.g.e.x.x.e.u.u.u.i.+.S.@.p E y.a.y.@.@.@.s.y.e.e.i.w.w.e.e.e.e.i.i.i.i.i.i.i.i.i.i.e.e.e.e.e.e.e.e.u.i.i.i.i.i.i.x.x.e.e.e.b.e.x.e.g.x.w.f.x.x.u.i.i.i.i.i.i.i.i.i.i.i.i.i.i.i.i.i.i.i.i.i.e.e.e.e.e.e.e.e.e.e.e.e.e.e.e.e.e.e.e.e.e.e.e.e.e.e.e.e.e.i.e.e.e.e.e.e.i.i.i.i.i.i.x.x.i.i.i.i.i.i.i.i.i.i.i.i.i.i.i.i.i.i.i.i.i.i.i.i.i.i.i.i.x.x.x.i.i.i.i.i.x.x.x.x.i.x.u.x.w.f.e.e.y.u i +.S.y.p 2 @.a.e.e.w.x.e.w.u.u.i.u.u.w.w.w.u.w.5.w.u.z.u.5.w.u.p.p.p.p.i.u.u.u.u.u.p.u.u.p.u.i.w.q.u.u.p.p.u.6.w.5.u.z.p.u.u.u.u.i.i.u.u.w.i.w.x.i.w.u.u.x.u.u.i.i.p.x.i.w.u.w.u.u.u.p.q.i.i.e.e.w.q.q.p.p.w.u.i.2.G.xXgXhXzXaXG.G.9X9XG.iXOXdXdXdXdXgXdXdXhXhX@X@XfXfXgXgXgXgXgXgXgXgXfXfXfXfXgXfXdXgXdX@XSXLXJXHXFXGXDXHXGXGXGXGXGXHXGXGXHXGXGXGXDXGXHXHXHXHXGXDXDXJXPXH.j.F.H.@XPXPXJXJ.J.@XvXJ.g d ( d ( r r Z.H.J.J.J.bXLXJXFXDXGXDXFXHXHXFXHXDXDXDXDXDXDXGXGXGXGXGXGXGXGXGXGXGXGXGXHXHXGXGXDXDXDXGXGXGXGXGXGXGXGXGXHXHXSXD.oXsXD.vXLXJXHXGXGXHXHXGXHXGXGXGXGXGXGXGXGXGXDXDXDXDXGXGXGXDXJXHXbXvXzXOXOXiXiXiXiXiXiXiXOXaXiXOXiXiXb.5.x.z.w.z.u.u.z.u.u.x.e.e.i.i.i.a.i.u.u.b.n.e.w.x.i.i.i.x.i.e.i.i.u.z.w.w.6.u.u.w.w.e.e.q.b.r.0.G.sXn.} x.w.",
"i.u.u.u.z.z.z.z.i.i.i.i.i.i.e.e.i.i.u.z.u.u.u.u.u.u.u.i.i.i.w.e.s.i X u s.S.0 X p y.t.x.u.z.w.f.e.e.e.e.e.e.e.e.i.i.i.i.i.i.i.i.i.i.e.w.w.w.z.z.z.z.z.g.e.t.y./ O 5 @.@.( O 5 S.n.b.b.x.c.c.b.t.b.x.x.x.x.w.x.w.f.w.e.e.u.u.u.i.u.v.i.q.n.@.- : @.S.S.S.t.b.b.t.b.y.t.t.a.b.i.x.u.u.i.i.i.i.i.i.u.u.u.z.u.u.i.i.i.i.i.i.i.i.i.i.f.f.f.w.w.w.w.w.u.u.u.u.u.u.z.z.u.x.n.~ O 1 @.S.( ; 6 6 X ^ b.e.b.r.t.t.w.x.n.+.O O @.S.j.r.y.^ O @ 3 O E n.r.e.i.i.i.i.i.i.u.u.i.i.i.i.i.i.i.i.e.e.e.e.i.i.i.i.i.i.i.i.i.i.i.i.i.x.i.g.i.e.i.x.i.i.i.x.i.i.i.i.i.i.i.i.i.i.i.i.i.i.i.i.i.i.i.i.i.i.i.i.e.i.i.e.g.g.e.e.e.e.e.e.e.e.e.e.e.e.e.e.e.e.i.i.e.e.e.e.e.e.e.i.i.i.e.e.i.i.i.i.i.i.x.x.x.x.x.x.i.i.i.i.i.i.i.i.i.i.i.i.i.i.i.i.i.i.i.i.x.x.i.i.i.i.x.x.x.x.x.i.i.i.i.i.u.u.u.z.z.f.w.e.r.y.y.t.e.e.y.y.t.e.e.e.z.z.i.i.i.i.i.u.u.u.u.u.w.w.w.w.w.w.w.w.u.u.u.u.u.u.u.u.u.u.p.u.u.u.w.w.w.w.w.w.u.p.p.p.u.w.u.u.u.u.u.u.u.e.i.i.u.u.i.i.i.e.w.w.u.u.u.u.u.u.u.u.u.u.u.u.w.w.u.u.u.u.u.u.u.u.p.u.p.p.u.p.u.w.p.w.r.] O.jXzXOXO.r.b.| j.jXjXOXD.D.OXOXOXOXOXhXdXfXlXgXdXdXgXgXgXgXgXgXgXgXdXfXgXgXgXfXdXOXSXJXHXHXGXFXGXGXHXGXJXHXJXJXHXFXHXDXHXDXDXGXGXGXJXGXFXDXDXJXLX@XH nXPXLXLXJXHXLXLXLXPXKX% f a p ^ f   bXLXLXLXLXLXHXHXGXDXDXGXGXGXGXGXGXGXGXGXGXDXGXGXGXGXGXGXGXGXGXGXDXGXGXGXHXGXGXGXGXGXGXGXGXGXDXHXFXGXHXHXGXJXSXl.pXpXoXvXLXHXGXGXGXGXGXGXGXGXGXGXGXGXGXGXGXGXGXGXGXGXGXGXGXGXGXGXJXPXSXD.@XiXiXjXoXaXiXiXaXiXiXOXdXiXb.q.w.w.5.u.u.u.z.z.z.u.u.u.u.u.u.u.u.u.u.u.u.u.u.u.u.i.u.u.i.u.i.i.u.w.w.u.u.u.u.u.u.u.u.u.w.w.w.r.0.q.w.u.u.",
"u.u.u.u.z.i.z.z.i.i.i.i.i.i.e.e.x.x.x.z.w.w.w.z.z.z.u.i.i.i.u.e.t.i X u @.S.d O p y.t.i.i.z.w.w.e.e.e.e.e.e.e.e.i.i.i.i.i.i.i.i.e.i.e.w.w.w.z.z.z.u.u.z.w.e.t./ O , ^ o.p O 2 y.b.x.n.n.x.x.n.F.y.b.e.w.x.x.x.w.f.f.e.i.u.u.z.z.u.x.b.a.F.s.- O @.S.t.b.t.b.n.b.S.y.F.F.a.t.e.i.u.u.u.i.i.i.i.i.i.u.u.u.u.u.i.i.i.i.i.i.i.i.i.i.e.f.w.w.w.w.w.w.u.u.u.u.z.z.z.z.u.u.b.! X 1 @.S.( ; 3 6 ; ^ S.b.a.y.a.t.e.b.t.s.; O @.y.t.y.F.( @ @ 6 , E t.r.i.i.i.i.i.i.u.u.z.i.i.i.i.i.i.i.i.e.e.e.e.i.i.i.i.i.i.i.i.i.i.i.i.i.i.i.i.e.e.i.i.i.i.i.i.i.i.i.i.i.i.i.i.i.i.i.i.i.i.i.i.i.i.i.i.i.i.i.i.e.i.i.i.g.g.e.e.e.e.g.g.e.e.e.e.e.e.g.g.e.e.e.i.e.e.e.e.e.e.e.e.i.i.e.e.i.i.i.i.i.i.x.x.x.x.x.x.i.i.i.i.i.i.i.i.i.i.i.i.i.i.i.i.i.i.i.i.x.x.i.i.i.i.x.x.x.x.x.x.i.i.i.i.u.u.u.u.z.z.u.w.e.e.e.e.w.w.e.e.e.g.w.w.z.z.i.i.i.i.u.u.u.u.u.u.u.u.u.u.u.u.u.u.u.u.u.u.u.u.u.u.u.w.u.p.u.u.u.u.u.u.u.u.u.u.u.u.w.w.u.u.u.u.u.u.e.e.e.e.i.i.i.i.e.e.w.w.u.u.u.u.u.u.u.u.u.u.u.u.w.w.w.w.u.u.u.u.u.u.u.u.p.u.6.6.u.5.6.p.x.$.j.jXvXOX] O.0.} G.xXzXiXOXOXiXiXiXiXiXzXlXzXzXjXjXgXdXgXgXgXgXgXgXgXfXfXgXgXgXfXdXOXSXLXJXJXHXJXHXHXLXJXLXLXLXLXLXHXHXHXDXGXGXDXGXJXHXJXGXFXGXHXKXJ.= bXLXLXHXFXLXHXKXLXLXPXr a p E 1 $   bXLXJXJXLXHXHXGXGXDXGXGXHXHXHXGXGXGXGXGXGXGXGXHXHXHXGXGXGXGXGXGXGXHXGXDXGXHXHXGXDXFXDXGXGXGXDXGXDXHXGXGXJXLXSXD.XXV.O.@XJXHXGXGXGXGXGXGXGXGXGXGXGXGXGXGXGXGXGXGXGXGXGXGXGXFXDXHXHXLXIXA.A.A.D.OXD.sXiXuXaXiXiXOXiXG.h. .4.w.w.w.w.5.w.u.w.u.u.u.p.u.u.u.u.u.u.u.u.u.u.u.u.u.u.u.u.u.u.u.u.w.w.w.u.u.u.u.u.u.u.u.u.u.u.w.w.w.p.u.i.",
"u.u.u.u.i.i.i.i.i.i.i.i.i.i.i.i.i.u.w.u.w.w.w.w.f.z.z.u.i.u.z.f.e.+.@.@.( ( d ; p a.a.i.i.x.w.e.e.e.e.e.e.e.e.e.i.i.i.i.i.i.i.i.w.w.w.w.w.w.z.z.u.u.u.w.w.e.e.^ X r j.F.@.X u F.b.f.x.n.b.b.y.p E y.b.g.x.i.w.w.f.f.w.u.z.z.z.z.u.u.a.+./ / ^ E s.n.b.b.t.b.b.y.^ ( ( ^ E s.a.e.u.u.f.w.e.e.e.e.e.e.e.e.e.e.e.e.e.e.e.e.e.e.e.e.e.e.w.w.w.w.w.w.u.z.z.z.u.z.z.z.v.e.a.^ X 5 ( ( ( , 6 6 > d ^ ^ / ^ +.t.g.e.y.s.; O @.S.$.+.Z.g @ w Z.@.s.b.e.i.i.i.i.i.i.i.x.x.i.i.i.i.i.i.i.i.e.e.e.e.i.i.e.i.i.i.i.i.e.i.i.i.i.i.i.i.e.e.i.i.i.i.i.i.i.i.i.i.i.i.i.i.i.i.i.i.i.i.i.i.i.i.i.i.i.i.i.i.e.e.e.e.g.i.i.e.e.x.g.x.g.e.x.x.i.x.g.g.e.e.i.i.e.e.e.e.e.e.e.e.e.e.e.e.i.i.i.i.i.i.x.x.x.x.x.x.i.i.i.i.i.i.i.i.i.i.i.i.i.i.i.i.i.i.i.i.i.i.i.i.i.i.x.x.x.x.x.x.i.i.i.i.e.w.u.u.i.x.u.u.u.w.w.w.z.z.i.i.x.z.i.i.z.i.i.i.i.i.u.u.u.u.u.u.i.i.w.w.w.w.w.w.e.e.i.i.i.i.i.i.u.u.u.u.u.u.u.u.w.w.w.w.u.u.u.u.w.w.u.u.u.u.u.u.e.e.e.e.e.e.e.e.w.w.w.w.u.u.u.u.p.p.u.u.w.w.w.w.w.w.w.w.u.u.u.u.u.u.u.u.w.6.6.6.d.5.6.6.u.w.e.oXOXOXOXiXF.+.j.9XG.n.j.j.n.n.n.n.n.9X9XG.G.F.sXjXgXgXgXgXgXgXgXgXfXdXgXgXdXgXfXOXmXnXnXnXnXnXnXnXnXmXnXnXnXnXbXSXJXHXFXHXFXFXHXnX;XmXJXGXHXHXHXBXmXKXLXGXFXHXJX;XbXKXPXIX. ^ ^ E @.bXbXIXHXHXFXGXGXGXGXGXGXGXHXHXGXDXDXDXDXGXGXGXDXDXDXDXDXDXGXGXGXDXDXDXDXDXGXGXGXGXDXDXGXGXGXGXGXGXHXGXHXJXJXnXnXvXXXuXnXnXIXLXGXGXGXGXGXGXGXGXGXGXGXGXGXGXGXGXGXGXGXGXGXGXDXDXDXGXGXHXHXJXmXnXnXnXnX@XaXiXiXiXiXiXOXaXiXG.G.G.0.e.x.x.z.z.z.u.u.u.u.u.u.u.w.w.w.u.u.w.u.w.u.w.u.u.z.u.u.u.u.u.w.w.w.w.w.w.w.u.u.u.u.u.u.u.u.u.p.u.u.z.",
"u.u.u.u.i.u.i.i.i.i.i.i.i.i.i.i.i.u.u.x.n.b.t.e.f.z.z.z.u.u.z.f.w.b.F.s.- o > > p a.a.x.u.x.w.e.e.e.e.e.e.e.e.e.i.i.i.i.i.i.i.i.w.w.w.w.w.w.z.z.u.u.w.u.w.e.e.!   r G.iX@.X 2 t.n.g.b.n.b.F.@.O O o.t.e.i.u.w.z.w.w.u.z.z.z.z.z.i.i.t.R X 7 ^ o.r.b.b.b.a.a.y.S.4 X : X - +.n.e.i.u.f.f.w.e.e.e.e.e.e.e.e.e.e.e.e.e.e.e.e.e.e.e.e.e.e.w.w.w.w.w.u.z.z.z.z.z.z.z.x.a.F.( O 6 ( p p , 6 6 > > ; X X O p j.b.t.S.S.> O @.F.+.2       > S.H.t.e.e.u.u.i.i.i.i.i.i.i.i.i.i.i.i.i.i.i.e.e.e.e.i.i.e.e.i.i.i.e.e.e.i.i.i.i.i.i.e.e.i.i.i.i.i.i.i.i.i.i.i.i.i.i.i.i.i.i.i.i.i.i.i.i.i.i.i.i.i.i.e.e.e.i.x.x.e.e.e.x.x.x.g.g.x.x.i.x.g.g.e.e.i.e.e.e.e.i.e.e.e.e.e.e.e.e.i.i.i.i.i.i.x.x.x.x.x.x.i.i.i.i.i.i.i.i.i.i.i.i.i.i.i.i.i.i.i.i.i.i.i.i.i.i.i.i.x.x.x.i.i.i.i.i.e.i.u.u.i.i.u.z.u.u.u.u.z.z.u.i.u.x.i.i.i.i.i.i.i.i.i.u.u.u.i.i.i.e.e.e.e.w.w.w.e.e.i.i.i.i.i.i.u.u.u.u.i.i.i.i.i.e.u.u.u.u.u.u.u.w.u.u.u.u.u.w.e.e.e.e.e.e.e.e.w.w.w.w.u.u.u.u.u.u.u.u.w.w.w.w.e.e.e.u.u.u.u.u.u.u.w.w.w.w.6.6.d.5.6.6.6.w.0.r.s D.vXnXiX} 0.r.0.0.#.4.4.4.0.q.2.3.| | | | uXjXjXgXgXgXgXgXgXdXfXdXdXdXfXgXgXaXOX+XOXD.OX+XD.OXA.A.A.A.A.A.%.bXLXHXHXLXKXLXLX;XJ J.KXLXKXFXHXLXLXHXFXGXHXLXBX    nXLXPX. f E p d PXLXHXFXHXHXDXDXGXGXGXHXHXHXHXGXGXGXGXGXGXGXGXGXGXGXGXHXGXGXHXHXHXGXDXDXDXHXGXGXDXFXFXGXFXHXHXHXJXLXHXHXHXKX@X>.oXoXoXSXPXLXJXGXGXGXGXGXGXGXGXGXGXGXGXGXGXGXGXGXGXGXGXGXGXDXDXDXGXDXHXHXHXJXLXPXPXSXOXH.G.iXiXiXiXOXaXdXiXiXiX} 0.q.w.z.w.w.w.u.u.u.u.u.w.w.w.w.w.w.w.w.w.w.w.u.u.z.z.z.u.u.u.w.w.w.w.w.w.w.w.u.u.u.u.u.z.z.u.w.u.u.u.",
"u.i.u.u.i.i.i.i.i.i.i.i.i.i.i.i.x.u.i.b.r.+.+.t.e.z.z.z.u.u.z.z.z.w.a.@.- 6 w @ p a.e.x.w.x.w.w.e.e.e.e.e.e.e.e.w.w.e.e.i.i.e.e.w.w.w.w.w.w.u.u.u.u.u.z.w.e.t.! X r F.G.@.- i a.b.x.n.b.t.F.@.O X @.a.e.x.i.u.u.u.u.u.u.z.z.z.z.w.i.a.E X p @.o.t.n.n.y.y.S.S.S.w > 0 p i @.n.e.i.z.f.f.f.f.f.e.e.e.e.e.e.e.e.e.e.e.e.e.e.e.e.e.e.e.e.w.w.w.w.w.u.u.z.z.u.u.u.u.e.r.S.( X 0 ( ( 0 4 6 6 6 6 ; ; ; - ^ S.y.y.S.S.3 + ( S.S.6 @ w 9 u @.b.0.w.z.x.i.i.i.i.i.i.i.i.i.i.i.i.i.i.i.i.w.w.i.i.e.e.e.e.i.i.i.e.e.e.i.i.i.i.i.i.e.e.i.i.i.i.i.i.i.i.i.i.i.i.i.i.i.i.i.i.i.i.i.i.i.i.i.i.i.i.i.i.e.e.e.e.e.e.e.e.e.e.e.e.e.e.e.g.g.g.e.e.g.g.g.g.e.e.e.x.x.x.e.e.g.g.x.x.i.i.x.x.i.i.x.x.x.x.x.x.x.x.i.i.i.i.i.i.i.i.i.i.i.i.i.i.e.e.i.i.i.i.i.i.i.i.i.i.x.i.i.i.i.i.i.i.i.i.i.i.i.i.i.u.u.u.i.i.u.i.i.i.i.i.i.i.i.i.i.i.i.u.u.u.u.w.e.e.e.e.e.e.e.e.w.w.e.e.i.i.i.i.i.i.u.u.i.i.i.i.i.e.e.e.e.e.e.e.u.u.i.i.i.i.e.e.w.w.w.w.e.e.e.e.e.e.e.w.w.w.w.u.u.u.w.w.w.w.w.w.w.w.w.w.w.w.w.w.w.w.u.u.u.w.w.w.w.w.5.5.6.6.6.z.w.0.$.G.xXxXF.0.e.0.0.0.q.w.w.q.6.p.u.6.6.u.5.} iXzXdXdXgXdXgXgXfXfXfXdXdXfXfXgXgXdXfXfXgXdXdXdX@XdXhXhX@X@X@X@X@XbXPXKXKXKXSXPXIXbXJ.;XKXPXJXLXJXJXJXFXHXHXJXHXIXI & bXPXIX2 u R ( %.KXKXJXHXFXDXGXDXDXDXDXGXGXGXDXGXGXGXGXGXGXGXGXGXGXGXDXGXGXGXGXGXGXGXGXDXDXGXGXGXHXHXGXHXFXHXKXSXSXKXSXPXLXPXvXoXuXaXD.SXJXHXHXGXGXGXGXGXGXGXGXGXGXGXGXGXGXGXGXGXGXGXGXGXGXGXGXFXHXGXHXDXDXFXFXKXHXKXvXhX@XOXOXaXiXOXOXOXOXiXiX$.b.r.0.w.w.u.u.w.u.u.u.u.w.w.w.w.u.u.u.u.u.u.u.u.u.u.u.u.u.u.u.i.i.e.e.e.e.e.w.w.w.u.u.u.u.u.u.w.e.i.i.",
"i.i.u.u.i.i.i.i.i.i.i.i.i.i.i.i.u.u.i.r.E 2 i y.e.x.z.z.x.u.z.z.z.z.n.@.- 3 6 @ p a.e.x.z.z.w.u.i.i.e.e.e.e.e.e.w.w.e.e.e.e.e.e.w.w.w.w.w.w.u.u.u.u.u.u.w.i.t.! O 5 $.y.^ X 9 S.n.g.b.a.t.F.@.  X @.n.b.x.i.u.u.u.u.u.u.z.z.u.z.u.b.a.E - ^ F.j.t.b.y.T p d p d 6 > ( S.y.t.a.e.i.i.g.f.f.w.f.f.e.e.e.e.e.e.e.e.e.e.e.e.e.e.e.e.e.e.w.w.w.w.w.w.u.u.u.u.u.u.w.w.9.u ^ p o 6 d ( p 4 > > > > 3 0 / / ^ r u r 9 0 > 3 p d ( > @ ( S.s.e.b.w.x.x.z.i.i.i.u.u.i.i.i.i.i.i.i.i.i.i.i.w.w.i.i.e.e.e.e.i.i.e.e.e.e.i.i.i.i.i.i.e.e.i.i.i.i.i.i.i.i.i.i.i.i.i.i.i.i.i.i.i.i.i.i.i.i.i.i.i.i.i.i.e.e.e.e.e.e.e.e.e.e.e.e.e.e.e.e.x.g.e.e.g.g.x.g.e.e.i.x.x.g.g.e.g.g.x.x.i.x.x.x.i.i.x.x.x.x.x.x.x.x.i.i.i.i.i.i.i.i.i.i.i.i.i.i.e.e.e.i.i.i.i.i.i.i.i.i.i.i.i.i.i.i.i.i.i.i.i.i.i.i.i.u.u.i.i.i.u.z.z.i.i.i.i.i.u.i.i.i.i.i.u.u.u.i.i.i.e.e.w.w.e.e.w.e.e.e.i.i.i.i.i.i.i.x.i.i.i.i.i.e.e.e.e.i.i.i.i.i.i.i.i.i.i.e.w.w.w.w.e.e.e.e.e.e.e.w.w.w.w.w.w.w.w.w.w.w.w.w.w.w.w.w.w.w.w.w.w.w.w.w.w.w.w.w.w.w.w.5.6.6.6.z.z.w.0.$.y.t.0.0.x.w.q.w.w.w.w.p.p.u.6.6.6.6.6.| iXjXgXgXgXgXgXgXfXfXfXdXfXfXfXgXgXfXfXfXfXdXgXdX@XhXPXPXPXPXPXPXPXIXA.@X@X@XdX@XH.nXPXKXnX@XvX;X;XKXJXHXGXFXHXHXLXKXIXvXf Z.p ^ ^ f f PXHXHXHXFXHXFXDXDXDXGXGXGXDXDXDXDXDXGXGXHXHXHXHXGXHXGXHXHXHXHXHXJXHXGXDXGXHXHXHXGXHXFXHXHXJXnXJ D.H.%.mXPXPXhXiXuXaXD.SXHXHXHXGXGXGXGXGXGXGXGXGXGXGXGXGXGXGXGXGXGXGXGXGXGXGXGXGXHXGXHXDXDXHXHXHXHXHXKXKXvXOXOXiXiXOXaXaXiXdXiXiXiXn.e.x.u.x.x.w.w.i.e.w.w.w.w.w.u.u.u.u.u.u.u.u.u.u.u.u.u.u.u.i.i.i.e.e.e.e.e.w.u.u.u.u.w.u.u.i.i.i.i.",
"i.u.u.u.x.x.x.i.i.i.e.e.w.w.w.i.x.i.b.y.R X p S.t.x.z.z.z.u.z.z.6.x.n.+.O O @ @ p y.e.x.z.z.u.u.i.i.i.i.e.e.e.e.w.e.e.e.w.w.w.w.w.w.w.w.w.w.u.u.u.u.u.u.w.i.t./ O r $.$.( ; 0 S.n.g.b.n.b.F.@.o X o.t.e.i.p.p.i.u.u.u.u.z.u.u.i.n.b.y.E 2 p S.F.n.F.y.9 4 6 > > o X ^ S.b.e.i.x.i.i.i.x.e.w.w.w.e.e.w.e.w.e.e.e.e.e.e.e.e.e.e.e.e.e.w.w.w.w.w.w.6.u.u.u.u.w.q.q.+.- X ; X 6 0 d 0 ; o > + ; X < @.s.d O O O O o   O . O > O ; ^ n.e.e.w.u.x.u.w.i.i.u.u.u.u.i.i.i.i.i.i.i.i.i.i.w.e.e.e.e.e.e.e.i.i.e.w.g.g.x.i.i.i.i.i.e.e.e.e.i.i.i.i.e.e.i.i.i.i.i.i.i.i.e.i.i.i.i.i.i.i.i.i.i.i.i.i.e.e.e.e.e.e.e.e.e.e.e.e.e.e.e.e.x.x.e.e.e.e.i.i.e.e.e.e.x.g.e.e.e.e.i.e.i.i.x.x.i.i.x.x.x.x.x.x.x.x.i.i.i.i.i.i.i.i.i.i.i.i.i.i.e.e.i.i.i.z.u.u.u.u.u.z.i.x.i.i.i.i.i.i.u.u.i.i.i.i.u.u.u.i.i.i.i.z.z.z.x.i.i.z.z.z.i.i.i.i.u.u.u.e.e.i.e.e.e.e.e.e.e.e.e.e.i.i.i.i.e.e.e.e.i.i.i.i.i.i.i.i.i.i.i.i.i.i.p.i.i.i.i.i.i.i.i.e.i.e.e.e.e.e.i.i.i.i.e.e.e.w.e.w.e.w.w.w.w.w.w.w.w.w.w.w.w.w.w.w.w.w.u.u.u.u.u.u.w.5.6.5.6.u.w.e.e.e.i.u.f.5.w.w.w.w.w.5.5.5.5.6.6.6.u.} sXzXgXgXgXgXgXgXfXfXfXdXfXfXfXfXfXfXaXaXaXaXfXdXOXhXPXPXLXLXJXLXLXnXy >.%.%.A.%.%.IXPXPX;Xf Z.J %.SXLXLXHXHXLXJXJXLXLX^.  % 5 5 #   & IXHXGXFXHXHXFXDXDXGXGXGXGXDXDXDXGXHXHXHXHXJXJXHXHXHXHXHXJXJXHXHXJXHXHXGXHXHXGXHXJXHXFXHXHXLXnX%.iXoXO.nXPXPXvXoXuXaXD.SXHXJXGXGXGXGXGXGXGXGXGXGXGXGXGXGXGXGXGXGXGXGXGXGXGXGXGXGXGXGXHXGXDXDXFXGXFXHXLXLXbXD.OXiXiXiXaXiXOXiXiXjXjXn.0.e.w.u.w.w.w.e.e.i.u.w.w.w.w.w.w.e.e.i.i.i.i.i.i.i.i.i.i.u.u.u.u.f.f.z.z.i.i.i.u.i.i.i.i.i.i.i.i.",
"i.i.u.u.x.x.i.i.i.i.e.e.w.w.w.u.i.q.t.y.( X p S.t.x.z.z.z.u.z.z.z.u.x.t.@.@.d + p y.t.x.u.x.u.u.i.i.i.i.e.e.e.e.e.e.e.e.w.w.w.w.w.w.w.w.w.w.u.u.u.u.u.u.w.i.t.E O 6 ^ ^ ( o > / / #.n.b.+.^ ( ( ^ y.b.u.i.i.i.u.u.u.u.u.z.u.i.i.#.+.+.@.+.s.S.y.y.S.s.0 6 w w 6 @./ s.t.e.g.x.z.i.i.i.i.e.e.w.w.e.e.w.w.w.e.e.e.e.e.e.e.e.e.e.e.e.e.w.w.w.w.w.w.w.w.u.w.w.q.q.0./ - 4 6 o 6 d ( 0 > 6 d d p 3 : R / / ^ ( ( ( ( ( ( ^ ( / / ^ +.e.i.i.w.u.x.u.x.i.i.u.u.u.u.i.i.i.i.i.i.i.i.i.i.w.e.i.e.i.e.i.i.i.i.e.w.e.e.x.i.i.i.i.e.e.e.e.e.i.i.i.e.e.e.i.i.i.i.i.i.i.i.e.i.i.i.i.i.i.i.i.i.i.i.i.i.i.e.i.g.e.e.e.e.e.e.e.e.e.e.e.e.x.x.e.e.e.e.e.i.e.e.e.e.e.g.e.e.e.e.e.e.i.i.x.i.i.i.x.x.x.x.x.x.x.x.i.i.i.i.i.i.i.i.i.i.i.i.i.i.i.i.i.i.z.z.u.u.u.u.u.z.x.x.i.i.i.i.i.i.i.i.i.i.i.i.i.u.i.i.i.i.i.x.z.x.x.x.i.z.z.i.i.i.i.i.i.u.i.i.i.i.i.i.e.e.e.e.e.e.e.e.i.i.i.i.i.e.i.i.e.i.i.i.i.i.i.i.i.i.i.i.i.i.p.i.i.i.i.i.i.i.i.i.i.i.e.w.e.e.i.i.i.i.e.e.e.e.e.e.e.e.w.w.w.w.w.w.w.w.w.w.w.w.e.e.w.w.w.p.u.p.p.u.p.u.u.5.5.z.w.x.e.i.x.w.5.w.u.u.w.w.u.u.6.5.6.6.6.6.u.| uXdXaXaXaXdXdXgXgXfXfXdXfXfXfXfXfXfXaXaXfXdXfXdXOXhXIXBXBXBXBXJXLXSXnXnXnXnXnXnXbXKXJXPXBXnXIXnXbXnXnXnXBXnXnXnXIXHXJXIXbXvXd % J.nXbXHXFXHXHXGXFXHXGXDXGXGXGXGXDXDXFXDXGXHXJXKXVXBXIXIXBXBXBXIXIXIXnXBXSXJXJXHXJXKXnXnXKXJXKXBXIXbXl.G.iXl.vXnXnXgXiXOXOXA.SXHXFXHXGXGXGXGXGXGXGXGXGXGXGXGXGXGXGXGXGXGXGXGXDXGXGXGXHXGXGXGXGXDXDXDXDXDXHXKXLXbXH.aXiXiXiXdXaXOXiXOXiXsXj.#.e.w.i.u.u.w.w.e.i.i.i.i.w.w.w.w.e.e.i.i.i.i.i.i.u.u.i.i.i.u.i.u.e.f.i.i.i.i.i.i.i.i.i.i.e.e.e.e.",
"u.u.w.w.w.w.e.e.i.i.i.i.i.i.i.i.i.e.i.t.( X i a.b.x.z.i.i.i.u.u.u.x.x.x.b.F.( X p y.e.z.u.x.w.u.w.e.e.w.e.w.e.e.e.e.e.e.u.i.e.w.w.w.w.w.w.w.w.u.w.w.z.w.w.i.r.E X > O > ; 4 4 - O E t.y.< O p S.y.t.x.x.i.i.p.i.w.i.5.z.6.z.u.i.@.X O @.n.n.F.S.y.F.s.4 0 6 0 5 y.t.t.t.e.g.x.x.e.e.e.e.e.e.e.e.e.e.e.e.e.e.e.e.e.e.e.e.e.e.e.e.e.e.w.w.w.w.w.w.u.5.u.z.w.x.} r./ X 4 6 ; 6 ( ( d X ; ( y.p - - T u / S.F.a.a.t.t.t.t.t.a.a.a.a.i.u.u.u.u.u.u.u.i.i.i.u.u.u.i.i.i.i.i.i.u.u.u.u.i.i.i.i.i.i.i.i.e.e.i.e.i.i.i.i.i.i.i.e.e.e.e.e.e.e.e.e.e.e.e.e.i.i.i.i.i.i.i.i.i.i.i.i.i.i.i.i.i.i.i.i.i.i.i.i.i.u.u.z.x.z.w.w.x.x.x.x.x.x.i.i.i.i.z.z.z.u.i.i.u.u.u.i.i.x.z.z.u.u.i.x.x.x.x.x.x.x.i.i.i.i.i.i.i.i.i.i.e.e.w.w.i.i.i.i.i.i.i.i.u.w.w.f.g.e.u.u.u.f.w.e.w.f.f.i.i.i.i.e.e.i.i.i.i.i.i.i.i.i.i.i.u.u.x.i.i.i.i.i.i.i.i.i.i.i.i.i.e.e.w.w.w.e.e.e.e.e.e.e.u.w.i.i.e.e.e.e.e.e.i.i.i.i.i.i.i.i.i.i.i.i.i.i.i.i.u.i.i.i.i.i.i.u.i.i.i.i.i.i.u.u.i.e.e.e.w.w.w.w.w.w.e.e.e.e.e.e.e.e.e.i.u.u.u.u.u.u.w.w.p.p.w.w.w.w.w.e.e.u.u.w.w.w.w.w.w.u.w.p.6.6.6.6.6.6.p.2.n.oXD.D.l.iXzXdXgXdXfXfXfXfXfXfXfXfXfXfXfXfXdXgXdXOXOXOXOXH.J.KXLXJXLXLXPXPXLXLXLXHXJXJXJXLXJXLXPXA.D O.O.O.o.H @XLXLXLXLXKXh   BXLXJXGXGXGXGXGXGXGXGXGXGXGXGXGXDXDXDXDXDXGXLXnXy O.O.D >.o.j.$.:.:.j.D bXLXJXLXLXnXH >.nXPXSXy O.D.XXC.zXzXdXD.XXoXXXjXhXvXBXHXGXDXGXGXGXGXGXGXGXGXGXGXGXGXGXGXGXGXGXGXGXGXGXGXGXGXGXGXGXGXGXDXGXDXDXDXGXHXJXbXH.OXiXuXaXiXOXaXOXiXjXiXj.+.e.r.b.w.u.u.u.u.e.e.i.i.e.e.w.w.e.e.e.e.i.i.i.e.e.i.i.i.i.i.i.i.i.i.i.i.i.i.i.i.i.i.i.i.i.i.i.i.",
"u.u.w.w.u.w.e.e.i.i.i.i.i.i.i.i.i.w.x.t.d O u a.x.z.z.i.i.i.i.u.i.x.v.x.w.j.E X p y.e.x.u.x.w.f.w.e.e.e.e.e.e.e.e.e.e.e.u.i.e.e.w.w.e.e.e.e.u.u.w.5.w.w.q.e.r.! - 4 > 6 4 4 0 0 : ^ j.y.5 X p y.t.g.x.x.i.i.i.u.i.x.5.z.u.z.u.b.@.O X s.n.b.y.y.y.S.@.9 0 4 9 7 t.e.e.e.e.g.x.x.e.e.e.e.e.e.e.e.e.e.e.e.e.e.e.e.e.e.e.e.e.e.e.e.e.e.w.w.w.w.w.w.u.p.u.w.0.e.#.y./ ; > > > 3 ( ( d ; 6 / +.E 9 2 Y u Q t.a.e.x.z.z.z.u.u.i.i.i.i.u.u.u.u.u.u.u.u.i.i.i.i.u.u.i.i.u.i.i.i.u.u.u.u.i.i.i.i.i.i.i.i.e.e.i.i.i.i.i.i.i.i.i.i.e.e.e.e.e.e.e.e.e.e.i.i.e.e.i.i.i.i.i.i.i.i.i.i.i.i.i.i.i.i.i.i.i.i.i.i.u.u.u.u.z.x.w.e.x.x.x.x.x.x.i.i.i.i.z.z.z.z.i.i.u.u.u.u.x.x.x.x.u.u.i.i.x.x.x.x.x.x.i.i.i.i.i.i.i.i.i.i.e.e.w.w.i.i.i.i.i.i.i.i.z.z.w.f.i.e.u.u.z.z.e.e.u.u.f.e.i.i.i.i.i.i.i.i.i.i.i.i.i.i.i.i.x.f.x.i.i.i.i.i.i.i.i.i.i.i.i.i.i.w.i.i.e.e.e.w.e.e.w.u.u.u.e.i.e.e.e.e.e.e.i.i.i.i.i.i.i.i.i.i.i.i.i.i.i.i.i.i.i.i.i.i.u.u.u.i.i.i.i.i.u.u.i.i.e.e.w.w.e.w.w.w.e.e.e.e.e.e.e.w.i.i.i.i.i.i.i.w.w.w.p.p.u.w.w.w.w.w.w.u.u.w.e.w.w.w.u.u.w.p.u.6.6.6.6.7.u.3.n.oXG.D.l.iXjXdXgXgXgXfXfXfXfXfXfXfXfXfXfXdXdXgXdXaXaXdXgXdXhXSXPXPXJXLXLXPXLXHXFXFXHXHXDXGXFXJXKXhXH.OXiXiXdXH.bXKXJXHXLXSXI h UXHXHXGXGXGXGXGXGXGXGXGXGXGXGXGXGXDXDXGXGXGXJXBXA.D.G.D.iXj.uXV.yXyXuXG.nXPXJXLXPXIXXXD.nXPXSXOXOXXXXXl.aX@XOXoXiXaXoXnXPXKXHXHXGXHXGXGXGXGXGXGXGXGXGXGXGXGXGXGXGXGXGXGXGXGXGXGXGXGXGXGXGXGXGXGXGXDXDXDXGXHXJXmXH.OXOXoXOXOXOXiXOXiXiXiXF.y.b.0.e.q.u.u.u.u.w.e.e.e.e.e.e.e.e.e.e.e.i.i.i.e.i.i.i.i.i.i.i.i.i.i.i.i.i.i.i.i.i.i.i.i.i.i.i.i.",
"u.u.w.w.u.u.e.e.i.i.u.u.i.i.u.i.e.w.i.t.d O u y.x.x.z.i.i.u.i.u.u.u.z.z.e.b.p O p y.e.i.i.x.w.f.e.e.e.e.e.i.e.e.e.e.e.w.u.u.e.e.e.w.w.w.i.i.u.u.u.5.u.w.w.x.i.r.y.@.0 0 6 4 4 0 X ^ y.y.p X p y.t.x.x.z.i.i.i.u.w.u.6.z.6.u.5.t.@.O X @.y.+.7 < @.y.y.@.y.s.y.y.t.e.e.i.e.g.i.x.w.w.w.w.w.w.w.e.e.e.e.e.e.e.e.e.e.e.e.e.e.e.e.e.r.w.w.w.w.w.w.w.p.p.u.q.{ +.R p p : > 4 6 4 d ( d ; 4 p u ^ S.s.y.9.t.b.b.e.x.w.u.z.u.u.i.i.i.i.u.u.u.u.i.i.u.u.u.u.i.i.i.i.i.i.u.u.i.i.i.i.i.i.i.i.i.i.i.i.i.i.e.e.i.i.i.i.i.i.i.i.i.i.e.e.e.e.e.e.e.e.e.i.i.i.i.e.i.i.i.i.i.e.e.e.i.i.i.i.i.i.i.i.i.i.i.i.i.i.u.u.u.u.z.w.w.e.x.x.x.x.x.x.z.z.x.x.x.x.x.x.x.x.x.z.x.x.x.x.x.x.u.i.i.i.i.x.x.x.i.i.i.i.i.i.i.i.w.e.i.i.i.i.i.i.i.i.i.i.e.i.i.i.z.z.u.u.i.u.u.z.u.u.i.i.u.u.u.i.i.i.i.i.i.i.i.i.i.i.i.i.i.i.i.i.i.i.i.i.i.i.i.i.i.i.i.i.u.u.u.u.u.q.w.w.q.w.i.u.u.i.u.u.w.w.e.e.e.e.e.e.e.e.i.i.e.e.e.e.e.e.i.i.i.i.i.i.i.i.i.i.i.i.i.i.i.i.i.i.u.u.u.u.u.u.e.e.e.e.e.e.e.e.e.e.w.u.u.w.w.w.w.w.w.w.w.w.w.w.w.w.w.w.w.w.w.w.w.w.w.w.w.u.u.u.w.w.w.w.u.u.w.w.6.6.6.5.z.6.6.4.iXzXjXgXiXgXjXdXgXdXdXfXgXgXgXgXfXfXfXfXdXaXdXfXfXaXaXaXaXaXOXvXvXvXvXvXvXvXnXJXGXHXGXHXGXDXDXHXHXSXKXPXPXPXPXKXKXHXHXGXJXLXSXBXLXLXHXGXGXGXGXGXGXGXGXGXGXGXGXGXGXGXHXHXGXHXGXHXSXKXSXSXIXG.oXG.G.V.tXG.gXvXvXvXzXdXuXV.zXjXaXD.iXoXaXoXxXxXzXOXfXjX>.nXLXLXGXGXJXHXGXGXGXGXGXGXGXGXGXGXGXGXGXGXGXGXGXGXGXGXGXGXGXGXGXGXGXGXGXGXGXGXDXDXDXDXHXJXKXPXdXOXOXOXiXiXOXaXdXjXiX0X9Xr.i.i.u.u.u.u.w.e.e.e.e.e.e.e.e.e.e.e.i.i.i.i.i.i.i.i.i.i.i.i.i.i.i.i.i.i.i.i.i.i.i.i.i.i.i.i.",
"u.u.w.u.u.u.e.w.i.i.i.i.i.u.u.i.e.w.i.t.d O e y.x.z.z.i.u.z.i.i.i.i.z.x.x.n.^ O p y.e.g.i.x.w.f.w.e.e.e.i.i.u.w.e.e.w.w.u.u.e.e.e.w.w.w.i.i.u.u.x.u.z.z.z.x.x.b.n.y.< > 6 > > 4 O / F.S.p O i n.a.x.z.z.z.u.i.i.w.z.z.v.z.x.i.F.@.O X S.F.@.: X E +.s.y.a.a.a.b.e.e.e.e.i.i.i.i.w.w.w.w.w.w.w.e.e.e.e.e.e.e.e.e.e.e.e.e.e.e.e.e.e.e.w.w.w.w.w.w.5.6.u.q.+.+.i : 4 ; 6 o X < ^ ^ 9 O O O O p S.a.b.a.b.b.i.x.x.z.z.z.z.i.i.i.i.i.u.u.u.u.u.u.u.u.i.u.i.i.i.i.i.i.u.u.i.i.i.i.i.i.i.i.i.i.i.i.i.i.e.e.i.i.i.i.i.i.i.i.i.i.i.e.e.e.e.e.e.e.e.e.e.e.i.i.i.i.i.i.i.e.i.e.i.i.i.i.i.i.i.i.i.i.i.i.i.i.u.u.u.u.z.w.w.w.i.x.x.x.z.z.z.z.x.x.x.x.x.x.x.x.x.x.x.x.x.x.x.x.u.u.i.i.i.x.x.x.i.i.i.i.i.i.i.i.w.e.e.i.i.i.i.i.i.i.i.i.e.i.i.i.u.u.u.u.i.u.u.z.u.z.i.i.u.u.u.i.i.i.i.i.i.i.i.i.i.i.i.i.i.i.i.i.i.i.i.i.i.i.i.i.e.i.u.u.u.u.u.u.p.u.u.u.w.w.p.p.p.u.u.u.u.w.e.e.e.e.i.e.e.e.e.e.e.e.e.e.e.e.e.e.i.i.i.i.i.i.i.i.i.i.i.i.i.i.i.i.i.u.u.u.u.i.e.e.e.e.e.e.e.e.e.w.u.u.u.w.w.w.w.w.w.w.w.w.w.w.w.w.w.w.w.w.w.w.w.w.w.w.w.u.u.u.w.w.w.w.w.w.w.w.6.6.6.5.6.5.5.| iXzXjXhXgXfXgXdXgXdXdXdXfXgXfXfXfXfXfXaXaXaXdXaXaXaXaXaXaXaXOXOXD.OXoXoXOXA.bXJXGXDXDXHXHXGXDXGXGXHXHXHXHXHXLXHXGXFXHXGXFXHXHXLXHXFXGXGXGXGXGXGXGXGXGXGXGXGXGXGXGXGXGXHXGXGXFXHXGXHXLXPXSXH.D.G.G.9XuXoXD.>.>.;.>.>.:.h.G.oXOXOXiXiXoXD.vXvX@XA.A.D.A.mXJXJXGXGXJXJXGXGXGXGXGXGXGXGXGXGXGXGXGXGXGXGXGXGXGXGXGXGXGXGXGXGXGXGXGXGXGXGXGXGXDXFXGXHXJXPXhXOXOXOXOXiXOXOXOXdXiXsXiX0.e.e.u.u.u.u.w.w.e.e.e.e.e.e.i.e.e.e.i.i.i.i.i.i.i.i.i.i.i.i.i.i.i.i.i.i.i.i.e.i.i.i.i.i.i.i.",
"w.w.w.w.w.w.w.w.i.i.u.u.u.u.w.w.e.w.i.y.d O u y.x.z.z.i.i.z.u.i.z.z.z.x.e.y.^ O p y.e.g.u.x.w.f.w.w.e.e.i.i.u.w.w.w.w.w.u.i.e.e.e.e.u.u.i.i.i.u.u.w.w.z.u.w.u.x.e.s.< 4 0 6 6 0 p ^ o.^ ^ R | b.x.z.z.z.z.u.u.u.z.u.5.u.q.t.+.@.( o > ( @./ > X @.y.t.t.e.e.e.e.e.w.u.u.u.u.u.u.u.u.u.w.w.w.w.e.e.e.e.e.e.e.e.e.e.e.e.e.e.e.e.e.e.e.i.u.u.w.w.5.u.u.i.q.+.@.p : ; > 6 > ; 7 @.+.+./ / / ^ +.a.t.e.e.i.e.w.x.x.z.x.z.i.i.i.i.i.i.i.e.e.e.e.e.e.e.e.e.e.e.e.e.e.e.u.i.i.i.i.i.i.i.i.i.i.i.i.i.i.i.e.e.i.i.i.i.i.i.i.i.i.i.i.i.i.e.e.e.e.e.e.e.e.e.i.i.i.i.i.i.i.i.i.i.i.i.i.i.e.e.i.i.i.i.i.i.i.i.i.i.i.i.i.i.i.i.i.i.i.i.i.i.i.i.x.x.x.x.x.x.x.x.x.x.x.x.x.x.x.x.u.u.u.x.u.u.u.x.i.i.i.i.i.i.i.i.w.w.i.i.e.e.e.e.i.i.i.i.e.i.i.i.e.i.i.i.i.i.e.i.i.i.i.i.i.i.i.i.i.i.i.e.i.i.i.i.i.i.i.i.i.i.i.i.i.i.e.e.e.e.e.i.w.u.u.u.p.u.p.p.5.q.6.5.u.p.5.p.u.u.u.p.u.w.w.w.e.e.i.i.i.i.i.i.i.i.i.e.i.i.i.i.e.e.e.e.e.e.e.e.e.e.e.e.e.e.e.e.e.e.w.w.w.w.i.i.e.e.e.e.e.w.w.w.w.w.w.w.w.w.w.w.w.w.w.w.w.w.w.w.w.w.q.w.q.w.w.w.w.w.w.w.w.w.w.w.w.w.u.u.w.p.6.6.6.5.6.u.u.} iXjXdXgXdXfXgXfXgXdXdXdXfXfXfXfXfXfXaXaXaXaXaXaXaXaXgXdXaXaXaXfXOXfXaXaXgXOXbXLXGXDXHXHXHXGXGXHXFXHXDXDXGXGXHXHXHXDXFXGXGXJXJXJXJXGXGXGXGXGXGXGXGXGXGXGXGXGXGXGXGXGXFXGXGXHXGXDXGXGXKXLXSXH.G.oXG.V.XXoXdXhX@X@XvXvXvXnXgXOXiXoXG.OXOX@XnXnXnXmXnXnXbXSXLXHXGXGXGXGXGXGXGXGXGXGXGXGXGXGXGXGXGXGXGXGXGXGXGXGXGXGXGXGXGXGXGXGXGXGXGXGXGXGXGXGXGXHXJXKX@XOXOXiXiXaXiXOXOXOXOXsXiX#.q.w.u.u.u.u.w.w.w.e.e.e.e.e.i.i.i.e.e.e.i.i.i.i.i.i.i.i.i.i.i.i.i.i.i.i.i.i.e.i.i.i.i.i.i.i.",
"u.u.w.w.w.e.w.w.i.i.u.u.u.u.w.w.e.w.i.y.d O u a.x.z.z.i.z.z.i.z.z.5.6.x.t.F.( O p y.e.g.u.z.w.f.w.w.i.i.i.i.u.w.w.e.e.w.u.u.e.e.e.e.u.u.i.i.i.u.w.w.6.z.u.5.w.w.n.t.2 : > > 0 ( / p - 2 @.a.e.w.z.z.z.z.z.z.z.u.6.6.u.i.t.y.u X o @ @ > - < > O @.y.y.t.e.e.e.w.w.w.u.u.u.u.u.u.u.u.u.w.e.e.e.e.e.e.e.e.e.e.e.e.e.e.e.e.w.e.w.e.q.q.q.q.w.w.5.5.6.6.u.0./ @.0 X < , 4 4 1 i S.n.a.a.S.S.n.b.e.w.i.x.x.x.u.x.z.w.u.u.u.u.i.i.i.u.i.e.w.w.e.e.e.w.e.e.e.w.e.e.e.e.u.i.i.i.i.i.i.i.i.i.i.i.i.i.i.i.e.e.i.i.i.i.i.i.i.i.i.i.i.i.i.i.e.e.e.e.e.e.e.e.i.i.i.i.i.i.i.i.i.i.i.i.i.i.i.i.i.i.i.i.i.i.i.i.i.i.i.i.i.i.i.i.i.i.i.i.i.i.i.i.x.x.x.x.x.x.u.z.x.i.x.x.x.x.x.x.u.u.u.u.u.u.u.u.i.i.i.i.i.e.e.w.w.w.i.i.e.e.e.w.i.i.i.i.i.i.i.i.e.e.i.i.i.i.e.i.i.i.i.e.i.i.i.i.i.i.i.e.e.e.i.i.i.i.i.i.i.i.i.i.i.i.e.e.e.e.e.w.w.u.p.p.p.p.p.p.p.i.q.4.q.q.q.p.p.p.u.p.p.w.w.w.w.u.u.u.e.e.e.e.e.e.e.e.i.e.e.e.e.e.e.e.e.e.e.e.e.e.e.e.e.e.e.e.e.e.e.e.w.w.i.i.e.e.e.e.w.w.w.w.e.w.w.w.e.w.w.q.q.q.q.q.w.q.q.w.q.q.u.w.q.w.w.w.w.w.w.w.w.w.w.w.w.w.u.u.w.w.6.6.6.6.6.6.5.X.iXzXgXgXlXgXgXfXdXaXdXdXfXfXfXfXfXfXaXaXaXfXaX@X@X@XdXdX@X@X@XdXOXOXOXOXdXOXbXPXHXHXHXGXHXGXGXHXHXHXDXDXDXGXDXDXDXGXGXDXDXDXGXGXDXFXGXGXGXGXGXGXGXGXGXGXGXGXGXGXGXGXGXHXFXDXDXFXDXGXHXLXSXA.D.oXG.9XoXD.vXIXBXSXKXJXPXPXvXD.OXaXiXiXD.hXPXLXLXJXLXLXJXLXHXGXFXDXDXGXGXGXGXGXGXGXGXGXGXGXGXGXGXGXGXGXGXGXGXGXGXGXGXGXGXGXGXGXGXGXGXGXHXGXDXDXFXGXHXJX@XOXOXiXiXiXOXOXOXOXOXjXiX0.e.i.u.u.u.u.u.w.w.w.e.e.e.e.i.i.e.e.i.i.e.i.i.i.i.i.i.i.i.i.i.i.i.i.i.i.i.e.e.e.i.i.i.i.e.e.",
"w.w.w.w.e.e.e.e.i.i.u.u.i.i.e.e.i.e.x.t.( O u t.i.x.z.i.i.z.z.z.z.u.z.x.y.S.( X p y.e.f.z.z.w.u.u.u.i.i.i.u.u.w.e.e.e.e.u.u.w.e.i.i.u.u.w.w.i.u.u.u.u.u.z.u.u.u.e.9.- 2 ; X 9 ( ( d , < @.r.r.z.z.z.z.z.z.z.z.z.6.z.x.a.a.S.p o @ w > 6 , , 4 ; @.y.r.n.b.g.w.q.w.w.w.w.w.w.w.w.w.w.w.w.e.e.e.e.e.e.e.e.e.e.e.e.w.w.w.w.0.0.q.q.0.q.q.w.w.w.w.5.5.5.z.0.E ^ 0 ; - 2 X O - 2 r.t.t.t.t.t.t.e.g.x.e.i.i.w.u.z.u.u.u.u.u.u.u.u.u.u.i.e.e.e.e.e.w.w.e.e.e.e.e.e.e.e.i.i.i.i.i.i.u.u.i.i.i.i.i.i.i.i.e.e.i.i.i.i.i.i.i.i.i.i.i.i.i.i.e.e.e.e.i.e.e.e.e.i.i.i.i.i.i.i.e.e.i.i.i.i.i.i.i.i.i.i.i.i.i.i.i.i.i.i.i.i.i.i.i.i.i.i.i.i.i.i.u.u.u.u.u.u.u.u.u.u.u.u.x.x.x.x.w.w.u.u.x.x.i.i.i.i.i.e.e.e.i.i.w.e.e.i.e.w.w.w.i.i.e.e.i.i.i.i.i.i.i.i.i.i.i.i.i.i.e.e.i.i.i.i.i.i.i.e.i.i.i.i.i.i.e.e.e.e.e.e.i.i.e.e.e.e.w.u.p.p.u.u.p.p.p.p.q.8.0.0.} } 2.} q.q.p.u.p.p.w.w.w.w.w.w.u.u.w.w.u.u.i.i.i.i.i.e.e.e.e.e.e.e.e.e.e.e.e.e.e.e.e.e.e.e.e.e.w.e.i.i.w.w.e.e.w.w.w.w.e.e.e.e.e.q.q.q.q.q.q.q.w.q.q.w.q.w.w.w.w.w.w.w.u.w.u.u.u.u.u.u.w.w.u.u.w.6.6.6.6.6.5.4.4.~ G.jXdXgXgXgXgXfXfXfXfXfXfXfXfXfXfXfXdXdXaXfXaXdX@X@X@X@X@X@X@X@XOXOXOX@XOXD.vXKXJXLXHXHXHXGXDXGXGXDXDXDXGXHXHXHXHXHXHXHXDXDXDXDXGXGXGXGXGXGXGXGXGXGXGXGXGXGXGXGXGXGXGXDXDXDXGXDXGXDXHXFXVXA.A.D.D.j.iXD.vXBXnXVXKXKXKXSXvXA.OXOXG.OXH.@XKXJXFXGXHXJXHXGXGXHXHXHXGXFXGXGXGXGXGXGXGXGXGXGXGXGXGXGXGXGXGXGXGXGXGXGXGXGXGXGXGXGXGXGXGXGXHXHXGXHXGXGXHXKX@XOXOXOXoXOXOXOXOXOXOXiX9X#.e.q.u.u.u.u.u.u.w.w.e.e.w.w.e.e.e.e.i.i.i.i.i.i.i.i.i.i.i.i.i.i.i.i.i.i.i.e.i.i.i.i.i.e.e.e.",
"w.w.w.w.e.e.e.e.i.i.u.i.i.e.e.e.i.w.x.t.( O u t.i.x.z.u.z.z.z.z.5.u.x.8.u p 6 X p y.e.f.z.z.w.z.u.u.i.i.u.u.u.e.e.e.e.e.u.u.u.w.u.u.u.u.w.w.u.u.u.u.u.u.u.u.u.z.x.n.+.y.( : , 9 ( d > 4 s.r.5.z.d.d.z.z.z.z.z.z.6.i.u.| R ( 6 > > > + ( @.@.@.@.s.t.+.n.b.w.w.w.w.w.w.w.w.w.w.w.w.w.e.e.e.e.r.e.r.r.e.e.e.e.e.w.x.x.e.e.w.w.w.w.w.w.i.x.x.x.x.z.z.z.x.} p p , O p s.s.s.y.+.n.e.b.i.b.b.e.e.x.w.i.x.i.w.w.w.w.w.u.u.u.u.u.u.u.u.e.e.e.e.e.w.w.w.e.e.e.e.e.e.e.e.i.i.i.i.i.u.u.u.i.i.i.i.i.i.i.i.e.e.i.i.i.i.i.i.i.i.i.i.i.i.i.i.e.e.i.i.i.e.e.i.i.e.e.i.i.i.i.i.e.e.i.i.i.i.i.i.i.i.i.i.i.i.i.i.i.i.i.i.i.i.i.i.i.i.i.i.i.i.i.i.u.u.w.w.u.u.u.u.u.u.u.u.z.x.x.x.w.w.z.x.z.x.i.i.i.i.i.e.e.e.i.w.w.w.e.e.e.e.w.w.i.i.e.i.i.i.i.i.i.i.i.i.i.i.i.i.i.i.e.e.i.i.i.i.i.i.i.i.i.i.i.i.i.i.e.e.e.e.e.e.i.e.e.e.e.w.u.u.u.p.p.p.p.p.p.p.0.0.9XsXiXsXsX9X0.q.q.p.p.p.6.p.w.w.w.w.u.w.w.w.w.w.w.u.u.w.w.w.e.e.e.e.w.w.e.e.e.e.e.e.e.e.e.e.e.e.e.e.e.e.i.i.w.w.e.w.w.w.w.w.e.e.e.e.q.q.q.q.q.q.q.q.q.q.q.5.w.w.p.w.w.w.w.w.w.u.u.u.u.u.p.u.w.w.u.u.w.6.5.6.6.u.5.n.iXF.jXzXgXgXgXgXgXfXaXfXfXfXfXfXfXfXfXfXfXdXaXaXaXdXhXhXKXKXKXKXSXSXSXSXSXSXbXOXhXbXmXKXJXHXGXGXGXDXDXGXDXDXDXGXHXHXHXHXGXHXDXDXDXFXDXDXGXGXGXGXGXGXGXGXGXGXGXGXGXGXGXGXGXDXDXDXGXGXHXDXDXFXLXBXSXSXSXIXiXD.nXJXKXHXGXSXA.@XIXSXSXdXD.nXPXBXLXJXHXGXGXHXGXDXGXGXFXFXGXHXGXGXGXGXGXGXGXGXGXGXGXGXGXGXGXGXGXGXGXGXGXGXGXGXGXGXGXGXGXGXGXGXGXHXGXDXDXGXHXJX@XOXaXiXoXaXhXgXOXOXiXiX9X#.e.0.e.w.u.i.i.u.u.w.e.e.w.w.e.e.e.e.i.i.i.i.i.i.i.i.i.i.i.i.i.i.i.i.i.i.i.i.i.i.i.i.i.e.e.e.",
"w.w.u.w.e.e.e.i.u.u.w.u.x.i.e.a.e.w.i.t.( O u t.i.z.u.u.z.z.z.u.u.u.i.9.- 3 6 o p y.g.x.w.w.z.x.w.x.w.u.x.x.x.i.b.r.t.e.u.z.w.z.w.i.u.u.x.u.w.x.u.z.z.z.z.u.u.w.x.g.b.F./ O 1 2 - > > 4 @.#.5.z.d.z.z.z.z.z.z.z.6.6.i.{ : 4 > > O X X ^ r.#.@.s.#.#.0.b.b.w.5.5.w.w.w.w.w.w.w.w.w.w.q.q.q.q.r.0.0.r.r.r.0.0.w.w.x.x.x.x.i.w.q.w.w.u.x.x.v.v.v.v.z.z.c.r.X O ; O p F.b.b.b.b.a.b.i.x.i.x.i.e.x.i.i.i.i.u.w.w.w.e.i.i.i.u.u.u.u.u.e.e.i.i.i.i.i.e.e.e.e.e.e.e.e.e.i.u.i.i.i.i.i.i.i.i.i.i.i.i.i.i.i.i.i.i.i.i.i.i.i.i.i.i.i.i.i.i.i.i.i.i.i.i.i.i.i.i.i.i.i.i.i.i.e.e.e.e.e.e.i.i.i.i.i.i.i.i.i.i.i.i.i.i.i.i.i.i.i.i.i.i.i.i.i.i.u.w.w.u.u.u.w.u.u.z.z.z.u.u.u.u.w.x.i.i.i.i.i.i.i.i.i.i.e.e.e.e.e.e.e.e.e.e.e.e.e.e.e.i.i.i.i.i.i.i.i.i.i.i.i.i.e.i.i.i.i.i.i.i.i.i.i.i.i.i.i.i.e.e.e.e.e.e.e.e.e.e.e.e.i.i.u.p.p.p.p.p.p.q.7.q.} ] G.jXiXjXjXF.~ +.e.q.6.6.6.6.5.5.w.u.p.w.w.w.w.w.q.w.u.w.w.e.e.e.e.e.e.e.e.e.w.w.w.e.e.e.w.e.e.e.e.e.w.w.w.w.w.w.w.w.w.w.q.q.i.w.w.u.q.q.p.q.q.6.5.6.6.6.6.6.u.u.6.u.6.u.u.w.u.w.5.z.5.z.p.i.z.6.6.6.6.6.z.5.6.6.3.6XxXzXhXhXgXlXfXfXaXaXaXaXaXaXfXlXaXaXaXaXfXfXaXaXfXdXOXvXPXLXHXHXHXHXHXHXLXPXbXH.@XH.A.IXJXGXGXDXDXDXDXDXDXDXDXDXDXGXHXHXGXGXGXDXDXGXGXGXGXGXGXGXGXGXGXGXGXGXGXGXGXGXGXGXGXGXGXGXGXGXDXDXDXGXGXGXJXJXJXPXH.A.mXLXJXGXHXBXA.A.SXPXPX@XJ nXPXJXGXDXDXDXGXGXGXGXGXGXGXGXGXGXGXGXGXGXGXGXGXGXGXGXGXGXGXGXGXGXGXGXGXGXGXGXGXGXGXGXGXGXGXGXGXGXHXHXGXDXDXGXJXJX@XA.oXoXaXgXzXdXD.OXOXiXG.$.} r.#.0.0.i.u.i.w.w.e.w.e.e.e.e.i.i.i.i.i.i.i.i.x.x.i.i.i.i.i.i.i.i.i.i.i.i.i.i.e.e.i.i.i.i.",
"u.w.u.u.e.e.e.e.u.u.i.i.e.q.e.e.e.w.x.t.( O u t.x.z.u.u.z.z.z.u.u.u.b.s.X 6 6 ; p y.g.f.f.x.x.w.u.i.i.i.x.x.x.e.+.! 0.e.u.z.w.u.u.x.u.w.u.x.x.u.z.z.z.z.u.u.u.i.x.e.e.n.+.O < p ^ p > 0 @.0.w.c.z.z.z.z.z.z.z.z.z.u.i.{ 2 0 > @ d ^ E r.e.r.0.0.r.r.e.x.x.u.6.u.z.z.z.z.z.z.z.u.x.x.i.e.e.e.e.e.0.w.e.e.e.w.e.x.x.g.x.x.x.u.w.z.w.z.x.v.v.z.z.z.v.z.x.+.X 4 d 5 E t.e.g.e.e.a.a.i.b.x.x.i.e.a.e.i.i.i.i.e.e.e.e.i.i.i.i.u.u.u.u.e.e.e.e.i.i.e.e.e.e.e.e.i.e.e.e.u.u.i.i.i.i.i.i.i.i.i.i.i.i.i.i.i.i.i.i.i.i.i.i.i.i.i.i.i.i.i.i.i.i.i.i.i.i.i.i.i.i.i.i.i.i.i.i.e.e.e.e.e.e.i.i.i.i.i.i.i.i.i.i.i.i.i.i.i.i.i.i.i.i.i.i.i.i.i.i.u.w.w.u.u.u.w.w.u.u.z.z.u.u.u.u.i.x.i.i.i.i.i.i.i.i.i.i.e.e.e.e.e.e.e.e.e.e.e.e.e.e.e.e.i.i.i.i.i.i.i.i.e.i.i.i.i.i.i.i.i.i.i.i.i.i.i.e.i.i.i.i.e.e.e.e.e.e.e.e.e.w.q.q.q.p.p.q.6.p.6.q.q.q.9.q.b.#.F.iXoXOXiXG.n.n.0.2.q.q.6.p.u.5.6.p.u.p.5.w.w.w.w.u.i.e.w.w.e.w.e.e.e.e.e.e.w.w.e.e.e.e.w.e.e.e.e.e.w.w.w.w.w.w.w.w.u.u.q.q.5.5.6.q.p.p.p.q.5.5.5.5.6.6.6.6.6.p.6.u.6.i.u.u.w.z.6.z.5.z.6.u.u.6.6.z.6.6.6.6.z.z.} C.zXgXfXfXgXlXlXaXaXkXkXaXaXOX@XaXOXOXaXaXdXlXfXaXaXdX@XvXPXJXGXHXGXGXGXGXGXJXnXvXvXvXbXKXJXGXGXDXDXDXDXDXDXDXDXDXDXDXGXGXGXGXGXGXGXGXHXGXGXGXGXGXGXGXGXGXGXGXGXGXGXGXGXGXGXGXGXGXGXGXDXDXDXDXDXDXDXDXGXJXvXvXBXGXFXGXHXKX;XvXSXLXKXbXvXIXJXGXDXDXDXGXGXGXGXGXGXGXGXGXGXGXGXGXGXGXGXGXGXGXGXGXGXGXGXGXGXGXGXGXGXGXGXGXGXGXGXGXGXGXGXGXGXGXHXGXGXDXDXDXGXJXmXbXvXG.OXjXzXdXOXdXOXiXOXj.j.C.G.n.r.e.w.i.w.i.e.e.e.e.e.e.i.i.i.i.i.i.i.i.x.x.i.i.i.i.i.i.i.i.i.i.i.i.i.i.e.e.i.i.i.i.",
"u.w.w.u.w.w.u.u.u.u.x.i.r.t.b.e.e.e.x.t.d O u t.x.z.u.u.z.z.z.u.z.u.b.s.- > 6 > p y.g.f.5.z.u.w.x.u.u.u.5.u.i.t.u 2 E r.w.z.u.z.u.z.z.w.w.u.z.w.z.z.z.z.z.z.i.i.x.x.b.t.^ O 1 S.S./ ; 9 y.g.g.f.z.z.z.z.z.z.z.z.z.i.i.+.2 0 > O @.F.n.n.c.c.M.b.c.c.c.n.n.c.b.c.x.c.x.x.x.x.x.x.x.x.x.x.x.x.b.b.0.w.g.x.x.x.x.x.g.f.x.x.x.x.x.x.z.x.x.v.z.d.d.d.d.v.c.+.X 6 ( @.s.n.g.c.g.x.a.a.t.b.x.x.i.e.a.e.i.i.i.i.e.e.e.e.e.e.e.e.w.w.w.e.e.e.e.e.e.e.e.e.e.e.e.e.i.e.e.e.u.u.i.i.i.i.i.i.i.i.i.i.i.i.i.i.i.i.i.i.i.i.i.i.i.i.i.i.x.i.i.i.i.i.i.i.i.i.i.i.i.i.i.i.i.i.i.i.e.e.e.e.e.e.e.e.i.i.i.i.i.i.i.i.i.i.i.i.i.i.i.i.i.i.i.i.i.i.i.i.i.i.i.i.i.i.i.i.i.i.i.i.e.e.i.i.i.i.i.i.i.i.i.i.e.e.i.i.e.e.e.e.e.e.i.e.i.i.e.e.e.e.e.e.i.i.i.i.i.i.e.e.e.i.i.i.i.i.i.i.i.i.i.i.i.i.i.i.i.e.e.e.i.i.e.e.i.i.e.e.q.w.w.i.p.p.p.q.q.q.q.5.q.9.9.0.iXoXuXiXiXoXG.iXxXjXt.#.e.q.p.p.u.6.p.p.p.p.p.u.w.w.q.q.w.u.w.w.w.w.w.w.w.w.w.w.w.w.w.w.w.w.w.w.w.w.w.w.w.w.w.w.u.u.w.u.u.u.p.q.6.p.6.6.p.u.q.5.5.6.q.5.6.6.6.6.6.p.6.u.6.i.q.0.4.w.5.z.6.6.5.5.u.6.6.6.6.6.6.z.z.z.| M.jXfXhXfXfXlXlXfXkXkXkXaXgXfXdXfXfXgXgXfX@X@XfXlXgXdXOXvXJXJXGXGXDXDXDXDXDXHXHXKXJXJXKXHXGXGXGXGXGXGXGXGXDXDXDXDXDXDXDXGXGXGXGXGXGXGXGXGXGXGXGXGXGXGXGXGXGXGXGXGXGXGXGXGXGXGXGXGXGXGXDXDXDXDXDXDXDXDXDXGXLXJXHXHXGXGXJXJXJXJXLXHXHXJXHXLXGXDXDXDXDXDXGXGXGXGXGXGXGXGXGXGXGXGXGXGXGXGXGXGXGXGXGXGXGXGXGXGXGXGXGXGXGXGXGXGXGXGXGXGXGXGXGXGXGXGXGXDXDXDXDXGXLXPXnXD.OXhXzXhXlXzXdXaXiXiXiXiXsXuXe.e.w.i.u.i.w.w.e.e.e.e.i.i.i.i.i.i.i.i.i.i.i.x.i.i.i.i.i.i.i.i.i.i.i.i.e.e.e.e.e.e.",
"w.w.w.w.u.w.u.u.i.u.i.e.t.t.a.t.e.e.i.t.d O u t.i.z.u.u.i.z.z.f.z.z.b.s.- > 6 ; p y.g.x.f.f.z.x.z.w.x.x.u.x.b.n.p X E t.x.z.z.z.u.w.x.v.u.w.x.x.z.z.z.z.z.z.x.x.w.x.n.b./ X 2 @.S.^ - 0 s.t.b.x.z.z.z.z.z.z.z.z.v.p.i.+.< 0 6 + ^ n.b.M.c.c.m.M.c.v.v.x.x.b.b.x.v.v.v.v.v.v.x.x.v.v.x.x.x.x.x.x.5.w.g.x.x.x.x.x.x.x.x.z.x.z.x.x.z.x.x.z.v.d.d.d.d.v.c.+.O o ( @.s.n.g.c.c.n.t.t.y.a.b.x.i.e.i.e.i.i.i.i.e.e.e.e.e.e.e.e.e.w.e.e.e.e.e.e.e.e.e.e.e.e.e.e.e.i.i.e.u.u.i.i.i.i.i.i.i.i.i.i.i.i.i.i.i.i.i.i.i.i.i.i.i.i.x.i.x.x.i.i.i.i.i.i.i.i.i.i.i.i.i.i.i.i.i.i.e.e.e.e.e.e.e.e.i.i.i.i.i.i.i.i.i.i.i.i.i.i.i.i.i.i.i.i.i.i.i.i.i.i.i.i.i.i.i.i.e.i.i.i.i.i.i.i.i.i.i.i.i.i.i.i.e.i.i.i.e.e.e.e.e.e.i.i.i.i.e.e.w.e.e.e.e.i.i.i.i.i.i.e.e.i.i.i.e.e.i.i.i.i.i.i.i.e.e.e.e.e.e.e.e.e.e.e.q.q.q.q.w.w.q.p.p.p.q.5.3.2.2.| } | | } uXuXoXoXiXoXG.dXzXjX$.| #.{ q.3.7.p.p.p.6.6.p.p.q.w.p.6.6.w.w.w.w.w.w.w.w.w.w.w.w.w.w.w.w.w.w.w.w.w.w.w.w.w.w.w.u.u.u.u.u.u.p.p.p.p.6.6.6.5.7.q.3.3.} } } } 2.2.4.4.3.5.4.r.} 0.0.r.2.i.u.u.u.u.u.p.6.6.6.6.6.6.6.z.4.C.gXfXhXfXfXlXlXfXkXkXkXaX+XOXOXOXOXOXOXOX@XOXOX@XOX@XH.vXJXJXGXGXDXDXDXDXDXFXHXHXGXHXGXGXGXGXGXGXGXGXGXGXGXGXDXDXDXDXDXDXGXGXGXGXGXGXGXGXGXGXGXGXGXGXGXGXGXGXGXGXGXGXGXGXGXGXGXGXGXDXDXDXDXDXDXDXDXDXDXGXHXHXDXFXFXJXDXHXHXHXHXFXGXGXHXFXGXDXDXDXDXGXGXGXGXGXGXGXHXGXGXGXGXGXGXGXGXGXGXGXGXGXGXGXGXGXGXGXGXGXGXGXGXGXGXGXGXGXGXGXGXGXGXGXGXGXGXDXDXDXDXGXHXLXnXOXdXhXzXlXlXzXOXOXiXiXaXiXsXiXe.e.w.i.u.u.w.w.e.e.e.e.i.i.i.i.i.i.i.i.i.i.x.x.i.i.i.i.i.i.i.i.i.i.i.i.e.e.e.e.e.e.",
"u.u.u.u.u.u.u.u.x.u.e.a.r.E R s.t.e.x.t.d O p t.i.z.u.u.i.u.z.w.u.u.b.s.X 6 6 > p y.e.e.f.z.z.u.u.w.x.x.z.x.t.y.( X E b.f.6.u.u.z.z.z.x.w.w.e.w.w.f.z.z.z.x.x.x.z.f.e.t.^ - - @.s.+.0 ( ( E +.b.x.z.z.z.v.z.z.z.z.q.t./ 2 0 6 o E j.g.c.z.c.x.x.f.z.c.z.z.v.v.z.z.c.c.c.c.c.z.z.z.z.x.x.x.x.x.g.w.f.g.x.g.g.z.z.x.z.z.z.z.z.z.z.x.x.z.z.d.d.d.d.d.f.b.+., 6 ^ ^ / b.g.g.b.t.R Y s.a.a.i.e.e.e.e.e.e.e.e.e.e.e.e.e.e.e.e.e.e.e.e.e.e.e.e.e.e.e.e.e.e.e.e.e.e.e.i.i.i.i.i.i.i.i.i.i.i.i.i.i.i.i.i.i.i.i.i.i.i.x.x.i.i.i.i.x.x.i.i.i.i.i.i.i.i.i.i.i.i.i.i.i.i.i.i.i.i.i.i.e.e.e.e.i.i.i.i.i.i.i.i.e.e.e.e.e.e.e.e.e.e.e.e.e.e.e.e.i.i.i.i.i.i.i.i.e.e.i.i.i.i.i.i.e.e.e.e.e.e.e.e.e.e.e.e.e.e.e.e.w.e.e.e.e.e.w.w.w.w.w.e.e.e.e.i.i.i.i.i.i.i.i.i.i.i.i.i.i.i.i.i.e.e.e.e.e.e.i.e.e.e.q.q.q.q.q.q.q.q.q.q.9.q.q.q.9X9X9XG.G.G.C.C.G.XXXXoXoXoXoXOXaXiXD.G.G.F.0Xe.9.q.p.q.p.p.p.5.q.u.p.p.p.q.w.w.w.w.w.w.w.w.w.w.w.w.w.w.w.w.w.w.w.w.w.w.w.w.w.w.q.q.p.p.p.p.p.p.6.6.6.p.p.7.p.n.9X9XG.G.G.G.G.G.G.C.V.9XG.G.G.jXxXsX0.i.p.6.p.p.p.u.p.u.6.u.6.5.6.u.4.V.gX@XfXfXgXlXlXfXaXaXaXOXnXIXIXIXIXIXIXIXBXIXnX@X@XnXBXIXJXGXGXGXGXGXGXGXHXGXGXGXFXGXHXHXGXGXHXHXGXGXGXGXGXGXGXGXGXGXGXGXGXGXGXGXGXGXGXGXGXGXGXGXGXGXGXGXGXGXGXGXGXGXGXGXGXGXGXDXDXDXDXDXDXDXGXGXGXGXGXHXHXHXHXDXDXDXDXGXDXDXGXDXHXGXGXGXDXDXDXDXDXGXGXGXGXGXGXHXHXHXGXGXGXGXGXGXGXGXGXGXGXGXGXGXGXGXGXGXGXGXGXGXGXGXGXGXGXGXGXGXGXGXGXGXGXDXGXDXDXDXDXDXFXHXnXH.@XgXgXfXhXhXOXOXOXiXiXOXiXuXe.e.e.u.w.w.w.e.e.e.e.e.i.i.i.i.i.i.i.i.i.i.x.i.i.i.i.i.i.i.i.i.i.i.i.i.e.e.i.i.i.i.",
"u.u.u.u.u.u.u.u.x.w.i.n.+.- - @.a.i.i.t.d O p t.i.z.u.u.i.u.u.w.i.i.a.s.X > 6 ; p F.n.b.w.z.z.u.x.p.u.w.u.x.t.F.d O a t.w.6.i.u.z.x.u.w.i.b.i.e.e.g.z.z.z.x.i.x.x.x.e.F./ O < S.t.s.R ( p 2 R e.x.z.z.z.v.z.v.z.i.i.n.+.X 6 > O o.n.g.M.c.c.x.x.z.c.c.v.v.v.v.c.z.z.f.f.z.z.z.z.z.z.z.z.z.z.z.z.f.g.g.g.f.f.z.z.f.z.z.z.z.z.z.z.z.z.z.z.d.d.d.v.v.v.n.@.O O 2 O E b.b.g.b.s.- O @.a.t.e.t.e.e.e.e.e.e.e.e.e.e.e.e.e.e.e.e.e.e.e.e.e.e.e.e.e.e.e.e.e.e.e.e.e.e.e.i.i.i.i.i.i.i.i.i.i.i.i.i.i.i.i.i.i.i.i.i.i.i.x.i.i.x.i.x.x.x.i.i.i.i.i.i.i.i.i.i.i.i.i.i.i.i.i.i.i.e.e.e.e.e.e.e.i.i.i.i.i.i.i.e.e.e.e.e.e.e.e.e.e.e.e.e.e.e.e.i.i.i.i.i.i.i.i.e.e.i.i.i.i.i.i.e.e.e.e.e.e.e.e.e.e.e.e.e.e.e.e.w.w.e.e.e.e.w.w.w.w.w.e.e.e.e.e.i.i.i.i.i.i.i.i.e.e.e.e.e.e.e.e.e.e.e.e.e.e.e.e.q.q.q.q.q.q.q.q.5.5.p.p.q.q.8.| 0XuXiXiXiXiXuXuXuXoXuXoXoXyXXXoXOXOXoXiXiXiXiX$.} 2.2.2.q.p.q.q.4.4.q.p.p.p.p.p.w.w.w.q.w.w.w.w.w.w.w.w.w.w.w.w.w.w.w.w.w.w.q.q.q.q.p.p.p.p.p.6.3.3.3.2.5.} 2.x.sXiXiXiXaXaXiXiXuXuXiXuXG.OXOXvXnXjX| } q.5.q.q.0.w.u.p.6.6.5.7.6.6.| G.lXfXgXgXlXgXlXfXaXaXaXOXIXPXLXJXLXJXHXHXLXLXSXH.A.SXLXLXHXGXGXGXGXGXGXGXGXGXHXHXGXDXGXGXGXGXGXGXGXGXGXGXGXHXHXHXGXGXGXGXGXGXGXGXGXGXDXDXGXGXGXGXGXGXGXGXGXGXGXGXGXGXGXGXGXGXDXDXDXDXDXGXGXGXGXGXGXHXGXGXFXGXDXGXGXDXGXDXGXGXGXFXGXGXGXHXDXDXDXDXGXGXGXGXDXDXGXHXHXHXGXGXGXGXGXGXGXGXGXGXGXGXGXGXGXGXGXGXGXGXGXGXGXGXGXGXGXGXGXGXGXGXGXGXDXDXGXGXGXDXDXDXGXHXnXA.OX@XgXdXdXhXOXOXOXOXiXiXiXiXr.e.w.w.u.w.w.e.e.e.e.e.i.i.i.i.i.i.i.i.i.i.x.x.i.i.i.i.i.i.i.i.i.i.i.i.e.e.i.i.i.i.",
"u.u.u.u.u.u.z.z.z.x.b.n.r.u p y.a.i.x.t.( O p t.i.i.u.u.i.u.u.w.i.i.a.s.X > 6 > p s.s.t.b.x.x.v.z.i.i.w.x.b.s.S.d # ^ b.f.6.i.u.u.u.w.i.n.e.9.a.i.i.x.x.x.u.i.i.i.n.9.S./ O X @.b.+.9 ( 0 , E b.x.z.z.v.v.v.z.z.x.8.y./ ; 6 w @ ^ j.g.c.x.x.f.z.f.f.z.c.c.z.z.z.z.z.z.z.z.z.z.z.z.z.z.z.z.z.z.z.x.f.z.f.f.f.z.z.f.z.z.z.6.z.z.z.z.z.z.d.d.d.d.z.c.w.r.@.; 3 d E | e.g.g.n.y.- O @.a.b.e.t.t.t.e.e.e.e.e.e.e.e.e.e.e.e.e.e.e.e.e.e.e.e.e.e.e.e.e.e.e.w.w.e.e.e.e.u.u.i.i.i.i.i.i.i.i.i.i.i.i.i.i.i.x.i.i.i.i.x.x.i.i.x.x.x.i.i.i.i.i.i.i.i.i.i.i.i.i.i.i.x.i.i.i.e.e.e.e.e.e.e.e.e.e.i.i.i.i.e.e.e.e.e.e.e.e.e.e.e.e.e.e.e.e.e.e.i.i.e.i.i.i.i.e.e.i.i.i.i.i.i.i.e.e.e.e.e.e.e.e.e.e.e.e.e.e.e.e.e.e.e.e.e.e.e.e.w.e.e.e.e.e.e.e.i.i.i.i.i.i.i.i.e.e.e.e.e.e.e.e.e.e.e.e.e.e.e.e.q.q.q.q.p.q.q.q.5.5.q.q.2.8.8.| G.G.oXG.oXoXoXoXoXXXoXXXyXyXXXoXoXoXoXOXOXOXG.$.r.0.r.a.q.} 0.b.n.w.5.q.p.p.q.w.w.w.w.w.w.w.w.w.w.w.w.w.w.w.w.w.w.w.w.w.w.q.6.q.6.6.6.p.p.p.6.6.w.w.q.q.w.0.0.g.uXuXoXoXoXuXoXoXyXXXuXXXXXOXD.zXvXdXO.$.b.b.n.g.n.t.0.0.x.b.g.x.v.6.| C.lXlXlXlXlXlXlXlXaXfXaXOXnXJXHXJXHXDXGXHXFXHXSX;X@XSXHXFXGXGXGXGXGXGXGXGXGXGXGXGXGXGXGXHXHXGXGXGXHXGXGXGXGXGXGXGXGXGXGXGXGXGXHXHXHXGXGXDXGXGXGXGXGXGXGXGXGXGXGXGXGXGXGXGXGXGXDXDXDXDXDXGXGXGXGXGXGXGXDXDXDXGXGXHXHXGXGXDXFXGXGXHXHXHXFXFXGXDXDXDXGXGXGXGXDXDXGXHXGXGXGXGXGXGXGXGXGXGXGXGXGXGXGXGXGXGXGXGXGXGXGXGXGXGXGXGXGXGXGXGXGXGXGXGXDXDXGXHXGXGXDXDXFXFXBXvXvXgXgXgXdXhXiXiXiXoXiXiXiXiXr.e.i.w.u.u.w.e.i.e.e.e.i.i.i.i.i.i.i.i.i.i.i.i.i.i.i.i.i.i.i.i.i.i.i.i.e.e.i.i.i.i.",
"u.u.u.u.u.u.z.w.i.b.n.n.n.n.F.F.a.i.b.a.( O p y.a.i.e.i.i.i.e.e.i.e.b.@.X > 6 > ; < - ! b.x.p.x.w.i.v.u.u.| - < 4 O E t.w.z.z.u.z.u.e.b.y.u - ~ t.i.x.x.x.i.i.t.a.y.- 2 p X 1 s.b.#.u ( 0 - E b.x.z.z.v.8Xv.z.z.q.8 : 0 + w @ @ ^ F.j.x.x.z.z.v.c.c.c.v.v.c.c.c.c.z.z.z.z.z.z.z.z.z.z.z.z.z.z.z.z.f.z.f.z.f.f.f.z.z.z.z.d.z.z.d.d.d.z.v.d.d.d.z.w.u 2 p o 6 @.F.b.b.g.g.a.s.- O @.a.b.t.a.t.t.t.t.e.e.e.e.e.e.e.e.e.e.e.e.e.e.e.e.e.e.e.e.e.e.e.e.e.e.w.e.e.e.e.e.u.i.i.i.i.i.i.i.i.i.i.i.i.i.i.i.i.i.i.i.x.x.x.x.x.x.x.x.x.i.i.i.i.i.i.i.i.i.i.i.i.i.i.x.x.i.i.i.x.i.i.e.e.e.e.e.e.i.i.i.i.i.e.i.e.i.e.i.e.i.i.i.i.i.i.e.e.e.e.e.i.i.i.i.i.e.e.e.e.i.e.i.i.i.i.e.e.e.e.e.e.e.e.e.i.e.e.e.e.e.e.e.e.e.e.e.e.e.e.e.e.e.e.e.e.e.e.i.i.i.i.e.e.i.i.e.e.w.w.i.i.e.e.e.e.e.e.e.e.e.e.q.q.q.q.q.q.q.q.q.2.3.3.2.n.0XuXG.oXoXoXoXoXoXoXoXXXXX}.wXwX{.}.uXuXOXoXoXiXiXOXiXiXsXsXF.#.g.iXsXn.q.q.u.p.q.q.w.w.q.q.q.q.q.q.p.p.p.p.p.p.p.w.5.w.w.q.6.5.6.q.6.6.6.6.p.6.6.5.uXsXiXuXiXiXtXuXuXuXuXuXuXyXyXyXyX}.yX}.uXlXD.gXOXfXD.sXxXjXxXjXxXG.#.e.0XuX9XuX9Xx.| n.lXgXgXfXfXaXlXfXaXlX@X$XBXHXHXGXHXDXGXDXHXFXHXFXKXHXFXHXGXGXGXGXHXHXHXHXGXGXGXDXGXGXHXJXGXGXGXHXHXGXGXGXGXGXGXGXGXGXGXGXGXGXGXGXGXGXGXGXGXGXGXGXGXGXGXGXGXGXGXGXGXGXGXGXGXGXDXDXDXDXGXGXGXGXGXGXDXGXDXDXDXDXFXGXHXGXGXDXGXHXFXHXHXHXHXGXGXGXDXGXGXGXGXGXDXDXGXGXGXGXGXGXGXGXGXGXGXGXGXGXGXGXGXGXGXGXGXGXGXGXGXGXGXGXGXGXGXGXGXGXGXGXGXGXDXDXGXGXGXGXDXDXGXGXHXPXPXvX@XdXgXzXdXjXjXOXiXiXiXiXr.e.i.u.u.w.w.e.i.i.e.e.i.i.i.i.i.i.i.i.i.i.i.i.i.i.i.i.i.i.i.i.i.i.i.i.e.e.e.e.i.e.",
"u.u.u.i.u.u.x.e.F.y.F.b.n.n.n.b.x.i.e.a.p O d S.S.n.t.t.b.b.t.a.b.b.e.$.X > 6 > 4 4 - +.b.x.x.i.i.u.v.u.i.+.O O O O p t.x.5.x.i.u.x.r.y.S.u O ! b.e.x.w.c.b.a.S.F.y.1 O X O X r.t.+.7 ( 0 - E t.z.z.8Xv.z.v.z.x.t.1 3 > > > > @ ^ F.n.g.c.z.v.f.x.x.v.c.c.c.z.z.z.c.z.z.c.z.z.f.f.c.f.d.z.z.f.v.z.v.z.z.z.z.f.x.z.z.z.z.z.z.z.d.z.z.z.z.v.d.d.v.e.u 4 0 > > S.F.F.a.j.j.F.s.< O @.F.F.y.F.a.a.n.a.j.t.b.r.e.e.i.e.e.e.e.e.e.e.e.e.e.e.e.e.e.e.e.e.e.e.e.e.e.e.e.e.e.i.i.i.i.i.i.i.i.x.x.x.g.g.e.e.e.e.i.i.i.i.x.i.i.i.i.e.e.e.i.e.e.x.x.x.x.e.e.i.i.x.x.i.i.i.i.i.i.i.i.i.u.i.i.x.x.i.i.i.i.e.e.i.i.i.i.i.i.i.i.i.i.i.i.i.i.e.e.e.e.e.e.i.i.i.i.i.i.e.e.e.e.i.i.e.e.e.e.e.e.e.e.i.i.i.e.e.e.e.i.u.w.0.e.e.w.i.q.i.w.i.e.q.i.q.i.e.e.e.e.e.e.e.e.e.e.e.w.u.u.e.e.e.q.i.p.q.p.q.9.p.p.9.2.| | | | | | | | X.#.G.uXoXoXoXoXoXoXXXXXXX}.XX}.yXyXwX}.yXXXoXoXoXoXoXoXuXuXiXiXn.] $.9XiXe.| #.9.p.p.7.q.q.p.q.q.p.p.u.p.6.6.p.p.p.6.6.u.u.p.p.p.q.q.p.5.p.6.6.p.6.7.4.uXuXoXoXuXuXuXXXpXyXyXyXyXpX}.wXyXN.}.k.}.sXoXfXaXOXOXl.lXlXgXgXjXn.] #.G.uX9X9XuXq.X.j.xXjXgX@XgXaXaXkXaXOX@XA.BXJXHXFXGXGXDXDXGXGXGXGXGXGXGXGXGXGXGXGXGXGXGXGXGXGXGXGXGXGXHXHXGXGXGXGXGXGXGXGXGXGXGXGXGXGXGXGXGXGXGXGXGXGXGXGXGXGXGXGXGXGXGXGXGXGXGXGXGXGXGXGXGXGXGXGXGXGXGXGXGXGXGXGXGXGXGXDXDXDXGXGXGXGXGXGXGXGXGXGXGXGXGXGXGXGXGXGXGXGXGXGXGXGXGXGXGXGXGXGXGXGXGXGXGXGXGXGXGXGXGXGXGXGXGXGXGXGXGXGXGXGXGXGXGXGXGXGXGXGXGXGXDXDXDXDXDXDXDXDXDXDXGXHXJXvX@XfXfXgXdXdXOXOXOXOXiXiXe.w.w.i.x.w.w.w.w.w.e.i.e.e.i.i.e.e.e.e.e.e.e.g.g.g.e.e.e.e.e.e.e.e.e.e.e.e.e.e.e.i.",
"x.u.w.u.u.u.w.} p d y.g.b.b.x.w.x.i.b.F.^ O 0 ( ^ o.+.+.+.] / o.E r.j.s.- 3 6 > 6 6 - +.b.x.x.i.u.u.z.u.b.+.; + @.@.+.b.g.w.x.q.4.q.+.^ / @.o.+.t.e.e.g.e.! / ^ @.^ 5 ; / s.+.b.n.t.E @.d - E y.x.u.z.v.v.v.z.b.y.5 6 > > @ 6 ; E y.e.g.c.c.c.x.x.x.v.c.c.c.z.c.z.c.z.x.z.z.c.f.f.f.f.f.x.x.f.z.z.v.z.z.z.z.z.f.z.z.z.z.z.z.z.z.v.d.z.z.d.d.d.z.t.1 ; 6 > > ( / / @.o.^ @.^ 7 < ( @./ / @./ / / o.^ +.b.e.g.e.e.i.e.e.e.e.e.e.e.e.e.e.e.e.e.e.e.e.e.e.e.e.e.e.e.e.e.i.i.i.i.i.i.i.i.i.i.g.g.e.e.e.e.e.i.i.i.i.i.i.i.i.i.e.e.e.i.e.e.e.x.x.x.e.e.i.i.x.x.i.i.i.i.z.z.i.u.u.u.u.z.i.i.i.u.u.u.u.u.i.i.i.i.i.i.i.i.i.i.i.i.i.e.e.e.e.w.e.e.i.i.i.i.i.i.e.e.e.e.i.i.e.e.e.e.e.e.e.e.i.i.i.e.e.e.i.i.i.i.w.e.e.q.i.e.q.q.e.w.w.i.w.e.e.e.e.e.e.e.e.e.e.e.w.w.p.u.w.w.q.q.p.p.q.p.e.q.p.q.q.n.n.n.n.n.n.n.C.n.h.M.XXoXXXoXXXXXXXXXyXyX}.}.}.}.yXtXwX}.yXyXyXyXoXoXoXoXiXoXiXiXoXl.l.iXsXG.F.n.t.9.p.p.i.q.q.e.q.p.p.q.u.p.p.p.p.p.6.6.6.6.6.q.q.5.5.5.q.6.6.6.p.p.p.5.uXoXuXuXuXuXoXXXyXyXyXyXeXyX}.eXwX{.sXyXyXaXXXuXoXXXlXOXaXOX@XaXdXuXD.G.G.G.9XuX9Xn.g.G.jXdXdXgXgXfXlXaXaXzXIXBXSXHXHXDXGXGXGXGXGXGXGXGXGXGXGXGXGXGXGXGXGXGXGXGXGXGXGXGXGXGXGXGXGXGXGXGXGXGXGXGXGXGXGXGXGXGXGXGXGXGXGXGXGXGXGXGXGXGXGXGXGXGXGXGXGXGXGXGXGXGXGXGXGXGXGXGXGXGXGXGXGXGXGXGXGXGXGXGXGXGXGXGXGXGXGXGXGXGXGXGXGXGXGXGXGXGXGXGXGXGXGXGXGXGXGXGXGXGXGXGXGXGXGXGXGXGXGXGXGXGXGXGXGXGXGXGXGXGXGXGXGXGXGXGXGXGXGXGXGXGXGXGXGXDXDXDXDXDXDXDXDXDXDXHXJXvXOXfXfXfXgXgX@X@XdXOXiXuX0.w.u.i.i.w.w.w.w.w.e.i.e.e.i.i.e.e.e.e.e.e.e.e.g.g.e.e.e.e.e.e.e.e.e.e.e.e.e.e.e.e.",
"x.u.w.u.i.i.w.! O , @.g.b.e.x.x.x.i.t.y.p O O X O O O X O O O O X +.F.s.X > 6 6 4 4 - +.b.x.x.x.z.6.z.u.b.+.O O y.j.b.g.g.x.b.t.r.s.E O X s.F.j.b.b.t.n.+.X O O O X O O / F.n.b.n.e.| s.d - E y.b.w.u.u.z.x.x.n.y.9 > > > @ 6 X u | } 0.c.z.c.c.c.c.c.c.z.c.c.c.z.c.z.z.z.z.c.g.g.r.g.f.f.x.z.c.z.z.z.z.z.x.x.g.z.z.z.z.z.z.z.v.v.d.z.z.z.z.v.n.S.p 4 6 6 o ; O O O X O X ; O > O ; O : ; : : X X O u y.t.b.a.e.i.e.e.e.e.e.e.e.e.e.e.e.e.e.e.e.e.e.e.e.e.e.i.i.e.e.i.i.i.i.i.i.i.i.e.e.e.e.e.e.e.e.e.e.e.x.x.x.x.x.x.x.i.i.x.x.g.g.x.x.x.x.e.e.e.e.e.g.e.e.e.i.z.z.u.u.u.w.w.w.i.i.u.u.u.u.u.u.u.u.i.i.i.i.u.u.i.i.i.i.i.e.e.e.e.e.e.e.i.i.i.i.i.i.i.i.i.i.i.i.e.e.e.e.e.i.i.i.p.p.i.i.u.w.u.u.6.p.q.q.q.q.p.p.p.q.e.e.e.i.w.w.e.e.e.e.e.e.e.e.e.e.w.q.p.p.q.w.w.q.q.q.q.2.8.8.8.} #.G.uXuXuXuXuXuXiXuXXXXXuXoXXXXXXXXXyXyXwX}.}.}.}.}.yXwXtX}.tXyXyXXXXXoXoXoXoXoXuXuXpXuXiXiXiXiXiX0Xe.} 8.q.q.} 2.8.8.9.5.2.3.4.5.5.5.4.4.4.6.5.5.q.q.4.q.q.p.7.7.7.2.7.7.| tXyXuXuXuXyXyXyXyXyXyXwXwXwX|.wX{.M.sXsXuXsXXXoXl.l.zXgXpXoXaXaXaXaXsXiXG.C.G.9XG.G.G.G.jXdXfXdXfXaXlXaXOXvXPXLXGXHXGXGXGXDXGXGXGXGXGXGXGXGXGXGXGXGXGXGXGXGXGXGXGXGXGXGXGXGXGXGXGXGXGXGXGXGXGXGXGXGXGXGXGXGXGXGXGXGXGXGXGXGXGXGXGXGXGXGXGXGXGXGXGXGXGXGXGXGXGXGXGXGXGXGXGXGXGXGXGXGXGXGXGXGXGXGXGXGXGXGXGXGXGXGXGXGXGXGXGXGXGXGXGXGXGXGXGXGXGXGXGXGXGXGXGXGXGXGXGXGXGXGXGXGXGXGXGXGXGXGXGXGXGXGXGXGXGXGXGXGXGXGXGXGXGXGXGXGXGXGXGXGXGXDXGXGXGXDXDXDXDXGXJXvX@XfXdXgXgXhXgXhXgXOXiXuXr.w.i.p.u.u.w.w.w.w.e.i.i.i.i.i.g.g.e.e.e.e.i.e.e.e.e.e.e.e.e.e.e.e.e.e.e.e.e.e.e.e.",
"i.u.u.u.i.b.i.! O , y.j.b.x.x.x.x.x.e.t.^ 9 p r p e i p r p 6 X 2 @.S.@.; 3 6 6 3 4 - +.b.x.x.z.6.6.z.e.n.+.X - @.b.g.g.x.r.9.y.+.s.^ X 1 @.S.y.y.t.s.S.s.< X 0 u i u 7 o.n.b.b.c.w.| y.p - ^ y.0.g.c.x.x.n.t.s.s.0 > > > + p 2 E }  .w.c.c.x.x.c.c.c.c.c.c.c.c.z.c.z.z.z.z.b.e.y.$.b.n.g.c.z.c.z.z.z.v.x.g.g.g.z.c.c.z.z.c.v.v.d.d.v.v.z.x.e.9.y.p 6 > 6 6 6 6 6 w 6 > 6 6 6 w 6 6 6 0 6 6 6 > 4 < p y.t.t.e.e.e.e.i.i.e.e.e.e.e.e.e.e.e.e.e.e.e.e.e.e.e.e.i.e.i.e.i.i.i.i.i.i.i.i.e.e.e.e.e.e.e.e.e.e.g.g.g.g.g.x.g.x.x.x.x.x.g.g.x.x.x.x.e.e.e.e.e.g.e.e.e.i.z.z.z.u.w.w.w.w.i.i.u.u.u.z.z.z.u.u.i.i.i.i.u.u.u.u.u.i.i.e.e.e.e.e.e.e.i.i.i.i.i.i.i.i.i.i.i.i.i.u.e.e.e.i.p.p.i.i.i.i.p.p.p.u.p.p.u.p.i.p.p.i.p.p.e.q.e.e.q.e.e.e.e.e.e.e.e.w.w.w.q.u.p.p.p.w.p.p.q.i.b.r.r.r.r. .} j.G.V.XXXXXXXXoXoXXXoXoXoXXXXXXXXXwXwXwXwX}.}.}.}.tXtXtXtXtXyXyXXXoXoXoXoXXXoXuXoXoXuXoXoXoXoXoXG.e.#.0.e.r.t.b.t.r.q.e.w.q.w.i.w.w.w.w.w.5.4.0.0.0.0.0.q.w.3.2.p.5.q.q.| tXyXyXyXyXyXyXyXyXyXpXeX}.eX}.yXN.k.yXyXuXaXG.oXXXl.aXaXoXoXOXOXaXOXuXuXV.V.V.M.h.D.D.D.dXfXfXaXaXaXlXlXOXvXPXJXHXDXGXGXGXGXGXGXGXGXGXGXGXGXGXGXGXGXGXGXGXGXGXGXGXGXGXGXGXGXGXGXGXGXGXGXGXGXGXGXGXGXGXGXGXGXGXGXGXGXGXGXGXGXGXGXGXGXGXGXGXGXGXGXGXGXGXGXGXGXGXGXGXGXGXGXGXGXGXGXGXGXGXGXGXGXGXGXGXGXGXGXGXGXGXGXGXGXGXGXGXGXGXGXGXGXGXGXGXGXGXGXGXGXGXGXGXGXGXGXGXGXGXGXGXGXGXGXGXGXGXGXGXGXGXGXGXGXGXGXGXGXGXGXGXGXGXGXGXGXGXGXGXGXGXGXGXGXGXGXDXDXGXGXJXvX@XfXaXgXgXfXhXhXgXOXiXiXe.e.x.p.5.u.u.w.w.e.e.i.i.i.i.i.g.g.e.e.e.e.i.e.e.e.e.e.e.e.e.e.e.e.e.e.e.e.e.e.e.e.",
"u.u.u.u.u.a.b./ X 3 y.j.g.x.u.z.z.z.x.b.t.y.y.y.y.y.F.S.S.H.@.o ; 0 p 0 > 6 6 > 3 4 - +.b.x.z.z.z.f.w.e.F.+.O - y.b.e.e.b.E 2 i 7 p 0 : ; 0 5 < 0 7 < 0 p ; ; S.j.b.n.t.b.n.c.c.n.w.| @.9 O 6 d 2 | g.w.e.n./ X 9 ; > 6 > 6 @.j.t.b.g.c.m.c.c.c.c.c.c.c.c.c.c.c.z.c.z.z.z.g.b.@.X 2 +.g.g.c.x.z.z.z.z.z.g.g.g.g.c.c.c.c.z.v.v.v.v.d.v.z.x.b.+.2 p 3 6 > w 6 6 > 6 w 0 0 0 6 6 6 6 6 0 6 6 w w > Z.S.y.S.t.t.e.e.i.i.i.i.i.i.e.e.e.e.e.e.e.e.e.e.e.e.i.i.i.e.e.e.e.e.i.i.i.i.i.i.i.i.e.e.e.e.e.e.e.e.e.e.e.e.e.e.e.e.g.g.g.g.z.f.x.x.x.x.x.x.x.u.x.x.i.i.i.i.i.x.z.z.z.w.w.e.i.i.i.i.u.u.u.u.u.u.u.u.u.u.i.i.i.i.i.i.u.u.i.e.e.e.i.i.i.i.i.i.i.e.i.e.e.e.e.i.i.i.u.u.w.w.w.u.i.i.w.w.w.w.p.u.p.p.i.p.q.q.q.q.p.p.q.p.q.q.p.q.q.q.q.q.q.w.r.w.w.w.w.q.w.p.p.p.q.w.p.q.4.b.9X9XG.G.uXG.G.oXOXoXoXoXoXoXoXoXXXoXoXXXXXXXXXXXwXwXwX}.}.XXXXtXtXtXtXtXtXtXyXXXXXXXXXoXoXoXyXyXXXXXoXoXiXiXiXiXoX9XuXuXG.jXxXsXG.G.uXuXuXuXuXuXuXuXoXuXuXuXuXiXuXuXuXiXn.r.c.uXuXuXuXtXuXyXyXwXyXpXpXyXyXyXyXeXwXwX}.yXpXpXsXuXsXlXOXjXgXaXlXlXlXfXgXgXlXoXC.V.B.wX}.M.oXxXxXzXfXgXaXaXlXaXkXlXOXvXPXFXFXFXGXGXGXGXHXGXGXGXGXGXGXGXGXGXGXGXGXGXGXGXGXGXGXGXGXGXGXGXGXGXGXGXGXGXGXGXGXGXGXGXGXGXGXGXGXGXGXGXGXGXGXGXGXGXGXGXGXGXGXGXGXGXGXGXGXGXGXGXGXGXGXGXGXGXGXGXGXGXGXGXGXGXGXGXGXGXGXGXGXGXGXGXGXGXGXGXGXGXGXGXGXGXGXGXGXGXGXGXGXGXGXGXGXGXGXGXGXGXGXGXGXGXGXGXGXGXGXGXGXGXGXGXGXGXGXGXGXGXGXGXGXGXGXGXGXGXGXGXGXGXHXGXGXGXGXGXGXGXDXDXGXHXJXvX@XfXdXgXgXgXhXhXhXOXOXiX0.0.w.u.u.w.u.u.i.u.i.i.i.i.i.i.i.i.i.i.e.e.i.e.e.e.e.e.e.e.e.e.e.e.e.e.e.e.e.e.e.e.",
"u.u.i.u.q.i.a./ X > y.j.g.x.z.z.z.z.z.x.g.b.b.b.r.b.n.y.n.F.o.X ; X X > > > > > 3 4 X +.b.x.z.z.z.w.x.t.S.@.- X t.b.t.b.F.^ O : X O X X X X ; > - - - O - X X y.n.g.b.b.c.c.g.c.c.q.| +.7 - > - X +.n.g.b.F./ O 4 6 6 w > 3 s.n.n.n.c.c.m.v.c.c.c.c.c.c.c.c.c.c.z.v.z.x.z.g.y.@.O X @.F.g.c.x.z.z.v.v.f.g.j.j.g.h.c.c.v.z.v.v.z.c.f.d.f.n.F./ O > > 6 6 6 ; > O O X : : : : ; ; X - ; X ; > + o S.H.S.S.y.n.b.g.e.i.i.i.i.i.e.e.e.e.e.e.e.e.e.e.e.e.i.i.e.e.e.e.e.e.i.i.i.i.i.i.i.i.e.e.e.e.e.e.e.e.e.e.e.e.e.e.e.e.g.g.g.g.u.u.x.x.x.x.x.x.x.x.x.x.i.i.i.i.i.x.u.u.u.u.u.e.i.i.u.u.u.u.u.u.w.w.u.u.u.u.i.i.i.i.u.i.u.u.i.i.i.i.i.i.i.i.i.i.e.e.e.e.e.e.i.e.e.i.u.u.w.w.u.u.p.w.e.e.e.w.p.u.p.p.p.5.5.4.} 2.8.9.9.q.9.q.p.q.q.q.q.q.q.q.q.q.q.q.q.q.w.p.p.p.6.6.6.5.2.n.iXuXiXOXOXiXoXoXoXoXoXXXoXoXoXoXXXXXXXXXXXXXXXXXwX}.wXwX}.}.XXyXyXyXtXXXyXyXyXyXXXXXXXXXoXXXXXXXXXXXXXoXoXXXOXOXoXiXuXuXD.dXxXiXl.l.XXXXXXuXXXXXoXG.D.oXoXXXXXoXoXXXoXuXh...h.uXuXuXiXuXuXyX}.}.tXyXyX}.wX{.wX{.{.}.}.yXpXpXpXXXpXaXoXfXfXfXlXlXlXfXfXfXlXoXN.B.B.B.V.V.l.zXvXzX@XdXaXlXlXaXaXkXOXvXJXFXDXDXHXGXFXHXHXGXGXGXGXGXGXGXGXGXGXGXGXGXGXGXGXGXGXGXGXGXGXGXGXGXGXGXGXGXGXGXGXGXGXGXGXGXGXGXGXGXGXGXGXGXGXGXGXGXGXGXGXGXGXGXGXGXGXGXGXGXGXGXGXGXGXGXGXGXGXGXGXGXGXGXGXGXGXGXGXGXGXGXGXGXGXGXGXGXGXGXGXGXGXGXGXGXGXGXGXGXGXGXGXGXGXGXGXGXGXGXGXGXGXGXGXGXGXGXGXGXGXGXGXGXGXGXGXGXGXGXGXGXGXGXGXGXGXGXGXGXGXGXGXGXGXGXGXGXGXGXGXGXDXDXDXHXJXvX@XgXgXgXgXgXgXgXgXOXOXG.$.r.e.w.z.6.u.u.u.u.i.i.i.i.i.i.i.i.i.i.e.e.e.e.e.e.e.e.e.e.e.e.e.e.e.e.e.e.i.i.i.e.",
"z.u.u.z.q.i.a./ O o y.b.g.v.z.z.z.z.z.f.f.x.x.f.f.x.x.e.x.b.r.+.@.d 6 0 > > 6 6 3 4 X +.b.x.z.z.w.w.n.+.o.@./ E e.n.t.@.@.( > 0 @.+.+.@.@.p < ( / / +.+.+.+.] b.n.g.x.g.x.c.x.x.x.f.0.e.E R d ; O @.n.$./ ^ ( > 6 6 > > > , s.g.g.x.x.c.v.v.c.c.c.c.c.c.c.c.c.c.c.c.z.v.z.g.a.@.O O @.j.r.c.v.v.z.c.x.b.r.] ] j.b.c.c.c.z.z.z.z.x.w.g.r.+.+.( ; 6 6 > > > ; / @.@.@.+.@.+./ @.+.@.@.@.@.@.( 3 4 ( @.@.@.^ y.a.r.e.e.e.e.e.e.e.e.e.e.e.e.e.e.e.e.e.e.e.i.e.e.e.e.e.e.e.e.i.i.i.i.i.i.e.e.e.e.e.e.e.e.e.e.e.e.e.e.e.e.e.e.g.g.g.z.u.u.x.x.x.x.x.x.u.u.z.u.z.z.z.z.i.i.z.u.u.u.u.u.u.u.u.u.i.e.e.e.e.e.i.e.i.i.i.i.u.u.u.u.i.i.i.i.i.i.i.i.i.i.e.e.e.e.i.i.i.i.i.i.u.u.u.u.p.p.p.p.e.e.e.p.p.p.p.6.6.5.M.n.b.n.n.n.n.n.0.8.q.q.q.q.p.q.p.q.q.q.q.q.q.q.q.p.p.p.q.5.q.q.} b.uXoXoXG.XXoXoXoXoXoXyXyXXXXXXXXXXX}.}.}.XX}.wXyXwXwX}.}.tXtXyXyXyXyXyXXXoXXXoXoXuXuXuXXXoXXX}.XXyXXXXXXXXXoXoXoXoXoXXXXXl.aXjXiXl.C.oXyXXXoXoXoXOXOXoXOXoXXXXXoXXXXXXXuXM.h.C.yXoXoXoXoXuX}.}.pXuX}.V.}.yXtXyX}.XXyXXXyXpXpXpXoXoXaXOXlXgXlXlXlXlXlXgXgXgXoXC.B.B.B.V.V.D.zXzXzX@XgXaXaXaXlXaXlX@XvXJXHXGXDXGXJXJXHXGXHXGXGXGXGXGXGXGXGXGXGXGXGXGXGXGXGXGXGXGXGXGXGXGXGXGXGXGXGXGXGXGXGXGXGXGXGXGXGXGXGXGXGXGXGXGXGXGXGXGXGXGXGXGXGXGXGXGXGXGXGXGXGXGXGXGXGXGXGXGXGXGXGXGXGXGXGXGXGXGXGXGXGXGXGXGXGXGXGXGXGXGXGXGXGXGXGXGXGXGXGXGXGXGXGXGXGXGXGXGXGXGXGXGXGXGXGXGXGXGXGXGXGXGXGXGXGXGXGXGXGXGXGXGXGXGXGXGXGXGXGXGXGXGXGXGXGXDXDXDXDXGXGXDXDXDXHXJXvX@XgXgXgXdXfXgXfXhX@XOXiXH.0Xn.w.u.u.u.u.u.u.e.i.i.i.i.i.i.i.e.e.e.e.e.e.e.e.e.e.e.e.e.e.w.w.e.e.e.e.u.u.u.u.",
"z.5.6.z.u.x.a./ o o y.g.f.z.z.x.z.z.z.z.z.x.z.z.z.z.z.z.x.f.x.n.H.^ < < 4 > 6 3 3 4 X @.n.g.z.z.x.q.a.u O E y.b.b.9Xs.- O X - i F.F.b.n.F.p - @.F.F.t.F.n.n.b.g.x.c.M.c.c.n.c.x.x.c.x.n.+.@.^ X O @.F.+.2 O > > > > > 6 > , y.c.c.c.c.v.v.c.c.c.c.c.c.c.c.c.c.c.c.c.z.c.f.x.S.@.X O @.n.f.v.c.z.v.z.g.n.+.O X s.b.x.v.c.z.z.g.g.e.b.n.+.- O > > > > > 0 9 < y.F.F.n.b.n.n.n.F.b.n.n.n.F.0X@.- < X O O X X o.t.e.e.e.e.e.e.e.e.e.e.e.e.e.e.e.e.e.e.e.i.i.e.e.e.e.e.e.e.e.i.i.i.i.i.i.e.e.e.e.e.e.e.e.e.e.e.e.e.e.e.e.e.e.e.g.x.z.u.u.x.x.x.x.x.x.u.u.u.u.z.z.z.z.i.i.z.z.z.u.u.u.z.u.w.e.e.e.e.e.t.t.e.e.e.e.e.e.i.u.u.u.u.i.i.i.i.i.i.i.i.i.e.e.i.i.i.i.i.i.i.i.u.i.i.p.p.p.e.e.e.e.e.e.q.q.p.6.4.w.uXsXuXiXsXiXsXuXe.#.q.9.q.q.q.q.q.q.q.0.q.q.q.q.q.q.p.q.0.0.q.q.| n.uXoXOXOXoXuXXXuXyX|.yXyXyXyXyXyXwX}.}.yXwXwXwXwXyXwX}.}.tXtXyXyXyXyXoXoXoXXXoXoXuXuXuXuXXXoXyXyXXXXX}.|.XX}.XXXXoXoXuXuXG.iXjXiXG.XXyXyXyXyXoXiXgXaXaXlXoXXXXXyXuXoXyXuXyXyXuXpXyXyXpXoXpXXXuXjXsXoXN.uXsXaXaXpXpXaXiXiXaXpXpXoXOXlXfXlXgXlXlXlXfXlXlXgXgXoXM.M.B.V.V.C.D.zXvXzX@XfXaXlXaXlXaXaXOXvXKXGXGXDXDXGXHXHXFXGXGXGXGXGXGXGXGXGXGXGXGXGXGXGXGXGXGXGXGXGXGXGXGXGXGXGXGXGXGXGXGXGXGXGXGXGXGXGXGXGXGXGXGXGXGXGXGXGXGXGXGXGXGXGXGXGXGXGXGXGXGXGXGXGXGXGXGXGXGXGXGXGXGXGXGXGXGXGXGXGXGXGXGXGXGXGXGXGXGXGXGXGXGXGXGXGXGXGXGXGXGXGXGXGXGXGXGXGXGXGXGXGXGXGXGXGXGXGXGXGXGXGXGXGXGXGXGXGXGXGXGXGXGXGXGXGXGXGXGXGXGXGXGXGXGXDXDXDXDXDXGXGXDXDXDXHXJXvX@XgXgXgXdXgXgXgXhXgXgXzXjXvX0X0.w.x.u.u.u.u.e.i.i.i.i.i.i.i.e.e.e.e.e.e.e.e.e.e.e.e.e.e.w.w.e.w.e.w.u.u.u.u.",
"z.z.6.z.p.i.a./ O O y.j.f.z.z.z.x.z.z.z.z.z.z.z.x.z.z.z.f.f.g.x.b.u e p , < ; , , 4 , / F.e.n.w.w.i.a.p . E j.t.n.a.S.p O 9 - 8 n.M.c.g.b.p X @.F.y.n.n.g.c.c.x.n.n.c.v.v.v.c.c.x.z.c.x.} +./ - , ( S.@.p 4 6 > @ 6 > > O - #.x.c.c.v.v.v.v.c.c.c.c.c.c.c.c.c.v.c.v.v.v.v.c.n.@.X X @.j.f.v.v.v.c.x.b.F.+.X 2 y.b.b.x.v.c.x.n.e.a.y.a.y.9 4 > > > 6 ; : - 2 #.n.b.b.x.c.c.c.x.g.b.c.b.b.n.] 2 1 p r r r p +.y.e.e.e.e.e.e.e.w.w.e.e.e.e.e.e.e.e.e.i.i.i.i.e.e.e.e.e.e.e.i.i.i.i.i.i.z.u.w.w.g.e.e.e.e.e.e.e.e.e.e.e.e.e.e.e.e.e.e.e.i.i.w.w.e.e.e.e.e.e.i.i.i.u.z.u.z.z.w.z.w.w.w.f.e.b.t.s.y.y.y.s.y.s.y.r.t.t.i.w.u.x.w.u.x.i.i.e.i.i.e.e.e.e.i.i.p.u.p.p.i.p.p.v.6.b.2.r.#.$.#.#.0.0.} 8.i.7.6.3.6XiXXXoXoXoXiXC.r.} } 0.0.0.0.0.0.0.0.0.0.0.r.$.| #.0.#.$.r.} } 0.g.uXXXXXoXuXyXyXyXyXyXyXyXwXwXyXyXyXyXyXwXwXwXtXtXtXtXtXtXtXyXyXXXXXXXXXoXXXXXoXoXuXuXyXyXXXyXyXyXyXyXyXXX}.}.XXXXXXXXXXXXXXaXsXpXtX}.eXeXeXyX}.uXsXsXaXaXXXN.N.V.oX}.{.pX{.yXyXwXyXyXXXoXyXXXXXpXpX|.l.XXsXiXiXiXOXiXiXOXuXOXXXoXOXaXfXgXgXlXlXlXlXlXgXfXfXoXl.M.N.V.C.l.D.gXzXlX@XfXfXaXaXfXaXaXOXvXJXGXGXGXGXGXGXGXGXGXGXGXGXGXGXGXGXGXGXGXGXGXGXGXGXGXGXGXGXGXGXGXGXGXGXGXGXGXGXGXGXGXGXGXGXGXGXGXGXGXGXGXGXGXGXGXGXGXGXGXGXGXGXGXGXGXGXGXGXGXGXGXGXGXGXGXGXGXGXGXGXGXGXGXGXGXGXGXGXGXGXGXGXGXGXGXGXGXGXGXGXGXGXGXGXGXGXGXGXGXGXGXGXGXGXGXGXGXGXGXGXGXGXGXGXGXGXGXGXGXGXGXGXGXGXGXGXGXGXGXGXGXGXGXGXGXGXGXGXGXGXGXGXGXDXDXDXDXDXDXDXDXGXDXGXHXKXvX@XaXfXfXgXgXgXfXgXhXhXhXgXzX0X#.u.x.u.w.w.w.w.w.w.w.e.e.e.e.e.e.e.e.e.e.i.i.e.e.e.e.e.w.w.w.i.w.w.w.u.u.q.u.",
"z.z.u.z.p.x.a./ O O y.j.f.x.x.x.x.x.x.x.z.z.z.z.z.z.z.f.f.w.f.c.M.g.j.y.p ( d d 6 4 - i R u r.a.e.b.a.p . a j.y.u 2 9 , ; @.t.c.c.c.c.M.b.u O p p u $.n.x.M.c.c.n.n.c.v.v.v.v.c.c.x.n.c.} +.^ X o 9 p p < 3 6 > w > o ( @.@.b.c.c.v.v.v.v.c.c.c.c.c.c.c.c.c.c.v.z.z.z.z.f.g.S.@.O X @.n.v.m.7Xv.v.c.n.F.+.O - y.g.b.c.c.x.x.0.u i p p p ; > > > 6 d d / y.y.n.M.c.c.c.c.c.c.c.c.c.c.c.g.n.n.y.a.S.S.S.y.y.a.b.e.e.e.e.e.e.e.w.w.e.e.e.e.e.e.e.e.e.e.e.e.e.e.e.e.e.e.e.e.i.i.i.i.i.i.u.u.z.f.e.e.e.e.e.e.e.e.e.e.e.e.e.e.e.e.e.e.i.e.i.i.w.w.e.e.e.e.e.e.i.i.i.u.u.u.u.u.z.x.x.x.x.e.t.t./ 7 7 i 9 5 p i p 1 E y.t.r.w.x.u.x.i.i.i.e.i.i.e.e.e.e.u.i.u.i.i.p.i.q.i.q.p.i.} iXvXzXG.iX0X0X0Xi.3.p.6.4.tXsXoXoXoXoXaXuXG.G.9XuXuX9X9X0X0X9X9X9XoXoXD.sXxXxXy.] jXxXxXe.} g.uXXXoXyXyXyXyXyXyXtXwXyXeXeXwXwXyXwXwXwXwXwXtXwXtXtXtXtXtXXXXXXXXXXXoXXXXXXXoXoXoXuXyXyXXXXXyXyXyXyXyXyX}.}.XXXXXXXXXXXXV.XXyX}.}.eXeXeXeXeX{.{.XXXXG.G.uXsXsXoX}.XX}.yXwXyXyXeXeXyXyXXXpX|.yXkXkXpXpXaXaXpXaXaXaXfXfXfXaXaXaXaXaXlXlXgXgXlXlXlXlXlXlXfXzXaXaXaXsXaXaXaXOXgXhXgXdXgXfXaXaXaXaXlX@XvXJXJXHXGXGXGXGXGXGXGXGXGXGXGXGXGXGXGXGXGXGXGXGXGXGXGXGXGXGXGXGXGXGXGXGXGXGXGXGXGXGXGXGXGXGXGXGXGXGXGXGXGXGXGXGXGXGXGXGXGXGXGXGXGXGXGXGXGXGXGXGXGXGXGXGXGXGXGXGXGXGXGXGXGXGXGXGXGXGXGXGXGXGXGXGXGXGXGXGXGXGXGXGXGXGXGXGXGXGXGXGXGXGXGXGXGXGXGXGXGXGXGXGXGXGXGXGXGXGXGXGXGXGXGXGXGXGXGXGXGXGXGXGXGXGXGXGXGXGXGXGXGXGXGXDXDXDXDXDXDXGXGXGXDXHXHXKXvX@XaXfXfXfXfXfXgXgXhXfXhXdXzXG.#.p.u.u.w.w.w.w.w.e.w.e.e.e.e.e.e.e.e.e.e.i.i.i.e.e.w.i.i.u.u.u.u.w.w.p.u.q.i.",
"u.u.u.u.p.x.a./ X o y.b.f.x.x.x.x.z.x.z.z.z.z.x.z.u.z.f.f.f.f.c.c.M.G.y.E ( d p d 4 4 9 - - y.F.e.b.a.p X ^ S.F./ : , ; X @.n.n.n.b.x.b.y.u O X O 2 +.n.b.n.b.n.n.c.v.v.c.v.v.v.z.f.c.x.} +.^ X 6 3 , , , 4 6 > > X O ^ F.b.c.c.v.v.v.v.v.c.c.c.c.c.c.c.c.c.v.v.v.z.v.m.x.b.F.@.O X +.j.z.v.v.v.v.f.g.b.o.X 2 @.b.h.c.c.x.n.y.u 7 6 ; 6 > > + O - < 7 +.F.n.M.f.c.c.v.v.v.c.c.c.c.c.c.g.c.n.b.n.n.n.n.n.n.b.e.0.e.e.i.i.i.i.i.e.e.e.e.e.e.e.e.e.w.w.e.e.e.e.e.e.e.e.e.e.x.x.i.i.u.u.u.u.u.u.u.u.e.e.e.e.e.e.e.e.i.i.i.i.i.i.i.i.i.i.i.i.e.e.e.e.e.e.w.w.u.u.u.u.x.z.z.x.b.e.t.t.t.y.a.S.( X ; 4 > > > X X O p F.y.a.e.w.w.u.i.i.i.i.i.i.i.e.e.e.w.u.i.i.u.q.e.0.q.2.p.q.~ dXvXzXD.dXiXiXjXb.~ 2.3.| C.uXoXoXoXoXuXuXuXiXiXiXiXiXiXiXiXiXOXiXiXiXOXjXjXzXj.O.zXzXnXj.| j.uXXXuXpXyXyXtXwXwX}.wXwXwXwXwXwXwXwXwXwXwXwXtXtXtXtXtXtXtXXXXXXXXXXXXXXXXXXXXXXXXXoXyXXXXXXXXXXXXXXXXXXX}.}.XXXXXXXXXX}.}.}.}.}.{.eXeXeXeXwX{.wX}.V.G.l.XXaXaX|.l.|.{.{.wXwXeXeXeXyXyXyXpX|.yXkXkXpXkXkXaXaXlXaXfXgXgXgXgXlXlXfXfXlXjXgXgXgXlXlXlXfXfXfXfXfXfXgXlXfXgXjXgXdXdXdXgXfXfXjXfXaXaXaX+XvXJXHXGXGXHXGXGXGXGXGXGXGXGXGXGXGXGXGXGXGXGXGXGXGXGXGXGXGXGXGXGXGXGXGXGXGXGXGXGXGXGXGXGXGXGXGXGXGXGXGXHXHXHXHXGXGXGXHXGXGXGXGXGXGXGXGXGXGXGXGXGXGXGXGXGXGXGXGXGXGXGXGXGXGXGXGXGXGXGXGXGXGXGXGXGXGXGXGXGXGXGXGXGXGXGXGXGXGXGXGXGXGXGXGXGXGXGXGXGXGXGXGXGXGXGXGXGXGXGXGXGXGXGXGXGXGXGXGXGXGXGXGXGXGXGXGXGXGXGXGXGXGXGXGXGXDXGXGXDXGXGXGXGXGXGXHXJXvXOXaXfXfXfXfXfXfXgXgXfXhXhXzXuX0.u.p.u.u.u.u.u.u.w.w.w.e.w.w.e.w.w.e.e.e.i.i.i.i.w.w.u.u.u.p.p.p.p.p.i.p.5.q.",
"u.u.u.u.p.i.x.+.X o y.j.g.x.x.x.x.x.x.x.z.z.z.x.x.u.f.f.f.f.z.c.z.f.n.y.R ^ ( d 0 > 4 0 4 1 @.@.0.b.a.p X d @.@.0 - 4 4 X @.n.f.7Xb.x.b.e.+.E ( p p y.n.b.b.b.n.n.c.c.v.c.c.v.c.z.z.n.b.0.+./ - 0 6 4 4 4 6 6 > 4 ( E +.b.e.c.m.v.v.v.v.c.c.c.c.c.c.c.c.c.c.v.v.v.z.x.n.g.#.o.@.f E r.c.c.v.v.v.v.z.f.b.y.E ! b.M.f.f.c.e.b.r.2 1 4 > 6 > > d ( ^ / E 9.b.b.c.f.v.v.c.v.v.v.v.v.z.z.c.c.x.c.b.g.g.g.b.n.b.g.e.w.w.w.w.w.i.e.w.w.e.e.e.e.e.e.e.e.i.i.i.i.i.i.e.i.e.e.e.g.x.x.i.i.u.u.u.z.u.u.z.u.w.w.e.e.e.e.e.e.i.i.i.i.i.i.i.i.i.i.i.i.e.e.e.e.e.e.w.w.u.u.u.u.u.u.z.x.a.+.+.@.s.@.@.@.d > > > > w > > d ( ( @./ y.b.e.e.i.i.b.i.i.i.i.i.e.e.e.w.x.i.i.q.e.n.n.n.n.9Xe.} iXzXhXD.G.G.F.F.n.n.6Xn.x.tXpXoXoXoXoXuXuXuXuXuXoXoXoXoXoXoXoXoXoXoXoXl.fXdXjXj.] dXgXjXj.r.C.tXXXtX}.yXyXtXwXwXwX}.wXwXwXwXwX}.}.}.}.wXwXtXtXtXtXtXtXXXXXXXXXXXXXXXXXXXXXXXXXXXXXXXXXXXXXXXXXXXXX}.}.}.}.XXXXXXXX}.}.}.}.wXwX|.|.eXeXwXwXwXyX}.V.XXV.XXoXpXV.l.XX}.XX{.{.wXeXwX}.XXXXpX{.yXkXkXkXkXaXpXaXaXaXOXgXdXgXfXgXfXfXfXgXgXgXgXgXfXlXfXfXfXfXfXdXdXgXgXfXgXjXgXgXgXgXfXfXaXfXaXaXaXlX@XvXJXJXGXGXGXGXHXGXGXDXGXGXGXGXGXGXGXGXGXGXGXGXGXGXGXGXGXGXGXGXGXGXGXGXGXGXGXGXGXGXGXGXGXGXGXGXGXGXGXGXHXHXHXHXGXGXGXHXGXGXGXGXGXGXGXGXGXGXGXGXGXGXGXGXGXGXGXGXGXGXGXGXGXGXGXGXGXGXGXGXGXGXGXGXGXGXGXGXGXGXGXGXGXGXGXGXGXGXGXGXGXGXGXGXGXGXGXGXGXGXGXGXGXGXGXGXGXGXGXGXGXGXGXGXGXGXGXGXGXGXGXGXGXGXGXGXGXGXGXGXGXGXGXGXGXGXGXDXGXGXGXGXGXGXGXHXJXvXOXlXfXfXgXfXfXfXgXgXfXhXgXzXG.| 5.u.u.u.u.u.u.u.u.w.i.w.w.w.e.e.e.e.e.e.e.e.i.u.u.w.q.p.p.6.p.p.u.u.p.q.r.9X",
"z.u.u.u.u.i.a.+.X o y.j.g.x.x.i.i.i.i.i.z.z.i.i.i.i.z.z.z.z.z.c.c.g.n.0.- - < 4 6 > 6 > > ; 0 8 +.a.y.p O ; , O 0 > 6 ; X @.n.c.7Xb.v.m.c.x.n.n.+.#.n.n.b.n.c.n.n.c.v.v.v.v.v.v.v.z.v.x.} | E O ; 4 0 6 > > > > 5 F.F.g.b.g.c.m.v.c.v.v.c.c.M.c.c.c.c.c.v.v.v.v.v.v.z.x.e.u X p S.y.n.C.c.m.v.v.v.m.v.M.n.j.j.C.c.f.f.c.g.F.s.X 5 6 6 6 O O ( H.F.F.n.n.n.c.c.c.v.v.c.c.v.v.v.v.v.z.z.v.z.c.n.c.c.b.b.n.n.e.e.i.w.w.w.w.w.w.w.w.e.e.e.e.e.e.e.e.x.x.x.x.i.i.e.e.x.x.x.x.i.z.z.i.u.u.u.u.u.z.z.z.w.u.u.u.x.x.u.i.i.i.i.i.i.i.i.i.i.i.i.i.i.u.u.u.u.u.u.u.u.u.u.u.z.z.u.e.+.- - X O O X ; > > > > > 6 + > S.H.( X 2 +.a.e.i.b.e.e.i.i.i.i.i.e.e.e.w.e.e.e.r.n.sXsXiXjXiXr.} G.OXiX+.+.#.} } C.sXuXiXuXiXaXoXoXoXyXpXpXyXyXyXuXoXoXyXyXyXyXoXoXuXoXXXXXl.G.G.C.oXl.G.G.G.uXiXsXuXyXyXtXeXwX}.}.wXwXwX}.}.}.}.}.}.}.}.}.}.}.}.}.XXXXXX}.}.XXXXXXXXXXXXXXXXXXXXXXXXXXXXXXXXXXXX}.}.}.XXXXXXXXXXXXXX}.}.wXwXwXwX{.}.wXyX}.{.}.V.XXsXsXsXsXsXiXaXsXaXsX{.B.wXyXwX}.}.}.yXN.eXkXpXkXkXpXpXpXaXOXaXgXgXjXdXgXgXfXfXgXlXlXgXgXgXgXgXgXgXgXlXlXfXfXgXgXgXgXgXgXfXgXfXaXaXaXfXlX@XgXOXvXJXHXGXGXGXGXGXGXGXDXGXGXGXGXGXGXGXGXGXGXGXGXGXGXDXDXGXGXGXGXGXGXGXGXGXGXGXGXGXGXGXGXHXHXGXGXGXGXHXHXHXHXGXGXGXGXHXHXGXGXGXGXGXGXGXGXGXGXGXGXGXGXGXGXGXGXGXGXGXGXGXGXGXGXGXGXGXGXGXGXGXGXGXGXGXGXGXGXGXGXGXGXGXGXGXGXGXGXGXGXGXGXGXGXGXGXGXGXGXGXGXGXGXGXGXGXGXGXGXGXGXGXGXGXGXGXGXGXGXGXGXGXGXGXGXGXGXGXGXGXGXGXGXGXHXGXGXGXGXGXGXGXGXDXGXHXJXvX@XgXdXfXgXgXgXgXgXgXhXhXhXzXG.} w.i.u.u.u.u.u.u.u.w.u.w.w.w.w.w.i.e.i.i.i.i.u.u.u.p.p.6.6.6.6.6.u.6.q.8.n.xX",
"6.z.u.u.u.i.b.+.X o y.j.g.x.x.i.i.i.a.i.x.u.i.e.i.i.z.z.u.u.z.z.v.x.n.#.2 2 2 : 4 > 6 > > > ( i { b.a.R > 6 0 6 > ; - - - +.n.n.7Xv.v.m.v.z.c.g.E +.a.t.e.n.c.c.c.c.c.c.c.v.c.v.v.z.z.f.} } ! - 5 4 4 > > > > > < y.j.h.c.c.v.c.c.c.c.c.c.c.c.c.c.c.c.c.v.v.v.c.v.m.x.n.n.u O f F.j.n.c.c.v.v.d.m.m.m.c.c.b.c.c.c.f.c.c.y.F.y.- 6 > + > : O E t.b.n.x.x.c.x.v.c.v.v.c.c.v.v.v.v.v.z.z.v.z.f.z.f.x.x.g.x.x.e.0.w.e.w.w.w.w.w.w.w.e.e.e.e.i.i.i.i.b.b.b.x.i.e.w.w.x.x.x.x.z.z.u.i.u.u.u.u.z.z.z.z.u.w.u.u.z.x.z.u.u.i.i.i.i.i.i.i.i.i.i.i.i.u.u.u.u.u.u.u.u.u.u.u.u.x.x.n.s.- 5 4 6 6 6 > 6 6 > ; O X O X @.H.@.X 2 +.a.e.e.i.i.i.i.i.i.i.i.e.e.e.w.u.e.w.0.n.iXiXD.OXG.$.] G.iXiX+.0.r.+.$.oXaXXXuXXXoXpXoXoXyXyXyXyXXXyXyXyXoXoXXXXXyXXXXXXXXXXXoXXXuXuXtXyXuXoXl.G.G.G.tXuXtXtXtXeXeXwXwXwXeXwXwX}.wX}.}.XXXX}.}.}.}.}.}.}.XXXX}.XX}.XXXXXXXXXXXXXXXXXXXXXXXXXXXXXXXXXX}.}.}.}.}.}.}.}.}.}.}.}.yXwXwXwXwX{.{.}.V.N.M.N.l.C.uXiXaXaXaXaXaXsXiXsX}.{.wXtX{.}.XX}.}.N.XXpXpXpXkXpXpXpXoXoXaXgXaXlXgXgXgXfXfXfXgXlXgXgXgXgXgXgXgXgXgXfXfXfXgXgXgXgXfXgXdX@XaXfXfXaXaXdX+XdX@XvXKXHXGXGXGXGXGXGXGXDXGXGXGXGXGXGXGXGXGXGXGXGXGXGXDXGXGXGXGXGXGXGXGXGXGXGXGXGXGXGXGXGXHXHXGXGXGXGXHXHXGXHXGXGXGXGXHXHXGXGXGXGXGXGXGXGXGXGXGXGXGXGXGXGXGXGXGXGXGXGXGXGXGXGXGXGXGXGXGXGXGXGXGXGXGXGXGXGXGXGXGXGXGXGXGXGXGXGXGXGXGXGXGXGXGXGXGXGXGXGXGXGXGXGXGXGXGXGXGXGXGXGXGXGXGXGXGXGXGXGXGXGXGXGXGXGXGXGXGXGXGXGXGXGXHXGXGXGXGXGXGXGXHXDXDXFXSX;XH.OX@XdXgXgXgXgXgXgXhXhXfXhXD.] 0.} u.u.u.p.u.u.u.u.u.u.u.w.u.w.i.e.w.w.w.w.u.w.p.p.6.6.6.6.6.6.6.5.| ] $.jX",
"6.6.u.u.u.i.i./ X o s.j.g.x.x.i.x.g.a.i.g.f.e.e.e.w.z.z.u.u.u.z.6.z.n.g.0.b.y.S.@.4 6 0 6 6 d 0 +.b.y.i - > > 4 > ; p y.r.b.n.x.m.m.m.m.v.x.n.y.7 p ( p +.j.b.c.c.c.c.x.x.c.c.v.c.c.v.c.w.g.y.p ( 0 , > > > > o 1 y.b.f.c.v.c.x.c.c.c.c.c.c.c.c.c.c.c.c.v.v.v.c.v.v.x.b.F.p . f S.j.c.m.m.v.m.v.v.v.m.c.c.n.m.m.v.c.c.e.! ^ ( : d 6 > d S.s.b.n.c.c.c.v.v.v.c.c.c.c.c.c.v.c.v.v.z.c.x.c.c.z.c.f.x.c.x.x.c.c.x.x.x.g.x.g.g.g.g.g.x.x.x.x.x.x.x.x.x.b.x.x.i.e.w.w.x.z.z.z.z.z.z.z.u.z.u.u.u.u.u.z.u.u.z.z.z.z.u.u.u.u.u.u.i.i.i.i.u.u.u.u.u.u.u.u.u.u.u.u.u.z.z.z.w.w.e.b.@.O 4 6 > > 3 3 6 4 6 ( @.s.@.+.y.S.y.+.+.y.b.i.e.i.i.i.e.e.i.i.i.i.e.e.u.u.p.u.q.e.n.j.G.OXOXD.D.OXOXOXG.iXG.+.$.XXuXoXuXuXoXoXoXyXyXyXpXyXyXyXyXyXXXXXXXXXXX|.oXoXoXoX|.|.yXyXtXyXoXoXoXjXsXuXG.uXV.tXwXeXwXwXwXwXeXeXeXwXwXtXtXtXXXXX}.}.}.}.}.}.}.}.}.}.XXXXXXXXXXXXXXXXXXXXXXXXXXtXtXtXtXXX}.}.}.}.}.}.}.}.}.}.}.}.}.{.{.wX}.}.uXaXaXaXiXpXpXoXoXOXXXV.G.oXuXoXV.yXXX{.}.}.V.oXpXoXpXuXpXaXaXpXpXpXpXpXoXl.XXoXXXaXgXgXfXfXgXdXfXgXgXgXgXfXgXgXgXgXfXlXlXlXgXfXfXfXfXfX@X@XaXfXfXaXdXgXhXIXIXIXJXHXGXDXGXGXGXGXGXDXGXGXGXGXGXGXGXGXGXGXGXGXGXGXGXGXGXGXGXGXGXGXGXGXGXGXGXGXGXGXGXGXHXHXHXHXGXGXGXHXGXGXGXGXGXGXGXGXGXGXGXGXGXGXGXGXGXGXGXGXGXGXGXGXGXGXGXGXGXGXGXGXGXGXGXGXGXGXGXGXGXGXGXGXGXGXGXGXGXGXGXGXGXGXGXGXGXGXGXGXGXGXGXGXGXGXGXGXGXGXGXGXGXGXGXGXGXGXGXGXGXGXGXGXGXGXGXGXGXGXGXGXGXGXGXGXGXGXGXGXGXGXGXGXGXGXGXGXDXDXDXDXFXDXDXGXHXBXBXnX@XaXfXgXgXgXgXfX@XhXhXzXdXiXiXn.w.u.u.p.p.u.u.u.u.u.u.w.p.q.e.e.w.w.w.w.u.p.p.6.6.6.6.6.6.6.6.| iXjX@XzX",
"d.6.u.u.p.x.a./ O O y.j.g.x.a.t.b.a.a.t.e.e.e.w.w.w.u.u.u.w.u.z.d.c.v.c.c.6Xt.F.y.X X 4 6 6 d : / a.y.i ; 6 > > ; X s G.C.n.n.m.6Xm.v.c.c.c.n.y.X X O O u b.n.n.n.n.b.x.x.c.v.c.z.z.x.c.g.c.b.E / 0 : > > @ @ O X r.b.c.v.z.v.v.c.c.c.c.c.c.c.c.c.c.c.v.v.v.c.v.v.v.x.n.S.a O a j.n.m.m.v.v.v.m.m.M.n.n.n.n.m.v.c.h.n.a.p O : > > 4 X p F.n.n.c.v.c.c.v.m.m.v.v.v.v.c.c.v.c.v.x.x.m.x.x.v.z.x.x.x.c.g.g.x.x.g.x.c.c.c.c.x.x.b.b.b.x.b.x.b.x.b.x.x.x.x.x.i.u.w.w.z.z.x.x.z.z.z.z.z.z.u.u.u.z.z.z.z.z.z.z.z.z.u.u.u.u.u.u.u.u.u.u.u.u.i.i.u.u.u.u.z.z.u.u.z.z.z.z.x.x.t.a.s.O 6 6 6 6 6 3 > O 2 S.F.t.b.b.n.r.t.n.b.a.i.i.x.i.i.i.e.e.i.i.i.i.e.i.u.u.p.i.q.q.r.] G.aXiXiXgXOXOXOXG.sX0X} $.uXsXuXiXuXoXoXoXpXpXpXuXyXoXoXyXyXyXXXXXXXXXXXoXoXoXXX|.XX}.}.uXyXXXoXD.jXjXiXl.G.V.G.XXXXXX}.wXwXwXwXwXwXwXwXtXyXtXtXXXXX}.}.}.}.}.}.}.}.}.XXXXXXXXXXtXtXXXXX}.}.tXtXtXwXwXwXwX}.}.}.}.}.}.}.}.}.}.}.wXtXyXyX}.N.oXsXaXaXaXaXaXpXaXaXoXl.l.OXsXoXl.XX}.V.}.}.V.uXsXaXsXsXsXsXaXpXpXpXaXpXXXN.}.V.C.aXjXgXgXfXfXfXfXgXgXgXfXfXfXgXgXgXfXlXfXfXdXfXfXfXaXaXaXfXdXaXaXgXdXOX@XSXPXHXHXGXDXDXGXGXGXGXGXGXGXGXGXGXGXGXGXGXGXGXGXGXGXGXGXGXGXGXGXGXGXGXGXGXGXGXGXGXGXGXGXGXHXHXGXGXGXGXHXHXHXHXHXHXHXHXHXGXGXGXGXGXGXGXGXGXGXGXGXGXGXGXGXGXGXGXGXGXGXGXGXGXGXGXGXGXGXGXGXGXGXGXGXGXGXGXGXGXGXGXGXGXGXGXGXGXGXGXGXGXGXGXGXGXGXGXGXGXGXGXGXGXGXGXGXGXGXGXGXGXGXGXGXGXGXGXGXGXGXGXGXGXGXGXGXGXGXGXGXGXGXGXGXGXGXGXGXGXDXDXDXDXDXDXDXFXHXJXLXPX@XaXdXgXgXgXgXgXfXhXhXhXhXzXjXe.w.6.u.p.p.p.p.p.p.u.u.u.p.p.p.p.q.q.w.w.p.p.p.6.5.5.4.3.7.4.3.~ sXzXlXhX",
"d.d.z.z.u.z.i./ O O y.j.t.t.F.@.y.Z.@.@.y.b.e.z.f.x.i.i.z.z.u.u.5.c.v.v.v.v.v.M.e.| +.p ; 0 > ; / y.s.0 o 6 > ; 0 p E g.g.M.M.n.c.m.c.c.m.v.c.e.u E R E +.t.F.y.y.r.n.M.c.n.x.c.c.z.x.M.g.e.a.E ^ 9 X 6 6 O p E E r.b.c.c.z.z.z.v.z.c.c.c.x.x.c.x.c.v.v.v.c.v.v.v.z.b.+.S.d X p n.M.n.c.v.v.d.v.c.C.$.o.b.n.c.c.h.j.+.s.R ; > > 3 p p E y.n.h.c.c.c.c.c.c.v.v.v.v.v.v.v.c.v.v.v.x.x.x.x.x.x.x.x.x.x.x.g.g.x.x.x.x.x.x.x.x.x.x.x.b.c.c.c.x.x.x.x.x.x.x.x.x.u.u.u.z.z.x.x.x.u.u.z.u.u.x.z.u.z.6.z.z.x.z.z.z.w.u.x.x.x.u.x.w.x.u.z.u.u.p.p.i.i.i.u.z.z.i.i.z.u.u.i.w.b.s.s.( ; > 6 > > 6 X d ( ^ s.a.a.i.i.e.e.e.e.i.i.i.i.i.e.i.i.e.e.e.e.w.w.w.w.i.u.u.u.u.u.w.w.G.G.G.G.G.G.G.G.9XiXG.r.r.G.uX9X9XM.iXaXoXoXoXuXuXoXyXoXyXpXyXyXXXoXoXoXoXoXoXXX|.}.|.eXwXyXyXoXoXaXaXOXD.OXoXOXoXoXoXoXXXXXV.yXwXwXyXwXwXyX}.tXtXtXXXXX}.XX}.XX}.}.XXXXXXXXXX}.wX{.eXwXeXwX{.}.}.}.}.}.{.}.tXXX}.}.}.}.}.wX}.wX}.}.}.yXXXN.oXiXiXoXiXoXoXpXoXiXXXoXXXXXiXXXuXtXV.V.XXXXXXXXpXiXoXuXuXyXoXaXaXOXaXaX}.V.yXXXXXuXaXaXaXaXaXfXfXaXOXaXfXfXfXgXgXdXdXfXaXaXfXgXgXgXgXfXaXaXdXaXdXgXfXOXOXSXJXFXHXGXGXGXGXHXGXGXGXGXHXHXGXGXGXGXGXGXGXGXDXDXDXDXGXGXGXGXGXGXHXHXGXGXGXGXGXGXGXGXGXGXHXDXFXGXHXGXGXGXJXHXBXHXLXJXJXHXGXGXGXGXGXGXGXGXGXGXGXGXGXGXGXGXGXGXGXGXGXGXGXGXGXGXGXGXGXGXGXGXGXGXGXGXGXGXGXGXGXGXGXGXGXGXGXGXGXGXGXGXGXGXGXGXGXGXGXGXGXGXGXGXGXGXGXGXGXGXGXGXGXGXGXGXGXGXGXGXGXGXGXGXGXGXGXGXGXGXGXGXGXGXGXGXGXGXGXGXGXGXGXGXDXDXDXGXGXHXHXKX@XOXdXgXgXgXgXfXhXhXhXhXdXjXjXr.u.6.5.w.p.p.p.p.q.p.i.i.i.u.p.p.q.q.5.5.6.p.p.q.q.n.r.g.g.r.n.$.dXdXdXOX",
"d.6.z.z.u.z.i./     y.j.t.y.y.p O O O X ^ t.x.z.z.x.i.i.i.z.z.f.5.c.v.v.v.v.v.v.m.n.F.E 2 4 6 6 4 9 0 4 > 3 o X S.F.n.G.n.C.M.n.c.m.c.c.c.v.c.x.b.F.n.b.t.b.a.+.O u y.g.g.n.n.b.M.c.g.n.g.t.a.! / 0 ; > > O @.F.g.C.c.x.v.v.v.z.z.v.c.c.x.x.c.c.c.c.v.v.v.v.v.v.v.x.+.- < ; X ^ n.M.n.n.m.v.v.v.v.r.1 X E b.x.f.j.+.X < 4 > 6 3 O o.F.F.n.M.c.m.c.c.c.c.c.c.v.v.v.v.v.v.v.v.v.v.x.x.x.x.x.x.x.x.x.x.x.x.x.b.c.x.x.x.x.x.c.c.c.c.b.c.c.c.x.x.x.x.x.x.x.x.x.x.x.x.x.x.x.x.z.z.z.z.i.e.e.e.e.b.x.x.x.x.w.i.x.i.x.i.u.w.5.z.6.z.p.i.u.i.p.p.i.u.i.i.6.z.x.x.z.z.z.u.i.r.7 : > ; 6 3 3 > 6 > ( S.y.n.i.i.i.i.i.i.i.i.i.i.i.i.e.e.e.i.i.i.e.e.w.w.w.w.e.w.u.w.p.p.u.w.r.r.r.r.r.r.r.r.0.0.0.4.4.0.0.4.0...G.aXOXiXuXuXuXXXoXoXoXyXuXyXoXoXoXoXoXoXoXoXXX}.}.}.}.}.yXuXG.OXoXOXaXgXdXdXaXaXaXaXaXaXXXXXXXwXyXwXeXyXtXuXtXtXtXXXXXXXXXXX}.}.XXXXXXXXXXXXtXwXtXwXwXwXV.V.}.}.wXwXwXwXtX}.}.}.}.}.}.}.}.}.}.tX}.tX}.N.uXaXaXiXaXXXN.}.N.}.V.}.C.h.M.l.uXsXV.}.XXXXXXuXaXaXl.l.C.l.l.oXaXoXaXaX}.V.yXwXXXXXXXXXXXG.oXaXaXoXD.OXfXjXfXfXfXfXfXgXfXfXgXgXdXgXgXdXfXfXfXdXdXgXaXOXOXSXHXDXGXDXGXGXHXHXGXGXGXGXHXHXGXHXGXGXGXGXGXGXGXGXGXGXHXHXGXGXGXGXHXGXGXGXGXGXGXGXGXGXGXGXGXHXGXGXDXFXJXHXJXvX& ^.KXLXHXFXGXGXGXGXGXGXGXGXGXGXGXGXGXGXGXGXGXGXGXGXGXGXGXGXGXGXGXGXGXGXGXGXGXGXGXGXGXGXGXGXGXGXGXGXGXGXGXGXGXGXGXGXGXGXGXGXGXGXGXGXGXGXGXGXGXGXGXGXGXGXGXGXGXGXGXGXGXGXGXGXGXGXGXGXGXGXGXGXGXGXGXGXGXGXGXGXGXGXGXGXGXGXGXGXDXGXDXGXGXHXHXKX@XOXdXgXgXgXfXgXlXhXhXhXdXhXjXr.5.u.u.u.e.q.q.p.q.p.q.0.0.q.p.p.q.q.w.5.6.p.q.q.n.sXiXsXsXiXxXzXOXOXOXoX",
"z.z.u.z.6.z.i./ O O y.j.b.t.y.p O O , 2 +.a.b.w.x.i.i.i.x.z.z.w.6.c.v.v.v.v.v.v.z.c.b.Y - , : > 6 6 > 6 3 o X X y.F.n.n.n.9XC.C.c.n.c.m.c.v.n.M.c.n.b.n.n.b.F.@.O p F.F.F.F.b.n.n.n.g.n.n.a.t.E / 0 ; > > X @.F.j.M.c.v.v.c.v.z.z.z.c.c.x.x.c.c.c.v.v.v.v.v.v.v.v.n.+.X ; 3 X E n.c.n.c.m.m.v.v.c.e.1 X ^ F.9Xb.F.@.X : > > ; o X +.n.j.g.c.c.c.v.c.c.c.c.c.c.c.v.v.v.v.v.c.v.x.x.x.x.x.x.x.x.x.x.x.x.g.x.x.x.x.x.x.x.x.x.x.x.x.x.x.x.x.x.x.x.x.x.x.x.x.x.x.x.x.z.z.z.f.z.x.i.e.b.y.y.y.y.S.y.y.F.a.a.n.a.i.x.w.x.z.6.c.z.x.z.x.i.i.p.i.i.u.i.p.z.x.i.i.u.z.z.x.b.a.p - > > 6 > 6 > > O @.F.r.e.x.i.i.i.i.i.i.i.x.i.i.i.i.i.i.i.i.i.e.e.w.w.w.w.w.w.w.u.u.u.u.u.w.w.e.e.w.w.w.w.i.w.i.x.i.w.w.w.4.0.9XsXiXiXiXuXaXOXpXOXoXoXpXuXoXuXuXuXuXuXuXuXyXyXyXyXyXXXtXyXXXoXl.iXfXgXaXdXgXdXfXaXaXiXG.C.XX}.yXtXtXyXtXuXtXtXtXtXtXtXtXtX}.}.}.}.XXXXXXXXtXtXtXV.V.XXG.C.G.V.B.{.wX6XwXwXeXwXwXwX}.}.}.}.}.wXwXtX}.V.uXaXaXaXsXuX}.XX}.oXXXXXXXM.M.M.uXiXC.V.XXl.l.oXaXaXG.G.G.C.C.uXaXpXpXaXyX{.yXyXtXtXXXXXXXXXuXsXjXOXD.iXjXjXjXjXgXjXgXgXfXdXgXgXdXgXdXaXaXdXaX@XaXfXdXOXOXSXHXGXGXDXGXGXHXHXGXGXGXGXHXHXHXHXGXGXGXGXGXGXHXHXGXHXHXHXHXHXGXGXGXGXGXDXGXGXHXHXGXGXGXGXHXHXDXHXHXLXLXPXLXbX  J.LXHXHXGXGXGXGXGXGXGXGXGXGXGXGXGXGXGXGXGXGXGXGXGXGXGXGXGXGXGXGXGXGXGXGXGXGXGXGXGXGXGXGXGXGXGXGXGXGXGXGXGXGXGXGXGXGXGXGXGXGXGXGXGXGXGXGXGXGXGXGXGXGXGXGXGXGXGXGXGXGXGXGXGXGXGXGXGXGXGXGXGXGXGXGXGXGXGXGXGXGXGXGXGXGXGXGXGXDXGXDXGXGXHXHXKX@XOXdXfXfXgXgXgXlXfXhXhXdXjXjXy.q.u.q.8.r.0.8.9.9.0.#.} #.r.9.8.q.q.q.5.5.q.5.2.b.sXiXiXaXOXgXjXOXOXOXOX",
"z.z.u.z.5.z.i./ @ O y.n.b.b.S.d o d @.@.a.a.i.i.i.i.i.i.i.z.u.w.w.v.v.v.v.v.v.v.v.m.n.r.s.@.p 6 > 6 > 4 ; p @.+.r.n.y.] E b.n.m.m.m.c.m.c.v.m.M.b.g.g.n.#.E ^ p : 4 ^ ^ ^ E Y t.n.r.E E ^ E E u p 4 > > > O ^ y.e.g.c.m.v.v.v.v.z.v.c.c.v.x.c.c.c.v.v.v.v.v.v.v.c.n.@.: 6 3 X ^ n.c.m.m.m.m.v.v.z.b.u X / F.y.R ^ ( ; 0 0 4 p @.@.y.g.g.c.c.c.v.v.v.c.c.c.c.c.c.v.v.v.v.c.x.x.x.x.x.x.x.x.x.x.x.x.x.g.f.e.g.g.g.e.w.e.w.e.w.e.e.e.e.e.e.i.u.i.u.u.i.x.x.u.u.u.z.w.z.f.w.u.x.q.#.s.^ ^ ^ ^ ^ ( ( ^ ^ / / E E r.e.q.f.4.f.5.z.u.i.i.i.i.i.u.u.i.i.i.u.u.w.w.u.u.x.0.y.p ; 6 > > > > 6 4 X +.n.e.g.x.x.i.i.i.i.i.i.i.i.i.i.i.i.i.i.i.i.e.e.e.w.w.w.w.w.u.u.u.u.u.u.i.i.i.x.i.i.i.i.i.i.u.q.5.q.u.w.q.q.n.n.j.j.j.M.j.j.oXOXoXOXOXoXoXoXOXOXOXuXuXuXoXoXXXyXyXyXyXuXXXuXl.oXoXoXD.OXD.oXoXoXoXoXOXaXuXXXyXtXtXyXtXyXtXuXtXtXtXtXtXtX}.}.}.}.}.}.XXXXtXtXtXV.oXiXiXOXsXG.C.B.B.6XwXwXwXwXeXwXwX}.XXXX}.wX}.yXtX|.XXoXXXXXuX}.}.yXXXyXXXXXuXM.M.M.G.j.oXiXOXG.D.oXiXiXG.G.G.l.M.XXiXoXXXuX}.{.wXwXyXXXoXXXXXXXXXiXiXXXG.oXiXiXOXiXiXiXiXOXoXOXaXdXdXdXdXdX@X@XaXaXaXfXjXdX@XIXHXGXDXDXGXGXHXGXGXGXGXGXHXHXHXHXGXGXGXGXHXHXHXHXHXHXHXHXHXHXGXGXDXGXGXGXGXGXHXHXGXGXGXGXDXHXHXHXKXJXSX;XbXJ.& ;XLXJXFXHXGXGXGXGXGXGXGXGXGXGXGXGXGXGXGXGXGXGXGXGXGXGXGXGXGXGXGXGXGXGXGXGXGXGXGXGXGXGXGXGXGXGXGXGXGXGXGXGXGXGXGXGXGXGXGXGXGXGXGXGXGXGXGXGXGXGXGXGXGXGXGXGXGXGXGXGXGXGXGXGXGXGXGXGXGXGXGXGXGXGXGXGXGXGXGXGXGXGXGXGXGXGXGXGXDXGXDXGXGXHXHXKX@XOX@XgXfXfXlXgXgXhX@XhXgXzXjXr.0.p.8.r.9X0X9X0XF.G.G.G.iX0Xn.9.e.p.q.q.p.p.p.q.g.sXuXoXpXoXOXOXOXOXOXOX",
"z.u.u.z.d.z.i./ O O y.b.b.j.S.d   d S.y.b.i.i.x.i.i.i.e.e.e.u.w.w.c.c.c.v.v.v.v.m.v.c.n.F.y.7 O 4 3 6 > X ( F.j.b.F.@.X O +.c.m.m.m.c.m.v.c.n.b.b.j.n.F.! - X X 6 + X O - O - y.F./ X O O X : - : ; 4 4 > X @.H.n.M.m.m.v.v.v.v.z.v.v.c.c.c.v.v.v.v.v.v.v.v.v.v.c.n.+.- 6 > O ( n.c.m.m.m.v.v.v.v.b.2 O ( F.s.1 O ; O ; - X p F.n.n.j.b.m.c.v.m.v.v.c.c.c.c.c.v.v.c.c.x.x.x.x.x.x.x.x.x.g.g.g.g.g.g.g.w.w.w.e.r.w.w.w.w.w.w.w.w.w.e.w.w.w.w.i.u.u.u.i.i.e.e.u.x.x.x.g.w.i.e.#.E / < X X X o @ @ @ O o : X 1 @.F.t.n.g.x.w.w.u.w.i.i.u.u.z.z.u.u.z.z.i.a.b.b.x.e.n.y.p O > > + 6 o > ; X / a.g.v.x.x.x.x.i.i.i.i.i.i.i.i.i.i.i.i.i.i.i.e.e.e.e.w.w.w.u.i.i.i.i.i.u.w.u.u.u.u.u.u.u.x.x.u.w.i.i.w.u.q.q.0. .0.0.0. .$.uXsXaXaXaXiXaXaXaXOXaXiXiXaXuXuXXXV.V.G.G.tXV.XXl.oXoXoXG.OXG.D.D.D.D.D.OXjXiXXXuXuXyXyXyXyXtXtXyXtXtXtXtXtX}.}.}.}.}.}.}.}.}.XXyXG.iXjXjXdXjXuXG.C.C.C.C.M.V.B.B.{.wX}.}.}.wXwX{.yXyX}.XX}.}.}.XX}.}.yX}.XXXXXXXXh.h.j.j.$.sXjXaXoXG.G.G.G.G.G.G.C.M.XXiXXXV.oX}.}.eXyXyXoXoXXXXXXXXXXXXXXXG.XXXXG.G.G.G.G.G.G.G.oXaXjXjXgXdXgXdXdXfXfXaXaX@X@X@XBXHXGXDXGXGXGXGXGXGXGXGXGXHXHXGXGXGXGXGXGXGXGXHXHXHXHXHXHXHXHXGXGXGXGXGXGXHXHXHXHXHXGXGXGXHXHXHXHXLXLXBX  & &   J.KXLXGXGXGXGXGXGXGXGXGXGXGXGXGXGXGXGXGXGXGXGXGXGXGXGXGXGXGXGXGXGXGXGXGXGXGXGXGXGXGXGXGXGXGXGXGXGXGXGXGXGXGXGXGXGXGXGXGXGXGXGXGXGXGXGXGXGXGXGXGXGXGXGXGXGXGXGXGXGXGXGXGXGXGXGXGXGXGXGXGXGXGXGXGXGXGXGXGXGXGXGXGXGXGXGXGXGXDXGXDXGXGXHXHXKX@XOX@XgXgXfXgXgXfXhX@XhXdXzXjXr.0.e.} 0.9XiX0XiXiXiXiXiXjXjXF.+.9.9.9.8.5.q.5.2.b.sXiXuXaXpXaXaXuXuXoXoX",
"z.u.u.z.d.f.i./ O O y.j.b.j.S.d O d y.e.x.i.i.i.i.i.i.e.e.e.i.w.w.c.v.c.v.v.d.d.m.m.c.c.n.r.R p p X 4 4 X d y.r.y.y.( , X @.n.v.c.c.v.m.c.c.c.r.y.r.s.y./ < ; 4 o > 0 5 p 1 8 y.F.+.1 7 p p d : 4 4 4 4 4 : ^ S.y.n.c.c.v.v.v.v.v.v.v.v.c.c.v.v.v.v.v.v.v.v.v.v.x.n.s.: 6 6 X ^ n.m.m.m.v.v.v.z.c.t.1 X ( S.@.9 3 0 p p u 7 u y.r.g.g.g.c.c.v.c.c.c.c.c.c.c.c.c.x.x.x.x.x.g.x.x.x.x.x.x.g.x.g.g.b.b.g.w.w.w.e.r.e.e.e.e.e.e.e.e.e.e.e.e.e.e.i.i.i.i.i.i.i.i.x.x.e.e.e.x.x.x.0.! s.R p p d d w @ w w w w 6 0 @.S.@.r.#.b.g.x.x.i.i.z.z.z.z.z.i.i.z.x.t.+.9.a.b.r.@.@.d @ > 6 + d d d p u +.e.f.z.x.x.x.x.i.u.i.i.i.i.i.i.i.i.i.e.i.i.i.i.e.e.e.e.e.e.i.i.i.i.i.i.i.i.i.i.x.x.x.x.u.u.u.u.u.u.w.q.i.p.u.w.e.i.i.i.e.g.9XuXG.G.oXG.G.XXG.G.G.G.G.G.l.uXiXoXoXOXoXoXoXG.oXoXoXiXD.D.OXoXD.OXOXD.dXgXiXG.oXuXyXyXyXyXyXyXyXyXtXtXtX}.}.}.}.}.}.}.}.}.}.}.XXV.oXaXiXOXiXG.D.G.G.G.G.C.V.B.N.B.wX}.}.}.wXwX{.wXyXwXXXXXuXoXyXyXyXyXyXXXyXuXuXM.C.n.M.j.sXjXsXoXG.G.G.G.9XuXuXV.V.uXaXoXXXuXyXyXyXyXuXuXuXoXuXuXuXXXuXuXXXXXXXXXyXuXuXG.XXXXXXoXaXdXaXaXaXdXfXaXaXfXaXOXhXbXvXSXGXDXDXGXGXGXGXGXGXGXGXGXHXHXGXHXGXGXGXGXGXGXHXHXHXHXHXHXHXHXHXGXGXGXGXGXHXHXHXHXHXHXGXGXHXFXJXLXIXSXSXJ.J.J.J.vXKXLXFXGXGXGXGXGXGXGXGXGXGXGXGXGXGXGXGXGXGXGXGXGXGXGXGXGXGXGXGXGXGXGXGXGXGXGXGXGXGXGXGXGXGXGXGXGXGXGXGXGXGXGXGXGXGXGXGXGXGXGXGXGXGXGXGXGXGXGXGXGXGXGXGXGXGXGXGXGXGXGXGXGXGXGXGXGXGXGXGXGXGXGXGXGXGXGXGXGXGXGXGXGXGXGXGXGXDXGXDXGXGXHXHXKX@XOX@XgXgXfXgXgXfXgXfXfXdXdXiXj.0.e.0.r.F.G.oXuXoXG.D.G.iXiXF.#.e.i.e.e.e.x.e.e.g.uXuXoXpXoXoXpXpXpXuXpX",
"z.z.i.x.f.g.i.+.O . y.j.b.b.S.d O d y.r.g.z.x.x.z.z.z.g.e.e.i.e.w.x.v.c.c.v.d.d.v.v.c.c.n.n.b.F.@.: 6 6 X 0 ^ E 2 X 6 > : @.c.v.c.c.v.m.v.v.b.#.X - X : 5 ; 4 6 X 9 s.S.y.t.r.F.n.b.r.b.n.F.s.: 0 0 0 4 6 , 9 7 i t.c.z.c.m.v.v.v.v.v.v.c.c.v.v.c.v.v.v.v.v.v.c.x.F.+.O > 6 ; ^ n.m.m.c.v.c.v.z.e.r.1 X 5 9 9 - ; ( @.S.y.a.r.n.n.M.c.c.c.n.n.x.c.c.c.c.c.x.x.x.x.x.x.x.x.g.g.g.g.x.x.x.x.x.x.x.b.b.g.e.w.e.e.e.e.e.e.e.e.e.e.e.e.e.e.e.e.e.i.i.i.i.i.i.i.i.x.x.e.e.w.z.x.x.i.e.a.s.y.y.S.S.( > 6 6 > 6 > > > 4 < < 2 +.e.e.e.i.z.z.z.z.u.u.i.i.w.g.! 2 7 +.t.+.O 4 > @ > > , @.S.S.S.s.a.b.x.x.x.x.x.x.i.u.u.u.u.u.i.i.i.i.e.e.i.i.i.i.e.e.e.e.i.i.i.i.i.e.e.i.u.w.u.u.u.w.u.w.x.w.w.w.w.w.w.u.u.p.w.u.i.i.i.p.q.5.w.4.}  . .0.0.0.0.4.4.0.0.#.] G.fXaX@XlXgXaXlXoXOXOXG.OX$.| +.} ] j.D.D.dXdXiXG.oXuXXXyXyXyXyXyXyXwXwXwX}.}.}.}.}.}.}.}.}.}.{.{.wXM.C.G.G.D.D.G.OXiXOXOXiXiXiXXXN.B.{.wX{.}.wXwX}.wXwX}.yXyXyXXXyXyXyXyXXXXXXXoXuXV.uXG.j.j.n.C.l.j.n.n.n.n.M.C.C.j.M.G.iXoXG.XXXXyXyXXXXXXXoXXXXXoXG.G.oXoXXXXXXXXXXXoXXXXXXXXXXXG.XXoXoXoXoXaXfXaXaXfXOXD.mXPXSXHXHXDXDXFXGXGXGXGXGXGXGXGXGXGXHXHXGXGXGXGXGXGXGXGXGXHXGXGXGXHXHXGXGXGXGXGXGXGXGXGXGXHXGXGXDXHXLXSXg   vXPXLXLXKXKXHXJXFXHXGXGXGXGXGXGXGXGXGXGXGXGXGXGXGXGXGXGXGXGXGXGXGXGXGXGXGXGXGXGXGXGXGXGXGXGXGXGXGXGXGXGXGXGXGXGXGXGXGXGXGXGXGXGXGXGXGXGXGXGXGXGXGXGXGXGXGXGXGXGXGXGXGXGXGXGXGXGXGXGXGXGXGXGXGXGXGXGXGXGXGXGXGXGXGXGXGXGXDXGXGXGXGXGXDXGXDXDXGXHXHXKX@XOXdXlXhXgXgXgXgXgXfXhXOXOXuXC.0XiXiXuXuXuXuXuXoXoXoXoXiXaXuXG.uXuXuXuXuXuXuXuXXXaXuXpXpXoXpXuXyXoXoXyX",
"d.z.z.x.z.x.i.+.O o y.j.e.y.S.d   d j.g.x.u.i.x.z.z.z.g.g.e.i.e.5.c.c.c.c.c.z.d.d.m.m.c.v.c.b.F.@.O 4 6 O 0 ^ ^ 9 O > > X @.c.m.c.c.v.m.v.n.n.@.O 0 4 > : O X - : 9 S.F.t.n.n.b.n.n.c.n.b.F.s.- 0 0 9 < 1 2 , X u a.C.x.c.v.v.v.v.v.v.v.c.c.v.v.c.v.m.v.v.v.v.v.b.F.@.- 6 6 : ^ n.m.m.m.v.x.z.g.n.y.p 4 6 : 5 9 O ^ S.a.r.n.e.n.c.c.M.n.c.n.n.n.c.c.c.c.x.x.x.x.x.x.x.x.g.g.g.g.g.x.x.x.x.x.x.x.b.b.g.e.e.e.e.e.e.e.e.e.e.e.e.e.e.e.e.e.e.e.i.i.i.i.i.i.i.i.x.x.x.g.g.f.f.w.u.x.i.e.b.r.y.S.( O > 6 > 6 w 6 6 > 6 ; - s.F.a.t.a.x.z.z.z.i.i.a.t.e.n./ X - @.S.@.X 3 > @ 3 O O @.F.y.F.b.b.e.x.x.x.x.x.x.i.u.u.u.i.u.i.i.i.e.e.e.i.i.i.i.i.w.e.e.i.i.i.i.i.e.e.e.i.u.u.u.i.x.x.x.w.u.u.w.w.w.w.w.w.i.u.w.u.u.p.i.i.p.u.w.w.x.w.u.i.u.p.w.w.w.w.e.X.iXxXlXgXlXgXdXxXG.iXiXoXsXg.0.e.0.#.G.iXG.jXjXsXuXuXuXyXyXyXyXyXeXeXeXwXwX}.}.}.}.}.}.}.}.}.}.{.eXyX6XC.V.G.G.l.oXaXdXiXaXaXiXjXuXV.B.{.wXwXwX{.wXwXeXwXV.XXyXXXXXyXyXyX}.yXyXXXyXyX}.sXXXj.j.j.n.j.j.l.M.n.n.j.j.l.j.j.uXsXiXoXiXuXiXsXuXiXiXiXuXuXuXuXuXuXoXoXoXoXXXXXXXXXXXV.}.XXXXXXG.XXoXoXaXgXfXfXlXiXD.bXLXJXHXFXDXHXDXGXGXGXGXGXGXGXGXGXHXHXHXHXHXHXGXGXGXGXGXGXGXGXGXGXHXHXHXHXHXGXGXGXGXGXGXGXGXHXHXHXGXLXKXb   ;XLXLXLXHXGXHXGXHXGXGXGXGXGXGXGXGXGXGXGXGXGXGXGXGXGXGXGXGXGXGXGXGXGXGXGXGXGXGXGXGXGXGXGXGXGXGXGXGXGXGXGXGXGXGXGXGXGXGXGXGXGXGXGXGXGXGXGXGXGXGXGXGXGXGXGXGXGXGXGXGXGXGXGXGXGXGXGXGXGXGXGXGXGXGXGXGXGXGXGXGXGXGXGXGXGXGXGXGXGXGXGXGXGXDXGXDXDXGXHXHXKXOXOXdXlXhXgXgXgXgXgXfXhXOXD.oXG.G.uXiXuXoXoXoXXXXXoXoXoXoXXXXXuXXXoXoXoXoXuXuXoXoXOXXXoXoXoXuXoXyXXXXXyX",
"d.d.v.u.x.x.a.+.O . %.S.y.a.S.p O d y.g.x.v.v.i.z.u.w.f.x.e.e.i.w.v.v.f.z.c.c.v.v.v.v.c.c.c.x.n.@.X 6 6 O d ( p 6 O > > - +.6Xv.c.c.c.v.v. .r./ X 4 4 : d / @.p - p p p s.n.b.n.n.c.c.c.x.n.s.- 1 4 < u o.@.^ E E a.x.v.m.v.v.v.v.d.v.v.c.v.v.c.v.v.m.v.v.v.c.g.| ^ ( 6 4 6 X E n.v.f.c.x.g.c.} ] ^ 6 6 4 6 > 9 : E y.b.w.x.g.g.f.f.g.e.e.e.e.e.i.x.x.x.x.x.x.x.x.x.x.x.x.x.x.x.x.x.x.x.x.x.x.x.x.g.g.e.e.e.e.e.e.e.e.e.e.e.e.e.e.e.e.e.e.e.i.i.i.i.i.i.x.x.x.g.e.w.f.z.z.z.u.z.z.z.x.x.b.a.( X 6 > 6 > 6 w > 6 6 6 6 ( / ^ / ! 0.e.w.e.b.+.( @.+.y.^ X 6 ( @.p o @ 6 @ d @.+.$.j.b.b.b.x.x.x.x.x.x.x.x.x.u.u.u.u.u.i.i.i.i.i.i.i.i.e.i.i.i.e.e.i.i.i.i.i.i.e.e.i.i.i.i.i.i.i.i.i.i.e.w.w.w.w.w.w.w.w.w.u.u.u.u.p.p.p.u.u.u.u.u.6.6.u.w.u.u.u.u.w.n.G.G.G.G.G.9XG.G.C.F.G.C.b.q.p.q.q.b.n.n.F.G.C.M.g.uXuXyXuX}.yXyXeXeXyXyX}.}.}.}.}.}.}.}.}.}.eXwXeXeXeXeXB.V.V.XXuXOXOXOXD.G.uXXX{.{.wXeXeX}.}.}.wXwXwXwXtXtXXXXXyXyXyXyXyXXXXXpXyXXXyXuXXXG.G.G.G.G.G.G.G.G.G.G.oXG.G.iXiXG.j.j.M.n.n.n.n.n.M.n.M.n.C.j.j.uXuXoXj.h.G.oXG.uXoXoXG.oXXXXXG.uXXXiXiXaXaXiXiXD.bXLXJXGXHXGXGXDXGXGXHXGXHXHXHXHXGXGXHXHXHXJXHXJXJXHXFXHXGXGXHXGXGXGXHXHXHXHXHXGXGXGXFXHXDXHXFXHXHXHXLXPXg   vXLXHXGXGXGXGXGXGXGXGXGXGXGXGXGXGXGXGXGXGXGXGXGXGXGXGXGXGXGXGXGXGXGXGXGXGXGXGXGXGXGXGXGXGXGXGXGXGXGXGXGXGXGXGXGXGXGXGXGXGXGXGXGXGXGXGXGXGXGXGXGXGXGXGXGXGXGXGXGXGXGXGXGXGXGXGXGXGXGXGXGXGXGXGXGXGXGXGXGXGXGXGXGXGXGXGXGXGXGXGXGXGXGXGXGXDXGXGXHXHXKXOXOXdXlXhXfXgXgXgXgXgXgXOXG.uXG.OXoXoXOXoXuXyXXXyX|.XXXXXXXXyXyXXXXXXXoXXXXXXXuXoXuXXXpXlXaXXXuXXXXXXXXX",
"d.d.v.u.x.i.a./   % S.F.y.y.y.R O d y.b.u.p.i.u.z.z.u.f.w.e.w.w.w.v.c.f.x.x.c.c.z.v.v.c.c.z.c.b.@.O ; > > d ( ( 6 O > > X +.m.d.v.v.v.c.c.| / p O ; ; O p S.F.E O : - 2 +.b.b.x.n.n.c.c.x.n.s.- 0 9 < p s.y.@./ +.F.n.c.m.v.v.v.v.v.v.c.c.c.c.c.v.v.v.v.c.c.g.b.- , ; ; > 6 - ^ b.M.c.n.n.t.r.~ O < 3 6 > 4 ; 5 X E t.b.g.x.g.f.f.f.g.e.e.e.e.e.q.q.w.w.w.w.w.w.x.x.x.x.x.x.x.x.x.x.x.x.x.x.x.x.w.w.w.w.r.r.r.w.w.w.w.w.w.w.w.w.e.e.q.q.w.w.w.w.i.i.u.u.u.u.x.g.e.e.u.z.z.z.z.z.z.z.z.f.g.a.^ X 6 6 > > > ; o @ > > > > ; X X O s.a.e.r.y.E : 4 ^ @.p X 3 5 p < + > 6 + d S.y.j.g.g.x.x.x.x.x.x.x.x.x.x.x.i.u.u.u.u.i.i.i.i.i.i.i.i.e.i.i.i.i.i.i.i.i.i.i.e.e.e.i.i.i.i.i.i.i.i.i.i.e.e.w.w.w.w.w.w.w.w.w.u.u.u.u.u.u.u.u.u.u.u.6.6.6.w.u.u.u.p.4.0.0.#.#.#.0.2.0.#.#. .0.q.5.2.u.u.p.w.q.} } } #.0.} G.uXXXuXyXuXyXyXtXyXtX}.wX}.}.}.}.}.}.}.}.wX{.eXeXeXeXB.V.M.C.V.l.l.D.l.G.G.V.V.{.}.wXeX}.}.}.wXwXwXwXtXXXXXXXyXyXyXyXXXXXXXyXXXXXuXuXuXsXuXuXuXuXiXiXiXiXiXiXiXuXoXuXuXG... .4.5.q.q.q.q.0.4.4.0.r.0.r.G.uXG.$.$.G.uXG.uXuXXXl.G.G.yX}.}.XXuXoXiXOXOXOXD.bXLXHXGXGXDXGXDXGXGXHXHXHXHXHXGXHXHXLXLXLXLXJXHXJXHXHXHXJXGXGXGXGXGXGXHXHXHXHXGXDXGXGXGXGXGXFXLXLXLXLXPXg   vXLXHXGXDXDXDXGXGXGXGXGXGXGXGXGXGXGXGXGXGXGXGXGXGXGXGXGXGXGXGXGXGXGXGXGXGXGXGXGXGXGXGXGXGXGXGXGXGXGXGXGXGXGXGXGXGXGXGXGXGXGXGXGXGXGXGXGXGXGXGXGXGXGXGXGXGXGXGXGXGXGXGXGXGXGXGXGXGXGXGXGXGXGXGXGXGXGXGXGXGXGXGXGXGXGXGXGXGXGXGXGXGXGXGXGXDXGXGXHXHXKXOXOX@XgXfX@XgXgXgXgXgXgXOXG.oXG.OXoXoXoXXXXXyXwXeXeX|.eXyXXXXX}.}.XXXXXXXXXXXXoXuXuXXXiXjXiXoXoX}.|.}.|.",
"d.z.v.i.x.x.n./   6 Z.S.y.F.y.E X p r.x.z.u.v.8Xu.z.w.w.w.e.e.w.w.c.v.z.f.x.f.z.c.c.c.c.c.z.z.b./ - 9 4 > 0 d ( d X ; 0 2 +.v.v.v.v.v.v.b.! ^ d X X p 2 E a.b.! 2 9 X X +.n.c.v.n.c.v.v.x.n.s.- 9 9 < i @.y.^ p E n.c.v.m.v.v.v.v.v.v.z.f.f.c.c.v.v.v.v.c.g.0.y.- 3 6 6 4 6 X E n.n.e.r.y.y.y.^ X 4 6 > > 3 ; 9 < E t.b.e.x.x.x.g.f.g.e.e.e.e.e.e.e.e.e.e.e.e.e.g.g.g.g.e.e.e.e.e.e.e.e.e.e.e.e.r.r.e.e.e.e.e.e.e.e.e.e.e.e.w.w.r.r.w.w.w.e.w.w.w.e.w.u.w.u.w.w.e.e.i.i.z.z.z.z.i.z.z.i.b.S.( X w w > 0 d p d d d > 6 > > 6 6 o S.y.y.y.y.^ 4 d ^ ^ p 1 0 4 4 3 > > > O d S.y.e.g.x.x.x.x.x.x.x.x.x.x.x.x.x.i.i.i.i.e.e.e.e.e.e.i.i.i.i.i.i.i.i.i.i.e.e.e.e.e.e.i.i.i.i.i.i.i.i.e.e.e.e.e.e.e.e.w.w.w.w.w.w.w.w.w.w.u.u.u.u.u.u.u.u.w.u.u.u.u.i.i.i.w.w.e.x.x.i.u.w.w.w.w.w.p.p.p.u.p.6.q.0.0.0.0.0.#.uXsXoXoXuXXXXXXXtXtXtXtXtXwXwXwX}.}.}.}.}.}.{.wXwXeX6XB.wXG.G.G.l.l.G.G.C.V.V.B.{.}.wX|.eX}.}.wXwXwXwXtXXXXXXXyXyXyXyXyXyXyXpXyXyXpXyXC.tX6X6X6X6XG.G.G.G.uXG.9XuX9XuXiXuXq.5.w.w.w.w.w.w.z.w.u.w.e.e.b.9XsX9Xr.e.9XiX9XuXG.oXoXoXC.XXtXV.XXuXG.OXOXOXiXD.bXHXHXGXGXDXGXDXGXGXHXHXHXHXHXJXKXKXKXKXKXLXIXLXLXHXJXLXGXHXGXGXDXGXGXGXGXHXGXGXDXDXDXHXHXHXLXJXJXLXLXPXb   ;XLXHXGXDXDXGXGXGXGXGXGXGXGXGXGXGXGXGXGXGXGXGXGXGXGXGXGXGXGXGXGXGXGXGXGXGXGXGXGXGXGXGXGXGXGXGXGXGXGXGXGXGXGXGXGXGXGXGXGXGXGXGXGXGXGXGXGXGXGXGXGXGXGXGXGXGXGXGXGXGXGXGXGXGXGXGXGXGXGXGXGXGXGXGXGXGXGXGXGXGXGXGXGXGXGXGXGXGXGXGXGXGXGXDXGXDXGXGXHXHXKXOX+X@XlXfX@XfXgXgXgXgXgXOXD.D.OXOXOXOXoXXXXXtXwXeXeXeX|.yXeX|.}.yXyXtXtXtXXXyXuXuXoXG.iXdXOXoXD.oXoXoXoX",
"z.d.v.i.i.e.n.^ O @ 6 2 ^ S.F.r.+.y.c.c.v.z.u.u.w.x.e.e.e.e.e.0.w.z.z.z.z.f.f.c.c.c.c.c.c.c.c.x.a.s.S.( ; > > > 4 X p F.F.n.m.7X7Xv.v.x.t.i < 4 ; < s.y.y.n.n.0.@./ 5 - +.n.M.v.c.v.v.c.x.n.s.- 5 4 , i @.y.p X u y.x.v.m.c.v.v.z.c.c.f.f.g.f.c.v.c.v.v.g.| u p 4 6 6 6 4 4 - R n.e.R 2 2 1 7 : 4 4 > > 4 ; 4 ( i +.b.b.e.i.a.b.g.g.e.e.e.e.e.e.e.e.e.e.e.e.e.e.w.w.w.w.w.w.w.w.e.w.w.w.w.w.w.w.r.e.g.b.b.b.b.x.x.x.x.x.x.x.x.x.g.g.i.i.x.x.x.x.e.e.w.w.w.u.w.w.e.e.x.i.z.z.z.z.u.z.z.x.b.a.( O 0 > > / F.S.S.S.Z.> > w 6 w 6 6 4 , p @.S.^ > d ( ^ p p d 4 o > 6 6 3 X p S.b.e.g.x.x.z.x.x.x.x.i.i.x.x.x.x.i.i.i.i.e.e.e.e.e.e.i.i.i.i.i.i.i.i.i.i.e.e.e.e.e.e.i.i.i.i.i.i.i.i.i.i.i.e.e.e.e.e.w.w.w.u.i.u.w.w.w.w.w.w.u.u.u.u.u.u.w.u.u.u.u.u.p.u.i.u.u.z.u.i.x.z.z.z.u.6.u.6.6.6.6.6.w.u.u.q.e.e.r.iXjXiXG.oXoXXXuXuXuXuXyX}.wXwXwX}.}.}.}.}.}.{.wXwXwX6XV.tXiXOXiXiXiXsXiXV.V.wXwXwXwXwX|.eX}.}.wXwXwX}.XXXXXXXXyXyXXXyXyXyXXXuXoXyXuXM...4.f.f.f.f.f.f.f.f.r.r.r.e.r.e.e.w.w.w.z.z.z.z.z.z.i.u.x.i.e.e.r.n.b.t.0.0.b.b.g.F.j.OXdXaXj.M.M.M.M.V.l.G.OXiXiXH.bXHXHXGXGXDXDXDXGXGXGXGXHXHXGXJXZ.Z.Z.Z.g Z.@ ;XLXJXJXLXJXHXJXFXGXGXGXGXGXGXGXGXHXDXHXGXJXLXJXJ.J.J.vXJ.w   ;XLXHXGXGXGXGXGXGXGXGXGXGXGXGXGXGXGXGXGXGXGXGXGXGXGXGXGXGXGXGXGXGXGXGXGXGXGXGXGXGXGXGXGXGXGXGXGXGXGXGXGXGXGXGXGXGXGXGXGXGXGXGXGXGXGXGXGXGXGXGXGXGXGXGXGXGXGXGXGXGXGXGXGXGXGXGXGXGXGXGXGXGXGXGXGXGXGXGXGXGXGXGXGXGXGXGXGXGXGXGXGXGXGXGXGXDXGXGXHXHXKXOX+XlXzXzXgXgXgXgXgXgXgXOXD.G.iXdXaXiXiXuXyXyXyXyXeXyXyX|.|.}.}.yXyXyXuXyXyXuXuXuXoXoXaXdXdXOXG.gXdX@X@X",
"z.z.z.b.b.t.F./ @   X O p y.n.n.n.c.c.v.v.v.z.z.z.a.t.n.n.t.t.e.w.z.z.z.z.f.f.z.c.c.c.c.c.c.c.c.b.n.F.E X 6 > > O O p F.F.c.c.v.v.v.v.c.b.u O X X X s.b.t.b.t.r.s.@.4 - +.n.c.v.c.c.x.x.x.n.s.- 9 4 : p y.S.^ O 1 y.c.c.c.c.c.x.C.n.n.n.b.n.b.n.g.c.c.x.t.E - , > > 3 6 ; 4 : R F.a.E : : 4 0 4 4 4 6 ; , X X i R { t.b.a.a.i.i.e.e.e.e.e.e.e.e.w.w.w.w.e.e.e.w.w.w.w.w.w.w.w.w.w.w.w.w.w.w.w.w.r.w.g.x.b.x.x.x.x.x.x.x.x.x.x.x.g.g.x.x.x.b.x.x.e.e.e.e.e.e.e.w.f.f.z.z.z.z.z.z.z.x.z.z.x.t.^ : > : - @.F.y.n.F.+.O X ; X o O @ + O p S.H.( 6 d p p p d d 6 O > O X - X i y.t.e.x.x.z.z.z.x.x.x.i.i.i.i.i.i.e.e.w.w.e.e.e.e.e.e.e.e.i.i.i.i.i.i.i.i.e.e.e.e.e.e.i.i.i.e.i.e.i.e.e.e.e.e.e.e.e.e.i.i.i.i.i.i.i.u.w.w.w.w.w.w.u.u.u.w.w.w.u.u.u.u.p.z.v.x.z.u.i.z.u.6.6.6.6.5.5.5.6.6.5.5.4.5.5.2.i.b.b.sXjXiXG.uXuXuXiXiXuXuXuXV.wXwXwX}.}.}.}.}.}.wXwX6XtX9XV.uXdX@XaXaXaXsXsXV.B.wXwXwXwX}.wXwX}.}.wXwXwX}.XXXXXXXXyXyXeXyXXXyXoXuXyXtXuX6X4.5.w.6.6.6.6.w.w.w.x.w.w.e.w.w.w.w.w.w.w.6.6.6.6.w.5.6.w.q.q.r.0.#.0.e.e.e.g.e.b.G.n.iXzXsXj.M.M.M.M.M.j.G.uXiXiXH.bXHXHXGXHXDXDXGXGXGXGXGXHXHXGXJX          @   vXLXLXLXLXLXLXKXLXHXHXHXGXGXGXGXHXFXHXLXLXLXLXSXr         &   J.JXHXHXGXGXGXGXGXGXGXGXGXGXGXGXGXGXGXGXGXGXGXGXGXGXGXGXGXGXGXGXGXGXGXGXGXGXGXGXGXGXGXGXGXGXGXGXGXGXGXGXGXGXGXGXGXGXGXGXGXGXGXGXGXGXGXGXGXGXGXGXGXGXGXGXGXGXGXGXGXGXGXGXGXGXGXGXGXGXGXGXGXGXGXGXGXGXGXGXGXGXGXGXGXGXGXGXDXGXGXGXGXGXGXGXDXGXGXHXHXKXOXOXlXxXzXhXjXlXjXjXzXlXaXD.D.iXaXiXdXiXuXXXyXyXyXeXyXyXXXXXXX|.oXXXuXyXXXXXoXuXuXoXoXaXdXdXdXOXhXhXhXhX",
"x.z.z.b.t./ @.( @ + ( ^ +.y.b.x.v.c.d.d.d.d.d.z.n.r./ @.@.+.y.b.f.z.z.z.z.f.f.c.c.c.v.v.c.c.c.c.x.b.n.R X 6 > O ( ^ +.g.g.c.m.7Xv.v.v.c.n.u - d @.E b.n.b.n.n.9.E ^ ; X +.n.c.v.c.x.z.z.x.n.s.- 5 4 ; 9 ^ @.p X 1 y.b.f.c.x.x.b.t.| +.] E / E E r.b.x.g.n.+.7 d 3 3 6 6 4 4 ; 0 @.+.R 0 4 0 4 ; ; 4 4 : R / E +.+.0.b.b.i.a.e.a.i.e.e.e.e.w.e.e.e.e.e.e.e.e.e.e.e.w.w.w.w.w.w.w.w.w.w.w.w.w.w.w.w.w.g.x.x.g.g.g.x.x.x.x.x.x.x.g.g.g.g.g.x.x.x.x.w.e.e.e.e.e.e.e.g.f.f.z.z.z.z.z.x.x.z.u.x.t.+.E / / / y.n.t.b.b.y.^ / / ( / / Z.d + d ( ( d 6 6 5 9 4 6 d 6 o d ( ^ / E +.a.b.x.i.x.z.z.z.z.g.e.i.i.i.i.i.i.e.e.w.w.e.e.e.e.e.e.e.e.i.i.i.i.i.i.i.i.e.e.e.e.e.e.i.i.i.e.i.e.i.e.i.e.i.e.e.e.e.e.e.i.i.i.i.i.i.i.w.w.w.w.w.w.u.u.u.u.w.w.u.u.u.u.5.w.u.u.u.z.z.z.z.u.6.6.6.6.6.6.6.6.5.5.6.p.6.q.i.e.r.F.G.F.j.n.b.j.n.b.g.C.uXV.}.}.}.}.}.}.}.}.}.wXwX9XtX9XC.uXdXOXD.oXXXuXuXB.B.B.{.wX}.}.eXwX}.}.wXwXwX}.XXXXXX}.yXeXeXyXyXoXpXuXtXM.C.M.5.u.u.z.z.z.z.z.z.u.u.u.u.i.u.u.u.u.u.u.u.u.w.w.w.u.z.u.i.w.b.9Xn.e.0.e.w.e.e.r.g.G.F.uXiXiXC.V.B.M.B.V.M.uXiXiXiXD.bXLXHXHXHXDXDXGXGXGXGXGXGXGXGXJXbXbXvXZ.Z.6   Z.bXvXbXvXvXvX;XBXHXHXHXHXGXGXGXHXLXLXbXbXnXnXbXo.d f r d bXbXBXLXHXHXHXHXGXGXGXGXGXGXGXGXGXGXGXGXGXGXGXGXGXGXGXGXGXGXGXGXGXGXGXGXGXGXGXGXGXGXGXGXGXGXGXGXGXGXGXGXGXGXGXGXGXGXGXGXGXGXGXGXGXGXGXGXGXGXGXGXGXGXGXGXGXGXGXGXGXGXGXGXGXGXGXGXGXGXGXGXGXGXGXGXGXGXGXGXGXGXGXGXGXGXGXGXGXGXGXGXGXGXGXGXDXGXDXGXGXHXHXKXOXOXgXzXgXOXOXaXiXaXgXgXiXoXoXaXOXOXaXiXoXXX}.}.yXyXyXyXyXXXXX}.XXXXXXXX}.}.}.XXyXXXXXOXOXOXOXG.@X@X@X@X",
"v.v.u.i.+.2 : O @ o S.F.j.n.c.v.v.v.v.v.v.v.v.x.a./ 1 p p u +.b.z.v.c.z.z.z.f.c.c.c.c.c.c.c.c.c.x.g.j.^ ; 6 > X S.F.b.C.c.m.m.v.m.m.z.f.b.u - ^ H.n.n.c.n.n.n.#.E ( ; - +.n.x.c.n.x.v.z.z.n.s.- < 4 3 5 p p 5 X 1 y.n.f.c.x.x.n.E X X X O X O O s.j.b.g.n.+.u d , 3 3 6 4 4 > 0 - : > > > > ; ; 0 4 4 - @.F.n.b.b.x.b.x.e.b.e.b.i.e.e.e.e.e.e.w.w.w.r.r.r.r.w.w.e.e.w.w.w.w.w.w.w.w.w.w.w.w.w.w.x.g.x.x.x.g.g.g.x.x.x.x.g.g.g.g.e.g.g.g.e.e.e.e.w.w.e.e.e.e.e.e.e.e.e.w.u.z.u.u.x.z.u.u.x.x.t.t.t.b.a.e.x.g.f.e.a.y.n.a.y.F.F.F.( @ + + O o > > > > @ @ > + X ^ F.n.n.t.t.b.x.z.u.u.u.u.f.f.w.w.e.e.e.e.e.e.e.e.e.e.e.e.e.e.e.e.e.e.i.i.i.i.i.i.i.i.e.e.e.e.e.e.i.i.i.i.i.i.i.i.i.i.i.i.i.e.i.e.e.e.e.i.i.i.i.i.i.w.w.w.i.i.i.i.u.u.u.u.u.u.u.w.u.i.u.p.u.u.u.u.u.6.5.5.5.6.6.6.6.6.5.5.5.6.6.4.2.2.{ 0.} } } { { { 2.| | b.uXwX}.}.}.}.}.}.}.}.wXtXwX6XtXG.C.iXdXOXl.l.V.V.}.B.{.{.{.}.}.}.wXwXwXwXwXwXwX}.XXXX}.}.wXeXyXyXyXoXuXoXV.4.4.5.7.6.6.z.z.z.z.6.z.u.i.x.i.u.u.u.p.p.u.u.u.w.w.w.w.u.u.w.e.r.n.uX9Xb.e.e.w.w.w.q.g.V.j.C.M.C.M.B.N.m.M.M.j.G.uXuXuXD.bXLXHXHXHXGXDXGXDXGXGXDXDXGXGXGXJXLXPX@XvX6 + 6         &     J.LXHXHXGXGXGXGXHXLXIX%       $ # 5 p 6 f PXLXJXHXHXGXHXHXHXHXGXDXGXGXGXGXGXGXGXGXGXGXGXGXGXGXGXGXGXGXGXGXGXGXGXGXGXGXGXGXGXGXGXGXGXGXGXGXGXGXGXGXGXGXGXGXGXGXGXGXGXGXGXGXGXGXGXGXGXGXGXGXGXGXGXGXGXGXGXGXGXGXGXGXGXGXGXGXGXGXGXGXGXGXGXGXGXGXGXGXGXGXGXGXGXGXGXGXGXGXGXGXGXGXGXGXDXGXDXGXGXHXHXKXOXOXfXlXOXD.D.G.l.l.OXaXiXaXaXdXiXdXdXiXoXXXyXyXyXyXyXyXyXXXXX|.XXXXtX}.{.{.{.wX6XwXV.V.XXG.XXV.V.V.V.V.",
"u.x.u.n.y.2 ; > > X y.n.e.g.x.v.v.v.d.d.v.v.z.x.n./ 6 ( ^ a +.j.x.v.c.c.c.z.z.v.c.c.c.c.c.c.c.c.c.c.b.i O ; 6 X @.y.y.n.c.m.7Xm.v.v.v.n.n.u X ^ F.g.g.c.c.x.b.9.R ( > X +.n.x.x.n.b.v.d.z.n.s.- 9 < ; 4 ( ( d ; 1 S.C.b.n.b.b.n.@.: ; 6 > 4 > X @.F.j.y.F.@.p ( 4 6 3 4 ; 0 > 4 0 4 0 0 4 > 4 4 4 : - X +.n.e.e.x.x.b.x.b.b.e.e.t.e.e.e.e.w.w.w.w.w.w.w.w.w.w.w.w.w.w.w.w.w.w.w.w.w.w.w.w.w.w.w.x.x.x.x.g.g.g.f.x.x.x.x.x.x.x.g.g.g.g.g.g.e.e.e.w.w.e.e.e.e.e.e.e.e.e.e.u.u.f.f.u.u.u.i.z.w.e.b.g.e.i.e.x.x.w.x.e.e.a.a.t.a.b.a.^ O , 0 4 4 6 > > > > w > X O ^ b.e.e.e.x.i.w.u.u.u.u.u.f.w.w.w.w.w.w.w.e.e.e.e.e.e.e.e.e.e.e.e.e.e.i.i.i.i.i.i.i.i.e.e.e.e.e.e.i.i.i.i.i.i.i.i.i.i.i.i.i.i.i.e.e.e.e.e.i.i.i.i.e.e.i.i.i.i.i.i.i.u.u.u.u.u.w.w.w.u.i.p.w.w.w.w.5.6.6.6.6.6.6.6.6.6.5.5.6.6.6.6.q.q.q.e.} 0.q.9.9.9.9.| X.j.uXV.}.}.}.}.}.}.}.}.wXtXwX6XtXG.C.iXjXiXC.C.}.}.wXwXwX}.wX}.}.}.}.}.}.}.wXwX}.}.}.}.}.}.yXeXyXyXyXyXyXuXuXf.4.z.u.v.z.z.z.z.6.z.z.z.6.i.u.u.u.u.u.u.u.u.u.w.w.w.w.w.w.w.w.0.n.sX0Xe.r.w.w.u.w.5.g.V.C.G.C.V.M.B.m.B.m.M.M.G.uXuXiXG.vXPXPXJXHXGXGXGXDXGXGXDXDXGXGXGXJXJXKXJ.vX  &       & 6 g 6 @ bXLXLXLXHXJXGXGXHXLXLXg g d f d d r w # % IXLXJXGXGXGXHXHXHXGXDXDXGXGXGXGXGXGXGXGXGXGXGXGXGXGXGXGXGXGXGXGXGXGXGXGXGXGXGXGXGXGXGXGXGXGXGXGXGXGXGXGXGXGXGXGXGXGXGXGXGXGXGXGXGXGXGXGXGXGXGXGXGXGXGXGXGXGXGXGXGXGXGXGXGXGXGXGXGXGXGXGXGXGXGXGXGXGXGXGXGXGXGXGXGXGXGXGXGXGXGXGXGXGXGXGXGXGXDXGXGXHXHXKXOXOXfXzXdXD.D.G.G.G.aXaXiXaXiXOXOXOXOXOXG.V.}.wXyXyXyXyXyXyXXX}.yXyXtXwXwXwXwXeXeXyXeXwXtXtXtXtXtXtXtXtX",
"i.x.x.t.s., @ > @ 3 @.n.g.x.x.v.z.v.d.d.v.z.v.x.b./ @ @ ( ^ +.n.x.z.z.v.z.z.c.c.c.c.c.c.c.c.c.c.z.z.b.t.F.o.O > 0 5 a n.c.c.v.v.d.m.d.w.r.u X ( j.g.M.c.c.b.n.+.^ ( 4 - +.b.c.x.x.x.c.c.z.n.s.O 4 4 4 4 p 0 4 : 2 y.n.+.u ^ E ^ p > > > ; > 4 : d p d p p p 4 0 > 6 5 4 4 4 4 4 4 0 0 6 0 4 4 4 < 7 s.a.e.n.b.x.t.t.t.t.e.e.t.e.a.t.e.g.w.w.i.w.w.w.w.w.w.w.w.w.w.w.w.w.w.w.w.w.w.5.w.x.w.g.e.e.x.w.g.x.g.g.g.f.g.x.x.x.x.x.x.x.x.b.g.g.e.e.r.r.e.e.e.w.e.e.e.e.e.e.e.e.e.w.w.w.f.u.u.z.z.f.x.x.g.x.x.x.x.x.x.x.x.x.x.x.i.i.i.a.y.s.y.y.y.y.S.S.> 6 > > ; @.s.r.e.u.w.z.v.i.u.u.u.u.x.z.w.w.u.i.w.e.w.w.w.w.w.w.e.e.e.e.i.e.e.e.e.e.e.i.i.i.e.e.e.e.e.e.e.e.e.e.e.i.i.i.i.i.i.i.i.i.i.i.i.i.i.i.e.e.e.e.i.i.i.i.e.e.e.e.e.e.i.e.e.e.i.i.i.u.w.w.w.w.u.u.u.w.w.5.z.6.u.7.6.6.6.p.p.6.6.p.u.6.6.p.p.7.q.5.2.q.q.2.9.{ e.G.G.G.XX}.}.}.}.}.}.XXXXXXXXXXXXXX}.}.}.}.}.XX}.}.}.}.}.}.wX}.}.}.}.}.}.}.}.}.}.}.}.}.}.}.}.wXyXyXyXyXyXuXuXsXuXf.4.u.6.u.z.z.z.5.z.6.z.6.u.i.z.u.u.u.u.u.u.u.u.w.w.w.w.w.e.e.e.e.e.e.e.e.w.w.w.w.u.5.g.6XC.V.V.V.N.B.m.m.m.m.c.V.uXuXoXoXOXvXhXIXLXJXHXFXDXGXGXGXDXDXGXGXGXGXJXKXKXIXIXIXIXIXbX  d % % Z.vXJ.J.J.bXLXJXLXLXPX%., p p ( f   bXPXSXKXLXHXHXGXGXGXGXGXGXDXDXGXGXGXGXGXGXGXGXGXGXGXGXGXGXGXGXGXGXGXGXGXGXGXGXGXGXGXGXGXGXGXGXGXGXGXGXGXGXGXGXGXGXDXDXDXGXGXDXGXGXGXGXGXGXGXGXGXDXDXDXDXDXGXGXGXGXHXGXGXGXGXGXGXDXDXDXDXDXGXHXHXGXDXDXGXGXDXGXDXDXGXGXGXGXDXDXGXGXGXGXGXGXGXGXHXGXGXGXDXGXGXKXOXOXdXfXfXdXaXOXD.oXdXjXdXgXdXdXdXdXdXdXoXV.yXyXwXeXyXyXtXtX}.}.wXwXwXwXwXwXwXwXwXwXwXtXtXtXtXtXtXtXtXtX",
"x.x.b.F.y.4 @ @ O X +.n.x.c.x.v.z.v.d.d.c.x.v.x.b.^ @ @ ( o.} b.c.c.v.v.c.z.z.c.c.c.x.x.c.c.c.z.z.z.x.e.n.+.O > + X p n.n.m.m.v.v.m.d.0.0.u O d j.h.M.c.c.b.n.+.E R < - +.b.b.x.x.x.z.z.z.n.@.- X X X - ; ; ; : 2 S.F.o.X - - : : O O X X - - O O O O O X X O ; ; > , , 6 > ; < - : : : - - X - - u y.n.b.n.x.x.b.t.y.S.n.a.F.a.a.y.t.e.w.w.w.q.q.q.0.q.q.q.5.5.w.w.w.w.q.w.5.5.x.w.w.w.g.b.t.b.n.b.n.n.b.g.g.f.f.f.g.g.g.x.x.g.b.b.g.g.e.e.w.w.e.e.e.e.e.e.e.e.e.e.e.e.e.e.e.w.w.f.w.f.f.f.f.f.u.u.u.x.x.x.i.x.i.i.i.x.x.i.i.x.i.e.i.i.a.t.a.S.O X O o - @.r.e.z.z.u.u.z.u.p.6.p.w.w.w.w.w.5.5.w.w.w.w.w.w.w.w.e.w.i.i.i.i.e.e.e.e.e.i.i.i.e.e.e.e.e.e.e.e.e.e.e.i.i.i.i.i.i.i.i.i.i.i.i.i.i.i.e.e.e.e.e.e.e.e.e.e.e.e.e.e.e.e.g.e.i.i.i.i.u.w.w.w.p.u.u.u.u.u.u.6.6.5.6.7.3.| 2.} } } 2.} } 2.5.2.p.6.5.6.5.2.q.} t.G.oXXXXX}.}.}.}.}.XXXXXXXXXXXXXX}.}.}.}.|.}.}.}.}.}.}.}.wX}.}.}.}.}.}.}.}.}.}.}.}.}.|.}.}.}.wXwXyXyXyXyXyXXXuXtXw.5.u.u.u.u.6.z.6.v.6.z.6.u.u.u.u.w.w.w.w.w.w.w.w.w.w.e.e.e.i.w.w.e.e.i.i.w.u.w.u.u.w.x.6XC.V.V.B.B.B.m.m.m.N.M.V.uXXXXXoXoXD.>.nXPXJXHXGXGXGXGXGXGXGXGXGXGXGXHXHXHXHXHXLXLXLXnX  d w   %     &   J.LXLXJXLXPXf < ( 9 # & & bXLXLXLXHXGXHXGXGXGXGXGXGXGXDXGXGXGXGXGXGXGXGXGXGXGXGXGXGXGXGXGXGXGXGXGXGXGXGXGXGXGXGXGXGXGXGXGXGXGXGXGXGXGXGXGXGXGXDXGXDXGXGXGXGXGXGXGXGXGXGXDXDXDXDXDXDXGXGXGXHXGXGXGXGXGXGXDXDXDXGXGXGXGXGXHXGXGXGXHXHXGXHXGXGXHXGXGXGXGXGXHXHXGXGXGXGXHXGXGXHXGXGXGXHXHXKXOXOX@XdXfXdXaXOXl.G.aXdXdXgXdXdXdXdXdXdXOXG.yXwXeXeXeXwX}.tXtXyXwXwXwXwXwXwXwXwXwXwXwXwXtXtXtXtXXXtXtXtX",
"x.b.r.+.( 3 > ( ( ^ r.b.g.x.x.z.v.v.d.v.c.x.v.x.n.^ @ @ @.@.0.b.c.v.c.c.c.z.z.z.z.z.x.z.c.c.c.z.z.z.x.g.n.+.O > d p E n.n.M.m.m.m.m.f.r.r.i o ( j.h.c.c.x.x.n.+.R R 9 : +.b.x.x.x.b.z.z.x.b.r.~ / ^ ^ ^ 9 4 4 > 9 @.y.^ < 4 4 5 4 0 i R ^ ^ ^ ^ E E E E o.R : 0 4 0 4 4 6 4 < 9 / / / ^ / / / ^ R E e.b.w.f.f.g.b.y./ / +./ @.@.o.y.t.e.e.e.e.b.i.w.q.w.e.e.w.w.w.w.w.w.w.w.w.w.q.0.w.e.b.r.+.@.y.y.r.r.0.e.b.e.x.x.x.x.x.x.x.x.x.g.e.e.e.e.e.e.e.e.e.e.e.e.e.e.e.e.e.e.e.e.e.e.e.w.e.w.w.w.w.w.w.w.w.w.w.u.u.u.u.z.z.z.z.x.x.i.x.x.x.x.i.a.a.a.^ ^ ( ^ R s.e.z.z.z.z.u.p.u.p.p.i.p.p.6.u.u.6.p.u.u.u.u.u.w.w.w.w.w.q.w.w.w.w.e.e.e.e.e.i.i.e.e.e.e.e.e.e.e.e.e.e.i.i.i.e.i.i.i.i.i.i.i.i.e.e.i.e.e.e.e.e.e.e.e.e.e.e.e.e.e.e.e.e.i.i.i.i.i.u.u.u.w.w.w.p.6.6.6.5.6.6.6.q.4.n.n.j.j.l.l.j.j.j.n.e.3.2.5.2.5.5.q.q.} g.oXoXXXXX}.}.}.}.}.XXXXXXXXXXXXXXXX}.}.}.}.}.}.}.}.}.XXXX}.}.}.}.}.}.}.}.}.}.}.}.}.}.}.wXwXwXwXwXeXyXyXyXyXyXsXtXw.7.6.6.p.u.6.z.6.z.6.z.6.u.z.z.w.e.e.e.g.w.w.w.w.w.w.e.e.w.w.w.w.e.e.u.u.w.u.w.u.u.q.x.6XV.V.V.V.B.B.m.m.m.m.M.V.uXuXXXoXoXoXD.nXIXBXHXDXGXGXHXGXGXGXGXHXDXDXGXHXHXHXHXHXHXLXnX  g d O Z.bXbXbXvXnXUXUXLXPXPX( < d 5 f vXvXIXLXJXGXGXFXHXGXGXGXGXGXGXGXGXGXGXGXGXGXGXGXGXGXGXGXGXGXGXGXGXGXGXGXGXGXGXGXGXGXGXGXGXGXGXGXGXGXGXGXGXGXGXGXGXGXGXGXGXGXGXGXGXGXDXGXGXGXGXGXGXDXDXDXDXDXDXGXGXGXGXGXGXGXGXGXGXGXGXGXGXGXGXGXGXGXGXGXGXDXDXGXGXGXGXGXHXGXGXGXGXHXGXGXGXGXGXGXGXHXHXHXHXHXHXHXKXOXOXaXdXfXfXaXaXoXOXdXgXdXdX@X@XdXdXOXiXoXG.tXwXeXeXeXwXwXwX}.}.wXwXtXwXtXtXwXwXwXwXwXwXwXwXtXtXtXtXtXtX",
"t.n.E O 3 O X S.F.y.n.b.f.x.v.v.c.c.v.v.v.x.v.b.n.^ @ @ S.y.b.n.v.v.v.c.v.z.z.z.f.f.g.f.f.f.f.f.c.f.c.f.b.o.O > @.@.s.F.F.C.C.m.m.m.b.n.S.p O d j.h.c.c.v.x.n.+.R / ( i r.b.x.x.x.x.v.c.v.c.b.t.y.y.y.@.9 : > > X - O X > 4 < : i / +.s.a.n.a.F.n.n.n.n.F.@.< 0 0 4 ; ; 4 4 7 R F.n.b.n.n.n.F.n.F.b.n.b.e.x.g.g.t./ 2 O X O X - - ! y.r.e.0.q.b.e.q.4.0.q.w.q.5.w.w.w.w.w.w.w.w.x.b.x.g.b.+.X - ^ ! ! ! ! 0.t.g.g.g.g.g.g.g.g.g.x.e.e.e.e.e.e.e.e.e.e.e.e.e.e.e.e.e.e.e.e.e.e.e.i.i.e.e.e.w.w.w.w.w.w.w.w.w.w.u.u.u.u.u.z.z.u.z.x.x.i.i.i.i.i.t.t.a.y.y.9.b.z.z.v.i.z.w.4.5.w.w.2.6.6.6.6.6.6.6.p.p.p.w.w.w.w.w.q.w.w.w.w.w.w.w.w.w.e.e.i.e.e.e.e.e.e.e.e.e.e.e.i.i.i.i.i.i.i.i.e.e.i.i.i.e.e.i.e.e.e.e.e.e.e.e.e.e.e.e.e.e.e.e.e.i.i.i.i.u.u.u.u.w.w.q.p.6.6.6.6.p.p.p.4.} sXxXsXdXfXdXaXaXdXjXn.} | 5.5.5.2.2.} | r.XXoXXXXX}.}.}.}.XXXXXXXXXXXXXXXXXXXX}.}.}.}.XXXXXXXXXXXXXX}.}.}.}.}.}.}.}.}.}.}.XXXX}.tXwXwXwXeXeXeXeXyXyXXXuX9Xe.5.u.i.x.x.w.x.5.u.6.z.z.w.w.w.w.w.w.w.e.w.w.w.w.w.w.i.u.w.w.w.w.w.e.u.u.u.u.u.u.u.w.x.6XV.V.V.V.B.N.B.B.m.m.h.C.uXuXuXoXXXpXC.l.O.@XJXHXHXGXHXGXGXGXHXHXGXDXDXGXGXGXGXGXJXLXUX  w 6 . vXLXLXLXLXBX& & IXLXPX@.< p # Z.PXLXLXHXJXHXGXGXGXGXGXGXGXGXGXGXGXGXGXGXGXGXGXGXGXGXGXGXGXGXGXGXGXGXGXGXGXGXGXGXGXGXGXGXGXGXGXGXGXGXGXGXGXGXGXGXGXGXGXGXGXGXGXGXGXGXDXGXGXGXGXGXGXDXDXDXDXDXDXGXGXDXDXDXDXGXGXGXGXHXHXGXGXGXGXDXDXGXGXGXGXGXGXGXHXHXHXHXHXHXHXGXGXHXHXHXGXGXGXHXHXFXGXJXJXJXJXJXKXOXOXaXdXfXfXfXaXaXdXgXgX@X@X@X@XdX@XOXoXG.G.G.G.wXwXwXeXwXwX}.{.wXwXtXtXtXtXtXwXwXwXwXwXwXwXwXwXXXXXXXtX",
"y.F.( O X , - +.n.e.g.x.g.c.c.z.c.c.c.c.v.v.v.b.b.^ O + y.n.b.n.v.v.v.c.v.z.v.z.z.f.f.f.z.z.f.f.c.d.z.f.b.o.X > ( o.s.F.y.F.n.c.c.M.n.F.S.d o ( n.g.c.x.x.x.n.+.R ( ( 0 r.b.f.f.x.x.x.z.z.z.w.e.g.$.s.@.0 4 6 6 4 4 ; 4 6 ; - X u { 8.r.n.b.b.n.b.b.x.x.n.+.: 0 6 : , 2 2 - - u b.x.x.z.z.c.b.e.t.y.y.y.y.a.t.y.S.@.; O < < < < - +.t.r.w.0.4.x.x.w.q.q.w.w.w.w.w.u.i.i.z.z.f.f.w.w.f.f.n.+.; 0 / / / ! ! r.b.b.b.x.x.g.b.x.x.x.b.t.e.e.e.e.e.e.e.e.e.e.e.e.e.e.e.e.e.e.e.e.e.e.i.i.i.e.e.e.e.w.w.w.w.w.w.w.z.z.u.u.z.z.z.z.z.z.z.z.z.z.i.i.x.x.e.e.r.a.q.u.6.5.5.4.w.q. . .4. .q.u.5.p.p.6.u.u.6.6.5.5.5.5.w.w.w.w.w.w.w.w.w.w.w.w.w.w.w.w.e.e.e.e.e.e.e.i.i.i.i.i.e.e.e.e.e.e.i.i.i.i.i.i.i.i.e.e.e.e.e.e.e.e.e.e.e.e.e.e.e.e.e.e.e.e.u.u.u.u.u.p.q.q.p.p.p.p.7.p.3.9.} X.G.iXaXaXaXaXaXaXaXaXj.#.0.2.| 2.2.| } } h.G.XXXXXXXXXXXXXXXXXXXXXXXXXXXXoXXXXXXX|.|.XXXXXXXXXXXXXX}.}.}.}.}.}.}.wX}.}.}.XXXXXXXXtXyXyXeXeXeXeXeXwX}.l.D.D.$.] ] ] ] ] ] $...w.w.6.u.u.f.w.w.w.w.e.e.w.w.w.w.w.w.w.w.w.w.w.w.w.w.u.u.w.u.w.u.u.w.x.6XV.V.V.B.B.N.N.m.M.M.j.C.uXuXuXXXwXyXyXuXl.hXLXJXHXHXGXGXGXGXHXHXHXHXGXGXGXGXGXHXFXJXUX% h % & J.LXLXKXLXIX  g KXLXIX( p d # Z.PXLXJXGXHXHXGXGXDXGXGXGXGXGXGXGXGXGXGXGXGXGXGXGXGXGXGXGXGXGXGXGXGXGXGXGXGXGXGXGXGXGXGXGXGXGXGXGXGXDXDXGXGXGXGXGXGXGXGXGXGXGXGXGXGXGXDXDXDXGXGXGXGXGXGXGXGXGXGXGXGXDXDXDXDXGXHXHXHXHXGXGXGXGXHXGXGXDXDXDXDXGXDXGXHXHXHXHXHXGXDXDXDXGXDXDXDXDXDXGXGXJXHXJXJXPXPXLXPX@XaXaXfXfXfXfXdXdXdXdXdX@X@XdXOXgXdXOXD.G.G.D.D.oXXXwXwXeXwXwXwX}.}.wXtXXX}.}.}.}.}.}.}.}.}.}.}.tXtXtXtX",
"u p 0 ; p s.s.b.b.g.g.x.x.x.f.f.c.c.v.v.v.v.v.x.n.^ O o y.b.x.v.v.v.v.v.v.v.v.z.z.z.c.c.z.c.f.f.c.d.v.f.b.o.X > @.@.@.E p @.e.g.h.j.+.( ( 5 ; ^ n.g.c.x.x.x.b.+.9 0 4 - +.b.f.c.v.z.z.v.c.c.4.| #.s p p 4 > 6 > > 4 4 4 > 4 ^ E Q i.u.v.m.v.b.b.n.b.c.b.n.+.: 4 4 X E s.s.$.#.t.b.x.c.z.z.x.i.+.2 u p p R R p p ^ p X 3 ( @.@.+.E t.n.x.c.x.x.n.n.b.x.x.b.b.x.x.x.x.x.x.x.x.x.v.x.c.c.g.F.@.; 0 s.s.s.9.#.e.b.e.e.g.e.e.e.e.e.e.e.e.e.e.e.e.e.e.e.e.e.e.e.e.e.e.e.e.e.e.e.e.e.e.e.e.e.e.e.e.e.e.w.w.w.w.w.u.z.z.u.u.u.z.z.z.z.z.z.z.z.z.i.x.z.z.u.x.w.i.w.6.6.z.z.w.6XuX9XuX9X9XuX9Xq.2.p.5.p.p.6.6.6.5.5.5.5.q.q.w.w.q.w.w.w.w.w.w.w.w.w.w.e.e.e.e.e.e.e.i.i.i.i.i.e.e.e.e.e.e.i.i.i.i.i.i.i.e.e.e.e.e.e.e.e.e.e.e.e.e.e.e.e.e.g.e.e.e.w.u.u.u.p.p.q.q.6.5.7.7.p.q.5.b.9Xn.uXoXoXoXoXoXoXoXoXoXuXiXiXe.| b.9XC.C.n.C.XXXX|.|.XX|.XXXXXXXXXXXXXXXXXXoXoXXXXX|.|.XXXXXX}.}.}.XX}.}.}.}.}.}.tXwXyXXXXXXXoXyXyXyXyXyXeXeXeXeXwX{.V.dXzXzXhXzXzXzXzXzXzXxXsXsX9Xq.w.w.w.w.e.e.i.i.i.w.w.w.w.w.w.w.w.w.w.w.w.w.w.u.u.w.u.w.w.w.w.x.6XV.V.B.B.B.N.N.M.M.tXtXXXuXuXuXyXyX{.wXyXl.hXPXJXHXGXGXGXGXGXHXHXHXHXGXGXGXDXDXDXGXHXLXBXIXIXIXLXLXLXKXLXIX  g J.vXJ.6 r d % Z.LXHXGXHXHXFXFXDXGXGXGXGXGXGXGXGXGXGXGXGXGXGXGXGXGXGXGXGXGXGXGXGXGXGXGXGXGXGXGXGXGXGXGXGXGXGXGXGXGXDXDXGXGXGXGXGXGXGXGXGXGXGXGXGXGXGXDXDXDXGXGXGXGXGXGXGXGXGXGXGXGXDXDXGXGXHXHXHXHXHXGXGXGXHXHXHXGXHXHXGXGXGXDXDXGXHXHXHXHXHXHXGXGXGXGXGXDXGXGXJXJXbXmXbXbXbXvXvXvX@XaXfXfXfXfXdXdX@X@X@XdXdXdXdXOXD.OXD.G.dXgXgXhXdXiXtXwXeXwXwXwX}.}.}.tXXX}.}.}.}.}.}.}.}.}.}.}.}.}.}.}.",
": O 4 1 r F.n.b.x.c.x.f.x.c.c.c.c.c.c.v.v.v.v.x.n.^ O o y.j.c.v.v.v.v.c.v.v.v.v.c.c.c.c.z.c.f.f.c.d.d.f.b.@.X > S.F.@.u - @.t.b.e.j.p O X ; - p b.f.x.x.x.i.b./ q 4 4 - +.b.f.c.v.z.v.c.c.v.q.| #.u 2 4 6 0 6 6 6 6 4 > ; 1 +.#.e.6Xv.7Xm.v.m.b.b.b.b.b.b.! - < 4 X o.F.n.j.j.n.b.b.c.x.x.n.t.+.O ; : X - - - X O X O - ^ +.#.} #.b.c.c.v.v.v.m.v.v.c.n.n.c.x.x.c.c.c.v.v.v.c.c.c.v.M.g.F.@.: 0 y.t.t.r.r.e.e.0.0.0.0.0.0.0.0.0.r.0.0.0.q.q.q.0.e.e.e.e.e.e.r.r.e.e.e.e.e.e.e.e.e.e.e.e.e.e.e.e.w.w.w.e.e.w.w.w.u.u.u.z.z.z.z.z.z.z.z.i.u.u.u.u.u.z.p.u.u.6.z.z.5.4.9XsXiXaXiXiXjXuX0.} 0.2.q.q.6.6.p.6.p.p.p.p.p.p.p.p.p.q.p.q.q.w.w.w.u.u.w.w.e.e.e.e.e.e.i.i.i.i.e.e.e.e.e.e.i.i.i.i.i.i.i.e.e.e.e.e.e.e.e.e.e.e.e.e.e.e.e.e.e.w.e.w.w.q.p.p.p.p.q.5.5.4.2.2.3.} } b.sXuXuXXXoXoXoXoXuXuXoXXXiXjXsXr.~ g.uXuXuXuXoXoXoXoXXX}.XXXXXXXXXXXXXXXXXXXXoXoXXXXX|.|.}.}.}.}.}.}.}.}.}.}.}.}.wXwXwXyXyXyXyXyXyXyXyXyXyXeXeXwXwX}.V.D.hXbXbXbXbXmXmXmXbXmXvXdXjXG.}  .q.q.q.w.q.q.e.i.u.u.u.u.w.w.w.w.w.w.w.w.w.w.u.u.w.u.w.w.w.w.x.6XV.B.B.B.B.B.m.M.M.uXiXuXuXuXpXyXwXwXyXyXl.hXPXHXHXGXGXGXGXHXHXHXGXGXHXHXHXHXGXGXFXFXHXLXLXLXHXFXHXHXLXLXBX&       &   .     Z.KXHXGXHXHXGXGXGXDXGXGXHXHXGXGXGXGXGXGXGXGXGXGXGXGXGXGXGXGXGXGXGXGXGXGXGXGXGXGXGXGXGXGXGXGXGXGXGXGXGXGXGXGXGXGXGXGXGXGXGXGXGXGXGXGXGXGXGXGXGXGXGXGXGXGXGXGXGXGXGXGXGXGXGXHXHXHXHXHXGXGXGXHXHXHXGXFXHXGXGXHXHXHXHXHXHXHXHXJXJXJXGXGXJXJXJXGXHXJXJXKX;XvX@XhXhX@XOXOXaXaXdXfXdXfXdXaXdXdX@XdXgXdXaXoXG.iXG.OXjXhXhXhXhXdXoX}.eXeXwX}.}.}.tXtXXXXX}.}.}.}.}.}.}.}.}.}.}.}.}.}.",
"6 > p p u b.b.x.g.c.x.z.v.z.g.c.v.c.c.c.v.v.v.x.b.^ O o %.j.c.c.v.v.c.v.c.v.v.v.c.c.c.c.c.c.c.c.c.d.z.f.b.o.X o ( S.@.i < @.n.e.#.S.( O 9 ( ^ ] g.5.x.z.z.w.b.! i R ( i +.b.f.c.v.z.m.v.f.v.w.} s.p 4 6 6 4 > > 4 4 6 4 > 2 +.0.u.7Xv.v.v.z.m.x.n.b.b.b.n.9.Y ^ 4 O ] n.h.$.$.@.s.s.y.r.r.y.s.( - 4 4 < 0 R R R E / p E #.r.4.4.| r.c.v.v.v.v.v.v.v.v.v.c.v.z.x.x.z.v.v.v.v.z.f.f.f.g.r.S.@.4 d s.r.e.r.0.w.w.q.w.w.w.w.e.e.e.e.r.w.r.e.w.w.w.w.w.w.q.q.q.q.q.q.w.w.e.w.w.w.w.w.w.w.w.w.w.w.e.w.w.w.e.w.w.e.e.w.u.u.i.z.z.z.x.z.z.z.u.u.u.u.u.u.w.z.u.p.p.6.p.p.w.4.9XiXoXoXoXOXiX9Xr.r.b.e.e.e.q.q.q.q.q.q.q.p.p.p.q.q.p.p.p.q.q.q.w.w.u.u.w.w.e.e.e.e.i.i.i.i.e.i.e.e.e.e.e.e.i.i.i.i.i.i.i.i.e.e.e.e.e.e.e.e.e.e.e.e.g.g.e.e.e.w.w.w.w.p.p.q.q.q.q.q.w.w.e.r.r.#...h.uXG.XXuXyXuXyXyXuXuXuXXXOXaXsXh.X.f.uXXXXXXXXXoXXXoXXX|.XXXXXXXXXXXXXXXXXXXXXXoXXXXX|.}.}.}.}.}.}.}.}.}.}.}.}.}.tXyXyXyXyXyXyXyXyXyXyXyXyXwXwXwX}.XXG.D.@XvXvXvXvXvXvXvXvXvXzXOXjXuXj.G.j.j.b.x.e.e.e.e.e.u.u.u.p.w.w.w.w.w.w.w.w.w.u.u.w.w.w.w.w.5.f.6XV.B.B.B.B.B.N.M.c.uXuXoXXXoXyX}.wXwXeXwXV.zXPXHXHXGXDXDXGXGXHXHXHXHXGXGXGXGXGXGXGXHXGXGXHXFXHXDXHXDXHXJXJXJ.;X;X;X;XJ.;XJ.J.;XJXHXGXDXGXGXGXGXGXGXGXHXHXGXGXGXGXGXGXGXGXGXGXGXGXGXGXGXGXGXGXGXGXGXGXGXGXGXGXGXGXGXGXGXGXGXGXGXGXGXGXGXGXGXGXGXGXGXGXGXGXGXGXGXGXGXGXGXGXGXGXGXGXGXGXGXGXGXGXGXGXGXHXHXHXHXHXHXGXGXGXGXHXHXJXKXKXSXSXSXKXFXHXHXHXKXSXSXSXSXSXSXSXSXSXSXKXKXSXSXSXvXzXlXzXzXgXdXjXaXaXfXdXdXdXaXOXdXdX@X@XdXaXaXoXG.OXG.G.gXhX@XhXhX@XG.}.eXeXwXwX}.}.wXwXtXXX}.}.}.}.}.}.}.}.}.}.V.V.}.}.",
"> o ( S.s.b.b.x.x.x.c.c.z.z.x.x.x.x.x.x.v.v.v.c.F.^ @ @ S.F.g.x.b.g.n.g.c.c.c.v.z.c.c.c.x.x.c.v.z.z.z.z.n.+.X 4 O O < p p @.t.0.~ E p , 7 F.F.n.c.v.v.v.v.v.n.b.a.b.a.a.t.g.c.c.v.z.z.v.c.f.g.#.@.p : 4 0 6 4 4 4 4 > 4 > 2 y.n.v.v.v.v.v.v.v.c.c.c.x.x.c.n.n.F.p X ^ j.j.e O 2 O O - O - O : ; > 6 4 X @.F.t.n.b.F.F.F.n.n.n.M.M.M.v.v.v.v.v.m.v.v.v.v.v.v.v.v.v.v.d.v.d.v.f.c.g.x.t.2 O 0 ( ^ n.n.n.c.b.c.c.c.c.c.c.c.b.b.b.b.b.b.b.b.b.b.b.b.b.b.b.b.b.b.x.x.b.x.b.b.b.b.b.b.x.x.x.x.x.x.b.c.b.e.e.e.e.x.e.x.i.u.u.x.z.z.i.z.z.x.i.i.e.e.u.u.u.6.u.q.q.u.q.q.5. .V.sXoXoX+XOXpXiXuXiXuXiXiXuXsX9X8.r.e.3.q.p.p.q.7.q.q.8.q.q.q.p.q.u.p.u.w.w.w.e.i.e.w.w.w.e.e.e.e.e.e.e.e.e.e.e.e.i.e.e.e.e.e.e.e.e.e.e.e.e.e.e.e.e.e.e.e.e.w.w.u.u.p.p.p.p.q.p.q.0.uXiXoXuXuXuXuXuXoXoXXXXXXXXXyXyXXXXXXXXXoXXXXXXXXXtXXXXXoXoXoXoXyXyXXXXXXXXXXXoXoXXXXXXXXXXXoXXXXXXX}.}.}.}.{.{.}.}.}.tXXXXXXXXXXXyXyXyXyXyXyXuXyXXXyXyXXXyX}.XXV.G.jXxXOXOXD.OX@X@X@X@XoXl.l.aXD.jXxXxXiXsXuXr.e.e.r.r.e.e.w.u.u.w.w.w.w.w.w.w.w.w.w.w.w.u.w.u.w.5.g.6XC.M.C.m.B.B.m.M.M.uXuXoXoXoXyXyXyXyXwXyXl.zXPXHXGXDXDXDXGXGXHXGXGXGXDXDXGXGXGXGXGXGXGXHXHXGXDXDXGXGXGXHXHXLXLXLXLXLXLXLXLXLXHXHXHXGXGXGXGXGXGXGXGXGXHXHXGXGXGXGXGXGXGXGXGXGXGXGXGXGXGXGXGXGXGXGXDXDXDXDXGXGXDXDXGXGXGXGXDXDXDXGXDXGXGXGXGXGXGXGXGXDXGXHXHXGXGXDXGXGXDXDXDXDXDXGXGXGXGXDXGXGXDXGXHXGXHXHXHXHXHXDXGXGXHXGXHXLXbXA.@X@XA.BXLXJXJXLXBXA.@XOX@X@X@X@X@X@X@X@X@X@X@X@XOXOXOXOXaXaXfXfXfXaXdXdXdXdXdXaXaXaXaXaXOXG.oXG.C.G.G.G.dXhXhX@XhXOXG.V.wXeXwXwX}.}.}.}.XXXXXXwX}.}.}.}.}.}.}.XX}.}.}.}.",
"> ; ( S.y.n.b.x.x.x.c.c.c.c.x.x.x.x.x.x.v.v.v.x.n.^ O @ Z.H.j.n.n.j.F.j.n.c.z.v.z.z.z.z.x.x.z.z.z.v.v.v.b.E O O 4 o 6 d p s.n.b.E ^ p < 2 b.b.c.m.v.m.m.v.v.c.x.x.x.x.g.g.g.c.c.c.z.c.v.c.c.e.| @.p 4 4 6 4 4 4 4 4 > 4 < 2 0.x.v.v.v.v.v.v.v.v.M.M.c.v.x.x.c.b.7 X o.F.F.E X : > > 6 6 0 X ; > > X : O / n.x.b.n.b.t.t.b.b.x.n.c.m.m.v.m.v.v.v.d.v.v.v.v.v.v.d.d.d.d.d.z.n.e.b.n.F.S.i ; d @.E b.b.b.b.x.c.c.c.c.c.c.c.x.x.x.x.g.g.x.x.x.x.x.x.x.x.x.x.x.x.x.x.x.x.x.x.x.x.x.x.x.x.x.x.x.x.x.c.b.e.e.e.e.i.i.x.i.i.i.u.x.x.i.x.x.f.i.i.e.e.i.u.u.q.u.q.q.q.q.q.} X.M.uXoXoXoXoXpXuXuXuXuXOXoXOXuXj.] E ] | 9.{ { 2.2.} } } } } q.5.5.q.p.q.u.w.w.w.w.w.w.w.w.w.e.e.e.e.e.e.e.e.e.e.e.i.e.e.e.e.e.e.i.e.i.e.i.e.e.e.i.e.i.e.e.w.i.u.u.u.p.p.p.q.q.p.2.4.uXoXoXXXoXoXuXoXoXoXXX}.XXXXeXwXXXXXXXXXXXXXXXXXoXXXoXoXoXoXoXoXyXyXXXXXXXXXXXXXXXXXXXXXXXXXXXXXXX}.}.}.|.wXwX}.}.}.}.XXXXXXXXXXXXXXyXuXyXyXuXuXuXuXyXyX}.yXXXuXG.D.dXzXaXOXoX@X@X@XOXdXD.l.l.aXG.jXlXzXG.G.D.O.$.+.+.+.+.r.0.4.q.5.w.w.w.w.w.w.w.w.w.w.w.w.w.w.w.5.w.C.C.M.m.m.m.m.m.m.M.uXuXoXoXoXyXyXyXyXwXyXl.zXPXHXGXDXDXGXGXGXHXGXGXDXDXDXDXGXGXGXGXGXGXHXHXGXDXDXDXDXDXGXHXHXHXHXHXHXGXHXHXHXHXHXGXGXGXGXGXGXGXGXGXGXHXGXGXGXGXGXGXGXGXGXGXGXGXGXGXGXGXGXGXGXGXGXGXGXGXDXGXGXGXHXGXGXGXGXDXDXDXGXGXGXGXGXGXGXGXGXGXGXDXGXGXGXGXGXGXHXHXGXDXFXDXGXHXGXGXGXGXGXGXGXGXHXHXHXHXGXGXHXHXGXHXHXJXPXnX@XhXhX@XIXPXPXPXPXIX@XhXdXfXfXfXfXgXgXgXfXfXfXfXdXdXaXaXaXaXaXaXfXfXfXfXfXdXgXdXaXaXaXaXaXiXoXuXG.G.uXoXOXgXhXhXhXhX@XoXXXwXwX}.}.}.}.}.}.XXXXtXtX}.}.}.}.}.}.}.XX}.}.}.}.",
"6 > d f E a.n.b.x.x.c.c.c.z.x.x.x.c.c.v.v.v.v.x.b.^ + @ f f @.j.F.o.E o.b.c.v.v.z.z.z.z.x.x.z.z.d.d.z.z.x.e.$.S.( > 3 0 2 +.b.x.E ^ p < 8 t.z.d.v.d.v.v.v.v.v.c.z.c.c.x.f.z.z.z.v.c.c.v.c.c.r.u E 9 ; > > > 4 4 > 4 > 0 p i g.m.m.v.v.v.v.v.v.v.m.n.n.c.c.v.c.b.u - d / / ^ R d R 0 0 4 6 > 6 > 4 5 +.+.e.c.c.f.n.r.! / 9.r.r.r.0.g.c.c.v.v.v.v.v.v.v.v.v.v.v.d.d.v.d.v.x.x.| +./ / / 0 ; ( s.+.b.x.b.x.x.x.c.c.c.c.x.g.g.g.g.g.g.g.g.g.g.g.x.x.x.x.x.x.x.x.x.x.c.c.x.x.x.c.x.c.x.g.x.x.x.c.x.x.b.e.e.e.e.e.e.e.i.i.i.i.i.i.i.x.f.f.w.e.e.e.i.w.u.p.u.q.w.q.q.n.9Xn.uXiXuXpXoXoXyXyXuXuXoXoXoXoXOXG.D.G.jXxXjX} #.G.0XG.G.G.G.G.9Xu.q.p.p.u.i.i.q.w.w.w.w.w.w.w.e.e.e.e.e.e.e.e.e.e.e.e.e.e.e.e.e.e.i.e.i.e.i.e.i.e.i.e.i.e.w.w.i.u.u.p.p.p.q.7.p.p.4.0.uXuXoXoXoXuXuXuXyXoXXX}.yXyXyXwXyXyXXXXXoXyXoXoXuXoXoXoXoXoXoXoXyXyXXXXXXXyXXXyXyXyXXXyXXXXXXXXX}.}.}.}.{.}.XX}.}.}.XXXXXXoXoXoXoXoXoXuXtXyXuXXXyXyXyXyX}.}.}.oXXXD.iXaXiXoXoXfXgXfXdXgXaXaXOXsXoXaXiXOXaXdXdXOXOXdXiXdXdXsXn.e.x.u.p.5.w.w.w.w.w.w.p.p.w.u.w.w.w.5.w.C.m.N.M.m.m.m.m.m.c.uXuXoXuXoXyXwXeXyXwXyXl.zXPXHXGXDXGXGXGXHXHXHXGXGXDXDXDXGXGXGXGXGXGXGXHXGXDXDXGXGXDXDXGXGXHXGXGXGXGXGXGXHXGXGXGXGXGXGXHXHXHXHXGXGXGXGXGXGXGXGXGXGXGXGXGXGXGXGXGXGXGXGXGXGXGXGXDXDXFXDXDXGXGXHXGXGXGXGXDXGXGXGXGXGXGXGXGXGXGXGXHXHXHXHXGXGXGXGXHXHXGXDXDXDXGXGXGXHXHXGXFXGXHXDXGXHXHXHXGXGXFXGXDXFXHXSXbXbXvX@XhXhX@XmXnXnXnXnXvXOXfXaXfXaXfXfXfXfXfXfXfXfXaXaXaXaXaXaXaXaXaXaXaXaXaXdXdXdXaXOXoXoXoXoXoXG.uXXXV.XXXXG.OXOXOXOXaXOXXX}.wXwX}.}.}.}.XXXXXXXXXXXX}.}.}.}.}.}.XXXXtXtX}.}.",
"> X , X 2 r.b.w.x.x.x.x.x.x.x.x.x.c.c.v.v.v.v.x.n.+.O @ .   p y.S.r X p j.n.m.v.z.z.z.c.x.x.v.v.v.v.v.c.c.c.n.H.( > > 4 X +.n.x.i R 0 7 u e.z.v.d.d.d.v.d.v.v.z.z.v.c.z.f.c.z.z.v.c.c.c.v.b.+.2 1 , > > > 4 4 > 4 6 : p ^ E f.c.v.v.v.v.v.v.v.v.n.c.c.c.c.c.g.b.1 ; < X - ( / ( ( i 4 O > > ; X X 2 y.F.n.c.c.c.n.+.R R +.+.+.+.! r.c.c.z.v.v.v.v.v.v.v.v.v.d.d.v.d.d.v.n.s.2 X - X > ; O d S.n.b.x.x.x.x.x.x.x.c.x.x.x.x.x.x.x.f.f.f.c.f.f.x.c.x.x.x.x.x.x.x.x.c.x.x.x.x.x.x.x.g.g.x.x.x.x.c.x.b.e.e.e.e.e.w.e.e.i.i.i.i.i.i.i.x.g.i.e.e.e.w.u.u.u.p.6.q.2.2.n.sXuXsXiXXXuXoXuXyXyXyXyXyXoXoXoXOXOXD.D.jXbXjXE | 9XsXiXiXiXiXsX0Xw.q.u.q.q.u.q.w.w.w.e.e.e.e.e.i.e.e.e.e.i.i.i.e.e.e.e.e.e.e.e.i.i.i.i.i.i.i.i.i.u.i.i.u.u.w.w.w.u.p.u.p.p.5.5.3.3.}  .G.XXoXoXoXuXuXuXyXyXoXXXyXyXyXyXyXwXXX}.yXyXoXXXoXoXoXoXoXoXoXyXyXyXyXyXyXyXyXyXyXXXXXXXyXXXXXXXXXXX}.}.}.}.XXXXXXuXuXuXuXoXuXoXuXuXuXuXuXuXuXXXXXuXuXyXXXXXV.uXiXOXaXiXiXiXoXlXzXzXzXzXjXlXaXaXOXOXD.D.dXdXhXhXzXzXzXzXzXzXn.#.q.q.6.z.p.w.w.w.w.w.w.p.u.u.u.u.w.5.w.C.m.M.m.m.m.m.m.m.c.uXuXoXuXoXyXwXeXyXwXyXl.zXPXHXGXDXGXGXHXHXHXHXHXGXDXDXDXDXGXGXDXDXGXGXGXGXGXDXGXGXDXDXDXDXGXDXDXDXDXDXGXGXGXGXGXGXGXGXHXHXHXHXGXGXGXGXGXGXGXGXGXGXGXGXGXGXGXGXGXGXGXGXGXGXGXGXDXGXGXGXGXHXGXHXHXHXHXHXHXGXDXDXGXGXGXGXGXGXGXGXFXGXHXGXHXHXGXGXGXGXDXFXDXGXHXDXFXHXHXHXHXHXGXGXHXGXGXHXJXHXHXHXHXHXLXBX@XOXdXfXfXfXOX@XOX@XH.OXfXOXaXaXfXaXfXaXfXfXfXfXfXaXaXaXfXaXaXaXfXfXfXfXfXaXdXdXdXgXaXOXD.G.G.XXXXG.uXyXXXuXXXG.XXXXG.G.XXG.V.{.}.}.}.}.}.}.XXXXXXXXXXXX}.}.}.}.}.}.XXXXtXtXtXtX",
"4 ; p p E n.n.x.x.z.z.x.x.x.f.f.v.c.c.c.v.v.v.v.x.! : d 6 . ^ F.S.r O p n.c.v.v.z.z.c.c.v.v.v.v.d.d.v.v.c.c.g.j.( o 6 6 X @.n.r.i d 0 9 u t.c.v.d.d.d.v.v.v.c.c.z.z.c.z.z.c.v.z.v.v.v.v.v.n.s.- 1 < 6 0 4 4 4 > > 4 - R +.| f.z.v.v.v.v.v.v.v.v.v.b.n.n.C.n.r.y.9 6 0 5 < ( / R T u T R ( < X p E ~ r.b.b.x.c.c.n.@.9 i / +./ 9.! e.6XM.v.v.v.v.v.v.c.c.c.z.d.d.z.z.x.b.F.S.9 > 0 > 4 d p E r.e.c.c.c.c.x.x.x.x.c.c.c.x.x.x.x.x.z.x.x.z.x.c.c.c.x.x.x.x.x.x.x.x.z.x.x.x.x.x.x.x.f.z.x.f.x.x.x.x.b.w.e.e.e.i.e.e.e.e.e.i.i.i.i.i.i.i.i.i.u.w.w.w.q.p.p.p.i.q.0.n.uXG.uXoXoXiXiXsXuXyXyXyXyXuXuXoXiXOXoXD.G.jXiX$.| G.iXoXOXOXOXiXiXq.q.i.q.p.i.i.q.w.w.w.e.e.w.w.w.w.e.e.e.e.i.i.e.e.i.e.e.e.e.i.u.u.u.u.u.u.u.u.u.u.i.u.i.u.u.w.q.u.p.p.p.q.w.n.g.g.e.g.9XXXoXXXoXoXoXoXoXoXoXXXXXXXXX}.wX}.tXwXyXyXXXXXoXoXoXoXoXoXoXyXyXyXyXyXyXyXyXyXyXXXXXXXXXXXXXXXXXXX}.}.G.V.G.G.G.XXXXC.oXG.G.G.G.G.G.G.C.tXuXG.XXuXV.M.V.XXC.XXuXuXiXoXOXaXOXdX@XfXhXlX@XfXOXOXOXOXoXoXaXOXfXgXfXlX@XhX@XhXH.r.i.q.6.p.p.p.p.w.w.w.w.w.p.u.w.w.e.q.e.C.m.M.m.m.m.m.m.m.c.uXuXuXyXXXyXeXwXeXeXyXl.zXPXGXGXDXGXHXHXHXGXHXHXHXGXGXGXGXGXGXDXDXDXGXGXGXGXGXHXHXGXGXDXDXGXDXDXDXDXGXGXGXGXGXGXGXGXGXGXGXGXGXGXGXGXGXGXGXHXHXGXGXGXGXGXGXGXGXGXGXGXGXGXGXGXGXGXGXGXHXGXHXGXGXFXFXGXGXHXGXGXGXHXHXHXGXGXHXHXHXHXHXHXGXHXGXGXHXGXHXHXHXGXHXHXGXHXLXSXKXJXKXKXLXGXFXHXLXSXKXJXJXKXKXPXIX@X@XfXaXaXfXfXdX@XfX@XgXOXdXfXdXlXfXfXfXdXdXdXdXdXdXdXdXfXfXaXfXfXdXdXfXaXaXdXdXdXgXaXoXG.XX}.XXXXXXyXtXyXyXyXyXyXyXXXXXXX}.}.wXwX}.}.}.}.}.XXXXXXXXXXXX}.}.XXXXXX}.XXXXXXXX}.}.",
"6 : @.F.b.n.c.n.x.x.x.x.x.x.f.f.v.c.c.c.c.v.v.v.c.e.s.S.d . p S.S.p O p j.x.z.6.v.z.v.v.v.v.v.v.m.v.v.v.z.f.h.j.( X 3 3 O @.F.y.9 0 0 5 8 a.c.m.v.v.v.v.v.v.v.v.z.x.c.z.z.c.v.v.v.v.v.v.v.n.s.- 5 4 6 6 > 4 4 4 3 4 - ^ y.r.v.m.v.v.v.v.v.v.v.v.c.c.c.x.g.| 2 < 4 > > 4 : 5 < : T u +.F.S.X O @.F.g.n.b.n.c.c.x.b.+.- : ( E E ! E e.6X6X6Xm.m.m.m.v.v.v.v.c.v.v.5.x.b.! 8 9 ; 0 6 > 6 S.S.S.F.n.c.c.c.c.x.x.c.x.x.x.x.x.x.x.x.z.z.z.z.z.z.x.x.x.v.v.v.v.v.v.v.v.z.z.x.x.x.x.x.x.x.x.z.x.x.x.x.x.x.0.w.e.x.b.e.e.e.e.e.e.i.i.i.i.i.i.i.u.w.u.w.u.q.p.u.q.q.0.} 0.#.} #.#.g.tXtXyXuXyXyXyXyXyXoXXXXXXXoXOXoXoXuXG.C.uXuXoXiXiXuXiX9X0.2.q.8.q.q.q.q.q.q.q.w.w.w.r.w.w.e.e.e.e.e.i.e.e.i.i.e.e.e.u.u.u.u.u.u.u.u.u.u.u.u.u.u.u.u.u.q.u.p.p.p.5.b.uXiXuXuXXXsXuXuXoXoXoXoXoXyXyXyXyXXXXX}.}.}.}.tXwXyXyXXXoXoXoXyXyXoXoXoXyXyXyXyXyXyXyXuXuXuXuXuXuXuXuXuXuXuXuXtXXXoXXXoXoXoXoXG.j.j.h.h.g.g.h.h.h.g.G.uXG.uXXXj.$.h.V.C.V.}.V.}.V.XXaXOXOXoX+XgXhXfXlXfXfXgXfXaXaXOXOXOXOX+X@X@X@X@XhXj.} w.u.i.6.p.w.p.p.w.w.w.w.q.p.q.w.i.q.e.n.m.m.m.m.m.m.m.m.v.uXuXoXoXXXyXwXwXeXeXyXl.hXPXGXGXDXGXHXHXGXGXGXHXHXGXGXGXGXGXGXGXDXGXGXGXGXGXGXHXHXGXGXDXDXGXGXGXGXDXGXGXGXGXDXGXGXGXGXGXGXGXGXGXGXGXGXGXGXHXHXGXGXGXGXGXGXGXGXGXGXGXGXGXGXGXGXGXGXGXGXGXHXHXHXHXJXGXGXHXHXHXHXGXGXHXHXHXHXHXHXFXHXGXJXHXHXJXJXHXFXFXGXGXHXHXHXJXBX@X@X;X@XvXJXHXGXHXKX;X@X@X@X@X@XhXhX@XgXfXaXaXfXfXfXdXgXdXdX@XgXgXaXdXdXfXgX@X@XdXdXdXfXfXfXfXfXfXfXdXdXdXaXaXaXdXdXdXgXaXuXV.tXV.{.wX}.XXXX}.XXtX}.}.}.tXyX}.wXyXyX}.}.}.}.}.}.XXXXXXXXXXXX}.}.XXXX}.}.XXXXtXtX}.}.",
"4 O @.F.g.g.f.v.x.x.x.x.x.x.g.g.c.c.c.c.x.v.x.z.d.w.a.S.5 X E F.S.p O p j.b.v.d.z.z.d.d.v.v.v.v.c.c.c.v.v.c.h.j.^ O 3 3 O @.F.y.1 0 4 , 2 t.c.v.v.d.v.c.c.v.v.c.z.z.z.z.z.z.c.c.c.c.v.c.z.c.s.- 4 > > > < < 4 4 4 9 - +.t.e.c.v.v.v.v.v.v.v.v.v.v.c.v.c.n.+.- 6 6 6 > 4 , 4 > 6 ( 7 +.F.+.X X +.x.6.c.c.m.x.c.c.n.+.X X R E E ~ ~ 0.n.n.c.v.c.c.v.v.v.c.v.c.c.z.c.n.n.^ X ; O 6 > > , S.F.j.n.j.b.c.c.x.x.x.x.c.x.x.x.x.x.x.f.f.f.g.x.x.x.x.x.x.x.x.x.x.x.x.x.x.x.x.x.x.x.x.x.x.x.x.x.x.x.x.x.x.x.w.e.x.b.b.e.e.e.e.e.e.i.i.i.i.i.i.u.u.u.w.p.p.u.p.p.2.2.8.{ { 2.| | | w.tXuXuXuXyXXXXXXXXXXXyXpXXXoXpXoXoXoXyXuXyXXXXXoXoXoXiXC.} } 0.2.2.3.2.w.q.q.q.q.w.w.r.w.w.w.w.e.e.e.e.e.i.i.i.e.e.e.u.u.p.p.p.p.p.p.p.p.p.u.u.p.p.p.p.p.p.p.p.p.5.b.sXiXOXOXoXuXXXoXoXoXoXoXyXuXuXuXuXtXtXtXtXtXtXtXyXyXyXoXoXoXuXuXuXuXuXuXyXyXyXyXyXuXuXuXuXuXuXuXuXuXuXuXuXuXuXuXuXoXoXuXuXuXuX9Xn.n.n.n.n.M.M.m.M.h.G.uXG.uXuXM.r.h.tXtXtXwX{.wX{.}.aXoXaXoXOXlXlXlXlXlXgXfXfXaXaXaXpXpXaXoXfX@X@X@XdX$.| 4.2.i.i.p.p.p.p.p.p.p.p.q.u.q.u.i.w.e.C.m.m.m.m.m.m.m.m.c.tXuXoXoXXXyXwXwXeXeXuXl.hXPXGXGXDXGXHXGXGXDXDXGXGXDXDXDXGXGXGXGXGXGXGXGXGXGXGXGXGXGXDXDXDXGXHXHXGXGXGXGXGXGXDXDXDXGXGXGXGXGXGXGXGXGXGXGXGXHXGXGXGXGXGXGXGXGXGXGXGXGXGXGXGXGXGXHXHXHXHXHXHXJXJXHXJXGXHXHXHXGXGXGXGXGXGXGXGXHXHXHXHXHXFXHXLXHXHXLXJXHXHXHXJXHXLXPXIX@X@X@X@XvXPXLXHXLXKXhX@X@X@XOXOXOXdXOXfXaXaXaXaXaXaXfXaXaXaXaXfXfXdXdXgXfXfXgXgXfXgXgXgXjXjXgXfXgXgXfXjXfXjXaXaXgXdXdXdXsXuXV.tX}.wXyXwXyXyXtXtXtXtX}.}.wXwX{.}.}.}.}.}.}.}.}.}.XXXXXXXXXXXX}.}.XXXXXXXXXXXXtXtXXXXX",
"0 - +.F.g.c.c.f.x.x.x.x.x.x.x.f.c.c.c.c.z.x.z.z.v.4.8.s.E ^ ^ ^ / 5 X d a.w.v.z.z.z.v.v.v.v.v.v.c.v.c.v.v.f.c.n.^ X 4 6 O ( o.^ 5 0 4 ; - y.x.z.z.6.6.z.f.f.f.f.z.z.z.z.z.z.v.v.v.v.v.v.z.b.s.- 0 > 4 4 4 < < : , 5 - +.n.x.c.m.c.c.c.v.v.v.c.c.c.m.v.x.F./ O 6 > 0 4 4 ; 4 > 6 d 9 s.b.t.} +.r.n.z.v.z.v.f.z.z.b.+.X 2 @.y.r.0.} w.x.z.f.d.5.5.f.f.w.w.w.f.d.f.r.! +.@./ / 6 > > w ; / @.o.+.+.b.x.x.x.x.x.x.c.c.c.c.c.x.x.x.x.x.x.x.x.x.x.x.x.x.x.x.x.x.x.x.x.x.x.x.x.x.x.x.x.x.x.x.x.x.x.x.x.c.w.x.x.x.b.w.w.e.e.e.e.e.i.i.i.i.i.u.u.u.w.p.p.p.q.q.8.r.F.9XF.C.n.C.b.C.uXuXuXuXyXXXXXXXXXXXXXwXyXyXXXoXuXyXyXyXyXyXoXoXXXuXiXuXb.n.n.n.C.n.9Xe.e.q.q.w.w.w.w.w.w.w.w.w.e.e.e.e.w.i.u.e.i.i.i.u.p.u.u.u.u.u.u.w.w.u.u.u.w.w.p.p.p.p.p.p.2.e.iXoXoXOXoXpXoXpXoXoXoXyXyXuXuXuXtXtXtXtXtXtXyXyXyXyXXXXXoXoXuXuXuXuXuXuXuXuXuXuXuXuXuXuXoXG.C.n.n.M.n.n.n.n.j.j.j.j.j.n.n.j.C.G.j.c.c.c.c.v.m.m.m.h.G.G.j.n.G.M.h.h.tXyXtXyXyXyX{.XXpXXXaXuXuXaXpXOXOXOXOXiXOXoXoXpXpXpXaXoXlXfX@X@XzXjXxXsXr.4.5.w.w.q.q.q.w.q.w.w.w.w.i.i.e.g.V.M.M.m.m.m.m.7Xm.c.tXuXoXoXXXyXwXeXeXeXuXl.hXPXJXGXDXGXHXHXGXGXDXGXGXDXDXDXGXGXGXGXGXGXGXGXGXGXGXGXGXDXDXDXDXGXHXHXGXGXGXGXGXGXDXDXGXGXGXGXGXGXGXGXGXGXGXGXGXHXGXGXGXGXGXGXGXGXGXGXGXGXGXGXGXGXGXDXGXHXHXFXKXSXBXBXBXVXKXHXGXGXHXGXGXGXGXGXGXHXHXHXJXBXnXnXnXnXnXmXBXJXJXIXmXnXnXnXmXOXgXdX@XhXnXnXnXnXnX@XdXaXaXaXlXaXfXdXfXaXfXgXdXaXfXfXaXgXfXaXaXfXdXfXfXOXdXgXgXfXaXaXaXaXiXiXiXiXiXiXiXaXaXoXOXOXOXOXiXiXXXV.tXwXwXyX}.}.}.yXwXwXwX}.}.wXwX}.}.XX}.}.}.}.}.}.}.XXXXXXXXXXXX}.}.XXXXXXXXXXXXXXXXtXXX",
": - / F.b.x.c.f.x.x.g.x.g.x.x.z.f.f.f.c.c.z.z.z.v.4.2.q.+.s.^ O O 3 6 p y.w.q.6.z.v.v.v.v.v.z.z.z.z.z.z.z.z.c.n.^ X > 6 6 @ O O 5 0 3 4 < s.e.w.z.z.z.z.z.z.f.z.z.z.z.z.x.x.x.c.x.v.v.v.z.n.s.- 5 4 > > > 4 < < < 4 O +.n.c.b.n.c.c.c.c.x.x.n.b.c.c.f.g.F.o.O 6 4 6 6 4 4 4 > 4 0 2 +.F.n.C.n.M.c.c.c.v.v.c.v.c.b.@.X - s.n.n.n.c.c.m.m.v.z.v.c.c.g.x.e.g.g.w.j.y.O O s.F.S.X ; > > > ; ; : X X t.x.x.b.c.x.c.c.x.x.x.x.h.h.h.c.x.x.x.x.x.x.x.x.x.x.x.x.x.x.x.x.x.x.x.x.x.x.x.x.x.x.x.x.z.z.x.v.v.v.v.c.c.x.i.w.i.i.i.i.i.i.i.i.u.u.w.w.q.q.p.q.0.0.0.#.#.G.0X0XG.G.G.G.oXuXyXyXyXyXyXXXXXyXXXXXtXtXXXXXyXyXyXyXyXyXyXXXoXoXyXuXuXuXuXiXiXiXiXiX9X} q.q.q.w.w.5.w.w.w.e.w.w.w.i.u.w.w.w.w.u.i.i.u.p.q.0.q.0.2.q.q.q.q.q.q.q.q.q.5.q.q.q.q.2.g.sXiXOXoXuXuXoXoXuXuXyXyXyXyXtXtXtX}.yXyXXXXXyXuXuXpXpXoXXXoXuXuXuXiXuXuXuXuXuXuXoXOXiXuXiXoXj.h.g.j.b.b.b.b.b.c.c.x.x.x.j.M.c.c.c.m.m.M.M.m.m.m.m.c.c.M.c.M.c.c.h.M.uXXXyXyX}.}.{.}.pXyXpXiXoX|.|.oXoXl.l.V.C.C.V.uXpXaXOXoXaXlX@X@X@XzXmXzX$.+.r.#.8.0.0.q.0.0.0.0.0.0.q.n.9X9Xn.M.M.M.C.6X7X7Xm.v.uXuXXXoXXXyXyXeXeXyXyXl.hXPXHXHXHXDXHXGXHXGXDXGXGXGXGXGXGXGXGXGXGXGXGXGXGXGXGXGXGXGXDXDXGXGXGXGXGXGXGXGXGXGXGXGXGXGXGXGXGXGXGXGXGXGXGXGXGXGXGXGXGXGXGXGXGXGXGXGXGXGXGXGXGXGXGXGXHXGXGXLXnXJ Z.J H @XKXLXJXHXHXHXGXGXHXHXFXHXGXHXLXbXA.@XOXOX@XA.@XKXPXnXA.OX@XOXOX@XfXgX@XOXOXOXOXOXOXOXOXaXaXaXfXfXfXdXdXdXdXfXfXfXdXdXdXdXfXfXdXdXdXdXdXdXdXdXdXgXjXjXiXC.G.V.G.XXV.G.iXdXaXG.XXXXXXG.G.G.G.yXyXwX}.wX}.}.yX}.}.}.}.}.}.}.}.}.}.XXXX}.}.}.}.}.XXXXXXXXXXXXXXXX}.}.}.}.XXXXXXXXXXXXXX",
"9 1 +.a.t.b.x.x.x.x.g.g.g.g.x.f.z.c.c.c.c.c.v.z.z.5.5.5.0.y.^ O d d w ( a.b.i.u.z.v.c.v.v.v.z.z.z.z.z.z.z.z.x.n.E 1 6 > > > > 3 6 d 4 : : y.n.b.z.z.z.x.x.z.z.x.x.x.z.x.x.x.c.c.z.m.v.7Xv.b.s.- 5 4 4 4 > 4 < < - p 2 / j.g.b.b.b.b.b.b.a.b.n.a.t.n.n.r.y./ X 6 : ; 3 > > > ; 4 0 2 +.n.x.c.v.v.m.m.c.v.v.c.z.c.n.@.O X y.n.g.x.x.z.z.c.v.c.c.c.n.r.t.y.s.r.r.S.S.9 O @.y.@.7 5 0 0 0 0 0 0 0 9 a.x.b.c.c.c.c.c.x.x.x.x.h.h.h.h.x.x.x.x.x.x.x.x.x.x.x.x.c.c.c.c.x.x.x.x.x.x.x.v.x.x.x.z.z.x.x.v.z.c.z.x.x.x.w.w.i.i.i.i.i.i.i.i.w.w.w.w.q.p.q.q.0.r.#.#.} n.F.j.l.l.l.D.G.XXXXyXyXyXyXyXyXyXyXXXyXyXyXyXtXtXyXyXyXyXyXXXXXXXyXyXyXuXOXOXoXOXiXiXG.} q.q.q.4.5.w.q.q.q.w.w.w.w.w.u.u.w.u.w.u.i.i.p.q.e.e.r.r.r.g.r.r.r.r.r.r.r.r.r.w.0.r.r.0.g.oXiXOXOXoXoXoXuXpXuXyXyXyXyXyXyXyXyXyXXXoXoXuXuXuXuXyXuXuXoXuXuXuXG.G.uXuXuXiXiXuXoXoXG.uXoXC.n.n.n.c.c.n.n.n.M.M.n.c.n.M.m.m.v.v.m.m.m.m.m.m.m.m.m.m.M.m.m.M.m.c.h.XXXXXXoXXXyXN.XXpXoXsXpXpXoXoXXXXX}.XXXXXXV.V.iXpXaXOXoXaXaXOX@X@XzXvXhX>.$.$.y.y.y.j.j.j.j.j.j.j.j.j.j.j.j.C.G.n.M.c.v.v.m.m.c.uXuXXXyXXXwXwXeXeXwXXXG.zXPXKXKXHXDXHXGXHXGXGXGXGXGXGXGXGXGXGXGXGXGXGXGXGXGXGXGXGXGXGXGXGXGXGXGXGXGXGXGXGXGXGXGXGXGXGXGXGXGXGXGXGXGXGXGXGXGXGXGXGXGXGXGXGXGXGXGXGXGXGXGXGXGXGXDXGXGXFXJXSXvXbXbXvXnXJXHXJXHXGXGXHXDXGXHXHXHXJXKXPXmX@XfXdX@XhX@XvXSXPXnX@XdXfX@XdXfXfXfXfXfXaXfXfXfXfXfXfXfXfXfXfXfXfXdXdXdXdXfXfXfXdXdXdXdXdXdXdXdXdXdXdXdXdXgXgXdXaXaXuXV.XXuXyXoXXXXXiXsXiXG.XXoXXXoXoXuXuXyXtX}.tXyXXX|.|.}.}.}.}.}.}.}.}.}.}.XXXX}.}.}.XX}.XXXXXXXXXXXXXXXX}.}.}.}.}.XXXXXXXXXXXX",
"F.y.n.n.b.b.b.x.x.x.x.x.x.x.x.x.x.c.c.c.v.c.c.c.m.v.v.z.g.n.@.O 6 6 > p a.x.i.6.z.v.v.c.v.v.x.x.x.z.z.v.z.z.c.b.t.y.@.4 4 6 3 X ( ( d 6 9 y.b.w.v.v.x.x.x.x.x.x.x.x.x.x.x.c.v.v.v.v.z.m.v.n.s.- < 4 4 4 4 4 5 9 7 @.+.r.b.#.u 8 7 7 7 7 7 7 7 2 +.y.+.u 7 0 > > 3 3 4 4 6 4 > 0 @.E a.9Xn.m.v.v.m.c.v.v.c.v.c.f.n.+.O X s.F.b.n.v.m.c.c.v.c.x.g.a.R 7 9 p p p p d 4 O @.F.F.y.y.S.S.S.S.S.S.S.a.j.b.c.c.c.c.h.c.h.h.z.f.c.c.x.x.x.x.x.x.c.c.x.x.x.x.c.c.c.c.c.c.c.c.x.c.x.x.x.x.x.z.z.z.z.z.z.z.z.z.z.x.x.x.i.u.i.i.i.i.i.i.u.w.w.w.w.q.p.q.q.q.0X0X9XG.G.iXOXOXiXiXiXiXuXoXXXyXuXuXyXyXyXyXtXtXyXyXtXtXyXyXyXyXyXyXXXXXXXXXyXyXXXXXoXoXoXOXiXiXG.} q.q.p.q.p.u.u.w.w.w.u.u.u.u.u.u.w.w.w.z.u.u.q.g.9XsXiXOXOXOXOXOXOXiXiXiXiXiXiXiXuXuXiXoXoXiXOXOXOXoXoXoXOXXXoXyXyXyXyXyXyXXXyXXXXXoXuXoXXXoXuXXXoXoXoXoXiXiX.. .0.h.j.j.j.j.j.j.j.j.n.j.b.g.g.g.g.x.c.m.m.m.m.m.m.m.m.m.m.m.m.m.m.m.m.m.m.m.m.m.m.m.m.m.m.M.h.uXXXXXyXXXyXB.|.XXN.yXpXpXyXpXpXpXpXpXpXXXC.C.iXpXaXpX+XpXpXoXOX+XOXOXdXgXzXxXzXzXzXzXzXzXzXzXzXzXzXzXOXl.G.dXdXG.M.M.m.m.m.m.c.tXyXXXyXXXyXwXyXyXyXyXXXG.hXH.BXJXHXHXGXHXFXHXGXGXGXGXGXGXGXGXGXGXGXGXGXGXGXGXGXGXGXGXGXGXGXGXGXGXGXGXGXGXGXGXGXGXGXGXGXGXGXGXGXGXGXGXGXGXGXGXGXGXGXGXGXGXGXGXGXGXGXGXGXGXGXGXDXDXGXGXHXLXJXLXPXJXJXHXGXGXGXFXGXHXGXGXHXHXJXSX@XhXdXOXgXfXfXgX@X@XvXzXhXOXgXdXfXfXaXaXaXaXfXfXfXfXfXfXaXaXaXaXfXfXdXdXdXdXfXfXfXfXaXaXaXaXfXfXdXdXdXdXdXdXfXfXdXfXOXoXoXoXV.XXiXpXuXXX}.XXOXoXXXuXuXXXG.oXuXuXyXtX}.}.XXXX}.XX}.}.}.}.}.}.}.}.}.}.}.}.}.}.wX}.}.}.}.XXXXXXXXXXXX}.}.}.}.}.XXXXXXXXXXXX",
"n.t.n.b.x.n.b.b.x.x.x.x.x.x.x.x.x.c.c.c.v.c.v.v.v.v.v.z.x.n.+.O 3 o @ p t.x.i.6.v.7Xm.v.v.n.b.n.c.n.c.v.v.v.c.n.t.a.@.: : 6 4 6 ( ( 0 > < y.b.x.v.v.x.x.x.x.x.x.x.x.x.x.c.c.v.v.m.v.v.m.c.n.y.- < 3 ; ; ; : X X - +.} r.n.r.u 1 4 4 4 4 4 4 < - @.S.@.: X 4 > > 4 3 4 4 4 > ; p / E e.n.c.m.m.m.v.c.v.c.c.x.z.f.b.+.X - s.F.n.g.f.c.c.c.c.M.n.n.F.E O O : - X O ; ; X @.F.y.j.n.n.n.n.n.n.n.n.n.b.c.c.c.c.x.h.c.f.g.f.f.c.c.x.x.x.x.x.x.c.x.x.x.x.x.x.x.x.x.x.x.x.c.x.c.z.z.z.z.z.z.z.z.z.z.z.z.z.z.z.x.x.x.x.u.i.i.i.i.i.u.u.w.w.q.q.q.p.p.q.q.9XuXOXiXoXOXG.G.l.G.G.XXuXuXuXuXuXuXyXyXyXyXtXtXtXtXtXtXtXtXXXXXXXyXXXXXXXXXXXyXXXyXyXoXuXuXiXiXn.} 0.2.q.p.q.5.q.q.q.q.q.w.w.w.u.u.u.u.u.u.u.z.4.w.9XsXiXaXdXdXdXdXdXdXiXdXdXdXiXiXiXiXiXiXiXaXiXaXiXaXiXuXuXuXuXuXuXyXyXyXyXyXoXoXuXuXuXuXuXuXiXOXoXOXiXiXiXjX0.4.f.n.C.n.n.n.c.b.j.b.n.j.j.b.f.w.w.f.c.c.m.m.m.m.c.m.m.m.m.v.m.m.m.m.m.m.m.m.m.m.m.m.m.m.m.M.c.uXXXoXuXXXyX}.}.XXM.pXpXpXpXpXpXpXpXpXyXXXl.l.iXOXpXpXpXpXpXpXkXoXOXOX@XzXxXxXzXzXzXzXzXzXzXzXzXzXvXxXOX>.D.iXfXG.j.M.C.m.m.c.c.uXuXXXoXXXyXyXwXyXwXwXtXV.OX%.nXJXHXGXGXGXFXHXGXGXGXGXGXGXGXGXGXGXGXGXGXGXGXGXGXGXGXGXGXGXGXGXGXGXGXGXGXGXGXGXGXGXGXGXGXGXGXGXGXGXGXGXGXGXGXGXGXGXGXGXGXGXGXGXGXGXGXGXGXGXGXGXGXDXDXGXDXGXJXJXHXHXHXGXHXHXHXHXHXHXHXHXJXHXJXSXOXhXgXfXjXaXaXaXgX@X@XOXgXfXlXOXaXaXaXaXaXaXaXaXaXaXaXaXaXaXfXfXfXfXdXdXdXdXfXfXfXaXaXaXaXaXaXaXdXdXdXdXdXdXfXfXaXfXiXD.oXoX}.XXaXaXuXoX}.oXoXXXuXuXuXXXXXoXoXXXtXXXXXXXXX}.XXyXXXXXXXXXXX}.}.}.}.}.XX}.wXwXwXwXwXwXwX}.XXXXXX}.}.}.}.}.}.}.tXXXXXXXXXXX",
"b.b.n.n.n.n.x.x.x.x.x.x.x.x.x.x.x.x.v.v.v.c.v.v.v.z.v.d.z.x.@.p ^ 5 o p t.x.x.p.z.v.v.z.x.x.i.x.x.x.x.x.z.z.x.x.r.n.s.2 4 6 > > ( d 0 4 2 t.g.x.x.x.x.x.x.x.g.g.x.x.x.v.c.c.v.v.v.v.v.v.f.n.y.X < 3 > 0 / +.+.+.! t.q.4.g.r.7 < 0 4 4 0 4 0 5 : ( / ( 4 4 6 > > 4 3 4 > > ; : i @.+.g.M.v.m.m.m.v.c.v.v.f.f.x.g.g.r.E o.@.E #.e.x.x.g.r.e.b.r.E @.p , p @.@.#.r.( ; 5 / @.+.a.n.n.n.n.n.n.b.b.b.c.c.c.c.c.g.x.x.f.f.x.c.x.x.x.x.h.h.f.f.h.h.h.c.h.c.c.c.x.x.x.x.f.c.f.c.c.f.f.f.z.z.c.c.c.z.z.z.x.x.x.x.x.x.w.w.u.u.u.i.u.u.w.w.q.q.q.q.p.q.q.0.9XuXoXOXoXOXG.G.aXiXuXoXuXuXyXyXyXyXyXtXtXtXyXyXtXtXtXtXtXtXXXXXXXXXXXXXXXXXXXyXwX|.yXXXyXuXuXiXG.b.n.q.q.p.p.q.p.p.q.w.w.u.u.u.p.u.u.u.u.u.u.u.z.w.n.C.n.n.C.F.C.C.C.C.n.n.n.n.j.n.n.n.n.C.n.n.n.C.n.C.n.j.G.uXoXXXXXXXXXXXXXXXXXoXXXM.h.M.n.j.G.OXoXoXiXG.j.C.0.4.w.x.x.w.z.x.x.x.b.x.g.g.g.c.n.M.c.c.v.c.v.m.m.m.m.m.m.m.m.v.m.m.m.m.m.m.m.m.m.m.m.m.m.m.m.M.c.V.C.XXuXXXyXyXyXyXN.pXpXpXpXyXpXpXoXoXpXoXXXoXaXiXpXpXpXpXpXpXpXpXkXpXOXfXaXfXfXfXfXgXfXfXfX@XfX@XgXjXOXD.OXfXjXG.l.V.9X6XC.M.M.uXuXuXoX}.yXyXuXuXyXwXyXXXiXA.nXJXGXGXGXGXGXHXGXGXGXGXGXGXGXGXGXGXGXGXGXGXGXGXGXGXGXGXGXGXGXGXGXGXGXGXGXGXGXGXGXGXGXGXGXGXGXGXGXGXGXGXGXGXGXGXGXGXGXGXGXGXGXGXGXGXGXGXGXGXGXGXJXGXGXGXHXGXGXHXFXDXGXHXLXSXnXnXnXnXnXnXmXJXLXIX@XfXdXaXdXdXgXgXdXgXgXfXgXdX@XOXaXaXaXaXaXaXaXaXfXfXdXaXfXfXfXfXdXdXdXdXdXdXfXfXdXaXaXaXfXfXfXfXdXdXdXdXdXdXdXfXfXfXaXG.oXoX}.XXiXiXuXoXXXyXuXyXXXyXuXXXXXoXXXG.XXG.XXXXyXXXXXXXXXXXXX}.}.}.}.}.wXwXwXwXwXwXwXwXwXwXwXwXwX}.}.}.}.}.}.}.XXXXtXtXXXXXXXXX",
"b.t.b.x.x.x.x.x.x.x.x.x.x.x.x.x.x.x.x.c.c.v.v.v.v.v.v.v.z.c.F.S.S.d X i t.x.i.p.5.z.w.w.w.w.w.e.w.w.w.6.6.6.w.w.0.a.@.- : 6 > > o > 4 , - t.n.c.x.x.x.x.i.i.e.e.x.x.x.x.x.c.v.v.v.v.c.c.x.n.y.O 4 3 ; i y.n.a.b.b.n.c.z.n.n.i ; 4 4 4 > > > > : X 3 > ; > > > 4 4 < 4 < 4 < < p F.n.C.C.c.m.c.c.v.c.v.c.d.z.c.b.n.j.F.F.E O s n.n.b.b.b.n.F./ O , , X ( F.j.c.n.F.O < 9 X 7 a.n.n.n.n.n.n.n.n.c.c.c.c.c.c.g.x.x.c.h.x.x.g.x.x.x.h.h.f.f.h.h.c.c.c.c.c.c.c.c.c.c.c.c.c.c.c.c.c.c.c.c.c.c.c.c.x.z.c.x.x.x.x.x.x.w.u.u.u.u.u.w.q.q.q.q.q.q.p.q.5.4.uXuXoXoXoXoXG.oXsXaXoXG.XXXXtXyXyXyXtXtXtXtXtXtXtXtXtXtXtXtXXXXX}.XXXXXXXXXXXXXX}.}.wX}.XXXXuXuXiXuXuXe.2.2.5.q.q.9.q.0.0.q.q.q.p.p.p.6.6.6.6.6.6.4.5.5.4.4.4.4.0.q.q.5.5.5.0.0. .#.4. .} } } } } 4.4.0.} } C.sXiXiXiXuXuXuXuXuXoXiXG.r.| } } | G.aXiXiXsXn.| } 0.2.4.w.5.4.5.5.4.5.w.q.0.4.4.w.6XC.C.C.m.m.m.m.m.m.m.m.m.m.m.m.m.m.m.m.m.m.m.m.m.m.m.m.m.m.m.M.c.M.h.l.uXXXyX}.}.XXN.pXpXpXpXyXpXpXpXpXaXpXpXaXaXaXaXpXpXpXpXpXpXpXpXpXoXaXOXaXOXOXOXOXOXOX+X+X+XoXOXiXOXOXaXjXjXOXG.G.G.V.C.C.h.tXuXuXuXXXyXyX}.tXwXyXyXtXiXD.nXLXGXDXGXGXGXGXGXGXGXGXGXGXGXGXGXGXGXGXGXGXGXGXGXGXGXGXGXGXGXGXGXGXGXGXGXGXGXGXGXGXGXGXGXGXGXGXGXGXGXGXGXGXGXGXGXGXGXGXGXGXGXGXGXGXGXGXGXGXGXHXJXHXHXJXHXGXFXGXHXGXHXHXJXbXA.OXOXOX+X+X$XSXPXIXOX@XgXjXjXgXgXdXfXgXfXaXfXaXfXlXdXaXaXaXaXaXaXfXaXaXaXaXaXaXdXdXdXdXdXdXdXfXfXfXfXfXdXdXfXfXdXfXdXdXdXdXdXdXdXdXfXfXiXXXoXoX|.XXuXiXuXXXXXXXyXyXXXyXyXXXuXuXoXG.uXXXG.XXXXXXXX}.XXXXXX}.}.}.}.}.wXwXwXwXwXwXwXwXwXwXwXwXwXwXwX}.}.}.}.}.XXXXXXXXXXXXXXXX",
"F.y.n.n.b.b.x.x.x.x.x.x.x.x.x.x.x.x.x.z.z.z.x.z.z.v.v.z.z.g.y.y.S.p X p t.x.x.z.u.z.x.f.g.e.e.g.e.x.z.z.6.6.z.z.x.t.+.- 2 ; @ > 6 X 4 9 - #.g.f.x.x.x.x.x.x.x.x.x.x.x.x.x.x.v.v.m.v.c.c.r.y.@.; 4 3 : p t.n.g.x.g.g.n.x.t.y.i < < < 4 4 > 4 4 > 6 6 4 > > > > < : : 2 - 2 2 - u t.e.x.v.c.c.c.c.x.f.v.c.z.v.b.r.t.y.j.n.E X s j.e.e.n.n.y.S.@.X 6 6 ; ( S.y.M.n.+.O 2 2 - u F.n.b.b.b.b.b.b.b.b.x.c.c.x.g.g.c.c.x.x.x.x.h.g.g.x.x.x.x.x.x.x.x.x.g.g.g.g.g.x.x.x.f.f.f.f.c.c.c.f.c.c.h.h.x.f.g.f.x.x.x.x.x.x.e.w.w.w.w.w.u.w.p.q.q.q.q.q.q.q.7.4.uXuXoXoXXXuXG.uXsXiXuXG.XXyXtXuXtXwXtXtXtXtXtXtXtXtXtXtXtXtXwXtX}.XXXXXXXXXXyXyXwX}.}.}.XXXXXXuXuXXXuX#. . .4.5.0.0.0.0.0.0.0.q.q.p.p.u.6.6.6.6.u.6.i.i.i.x.w.u.i.i.i.u.u.w.w.w.w.w.u.u.u.w.u.i.q.u.q.u.w.5.6XsXiXuXuXuXuXuXuXuXuXiX9Xb.0.q.q.2.G.sXiXiXsXG.0.q.w.q.p.p.w.w.p.5.w.w.u.w.w.w.5.x.C.C.C.C.m.m.m.m.m.m.m.m.7X7Xm.m.m.m.m.m.m.m.m.m.m.7X7Xm.m.m.B.m.c.M.h.C.uXXXyX}.}.yX{.pXpXpXpXpXuXoXuXuXaXiXOXiXaXaXaX+XpXpXpXpXpXpXpXkXpXkXaXpXpXpXpXpXpXpXpXpXoXoXOXOXOXOXaXaXdXOXG.G.C.l.M.j.M.XXoXoXuXyXyXyXyXyXyXtXyXXXiXD.nXLXGXGXDXDXGXGXGXGXGXGXGXGXGXGXGXGXGXGXGXGXGXGXGXGXGXGXGXGXGXGXGXGXGXGXGXGXGXGXGXGXGXGXGXGXGXGXGXGXGXGXGXGXGXGXGXGXGXGXGXGXGXGXGXGXGXGXGXGXGXHXLXKXLXPXPXPXPXPXPXKXJXLXLXmXH.hXdXdX@X@X@XSXPXSXOX@XaXaXdXgXfXfXfXaXaXaXfXfXaXaXaXaXaX@XaXaXaXdXdXdXdXfXfXfXgXgXdXdXdXdXfXfXdXdXdXdXdXdXfXfXdXfXdXdXdXdXdXdXdXdXdXdXaXoXoXoX|.XXiXiXuXyXyXyXtXyXuXuXXXXXoXuXoXG.G.G.G.oXG.G.XXtX}.}.}.}.}.}.}.}.yXyXyXwXwXwXwXwXwXwXwXwXwXtXtXtXtXtXwX}.XXXXXXXXXXXXXXXX",
"1 u +.b.b.n.x.g.x.x.x.x.x.x.x.x.x.x.x.x.x.x.x.x.v.v.v.v.v.x.+.p ( 4 ; R a.u.x.z.6.z.x.e.e.e.t.t.e.f.f.6.6.6.z.z.x.i.b.y.S.( > > 3 O ( S.+.n.g.c.c.x.x.x.x.x.x.x.x.x.x.x.x.x.v.v.f.f.b.t.Y u d X 3 3 : p t.n.f.c.x.e.c.} u R < < 1 < 4 4 > > 4 4 > 4 4 > 4 6 0 9 S.S.y.y.y.y.y.a.b.g.c.v.c.v.v.x.x.c.n.m.v.c.r.E 2 o.g.j.a X a S.b.b.n.+.u p d X 6 w o d ^ s r.n.F.y.S.@.s.+.y.#.b.b.b.x.g.g.x.x.g.g.g.g.g.g.c.c.x.x.x.x.h.g.x.x.x.x.x.x.x.x.x.x.f.f.f.f.f.f.f.f.h.h.h.f.f.f.f.f.f.f.f.f.f.f.f.w.w.w.r.w.w.w.w.0.w.w.w.w.w.w.q.q.q.q.q.q.5.5.5.4.uXuXuXuXXXuXV.XXXXXXG.XXtXtXtXyXtXwXtXtXtXtXtXtXtXtXtXtXtXwXwXtX}.XXXXXXXXXXyXyXwXeXeXeXyXyXyXyXuXXXuXM.G.9XG.9X9X9X9XG.9X9X9X9Xq.q.6.p.6.6.6.6.p.u.u.p.u.u.q.i.u.i.u.u.u.p.p.p.p.p.p.u.p.6.6.5.w.i.5.p.u.4.u.w.0.0.0.0.0.#.#.#.#.r.e.0.q.q.q.4.r.j.r.$.j.b.0.u.q.p.p.p.w.w.u.5.u.q.w.w.w.w.5.x.C.M.M.m.M.m.m.m.m.m.m.m.7Xm.m.m.m.m.m.m.m.m.m.m.m.7X7Xm.m.m.m.m.M.tXV.XXuXXXyXyXyXyXB.}.{.|.}.|.N.N.V.XXoXXXG.G.aXaXpXpXpXpXpXpXpXkX+XkXoXpXpXpXpXpXpXpXpXpXpXpXoXaXaXjXgXfXdXjXgXgXdXaXiXiXiXuXXXiXoXXXoXyXyX}.yXyXyXyXyXG.uXA.nXLXJXHXDXDXHXGXGXGXGXGXGXGXGXGXGXGXGXGXGXGXGXGXGXGXGXGXGXGXGXGXGXGXGXGXGXGXGXGXGXGXGXGXGXGXGXGXGXGXGXGXGXGXGXGXGXGXGXGXGXGXGXGXGXGXGXGXGXGXGXHXBX;XvXvXvXvXvXvXvXvXnXKXLXnXH.gXaXaXOXdXOXzXhXhX@XgXfXaXdXgXaXaXaXfXfXfXfXfXdXfXdXdXdXdXdXdXdXaXdXdXdXdXaXaXaXaXdXdXdXdXfXfXaXaXdXdXdXdXdXdXdXdXdXdXdXdXdXdXdXdX@XdXdXaXaXiX}.XXXXyXXX}.yXyXtXyXXXXXC.C.l.l.l.D.$.D.iXdXuXG.}.}.}.}.}.}.}.}.}.}.yXyXyXtXwX}.XXtXtXtXtXtXtXtXtXtXtXtXwXwX}.XXXXXXXXXXXXXX",
"X X / F.n.c.n.x.x.x.b.x.x.x.x.x.b.b.b.b.b.b.x.x.n.b.m.v.f.n.@.- d 3 @ p F.b.u.z.z.w.b.b.b.a.y.a.b.g.f.f.z.6.6.z.w.x.g.n.F.^ O O 3 O / H.j.b.c.c.c.c.c.f.v.f.x.f.x.x.z.z.x.x.v.c.f.g.n.F.p X 3 4 4 3 : u t.c.c.g.g.r.F.+.- < 0 4 9 < ; 6 > ; ; O X - - - - - : < S.a.n.n.n.b.x.g.c.c.v.v.v.c.m.c.n.c.M.v.v.c.t.u X ^ F.F.^ O d S.S.y.F.@.X O X O O o O X O - +.F.n.n.F.t.+.+.+.] r.g.x.g.x.f.f.x.x.x.x.g.g.g.x.x.x.x.g.g.x.x.x.x.g.c.x.g.c.c.g.x.x.g.g.g.g.f.f.g.f.f.g.f.g.f.f.f.f.f.x.x.x.g.w.w.e.e.e.w.w.w.q.w.q.q.i.w.q.q.p.q.2.2.} | | 3.} | 9XtXyXyXyXyXyXXXXXXXXXXXXXXXtXwXwXwXwXwX}.}.}.wX}.}.}.}.tXwX}.}.tXtXXXXXXXXXXX}.}.}.}.}.wXyXXXXXXXXXoXoXyXyXuXuXuXuXiXiXiXiXiXuX| } 4.6.u.6.6.6.6.u.6.6.w.w.5.w.5.6.6.6.u.u.p.u.6.5.6.5.5.5.5.w.w.w.p.p.p.p.u.w.w.w.u.w.w.w.w.w.q.q.q.q.w.q.w.w.r.q.r.r.r.w.q.p.u.6.w.u.w.w.w.5.5.w.q.q.i.q.w.x.6X6XC.C.m.m.m.m.m.m.6X6X6X6Xm.m.m.m.m.m.m.m.m.B.6X6X7Xm.m.m.m.v.c.wXtXyXuXXXyXyXyXeX}.|.}.}.}.}.XXXXXXXXuXXXG.XXiXaXaXpXpXaXaXpXkXpXkXpXpXkXsXpXpXpXpXpXpXyXpXpXoXOXlXlXgXfXgXgXgXgXgXdXOXoXuXiXuXuXuXoXoXXXXXXXyXyXXXXXXXuXoXD.nXPXLXJXGXHXGXHXDXGXGXGXGXGXGXGXGXGXGXGXGXGXGXGXGXGXGXGXGXGXGXGXGXGXGXGXGXGXGXGXGXGXGXGXGXGXGXGXGXGXGXGXGXGXGXGXGXGXGXGXGXGXGXGXGXGXGXGXGXGXGXGXBXJ A.O.O.O.O.O.Z.f @XPXPXmXOXfXaXaXaXOXOXOX@XOX@XgXdXaXfXaXaXaXdXdXfXdXdXdXdXdXfXdXdXdXdXdXdXdXdXgXfXdXdXdXgXdXdXdXfXaXfXgXaXgXjXjXjXjXjXjXjXfXfXgXdX@X@X@XdXdX@XfXaXaXaXuX}.tXXXyXtXyXyXtXXXyXXXG.k.h.j.j.j.j.%.j.iXjXiXG.}.}.}.}.}.}.}.}.}.}.yX}.}.XXXXXXV.C.G.C.G.C.V.G.V.tXtXtXwXwX}.}.XXXXXX}.}.}.",
"R p +.n.x.x.x.x.x.x.x.i.i.i.i.i.z.x.z.i.i.i.z.u.i.u.x.x.x.n.@.: d 6 > 0 t.z.z.z.z.w.t.+.@.s.S.@.r.g.x.f.z.z.6.6.v.v.x.g.b.+.R ^ : O ( @.+.n.b.f.g.f.z.f.c.f.x.f.x.z.z.z.x.x.z.z.M.r.] @.p 3 6 6 > 4 4 p b.g.g.x.n.| @./ 9 0 4 4 : 4 4 6 > 0 ( ( ^ ^ ^ ^ ( ^ ^ / t.b.x.x.c.c.z.f.v.c.c.c.v.v.c.v.c.c.c.x.c.c.n.p X ( s.S.d ; d S.@.@.s.@./ ^ ^ ^ ^ ( ( / ^ E y.F.b.b.n.t.#.0.r.#.b.c.c.g.c.c.z.c.x.x.x.x.g.g.x.x.x.g.g.g.x.x.x.x.g.c.g.f.x.x.g.g.x.g.g.g.g.f.f.g.g.f.f.g.g.g.g.f.f.f.x.x.x.g.w.w.e.e.e.e.e.q.q.q.q.w.q.q.q.p.q.4.x.x.g.g.g.g.g.f.tXyXyXyXuXyXtXXXXXXXXXXXXXXXwXwXwXwXwXwX}.}.XXXX}.}.}.}.tXwXXX}.wXtXXXXXXXXXyXyX}.XXXX}.wXwXyXXXXXXXXXXXXXXXyXyXyXuXuXoXiXiXOXuXj.n.i.5.6.6.6.6.6.6.6.5.w.w.w.5.6.6.u.6.u.p.p.u.w.w.w.5.w.5.5.5.5.5.p.p.p.u.u.p.p.p.p.p.p.u.u.u.q.w.w.w.w.w.w.w.w.w.w.w.w.u.p.p.p.6.w.z.f.w.w.w.w.e.w.q.w.q.w.x.n.n.c.x.c.m.m.m.m.m.m.m.m.C.m.M.C.C.m.m.C.C.C.m.m.m.m.m.m.B.m.v.m.B.M.V.XXXXyXXXyXeX}.}.}.wX}.}.yXXXXXXXuXXXV.G.aXaXOXXXoXyXyXoXoXoXyXyXpXpXyXpXpXpXpXpXpXpXpXpXoXOXlXlXgXgXfXgXgXgXgXgXiXiXiXuXuXuXuXoXoXXXXXyXyXyXXXXXXXuXoXD.bXnXnXLXLXGXHXGXGXGXGXGXGXGXGXGXGXGXGXGXGXGXGXGXGXGXGXGXGXGXGXGXGXGXGXGXGXGXGXGXGXGXGXGXGXGXGXGXGXGXGXGXGXGXGXGXGXGXGXGXGXGXGXGXGXGXGXGXGXGXGXGXSXvXmXnXnXnXnXnXnXbXnXnXIXvX@XlXaXOXaXfXdXaXaXaXgXdXdXfX@XdXgXdXfXfXdXdXdXdXdXfXfXfXdXdXdXdXdXdXdXdXdXdXdXfXdXOXgXgXgXdXfXfXiXiXaXaXaXaXaXiXiXiXaXdXdX@XdXdXdXdXOX@XaXdXdXiXXXyXyXyXyXyXyXtXtXuXXXoXG.C.C.D.D.D.D.D.OXdXOXG.}.XX}.}.}.}.}.wX}.}.yXyXyXXXXXXXuXiXOXG.iXOXiXiXG.V.tXyXwXwXwX}.}.}.wXwX}.}.",
"y.9.t.a.w.w.w.w.u.w.w.w.u.u.i.i.w.w.u.u.u.u.w.w.w.q.u.u.i.b./ X ; ; > p t.x.x.x.e.b.S.E O O X O +.r.b.e.w.z.z.6.6.z.z.x.b.n.b.F., O , X 2 $.j.g.b.e.x.f.z.f.x.w.x.z.z.z.x.x.z.f.c.] - 1 ; > > > 6 4 - i b.c.g.n.r.- - 4 ; > ; > ; 4 4 ; O i S.S.y.a.a.y.y.t.t.t.b.x.x.c.c.z.v.z.v.c.v.v.c.v.c.c.c.v.b.e.w.e.S.p > > : ; > > > X O - X i y.F.F.F.F.F.F.F.F.b.F.n.n.n.n.n.b.b.n.b.n.n.b.x.c.c.x.x.x.x.x.g.g.g.g.x.x.x.g.g.x.x.z.x.g.x.w.w.g.x.g.x.x.g.g.g.g.g.g.g.g.g.g.g.g.f.f.f.f.f.x.x.x.g.e.w.e.e.e.e.e.q.e.q.q.q.q.q.p.p.5.| 9XuXuXuXuXuXuXtXXXXXyXyXyXtXXXXXXX}.XX}.wXwXwXwXtXtXtXtX}.XXXXXX}.}.}.}.}.}.XXXXwXwX}.tXtXtXtXXXXXXXXXXXyXyXwXXXXXXXXXXXXXXXXXXXXXXXXXoXoXoXOXuXuXsXn.5.5.p.6.p.p.6.6.6.6.5.5.5.6.6.6.6.6.u.u.u.6.w.q.6.q.w.w.5.w.w.p.p.p.u.u.p.p.p.p.u.u.u.u.u.w.w.w.w.w.w.w.w.u.i.u.u.u.u.i.u.6.6.z.c.n.n.n.c.n.n.x.w.w.w.w.w.w.w.5.5.x.C.6XC.6XB.6XC.C.6XC.C.M.M.M.n.C.C.C.C.6X6Xm.m.N.B.m.v.m.m.h.M.XXyXyXtXyXwXeXeXwXwXwX}.}.}.V.V.V.M.c.M.aXaXOXC.C.V.V.|.|.|.}.|.{.N.M.}.aXpXpXpXpXpXpXpXoXpXlXlXgXgXgXgXgXgXgXgXjXjXaXoXuXuXyXyXyXyXXXyXyXyXXXXXXXyXyXG.>.>.J IXLXJXHXDXGXGXGXGXGXGXGXGXGXGXGXGXGXGXGXGXGXGXGXGXGXGXGXGXGXGXGXGXGXGXGXGXGXGXGXGXGXGXGXGXGXGXGXGXGXGXGXGXGXGXGXGXGXGXGXGXGXGXGXGXGXGXGXHXHXLXLXLXLXLXPXPXPXPXBXA.H.OXOXaXaX@X@XOXOXiXaXaXjXaXdXfX@XaXdXOXdXdXdXdXdXdXdXfXfXfXfXfXfXfXdXdXdXfXfXfXdXfXfXdXdXdXgXfXjXaXoXXXXXXXXXXXXXXXG.D.iXaXdXdXdXdXdXdX@XdXdXdXdXuX}.}.tXyXyXyXyXXXXXoXiXaXiXiXiXiXiXiXOXOXOXiXoXG.}.tXwXwXwXtX}.tXXXXXyXXXyXoXXXXXaXzXzXzXzXzXzXzXiXG.XXwXeXwXwXwXeX}.wXwXwXwX",
"a.r.i.e.q.u.w.u.z.z.z.z.z.z.i.i.z.u.i.i.i.i.i.x.i.u.u.u.w.e./ 2 , X o p a.b.b.a.t.S.S.^ X O X O +.r.b.e.z.z.z.z.6.z.z.z.u.e.e.y., > 6 - p y.F.F.t.0.n.x.x.z.b.x.x.x.z.z.x.x.x.x.b.] X : > > > > : < X u e.x.w.b.a.7 > 6 > 6 6 4 3 3 ; < : 7 s.y.a.t.e.e.e.e.e.e.x.x.z.z.d.d.d.d.c.z.x.c.c.x.x.c.c.c.x.t.b.y.S.( O > > > > > > ; - - X i S.F.n.n.n.n.n.G.n.n.n.n.n.n.n.n.n.n.n.n.n.b.x.g.x.c.x.g.x.x.x.x.g.g.x.x.x.x.g.g.g.z.z.z.x.x.w.q.g.x.x.x.x.g.g.g.g.g.g.g.g.g.g.g.g.f.f.f.f.f.g.x.x.g.w.w.e.e.e.e.e.q.q.q.p.q.q.q.q.q.4.X.C.G.uXuXuXoXoXXXXXXXoXyXXXXXXX}.}.}.}.}.wXwXwXwXtXtXtXtX}.}.XXXX}.}.}.}.}.}.}.XX}.}.}.XX}.tXtXXXXXXXXXXXyXyXwXwXXXXXXXXXXXXXXX|.eXeXeXyXoXuXuXuXuXsX6X2.7.p.6.p.2.2.} 0.4.2.q.p.5.6.6.6.6.6.p.6.6.w.q.6.5.6.w.5.w.w.w.w.p.p.u.u.u.u.u.u.p.i.u.u.u.u.w.u.u.u.u.u.u.u.u.i.u.u.u.u.u.p.z.c.n.n.n.n.n.n.b.w.w.w.w.w.u.w.q.w.x.6X6XC.m.m.C.M.M.M.n.V.G.n.n.n.C.M.M.M.n.M.n.c.m.N.m.m.m.v.f.M.}.XXtXXXwXwX}.}.}.}.{.{.wXwX}.}.}.C.M.M.sXaXuXXX}.}.}.wX}.}.yX{.V.V.C.XXsXpXpXpXpXpXpXpXoXpXlXlXgXgXgXgXgXgXdXdXgXjXaXXXyXyXyXyXyXyXyXyXyXyXyXXXwXyXyXwXuXoX>.SXPXPXGXFXHXHXHXHXHXHXHXGXGXGXGXGXGXGXGXGXGXGXGXGXGXGXGXGXGXGXGXGXGXGXGXGXGXGXGXGXGXGXGXGXGXGXGXGXGXGXGXGXGXGXGXGXGXGXGXGXGXGXGXGXGXGXGXHXFXHXFXHXJXLXPXPXPXPXIXA.A.OXOXOXOXOXOXOXOXaXaXsXjXjXjXjXlXlXfXgXfXdXdXdXdXdXdXfXfXfXfXfXfXfXdXdXdXdXfXdXdXdXgXgXgXdXfXjXgXsXoXXX}.}.}.wX}.XX}.XXaXaXfXaXgXgXdXdXfXfXfXdXsXiXXXtXtXyXyXXXyXXXXXoXiXaXOXiXiXiXiXiXiXOXOXOXoXXX{.{.wXwXwXtXtXtXXXXXXX}.XXyXXXXXaXzXjXhXgXdXhXjXOXl.XX}.tXeXwXeXeXeXwXwXwXwX",
"e.e.i.i.u.x.z.x.z.z.z.z.z.x.x.x.x.z.z.x.i.x.x.x.x.x.i.i.x.x.r./ @.p o p y.b.a.a.y.p p @.@.s.s.@.r.b.g.w.z.z.6.6.z.z.z.x.x.x.x.t.- > 6 > 0 ( p p p i y.e.x.z.x.b.x.x.c.c.x.x.z.z.b.+.2 4 6 > > 6 < @.@.r.b.c.f.b.y.9 > 6 > > ; : 6 > : / s.+.b.b.x.i.e.e.i.i.e.w.x.z.u.6.6.6.d.z.z.z.z.x.x.0.2.w.z.z.e.t.s.E / 0 > > 6 6 > > p @.s.s.+.s.n.n.e.g.b.x.e.b.e.e.g.e.x.e.e.g.g.f.w.w.x.x.e.e.e.x.g.g.g.f.g.g.g.g.g.g.g.g.f.f.f.f.f.f.x.x.w.5.g.c.x.x.x.x.g.g.g.f.f.g.x.x.x.x.f.f.f.f.f.f.z.z.z.w.w.w.q.p.p.p.p.p.q.q.p.q.q.q.2.e.9Xc.V.XXXXoXXXXXXXXXoXoXoXXXXXXXXX}.}.}.wXwX}.}.}.}.}.}.}.wX}.}.}.}.}.}.}.}.}.wXwXwX}.}.}.}.XXXXXXXXXXXXXX}.XXXXXXXXyXXXXXXXXXXXyXwXeXeXeXwXyXyXyXuXyXsXn.} 2.p.p.e.jXOXOXdXOXG.9X9X4.q.p.p.p.p.p.p.5.q.q.q.q.6.q.w.w.w.w.w.w.w.w.w.w.w.u.u.u.u.u.u.w.w.u.u.u.u.u.i.u.u.u.u.u.u.u.u.u.p.u.z.w.w.w.w.w.g.e.w.u.i.u.u.i.x.i.w.e.b.x.g.g.w.f.x.g.r.g.G.uXn.r.e.x.w.w.e.e.e.w.h.c.m.v.m.m.m.v.m.m.M.V.XXtXyXwXwXwXwX}.wXwXwXwXtXtXV.M.M.oXoXXX}.wXeXeXeXeX}.yXwXwXuXuXXXXXuXpXpXpXpXpXpXoXpXlXlXgXgXfXgXgXgXgXgXgXjXaXV.yXyXyXyXyXyXyXyXyXyXyXyXwXeXyXeX}.uXD.vX@XBXJXHXHXHXGXGXHXHXHXHXGXGXGXGXGXGXGXGXGXGXGXGXHXGXGXGXGXGXGXGXGXGXGXGXGXGXGXGXGXGXGXGXGXGXGXGXGXGXGXGXGXGXGXGXGXGXGXGXGXGXGXGXGXGXGXGXGXJXHXHXHXJXvXmXnXmXSXSXSXSXSXIXIXIXBXIXnXvX@XgXG.iXoXG.oXoXV.aXfXfXfXdXdXfXfXgXfXfXdXdXdXdXdXdXaXdXfXfXdXdXfXgXfXOXOXOXiXiXoXXXwXwXwXwXyXyXXXXXoXuXOXOXOXOXOXOXOXOXOXiXiXuXXXyXyXyXXXoXoXXXXXoXdXaXoXC.G.G.G.G.XXG.G.oXXX}.{.{.wX}.}.wXXXtXwX}.}.}.yXyXXXXXuXiXOXgXhXgXhXhXdXaXiXV.}.wXeXeX{.{.eXeXeXeX",
"y.r.b.x.u.x.u.z.u.z.z.z.z.z.x.x.z.z.i.i.u.z.z.z.z.x.x.x.x.c.b.a.F.d X p j.b.b.n.s.X O ^ F.F.t.n.b.g.w.w.z.6.6.z.z.x.x.b.b.b.t.y.5 > > > > ; O ; - - s.b.x.x.x.x.x.x.z.z.z.z.z.f.b.+.- > 6 > > 4 - y.F.n.g.c.g.j.y.9 > > > > 3 ; O O O o.a.r.b.x.b.x.i.i.b.b.x.x.u.u.u.z.z.z.z.z.v.x.x.x.x.} | 0.x.x.x.b.+.- 4 > 6 ; O O ; - p F.n.b.b.b.a.e.u.x.x.x.i.i.e.e.e.e.w.w.w.w.w.w.w.w.u.w.w.w.w.e.x.g.g.f.g.g.g.g.g.g.g.g.f.f.f.f.f.f.x.x.w.q.g.x.g.g.x.x.g.x.g.f.f.g.x.x.x.z.f.f.f.f.z.f.z.f.z.w.w.w.q.p.q.q.q.q.q.q.2.2.2.} } g.sXiXuXuXuXoXoXoXoXoXXXXXXXXXXX}.}.}.}.}.wXwX}.}.}.}.}.}.}.wX}.}.}.}.wX}.}.}.}.XXwXwX}.}.}.}.XXXXXXXXXXtXXX}.}.}.XXXX}.XXXXXXXX}.}.wXwXwXwXwXwXwXXXXXyXuXb.| | 2.8.r.jX@X@XzXdXOXiXG.} 2.4.4.5.5.q.5.4.2.4.5.p.p.q.w.w.w.w.w.w.w.w.w.w.w.w.w.u.u.u.u.w.w.w.u.u.u.i.p.u.u.i.i.i.u.i.u.z.p.w.w.w.5.w.0.w.w.u.u.i.i.u.u.u.u.p.w.q.q.q.5.w.5.0.q.q.0.y.9XjXn.#.0.w.0.4.4.q.q.4.q.c.v.v.m.m.m.m.v.c.c.V.tXtXtXtXwX}.}.wXtXV.wXV.V.V.M.h.h.V.V.V.V.}.}.{.{.wXB.wXV.V.iXuXXXM.V.pXpXpXpXpXpXoXpXlXlXgXgXgXfXfXgXgXjXjXgXaXXXyXyXyXyXyXyXyXyXyXyXyXyXwXtXyXwXB.}.l.>.y bXLXJXGXGXGXGXGXGXGXGXGXGXGXGXGXGXGXGXGXGXGXGXGXGXGXGXGXGXGXGXGXGXGXGXGXGXGXGXGXGXGXGXGXGXGXGXGXGXGXGXGXGXGXGXGXGXGXGXGXGXGXGXGXGXGXGXGXJXHXFXJXnXH Z.%.H vXKXPXJXPXJXPXJXJXPXKXvXH.OX>.j.j.$.>.>.$.l.fXfXfXfXfXfXfXfXfXfXdXdXdXdXdXdXdXdXgXgXgXdXaXdXaXG.D.D.G.XXG.XXwXwXwXwXwXwXwX}.V.XXXXV.G.G.G.G.G.G.G.G.G.XXXXXXXXXXXXXXXXXXG.oXzXjXoXl.V.V.V.V.V.V.G.XXV.{.{.wX}.}.}.}.}.}.wXwX}.}.wXyXyXXXXXG.OXgXhXhXhXhXhXhXOXl.V.V.{.eX{.rXeXeXrXrX",
"! ! r.b.e.w.w.w.w.w.u.u.z.z.z.z.z.z.u.i.i.z.z.z.z.z.x.z.z.z.x.b.y.p O p n.x.b.b.t.R p @.F.b.e.b.x.x.w.w.z.z.z.x.w.b.a.s.@.y.s.@.; > > > 6 > > 6 > < y.n.n.c.x.n.x.x.v.z.z.z.z.f.b.+.: > 6 6 4 9 - s.b.x.e.n.b.y.y.9 ; > ; ; > ; p ^ i +.b.w.b.i.x.i.i.i.i.e.w.w.u.u.u.u.z.z.z.z.c.x.z.c.x.} | r.b.b.x.n.+.- 6 6 ; 0 ( ^ ^ R E b.t.i.x.x.w.w.x.z.u.i.i.i.i.x.i.x.w.g.e.e.u.u.u.z.u.w.w.w.q.e.x.g.x.g.x.x.g.g.g.g.g.g.f.f.f.f.f.f.f.x.f.w.g.x.g.g.x.x.x.x.g.f.f.g.x.x.x.z.z.z.z.z.z.z.z.u.u.u.w.w.q.q.q.q.q.q.9.8.e.n.t.e.r.g.G.XXXXXXoX|.XX}.}.}.XXXXXXXX}.}.}.}.}.}.}.}.}.}.}.}.}.}.}.}.}.}.}.}.wXwX}.}.}.}.wXwX}.}.}.}.XXXXXXXXwXwXtX}.}.}.XXXXXXXXXXXXXXXXXXtXwXwXwXwXwXwX}.}.}.XXM.r.r.e.e.g.OXD.oXdXOXD.G.j.$.r.g.g.g.b.b.b.n.e.2.5.p.u.p.p.w.w.w.w.w.w.w.w.w.w.w.w.w.w.w.w.w.w.w.i.u.u.u.p.i.i.i.u.u.u.u.i.x.u.p.z.u.i.i.i.i.i.x.x.i.u.u.u.i.i.i.i.i.i.i.i.w.w.i.e.e.e.y.G.uXn.r.r.i.e.e.e.e.e.q.w.c.c.c.m.v.m.v.v.c.c.6XG.V.V.V.V.V.V.V.tXtXuXXXG.G.V.M.M.tXtXwXwXeXeX{.{.wXwXtX6XV.yXXXXXC.XXpXpXpXpXpXpXoXpXgXjXgXgXjXgXjXdXaXaXaXaXiXoXyXyXeXeXyXyXyXyXyXwXyXyXtXtXyXXXXXOXiXoXA.nXPXKXGXGXGXGXGXGXGXGXGXGXGXGXGXGXGXGXGXGXGXGXHXGXGXGXGXGXGXGXGXGXGXGXGXGXGXGXGXGXGXGXGXGXGXGXGXGXGXGXGXGXGXGXGXGXGXGXGXGXGXGXGXGXGXGXGXGXHXGXHXVX;XvXbXvXnXIXIXIXSXSXnXnXnXIXnXnXbXbX@XOXzXvXvXvXvXhXdXfXgXgXgXgXfXdXfXfXdXdXdXdXdXdXgXaXOXaXfXgXfXdXdXOXoXoXoXuXuXyXyXeXyXyXyXyXyXyXwXyXyXXXyXyXyXyXtXtXtXtXtXXXXXXXuXiXOXOXOXoXoXOXjXjXoXC.}.{.{.wX}.XXXXXX}.}.wXwX{.{.}.}.}.}.}.|.|.eXwX}.}.XXXXG.oXdXdXhXzXhXhXzXdXoXiXXXC.wX{.eXrXeXrXeX",
"- 2 ! e.e.f.x.w.w.i.e.e.g.z.z.z.z.z.z.z.z.z.z.z.z.z.z.z.z.z.w.b.y.p X p b.f.x.x.b.a.F.n.b.n.a.a.e.g.w.w.z.u.w.z.e.b.+.- O X X X 4 4 6 > > 6 > 6 6 : y.b.g.c.x.x.c.v.c.v.z.z.z.g.b./ : 4 4 4 5 7 2 +.b.g.#.+.E 8 R : ; 4 3 4 > X @.F.b.b.n.x.6Xb.b.b.a.t.t.e.e.w.u.w.w.w.w.5.w.5.z.f.f.b.b.} | y.b.b.e.n.@.- 0 6 X / F.y.a.F.a.b.x.x.x.u.u.x.x.u.u.i.i.u.i.i.u.w.w.g.g.e.w.u.w.u.z.u.i.e.w.e.x.x.x.x.x.g.g.g.g.x.g.g.f.f.f.f.f.f.f.c.x.f.c.c.g.x.x.x.x.x.g.f.f.x.x.x.z.z.z.z.z.6.6.6.6.u.u.w.w.w.q.q.q.q.q.8.8.8.n.sXsXuXiXXXoXXXXXXXXXXXXXXXXX}.XXXXXXXX}.}.}.XX}.}.}.}.wX}.}.}.}.}.}.}.}.}.}.}.wXwX}.}.}.}.tXtX}.}.}.}.XXXXXX}.wXwX}.}.XX}.XXXXXXXXXXXXXXXXXX}.wXwXeXeXeXwX}.}.}.XXuXiXsXsXsXiXG.l.G.aXaXoXfXiXiXaXsXsXsXjXjXjXjX9Xw.5.p.u.p.u.p.p.w.w.w.w.w.w.i.w.w.w.w.w.w.w.e.e.e.w.u.i.u.u.p.u.u.u.u.u.u.u.i.p.p.u.u.u.i.u.u.u.i.x.u.w.u.i.i.p.u.i.i.u.e.i.q.i.i.e.i.e.#.y.#.r.r.r.q.q.w.e.i.e.q.w.n.n.v.m.v.v.v.m.c.c.M.h.M.M.M.M.M.M.V.V.V.G.G.G.tXtXtXXXwXwXwX}.eX|.{.eX{.wXwXB.V.V.l.XXiXiXaXpXpXpXpXpXoXpXgXjXgXgXgXgXgXOXoXoXoXoXuXXXyXyXyXeXyXyXyXXXyX}.yXyXuXyXXXG.jXzXxXxXzXvXvX;XJXJXGXGXGXJXJXJXGXGXGXGXHXHXGXGXGXHXGXGXGXGXGXGXGXGXGXGXGXGXGXGXGXGXGXGXGXGXGXGXGXGXGXGXGXGXGXGXGXGXGXGXGXGXGXGXGXGXGXGXGXGXGXGXGXGXHXGXHXJXHXLXPXPXSX@XH.@XhXvX@X@X@XA.@XIXPXSXmXvXSXPXPXLXPXIX@XdXfXgXgXgXfXfXfXfXdXdXdXdXdXdXgXOXD.oXaXfXfXdXjXiXaXaXsXaXuXyXyXyXyXyXyXtXXXXX}.XXXXXXyXyXtXXXXXXXuXuXXXXXXXXXjXjXjXjXjXjXgXjXgXjXOXC.}.{.{.wX}.}.}.}.XXwXwXwX{.{.{.wX}.}.}.|.|.eX}.{.{.}.tXXXC.G.l.OXhXzXzXzXzXzXxXaXM.B.B.{.{.6X6X6X",
"4 < @.F.e.w.g.x.u.i.t.t.e.w.x.z.f.z.z.z.6.z.x.x.z.z.z.z.v.z.w.e.y.p O p F.g.f.z.b.b.b.a.x.n.t.F.b.g.x.x.w.x.w.z.w.b.+.2 X 3 O O O - X O > o > > > 0 S.F.b.n.c.z.x.v.z.d.v.f.n.e.F./ : 4 0 : 2 - - } b.b.r.y.^ O < 4 ; 6 6 O : O ~ e.g.x.c.x.b.x.x.n.a.a.a.r.i.x.e.w.w.w.5.6.5.5.z.f.x.n.a.+.+.y.n.n.F.F.@.; X X O R y.b.e.i.i.e.x.x.z.z.x.x.x.x.u.u.i.i.i.u.u.u.w.w.w.w.e.w.w.u.u.w.w.i.i.i.x.x.g.g.x.x.x.x.x.x.e.w.g.x.f.f.z.z.f.f.f.f.g.g.g.g.g.g.g.g.z.z.z.z.z.f.z.z.6.6.6.6.6.6.6.z.5.5.0.| } } } } } } | | e.G.uXXXoXXXXXoXXXXXXXXXXXXXXXXXXX}.}.}.}.}.}.}.}.}.}.}.}.}.}.}.}.}.}.}.}.}.}.}.wX}.}.}.}.}.}.wXwXwX}.}.}.}.}.}.}.}.}.}.}.}.}.}.XXXXXXXX}.}.}.}.}.wXeXwXeXwX}.}.N.l.V.uXaXaXaXiX:.:.l.aXaXaXaXoXpXiXiXaXaXaXaXaXsXn.X.| 2.6.i.6.6.6.u.u.u.w.u.i.i.e.e.e.e.e.e.e.e.e.e.w.w.w.u.u.u.w.f.f.w.u.u.u.u.u.u.u.u.u.u.u.u.u.u.u.w.w.w.w.u.p.i.i.i.u.u.u.w.w.u.i.i.e.e.e.r.e.q.q.e.w.q.i.e.e.0.e.c.n.m.v.v.m.v.v.c.f.h.g.M.c.n.M.g.C.tXG.XXV.G.XXXXXXtXV.}.{.wXwXwX}.}.}.wXwX{.tXtXC.G.uXsXuXiXiXiXiXuXaXoXpXfXlXfXfXjXlXlXaXXXXXoXoXXXXXXXXXXXXXoXXXXXXXXXXXXX}.XXXXXXD.aXgXlXlXzXhXhX@XKXJXJXLXLXLXPXLXLXJXHXGXGXHXDXHXGXHXLXJXJXLXJXGXGXDXGXGXGXHXGXGXGXGXGXGXGXGXHXGXGXGXDXDXDXGXGXGXGXGXGXGXGXGXGXGXGXGXGXGXGXGXGXGXGXGXGXGXGXGXHXHXHXLXSX@XA.@X@XhX@X@X@XH.@XIXLXSX;XvXVXLXJXHXJXBXA.@XH.OX@XOXfXOXaXaXaXfXaXjXjXdXgXaXoXoXlXfXfXfXgXaXaXdXaXaXuXXX}.yXwXyX}.V.XXV.G.G.G.G.G.G.XXXXXXG.G.G.G.G.G.D.dXjXjXfXgXhXhXhXgXjXoXC.}.wX{.{.}.}.}.}.}.|.{.{.{.{.B.{.wXwX{.}.}.wXwX{.{.wXwX6XXXG.oXOXvXhXzXhXhXhXzXOXl.M.C.l.M.C.M.M.",
"0 4 p E ! r.w.q.w.e.E i +.e.x.w.w.w.u.u.d.w.w.e.5.z.z.u.u.w.e.b.y.p O p a.x.c.z.i.i.i.x.x.n.^ E +.e.e.x.e.b.f.z.w.n.@.- X ( @.@.@.@.@.@.@.9 > > > > ( E E e.x.z.z.v.c.z.v.f.g.! R T ; 4 < - p @.+.t.b.r.R R p ; 4 6 ; > ; < / s.} x.x.z.x.x.x.i.w.b.y.E R s.t.q.i.e.w.w.w.w.w.w.x.b.#.E ^ R R ^ / E ^ / ( 9 p @.@.s.t.e.i.x.x.i.x.z.z.z.x.x.x.x.u.u.u.w.u.u.u.u.w.w.w.e.e.w.w.w.w.w.w.w.e.i.e.i.w.w.w.w.w.f.w.e.e.r.g.x.f.f.z.f.f.f.f.f.g.g.g.g.g.g.g.g.z.z.z.z.f.f.f.z.z.6.6.6.v.z.6.u.w.e.9X9XG.G.G.G.G.G.G.C.C.oXoXXXuXoX|.XXXXXXXXXXXXXXXXXXXX}.}.}.}.}.}.}.}.}.}.}.}.}.}.}.}.}.}.}.}.}.}.}.wX}.}.}.}.}.}.wXwXwX}.}.}.}.wXwX}.}.}.}.}.}.}.}.XXXX}.}.}.XX}.wXwXwXwXwXwXwXV.B.uXoXuXpXaXaXaXpXiXiXiXgXaXiXaXpXaXaXaXaXaXaXkXaXaXiXG.uXc.4.6.p.p.6.p.u.u.u.u.p.i.i.e.e.e.e.e.e.e.e.w.w.e.w.e.u.w.w.w.f.w.w.u.u.u.w.w.u.u.u.u.u.u.u.u.w.e.e.w.w.u.u.i.i.w.w.u.u.w.w.u.u.u.w.w.q.q.q.q.0.w.w.0.e.i.e.0.g.x.f.c.c.m.v.v.m.m.B.V.V.M.V.V.n.M.M.C.M.n.M.C.V.V.}.XX}.{.wXwXwXwX{.{.{.m.B.B.V.V.h.M.C.C.C.V.C.XXuXuXoXoXaXlXgXfXlXfXOXOXiXaXaXiXiXiXiXpXpXpXpXaXiXiXiXaXaXaXaXaXaXiXOXaXfXfXgXgXgX@X@XKXLXIXbXbXnXbXmXnXmXKXHXGXHXGXHXHXJXnXbXmXbXbXKXGXDXHXHXGXDXFXDXGXGXGXGXGXGXGXHXGXGXDXDXDXDXGXGXGXGXGXGXGXGXGXGXGXGXGXGXGXGXGXGXGXGXGXGXGXGXGXGXGXHXHXVXSXSXSXSXSXSXSXSXBXJXHXKXKXKXGXHXFXHXHXKXVXKXSXIXnXzXzXzXgXlXgXzXaXdXdXiXiXoXXXXXpXoXiXaXaXOXOXOXOXiXoXXXyXyXyXyXXXoXaXaXaXaXaXaXaXaXaXaXaXaXiXaXaXaXaXOXdXgXaXoXOX@XdXdXgXjXoXC.}.{.}.}.}.}.}.}.}.|.{.{.wXwXeXeXwX{.}.wXB.V.{.}.}.wXwXtXtXG.XXoXdXG.hXhXhX@XzXOXl.yXaXaXaXaXaXaX",
"> ; : X i t.t.e.w.e.u X E j.b.e.b.b.e.e.z.z.x.c.5.z.x.i.w.w.e.b.y.p X p t.e.z.6.i.x.x.x.b.y.2 O o.F.b.b.e.i.f.f.b.F.y.X O @.F.S.F.S.F.F.y.1 O ; > o ; - u e.b.c.z.v.v.z.v.x.t.u : 0 4 4 < - E F.n.j.F.y.2 X < 4 6 0 > ; O 2 s.F.i.6X7Xv.v.v.b.z.x.b.@.- O / a.e.i.i.u.w.z.z.z.z.w.t.R - : ; : 0 p < - - : : 9 S.F.a.e.i.x.x.u.w.f.f.f.f.x.x.i.i.e.e.e.e.u.u.u.u.w.w.e.e.e.w.w.w.w.w.w.w.w.q.w.w.w.w.w.w.w.w.w.w.e.q.f.z.d.d.f.f.f.z.z.x.x.g.g.g.g.g.g.g.g.z.z.z.f.f.f.f.z.6.6.6.5.5.4.4. . .C.iXuXuXuXuXuXuXuXuXoXuXXXXXoXoX|.XXXXXXXXXXXXXXXXXX}.}.}.}.}.}.}.}.}.}.}.}.}.}.}.}.}.}.}.}.}.}.}.}.}.}.}.}.}.}.}.}.tXXXXX}.XXXXwXwX}.}.}.XXtXtXtXXX}.}.wXwXwXwXwXwXB.6XwX6XwX{.V.M.aXpXpXaXaXpXaXpXsXaXiXaXOXXXoXpXaXpXpXaXkXkXkXkXaXaXsXxXc.| 4.u.p.6.6.p.p.p.u.q.u.u.w.w.u.u.i.e.w.w.w.w.e.e.e.e.e.w.e.w.e.w.u.u.w.w.w.w.w.w.w.w.w.w.w.w.w.w.w.w.w.w.w.e.w.w.w.w.w.w.u.p.w.w.w.q.w.5.q.w.e.e.e.e.q.0.#.0. . .g.n.h.h.h.f.m.V.G.XXXXyXG.M.j.M.M.M.M.j.M.V.V.}.}.}.}.wXwXwXwX{.V.V.c.B.B.V.C.g.g.M.h.k.M.h.V.pXpXpXoXaXlXfXfXlXaXD.l.uXgXaXaXfXaXaXaXaXaXaXfXfXgXgXfXfXgXgXjXjXfXfXfXfXfXfXdXdX@X@XSXPXnXH.OX@X@X@XH.H.nXPXPXLXJXHXLXPXvXH.@X@XJ.SXJXJXHXJXHXHXDXHXGXHXGXGXGXGXGXGXHXHXGXGXDXDXGXGXGXGXGXGXGXGXGXGXGXGXGXGXGXGXGXGXHXGXGXGXGXGXGXGXDXGXHXHXLXLXJXLXLXLXJXLXHXGXFXHXHXHXHXGXGXHXHXHXHXLXLXLXBX@X@XhXhXgX@XfXOXoXuXXXyXXXV.G.XXG.aXjXdXOXoXoXXXoXuXXXyXyXyXyXuXuXaXlXgXgXgXgXgXfXfXlXjXjXgXgXgXgXgXgXgXjXOXD.oXdXhXzXhXzXOXV.}.{.wX}.}.}.}.}.}.}.{.{.rXeXrXeXrX{.{.{.wX}.}.tX}.V.V.XXXX}.XXG.D.>.dX@X@X@XvX@Xl.uXjXzXzXgXfXhX",
"4 6 4 ; p @.+.r.e.b.u X ^ S.y.t.s.y.s.+.r.f.w.z.z.z.x.i.u.e.e.t.S.r X R a.x.v.z.z.x.z.x.b.a.p , ^ y.+.e.a.e.w.x.y.@.@.4 O ( j.r.b.r.t.b.y.u u p > > > X R b.c.c.c.x.v.c.c.n.n.u < 0 > 4 5 - p j.n.r.s.s.9 < 9 6 4 4 : p i 8 | 0.i.n.m.v.v.b.x.w.g.t.s.4 : / a.e.e.z.u.u.u.z.z.x.b.n.^ < 0 6 > d ( 9 R T R ^ E a.b.e.w.x.x.w.w.w.e.f.w.w.u.u.i.i.e.e.e.w.u.u.u.u.w.e.e.e.e.e.w.w.w.w.u.w.w.w.w.w.w.w.w.w.w.u.w.w.e.q.f.z.f.f.f.f.f.f.f.g.g.g.g.g.g.g.g.g.g.g.x.f.g.f.f.z.z.6.6.d.5.c.M.c.h.h.C.oXuXoXoXoXuXoXoXXXoXoXXXXXoXXX|.XX}.XXXXXX}.}.XXXX}.}.}.}.}.}.}.}.}.}.}.}.}.}.}.}.}.}.}.}.}.}.}.}.}.}.}.}.}.}.}.}.tXtXXXXXXXtXtXtX}.XXXXXXtXtXXXXXwXwXwX}.}.}.wXwXwXeXwXwXwXwXwXC.iXpXpXpXpXpXpXpXaXaXiXiXoXl.l.pXpXpXpXpXpXkXkXkXkXkXaXsXh.w.x.4.u.u.u.i.u.u.i.i.i.u.u.u.u.u.i.i.e.u.i.i.e.e.e.e.e.u.w.w.w.u.u.u.w.w.w.w.w.w.w.w.e.w.w.w.w.w.w.w.w.w.e.e.r.w.w.w.w.p.w.w.w.w.w.5.w.5.w.w.0.0.r.r.0.n.n.j.j.g.j.j.M.C.V.M.c.V.G.G.XXXXC.M.C.M.M.M.n.M.n.n.C.V.}.V.{.V.wXwX{.}.{.V.m.B.B.V.n.c.c.M.M.M.M.c.V.uXyXuXoXaXgXaXfXfXaXoXoXiXaXaXaXfXfXaXaXaXfXaXaXaXgXdXdXdXfXfXfXaXaXfXfXfXgXfXfXgXdX@XIXPXnX@XhXhX@XfXhXhXnXPXSXSXKXKXSXKXbX@XhXhX@XIXPXKXKXSXJXHXGXGXGXGXGXGXGXGXGXGXHXHXGXGXDXDXGXGXGXGXGXGXGXGXGXGXGXGXGXGXGXGXGXGXHXHXGXGXGXGXGXGXDXGXHXFXGXJXFXHXGXJXFXGXGXGXDXHXFXDXGXGXHXGXDXGXHXGXFXHXVXbXbXbXbXvX@XfXaXaXaXoXXXXX}.XXXXC.OXaXaXiXoXoXXXyXyX}.yXwXwXuXuXuXaXfXfX@X@X@XfXfXfXgXgXgXfXgXgXgXgXgXgXgXOXD.G.iXgXgXgXjXoXG.}.wXwXwX}.XXXX}.}.}.{.{.eXeXeXwXwXeXeXwXV.V.V.tXyXXXXXXXXXXXV.XXG.D.hX@XvX@XvXdXG.uXjXjXgXdXdXdX",
"4 4 0 4 0 1 2 Y b.t.p X 6 0 5 9 2 i 1 u +.b.r.q.f.w.u.u.u.w.e.t.S.r O p b.i.z.z.6.i.z.x.b.y.9 X ; 9 2 s.b.i.x.n.u - 5 X O / F.b.b.i.x.a.b.0.y.s.X 6 0 : E b.g.f.v.z.v.v.c.c.n.R 0 0 > > 4 - p S.y.s - 5 ; 4 ; X 6 : - / a.r.n.n.b.m.v.v.x.x.i.x.e.e.s.< : / t.g.e.f.i.e.u.u.z.z.e.y.R < 6 6 > 4 , 5 S.S.S.F.r.b.b.x.u.u.w.w.g.x.w.w.e.e.i.i.i.i.e.e.e.w.u.u.u.u.e.e.e.e.e.w.w.w.u.u.u.i.u.i.w.w.u.u.i.i.i.i.e.e.w.q.f.c.f.f.g.f.f.f.f.g.g.g.g.g.g.g.g.g.g.g.g.g.g.f.f.f.z.z.d.d.f.tXiXuXuXoXuXoXoXoXoXoXoXoXoXXXXX|.XXXXXX|.|.|.}.}.XXXXXXXX}.}.}.}.}.|.XX}.}.}.}.}.}.}.}.}.}.}.XXXX}.}.}.}.XX}.}.}.}.}.}.}.}.}.}.}.}.}.XX}.}.}.XXXXXXXXXXtXtXtXwXwXwXwXV.V.wXwXeXwX6X6XV.V.V.M.pXpXpXpXpXpXpXpXpXpXaXaXuXh.:.yXpXpXpXpXpXpXpXpXkXkXkXlXiXjXsXx.q.u.i.w.5.w.u.i.u.u.w.w.u.u.u.u.u.u.p.u.u.w.w.w.u.u.w.w.u.u.u.u.w.w.w.w.w.w.w.w.e.e.w.w.w.w.e.w.e.e.w.w.w.w.w.u.w.w.w.w.w.w.5.5.5.5.w.e.e.t.t.t.r.jXzXdXjXlXaXG.iXaXsXuXM.V.G.V.C.V.C.XXaXXXj.M.M.M.M.M.M.M.N.N.V.V.{.{.}.V.V.V.M.C.c.c.j.g.c.M.M.M.M.c.M.M.M.XXXXiXaXfXfXfXdXOXOXaXaX@X@XaXaXaXfXaXfXfXaXdXfXdXgXdXfXfXfXaXaXfXfXaXfXfXaXfXfXOXhXhXhX@XgXfXfXlXfX+XdXdX@X@X@X@X@XhX@XOXOXdXOXhX@X@X@X@XBXJXGXGXDXDXDXDXDXDXGXGXGXGXHXGXGXGXGXGXGXGXGXGXGXGXGXGXGXGXGXGXGXGXGXGXGXGXGXGXGXGXGXGXDXHXGXDXGXGXHXHXHXHXHXGXGXGXHXDXHXDXGXGXGXDXDXDXGXFXFXHXHXFXJXJXPXnXhXhXlXzXlXoXaXlXjXjXjXOXXXG.oXXXXXuXyXyXyXXXyXXXXXuXuXiXgXgXfX@X@X@XfXfXgXgXfXfXfXfXfXfXhXdXgXgXOXG.G.iXOXOXOXiXG.V.wXwXeXwX}.|.}.}.}.}.}.{.{.B.V.V.V.tXuX6XG.tXG.tXuXXXoXG.G.oXV.G.G.G.jXOX@XOXdXD.C.l.D.>.j.l.l.l.",
"- X : ; 6 3 - ! n.t.p O o O O O X X O , @.F.t.e.w.w.i.i.w.e.t.y.S.p X u a.u.6.6.6.6.z.c.b.y.1 O ; O - s.F.a.e.b.p O o ; X E b.w.x.x.b.x.x.b.F.s.O 6 6 - R t.g.c.v.f.v.c.v.g.b.R < 0 > > < - p F.F.^ O > 6 6 ; ; : - O E b.i.x.b.n.7Xv.z.b.a.y.a.r.t.+.: - ( t.g.f.f.w.e.u.u.u.z.i.a.^ > 6 w > ; O 2 y.F.t.n.e.x.x.z.z.u.u.x.x.g.e.e.e.e.w.e.e.e.e.e.e.e.u.u.u.u.e.e.e.e.e.w.w.w.w.w.w.w.u.u.u.u.u.u.u.i.i.u.u.w.w.q.f.c.f.f.g.g.f.f.f.f.f.f.g.g.g.g.g.g.g.g.g.g.f.f.z.z.z.z.d.f.5.uXsXuXuXiXiXoXoXoXoXoXoXoXoXoXXXXXXXyXXX|.|.}.}.}.}.}.XXXX}.XX}.}.}.|.XX}.}.}.}.}.}.}.}.}.}.}.XXXX}.}.}.}.XXXX}.}.}.}.}.}.}.}.}.}.}.}.XX}.}.XXXXXXXXXXXXtXtXtXwXwXwXwXV.V.wXwXwXB.B.V.M.M.M.h.pXpXpXpXpXpXpX+XpXoXpXiXXX:...{.pXpXpXpXpXpXpXpXkXkXpXaXoXjX9XX.4.w.w.w.w.w.w.q.u.u.w.u.i.i.u.u.w.u.p.p.u.u.u.u.u.u.u.u.u.u.u.u.w.w.w.w.p.w.w.w.e.e.e.e.e.e.w.w.e.e.w.w.w.w.w.u.w.w.w.w.w.w.p.6.p.w.5.4.#.#.+.+.O.iXjXaXfXlXaXD.iXaXjXuXn.G.G.G.V.V.V.uXsXuXj.M.M.j.j.c.h.M.V.V.V.V.V.V.V.V.V.V.V.V.b.g.c.c.n.n.c.n.M.M.M.c.h.XXG.iXgXaXgXfXfXaXOXOX@XdX@X@X@XfXlXaXaXfXaXaXfXfXgXdXaXfXfXaXaXfXfXaXfXaXaXaXgXdXgX@XdXgXaXaXfXaXzXgXdX@XdXhX@XdX@XOXfXlXaXlXgXdXdXfX@X$XBXLXGXDXDXDXDXDXDXDXGXGXGXGXGXGXGXGXGXGXGXGXGXGXGXGXGXGXGXGXGXGXGXGXGXGXGXGXGXGXGXGXGXGXDXDXFXGXDXDXDXFXDXFXDXGXGXDXHXFXDXFXDXDXDXDXGXGXGXGXDXGXGXHXHXJXLXnX@X@X@X@X@XA.>.D.OXfXaXOXuXuXXXXXyXuXyXXXoXXX}.XXXXoXoXiXjXgXdX@X@X@X@XfXgXgXfXfXfXfXfXhXhXhXgXgXaXoXuXuXiXuXuXiXXXtXyXwXeXwX}.XXXX}.wX}.wXwXV.V.G.G.M.V.9XV.tXuXG.tXtXG.G.D.D.D.G.G.F.G.jXjXhXgXzXiXG.h.>.>.j.j.M.j.",
"{ +.^ ; w 6 ; ^ b.t.i - d ( o.o.o.^ 3 3 ( / E y.e.e.e.e.i.b.s.^ ^ @.^ +.b.z.z.z.v.6.6.u.e.n.@.@.( > 4 @.+.s.e.y.E O r ^ E s.n.x.b.x.b.x.x.e.b.@.X 0 > X R a.b.c.c.c.c.c.v.x.t.i 7 4 4 4 4 5 p / / p 4 6 > > X ; < ( E +.x.z.v.v.z.v.z.w.b.s.R R +.a.t.! / s.e.f.f.f.w.w.u.u.d.w.i.a.R - 6 6 ; p / | b.b.w.x.z.x.z.f.u.z.x.x.f.w.e.e.e.e.i.i.i.i.i.i.i.e.i.u.u.u.e.e.e.w.w.w.u.u.u.u.u.i.u.u.u.u.u.u.u.u.w.w.w.w.w.5.f.x.f.f.x.f.f.f.f.f.f.f.f.f.f.f.f.g.g.f.g.g.f.f.z.z.z.6.d.5...tXuXoXoXOXoXoXoXoXoXoXoXXXoXXXXXXXXXyXXX}.}.}.wXwXwXwXXXXXXXXX}.}.}.XXXX}.XXXXXX}.XXXX}.}.}.}.XXXX}.}.}.XXXXXX}.}.}.}.}.}.XXXXXXXXXX}.}.}.XXXXXXXXXXXX}.}.tXtXwXwXwXwX{.{.{.V.tXV.V.uXyXtXXXV.pXpXpXpXpXpXpX+XpXoXpXpXuXB.M.yXpXpXpXpXpXpXkXkXpXpX+XaXpXjXiXC.C.C.n.n.V.9Xb.0.w.w.w.u.p.p.u.w.w.u.u.u.u.u.u.u.u.u.u.u.u.u.u.u.w.w.w.w.p.w.w.w.w.e.e.e.e.e.w.w.w.w.e.e.w.e.w.u.w.w.w.w.u.p.u.p.6.q. .r.F.0XG.0XD.dXgXOX+XOXiXoXiXG.uXV.n.6XC.6XC.C.M.C.G.C.j.j.j.g.b.g.b.M.G.V.V.V.V.V.V.V.C.C.n.C.M.c.n.c.n.c.v.v.v.c.c.h.c.uXuXuXuXuXpXoXiXgXaXdXgXgXgXfXfXfXfXOXOXOXOXOXaXaXaXOXOXaXaXaXaXaXaXaXaXiXoXaXgXfXlXgXfXfXgXfXjXdXdXdXgXdXgXgX@X@XgXdXdXfXaXgXdXgXdXgX@XH.BXLXJXGXGXGXDXDXDXDXGXGXGXGXGXGXGXGXGXGXGXHXGXGXGXGXGXGXGXGXGXGXGXGXGXGXGXDXDXDXGXGXGXGXHXHXFXHXGXGXGXDXHXDXDXDXHXFXHXGXGXGXGXGXGXGXDXDXFXDXFXDXDXDXGXGXHXKXmXnXnXnXIXnXBXIXIXIXzXG.uXXXyXyXyXyXXXXXoXoXoXiXuXuXoXoXaXOXaXdX@X@X@XfXgXgXfXfXfXfXfXfXdXdXOXOXOXXXuXuXuXuXiXiXyXyXyXwXwX}.}.}.XXXXtX}.wXtXG.OXjXdXG.G.9X9XG.G.j.C.C.n.iXhXhXhXhXiXj.n.oXoXOXOXiXG.j.j.zXvXG.n.n.G.",
"t.9X+.X > w : ^ b.b.i O ( S.F.j.F.y.0 O ; O 2 y.t.t.y.y.b.n./ X X @.F.e.b.z.z.v.z.z.v.v.x.n.r.F.@.; : p 2 E t.j.p O f F.a.t.x.z.v.z.v.x.x.w.b.s.- 0 > : ^ S.n.g.b.n.c.x.n.b.a.R i 9 ; 4 d ( 1 O O : 4 0 > 6 4 : - S.F.b.v.v.m.m.z.v.v.x.F.+.- O / a.a.a.a.e.e.f.f.f.u.w.u.u.6.w.w.a.R : 0 ; : @.F.j.b.x.n.m.v.c.c.x.f.z.z.w.w.g.e.e.e.e.i.i.i.i.i.i.i.i.i.u.u.u.w.w.w.w.w.w.u.u.i.i.i.i.u.u.u.u.u.u.u.u.u.w.w.w.w.5.f.x.f.f.z.f.f.f.f.f.f.f.f.f.z.z.z.f.f.f.h.f.f.z.z.z.z.6.d.5...}.uXoXpXOXoXpXoXoXoXXXXXXX}.XX}.}.XXXXXXXXtX}.wXwXwXwXXXXXXXXX}.}.}.|.XX}.XXXXXXXXXXXXXXXX}.}.XXXX}.}.}.}.XXXX}.}.}.}.}.}.XXXXXXXX}.}.}.}.XXXXXXXXXX}.}.}.tXwXwXwXwXwXwX{.{.}.V.M.G.sXaXaXaXpXpXpXpXpXpXpXpX+XpXpXpXpXpXpXyXsXpXpXpXpXpXkXkXkXpXpXpXkXpXaXaXjXsXiXuXuXsXiXn.#.r.r.e.w.u.u.p.u.w.u.u.u.u.u.u.u.u.u.u.u.u.u.u.u.w.w.w.w.p.w.w.w.w.w.u.w.w.w.w.w.u.w.e.e.w.e.e.i.w.w.u.u.u.u.p.u.q.0.} $.iXjXiXjXaXjXjXaXoXoXaXiXoXh.g.g.g.x.f.g.g.g.g.r.g.h.g.g.g.g.j.g.j.j.C.C.V.V.6X6XC.C.M.M.$.g.g.j.j.g.g.g.4.q.0. .h.h.h.XXaXXXk.l.l.k.XXjXzXlXlXlXlXzXlXaXgXOXoXoXOXOXaXfXOXOXoXiXaXsXaXaXoXoXoXXXl.oXfXgXfXfXaXaXfXgXdXdXgXdXgXdXdXdXdXgXOXgXgXgXgXjXOXgXdXgXdXOXIXLXJXHXHXGXGXDXDXGXGXGXGXGXGXGXGXGXGXGXGXHXGXGXGXGXGXGXGXGXGXGXGXGXGXGXDXDXDXDXGXGXGXGXFXHXDXHXFXGXHXDXFXDXDXFXHXFXHXGXDXHXGXFXGXGXDXGXDXGXDXDXHXDXDXHXGXHXJXLXJXJXLXLXLXLXPXPXzXl.uXtXyXXXXXXXl.D.oXaXaXgXjXaXoXoXoXD.aXfXgXgXgXgXgXgXfXfXfXdXgXdXdXdXl.G.XX}.XX}.}.XXXXXX}.tXyX}.yXwXXXXXXXXXtXtXtXXXn.dXvXzXOXD.G.9XG.C.h.j.g.j.dXbXvXhXvXjXj.j.j.h.j.:.j.j.j.j.vXvXiXn.j.G.",
"0.F./ O 6 6 X ^ t.e.u O d H.y.j.n.y.- 6 6 3 p y.y.s.s.+.n.n.+.2 7 +.e.w.z.v.z.z.z.z.z.z.x.e.t.a./ 7 9 p p ^ j.y.p O p y.e.e.x.z.v.z.z.z.x.x.e.r.X 5 ; > d S.y.y.t.y.y.y.a.S.s.^ 9 9 4 4 0 p 0 5 4 ; ; ; 0 O 9 2 u #.q.x.z.v.v.x.v.z.c.r.y.@.2 - s.t.b.i.x.x.g.f.z.f.z.x.x.z.z.w.e.a.^ - 6 4 : +.a.b.b.x.x.x.x.x.c.x.f.w.z.z.f.w.w.e.e.e.e.e.w.w.i.e.w.w.u.u.u.u.w.w.w.w.u.u.u.u.p.i.p.p.z.i.z.z.z.z.u.u.u.u.5.w.w.q.w.z.c.d.z.z.c.c.z.z.v.f.z.z.z.z.z.z.f.f.f.f.z.z.6.6.z.6.w.f...XXoXoXoXoXuXuXoXoXXXXXXXXXXXXX}.XXtXtXtXtXtXtXyX}.}.tXXX}.XXXXXXXXXXXXXXXXXXXXXX}.}.}.}.}.}.XX}.}.XXXX}.}.}.}.}.}.}.}.XXXXXXXXXXXXXXXXXXXXXXXXXXXXXXXX}.}.wXwX{.wX{.wXwX}.wXB.V.l.l.uXaXiXpXaXpXpXpXpXpXpXpXpXpXpXpXpXiXiXpXpXpXpXpXpXpXpXpXpXpXpXpXaXoXpXiXaXiXiXG.l.OXOXj.$.$.$.j.r.4.x.6.u.5.z.5.z.6.z.u.6.u.u.u.p.p.u.p.w.5.w.u.5.4.u.w.w.u.w.i.q.i.q.w.u.p.u.w.w.w.w.q.u.p.6.p.u.6.6.p.p.q.#.$.>.G.dXiXiXiXsXlXaXyXpXpXaXuXh.M.h.c.g.x.g.h.j.j.j.g.g.j.j.h.h.j.>.j.l.G.C.V.V.6X6XC.G.G.D.>.j.j.j.j.l.j.>.$.$.:.>.>.>.D.OXaXoXl.l.l.l.XXlXlXlXzXlXzXlXlXlXgXuXXXoXoXoXaXaXOXOXOXOXaXaXfXfXOXOXoXD.D.OXaXgXgXfXfXgXgXgXgXgXgXgXgXdXdXgXfXdXfXfXfXgXgXgXdXdXgXgXdXdXnXPXKXJXKXJXHXGXDXGXGXGXGXFXHXGXGXGXDXGXHXFXHXGXDXHXFXGXGXGXGXGXGXGXGXGXDXDXDXDXGXGXGXGXGXGXGXGXGXGXGXGXDXDXDXGXGXGXGXGXGXGXGXGXGXDXDXDXGXGXGXDXGXGXGXGXGXHXGXGXGXGXGXGXJXLXPXPXgXG.yXyXyXXXXXoXxXdXjXOXaXaXaXOXoXiXuXuXaXfXgXdXgXdXlXdX@XhXgXdXgXfXaXgXG.XX}.}.tXtXyXyXyXyX}.yXyXXXyXXXyXyXyXyXyXyXtXXXG.dXzXxXaXG.G.tXXXM.j.n.j.j.OXvXvXvXzXjXl.j.M.M.M.M.M.n.j.D.zXvXiXC.>.D.",
"r.F.^ X 6 6 - ^ t.t.i X < 1 2 r.n.t.: 6 6 > 5 @.o.R u u r.n.F.y.a.n.x.z.z.v.z.z.z.z.z.z.z.f.x.b.n.S.S.u X p y.y.p X s y.g.x.v.v.v.z.z.z.c.z.w.r.y.S.p X X p 5 < 7 7 7 7 7 9 9 : 9 5 < < 5 9 5 , 4 0 9 5 0 - @.y.#.b.x.z.6.z.u.x.w.0.t.R - ^ y.y.r.a.b.x.x.x.x.z.z.d.z.z.x.x.z.w.r.y.^ - 4 4 - @.n.c.n.n.n.c.c.c.c.g.w.w.f.w.w.w.w.w.w.w.q.w.w.w.w.q.q.w.w.w.w.w.w.w.w.w.u.u.u.u.i.i.i.u.u.6.6.5.6.6.u.u.6.u.w.w.e.r.w.f.f.f.f.f.f.f.f.5.x.5.z.z.z.z.z.z.z.f.f.f.d.z.z.z.z.z.n.uXG.aXuXXXoXoXyXyXyXoXoXXXtXtXtXtX}.tXtXtXtXtXtXwXwX{.}.tX}.}.XXXXXXXXXXXXyXXXyXyXXXXXXXXXXXXXXXXX}.}.XXXX}.}.}.}.}.}.}.}.XXXXXXXXXXXXXXXXXXXXXXXXXXXXXXtXwXwXwXeXyXeX{.wX}.{.wXN.oXoXuXaXaXaXaXpXpXpXpXpXpXpXpXpXpXpXpXpXpXpXpXpXpXpXpXpXpXpXaXaXpXpXpXpXl.:.l.oXiXOXD.oXzXvXzXgXzXzXxXuXq.p.6.u.6.z.6.u.4.5.p.u.u.u.i.i.i.u.u.w.9X9Xn.x.u.w.w.w.w.w.i.w.i.w.i.i.q.p.p.w.u.w.q.u.u.u.6.6.6.u.u.q.} iXxXzXgXlXaXoXoXiXaXpXpXpXpXpXaXN.XXuXuXuX9XM.iXdXsXoXG.G.G.l.sXdXjXjXjXjXjXdXM.M.C.V.G.aXjXgXdXgXjXgXlXzXzXlXzXzXlXlXvXmXvXzXzXgXfXfXgXgXaXOXoXoXoXoXoXoXoXoXXXuXiXuXV.l.aXzXzXzXzXlXgXfXlXzXfXjXgXaXaXfXjXjXfXfXdXdXdXdXdXdXdXdXgXdXdXfX@X@XdXdX@XdXfXfXfXfXfXfXdXOXhXvXhXvX@XmXKXHXFXFXGXGXHXJXHXGXDXHXGXHXGXJXHXHXGXGXDXGXGXGXGXGXGXGXGXGXDXDXDXDXGXGXGXGXGXGXGXGXGXGXGXGXDXDXGXGXGXGXGXGXGXGXGXGXDXDXDXDXGXGXGXGXGXGXGXGXGXHXGXDXGXGXDXDXHXBX@XvXOXiXiXuXuXoXoXiXzXlXjXfXaXfXgXaXoXuXoXXXuXiXOXdXgXdXgX@XgXzXdXoXG.oXXXXX}.}.}.wXwXwXyXyX|.}.|.yX}.}.yXXXXXXXXXXXXXXXXXV.C.D.oXoXD.C.G.9XXXV.V.G.G.G.D.OXD.D.oXoXC.V.tXV.B.V.6X9XC.l.D.D.G.j.l.jX",
"r.a.R - 4 ; X E b.y.p O o O O @.F.t.- O X : 1 ( ( d , 2 r.b.n.n.b.x.5.6.v.x.z.x.z.z.z.z.z.z.x.x.e.n.F.2 O ^ y.S.d X E y.e.x.c.z.c.z.z.z.c.z.z.w.r.y.1 O O X > > ; : : : : < 4 4 4 4 5 5 4 5 < , 5 5 9 4 4 O +.n.g.c.x.x.x.n.e.n.a.F.S.R O u a.n.e.n.b.x.x.z.x.z.z.f.f.f.z.x.w.0.n.S.^ X : - - @.n.c.c.c.c.x.x.x.x.f.w.w.w.w.w.w.w.w.w.w.w.w.w.w.5.5.w.w.w.w.w.q.w.w.w.u.u.u.u.u.u.6.z.z.6.z.z.z.z.u.z.u.6.u.w.r.t.r.e.g.f.5.4... . .#. .f.4.f.5.z.z.z.z.z.z.f.f.d.z.z.z.6.5.m.sXuXuXoXoXuXyXyXtXyXyXXXyXtXtXtXtX}.tXXXXXXXXXtX}.wXwXyXXXV.}.XXXXXXXXXXXXyXyXtXtXtXtXtXtXwXtXtXtX}.}.XXXXwXwX}.}.}.}.}.}.XXXXXXXXXXXXXXXXXXXXXXXXXXyXyXyXwXeXeXeXwX{.V.wXB.C.C.:.oXaXaXaXaXaXaXaXpXpXpXpXpXpXpXpXpXpXpXpXpXpXpXpXpXpXpXpXpXpXsXaXpXpXaXaXl.:.j.iXoXoXD.oXgXzXhXhX@XfXzXuX .p.p.u.6.u.5.5.| } } 4.X.X.X.| X.X.X.X.h.C.r.| } | ] | ] ] | ~ | ] } | q.p.p.6.p.p.p.u.6.6.6.6.6.6.4.} s G.xXzXzXxXlXoXaXaXpXpXkXkXkXaXpXM.}.yXaXuXXXl.OXlXjXoXG.oXG.l.aXgXhXlXlXjXgXdXl.M.M.M.G.aXzXhXhXzXzXzXzXvXvXvXzXzXzXzXbXnXmXzXzXlXzXzXzXxXjXD.oXXXoXXXXXXXXXXXXXsXxXsXXXV.aXxXzXvXvXzXfXlXzXzXlXzXzXlXgXgXjXgXgXgXgXgXgXgXgXgXjXgXjXgXfXfXfXgXgXgXgXdXdXfXgXgXaXaXfXdX@X@XOX@XH.mXPXLXHXHXHXJXJXJXLXLXHXLXLXHXHXHXJXGXHXHXGXFXGXGXGXGXGXGXGXGXDXDXDXDXDXDXDXDXDXDXGXDXGXDXGXDXDXDXGXGXGXGXGXGXGXGXGXGXDXDXDXDXGXGXGXGXHXHXGXGXGXHXGXDXHXGXDXGXJXnXJ A.A.>.l.>.l.>.>.D.aXzXaXaXdXdXfXOXoXuXuXoXuXaXD.OXD.@X@XgXzXxXzXoXG.oXuXXX}.}.wXwXwXwX}.}.|.eX}.yXXXXXuXXXuXuXuXtXtXuXyXXXXXV.l.l.V.XXtX}.}.V.}.tXtXG.l.l.l.V.V.V.6XwXwXB.wXB.eXeXeX{.}.l.G.l.D.vX",
"e.a.@.^ ( 9 , ^ @.@.0 O d @.^ a.n.a.E ^ / ^ ( ( ^ d 3 5 b.b.e.i.6.6.5.z.v.x.w.x.z.f.z.z.z.f.u.x.e.e.a./ o.@.^ @.d O p y.e.g.x.v.v.z.z.z.c.v.z.f.r.b.E / ( , 6 6 4 4 0 0 4 4 0 0 4 0 0 9 9 9 9 5 5 < 4 4 6 O +.b.f.z.u.x.b.a.E E / @.@.@.^ E e.w.x.n.b.x.x.z.z.z.f.f.f.f.w.w.w.0.E ^ / ^ / ^ E s.n.c.x.x.x.x.x.g.x.g.f.f.z.f.w.w.e.w.e.w.w.w.w.w.w.w.w.u.i.u.u.w.w.w.w.w.u.u.u.u.u.5.6.6.5.6.w.w.u.w.w.5.5.q.r.r.+.+.b.G.G.C.n.C.oXoXXXG.oXC.9Xc.f.f.6.6.6.d.d.d.z.d.d.z.6.4.c.uXV.XXXXoXuXXXyXyXyXXXtXwXwXwXwXwXtXwXXXXXXXXX}.}.wXwXyX}.V.XXuXoX}.XXXXXXtXtXtXtXtXtXwXwXwX}.}.}.tX}.XXXX}.wX}.}.}.XX}.}.}.}.XXXXXXXXXXXXXXXXXXXXwXwXwXwXwXeXeXeXeXwXtXyX}.}.yXl.oXOXaXpXoXpXaXpXpXpXpXpXpXpXpXpXpXpXpXpXpXpXpXpXpXpXpXpXpXpXpXaXpXpXpXaX}.l.C.uXC.iXaXOXgXfX@XhXhX@XzXiX} i.u.6.6.6.2.6XuX9X9XG.uXuXuXuXuXuXOXoXiXjXiXj.j.iXiXiXiXiXiXG.G.G.iX9X4.q.p.6.6.6.6.u.6.6.6.u.i.q.e.9XG.iXdXaXaXlXaX+XaXaXaXkXkXkXpXpXpXM.V.}.uXXXG.l.oXlXgXD.l.oXoXl.oXOXOXOXOXaXaXiXG.V.V.V.G.aXgX@XOXOXaXdXdXgXgXdXdXfX@X@XzXvXvXdX@XOXaXdXaXaXaXoXXXXXXXXXXXXXXXXXV.uXiXuXG.XXaXfX@XxXvXfXOXdXgXfXaXaXaXpXiXiXiXiXaXaXaXiXiXiXiXiXiXOXiXoXOXdXdXdXgXgXfXdXaXdXdXfXfXaXgXgXdXgXdXgX@XvXnXnXnXBXBXBXBXnXBXIXIXIXIXBXBXHXHXGXHXGXGXDXGXGXGXGXGXGXGXGXGXDXDXDXDXDXDXDXDXDXDXDXDXDXDXDXDXDXGXGXGXGXGXGXGXGXGXGXDXDXDXDXGXGXGXGXHXHXGXGXGXHXDXDXDXFXFXGXJXKXbXnXnXmXmXbXmXbXvXbXhXxXaXaXfXgXfXoXoXoXXXoXoXaXOXvXvXvX+XOXaXgXaXoXG.uXuXXX}.wXwXwXwXwX}.}.|.wX}.XXXXXXXXV.C.C.C.n.V.G.XXV.}.{.}.XX}.wX}.V.V.{.{.V.V.{.}.}.V.}.wX{.{.{.B.N.wXB.B.eXB.{.wX}.XXD.H.jX",
"x.b.b.F.S.p O 5 O : o O E n.b.x.x.b.e.n.a.F.y.p p d > 4 y.b.e.x.v.v.v.z.x.i.x.x.f.6.5.5.5.5.w.e.c.e.a.a.0Xs.O X 6 O d S.j.b.b.n.x.z.z.z.v.v.z.z.x.n.r.F.y.- : > 4 4 4 4 4 4 4 4 4 0 p 0 0 0 0 0 0 5 4 4 0 - +.n.f.v.b.i.a.r.2 - O X - @.F.e.c.c.v.c.c.x.x.x.z.z.z.f.f.f.w.w.r.#.X - / F.F.n.t.n.b.c.v.v.x.x.x.g.c.x.z.c.c.x.x.x.x.x.x.x.x.x.x.x.x.x.x.x.x.x.i.u.w.w.w.w.w.u.u.u.z.5.u.u.w.x.e.x.u.u.w.w.e.e.a.S.^ ^ j.iXuXuXuXsXxXzXjXjXsXuXsXM.f.z.6.6.6.6.d.d.z.d.d.z.z.5.M.iXuXuXoXoXoX}.yXyXyX}.}.}.wXwXwXtXtXtXwXwXwXwX}.}.{.wX}.}.G.uXsXsXV.}.}.XXyXyXtXtXtXtXtXtXtXtXtXXXtXtXXXXXXXXXXXXX}.}.}.XX}.}.}.tXtXtXtXtXtXtXtXtX}.}.wXwXwXwXwXwXwXV.V.V.l.G.aXaXOXpXaXpXpXpXpXpXpXpXpXpXpXpXpXpXpXpXpXpXpXpXpXpXpXpXpXpXpXpXpXpXpXpXpXaXoXXXG.uXl.aXzXlXgXlXlXzXlXgXzXoX~ 2.p.p.u.u.| sXxXjXxXjXzXzXzXzXzXzXzXzXvXzXzX>.j.vXvXvXbXvXvXzXvXzXxXiX .w.w.5.6.6.6.6.6.6.6.6.5.} j.xXzXiXG.oXoXoXoXpXaXaXpXaXaXpXpXaXsX{.wX}.yX}.}.C.OXzXzXG.C.G.tXG.G.G.G.G.D.l.G.G.G.XXtXwXtXsXjXaXD.D.G.G.G.G.D.D.l.l.l.l.OXzXgXoXoXoXG.V.V.V.G.XXXXyXyXyXuXuXuXuXuXuXG.G.XXXXXXoXD.gXjXoXl.D.G.l.G.XXXXG.G.XXoXoXG.G.G.G.G.G.G.XXC.C.V.l.XXsXjXgXgXjXgXgXdXgXgXdXgXaXdXdXOXdXdX@X@X@X@XOXOXOXOXOX@XOXOXH.H.H.H.H.@XKXHXJXGXFXGXGXGXGXGXGXGXGXGXGXGXGXGXGXDXDXDXDXDXDXDXDXDXDXDXDXDXDXDXDXGXGXGXGXGXGXGXGXGXDXDXDXDXGXGXGXGXGXGXGXDXGXGXGXGXDXHXHXHXLXJXLXJXLXJXJXLXLXPXSX@XzXOX@XOX@XlXOXiXuXXXuXaXOXOXnXSXmXD.OXD.oXXXXXXXuXyXyX}.wXwXwXwXwX}.}.wXwX}.XXXXXXXXC.r.g.g.g.n.V.V.V.B.{.V.}.V.V.{.{.B.V.{.}.{.{.{.|.B.wX}.{.}.{.V.}.{.{.{.{.B.N.{.{.{.V.M.G.",
"g.e.t.n.s.i < 4 4 4 6 ; E b.f.5.x.x.e.e.0.t.t.R ^ ( > ; y.b.x.x.z.z.z.u.i.b.x.z.z.z.w.w.5.5.w.f.w.g.e.e.n.+.X 2 3 O ( S.y.a.b.x.x.z.z.z.z.z.z.z.v.x.e.n.+.- 2 - 4 4 4 4 4 9 4 4 4 0 0 0 0 0 0 0 0 4 6 6 6 X +.b.z.c.n.e.x.a.1 X X - - +.b.w.v.z.v.c.c.c.c.x.x.x.z.f.f.f.f.f.r.#.2 2 +.t.e.x.b.x.x.x.x.x.x.x.g.g.x.g.x.x.x.x.x.x.x.x.x.x.x.x.x.x.x.x.x.x.x.x.i.u.u.u.u.w.u.u.u.u.z.5.u.i.b.b.r.r.e.z.w.e.n.t.s.S.@.^ j.G.G.G.G.iXlXgXaXOXiXXXuXc.f.z.z.z.z.d.d.z.d.d.z.z.f.5.n.uXXXuXoXXXyXXXyXwXwX}.wX}.wXtXtXtXtXtXtXtXwXwX}.wXwXwXtX}.G.uXsXaXXXXXXXtXyXyXtXtXtXtXtXtXtXtXtXtXtXtXtXXXXXXXXXXX}.}.}.}.}.}.}.}.tXtXtXtXtXtXtXtX}.}.}.wXwXwXwX{.N.V.V.C.l.l.OXaXaXpXpXpXpXpXpXpXpXpXpXpXpXpXpXpXpXpXpXpXpXpXpXpXpXpXpXpXpXpXpXpXpXaXaXaXXXXXXXuXj.aXjX@X@X@X@XfXlXfXlXG.| w.2.6.5.q.X.sXxXaXjXaXlXzXzXzXhXzXhXhXzX@XzX>.>.zXhXhXvXvXzXhXhXhXzXG. .5.6.5.5.6.6.6.6.6.6.5.e.$.>.zXxXdXiXaXaXpXpXaXaXaXaXkXaXpXaXsXpXB.wXwXyX}.}.V.OXjXdXG.G.G.V.XXuXyXXXXXXXG.XXXXXXtXtXwXtXiXaXiXoXoXXXtXXXG.G.G.V.XXG.G.iXxXjXiXoXuXuXXXuXuXyXtXuXuXuXuXuXuXuXuXuXuXtXuXuXXXXXXXOXjXzXiXG.G.XXXXG.G.XXXXXXG.G.G.XXG.G.G.XXXXXXXXV.V.V.M.G.sXjXjXdXfXfXaXdXjXjXdXdXdXgXdXdXdXgXaXfXdXOXdXdXdXdXgXOX@X@X@X@X@X@X@X;XKXHXFXHXGXGXGXGXGXGXGXGXGXGXGXGXGXGXGXDXDXDXDXDXDXDXGXGXGXGXGXDXDXDXDXGXGXGXGXGXGXGXGXGXGXGXDXDXDXGXGXGXGXGXGXGXGXDXHXGXHXHXSXKXHXHXHXFXHXHXHXFXJXJXVX@X@X$XOX@XOXhXOXuXuXuXiXG.OX@XnXSXnXD.OXoXoXoXuXuXuXuXuX}.wXwXwXwXwX}.}.wXyXXXXXXXG.G.M.g.g.g.g.n.G.G.}.}.{.}.tX{.{.{.{.{.V.V.}.}.{.{.{.wXwX}.}.}.XX}.}.{.B.{.{.}.wX{.eXeXeXV.wX",
"e.e.e.t.e.r.y.@.; 4 > O E b.i.x.x.c.c.x.x.x.e.+.y./ ; , y.n.b.x.x.x.x.x.x.b.z.u.x.x.x.x.f.d.f.z.q.x.w.e.e.b.+.y.d o d ( E s.b.i.x.z.z.z.z.z.z.z.z.f.g.b.e.| s.( - 3 3 ; 4 6 4 4 4 4 6 4 4 4 6 4 4 4 6 6 0 - +.n.x.x.x.w.g.b.2 O ( @.@.t.x.w.v.z.v.c.v.c.c.x.x.x.x.f.f.f.f.f.e.+.R i s.b.g.M.x.x.x.x.x.x.x.x.x.x.x.g.f.z.f.f.f.f.f.z.z.z.z.z.z.z.z.z.z.z.x.x.x.i.w.w.w.w.w.w.u.u.u.w.i.e.t.+.u u 0.e.0.e.t./ p R S.@.F.G.XXXXXXuXiXuXoXoXoXXXsXx.f.z.z.6.z.z.z.z.d.d.6.z.z.5.g.C.h.G.XXXXyXyXwXwX}.}.wXwXwXwXtXtXtXtXtXtXwXwXwXwXwXwXtXV.V.G.oXXXXXXX}.}.wXwXwXtXtXtXtXtXtXtXtXtXtXtXtXtXtXtXtXXX}.}.}.}.}.}.XXXXtXXXtXtXtXtXtXXXXX}.}.}.}.wX{.{.tXaXaXaXiXOXaXaXpX+XpXpXpXpXpXpXpXpXpXpX+X+XpXpXpXpXpXpXpXpXpXpXpXpXpXpXpXpXpXpX+XaXpXaXV.V.}.uXl.aXfXdXdXfXfXlXlXlXlX@XiXjXn.i.n.b.w.iXiXG.oXoXG.OXOXOXOXOXD.D.gX@XgXOXOXgXdX@XdXdXdX@XfXdXjXG.} 5.6.6.6.6.6.6.6.6.6.q.0XsXOXhX@XOXOXaXsXsXaXpXaXaXaXaXpXpXaXaXpXB.wXyXpXXXyXXXoXOXoXoXiXoXV.XXXXXXyXyXyXXXXXyXXXXXeXwX{.XXoXoXXXXXtXtXXXV.V.V.V.G.G.C.G.oXoXG.G.XXXXXXyXuXXXc.M.M.M.n.M.M.M.n.M.M.M.V.XXG.XXoXG.OXiXXXV.V.G.XXXXXXXXtXtXXXG.G.XXXXXXXXXXtXtXtXM.M.M.c.M.V.G.G.uXOXoXoXOXaXdXaXdXdXgXdXdXdXdXdXgXdXgXgXgXdXdXfXdXnXKXKXKXPXKXKXKXHXHXFXHXHXHXDXGXGXGXGXGXGXGXGXGXGXGXGXGXGXGXGXGXGXGXGXGXGXGXGXGXDXDXDXGXGXGXGXGXGXGXGXGXGXGXGXDXDXGXGXGXGXDXDXGXDXDXDXFXJXSX;X;XBXJXHXDXGXDXDXDXDXGXFXBXVXVXBXnX@XhXOXG.G.G.j.vXnXmX@X@X@XD.uXuXXXoXoXoXXXXXXXXXXXtXtXtXwX}.}.}.}.XXG.C.j.j.h.c.n.x.g.n.G.V.V.}.V.XXtX}.{.{.M.}.V.V.V.{.{.{.{.{.{.{.}.{.}.}.{.wXB.V.V.V.V.B.{.B.wXB.wX",
"w.x.i.e.w.b.F./ O 6 0 O E b.b.i.x.v.f.f.v.g.e.t.F.@.; , t.b.b.x.b.x.x.i.u.u.z.z.z.z.x.x.z.f.5.f.w.w.w.b.w.b.b.F.( + + O O / b.x.z.z.z.z.z.6.6.6.z.z.c.f.g.b.9X^ X 6 6 4 6 5 6 5 5 6 4 4 4 4 4 4 6 6 6 4 6 X +.b.x.x.b.e.n.b., O ( F.n.e.x.z.v.v.x.v.x.x.c.x.g.x.g.f.f.d.f.f.e.+.R R s.b.c.M.n.n.n.n.n.n.n.n.b.n.b.b.x.g.f.f.f.f.f.f.f.f.z.z.z.z.z.z.z.z.z.x.b.x.u.w.u.w.w.w.u.i.i.i.b.t.a.+.X O y.n.t.t.y.E O - F.y.G.uXXXyXXXXXXX}.G.XXuXG.sXf.w.w.6.w.f.z.z.z.z.6.5.6.z.z.w.w...G.uXXXXX}.}.XX}.}.G.G.G.G.G.G.tXtXtXtXtXwXwXwX{.{.}.C.l.l.C.C.G.V.}.}.}.}.}.}.G.G.G.G.G.XXXXXXtXtXtXwXwXwXtXXX}.}.wXwX}.wXXXXXtXtXwXwXXXXXtX}.XX}.}.}.wXwX{.V.XXaXaXaXaXOXOXaXpXpXpXpXpXpXpXpXpXpXpXpX+X+X+X+XpXpXpXpXpXpXpXpXpXpXpXpXpXpXpXpXpXpXpXsX}.}.V.XXl.aXlXfXgXfXdXlXlXfXlX@XjXxXg.#.e.0.r.C.G.G.l.G.G.G.oXG.G.G.G.l.fXlXfXlXzXfXaXdXOXdXdX@XfXdXjXG.} 5.6.6.6.6.6.6.6.6.| ~ G.xXdX@XhXdXaXaXaXaXsXsXaXaXaXaXaXaXaXaXaXN.|.}.yX}.yXXXXXG.G.uXsXuXV.XXtXXXXXXXXX}.}.XX}.}.yXyX}.}.oXoXXXXXyXtXtX}.V.V.tXV.V.XXoXXXoXuXiXoXuXuXyXuXXXc.h.h.g.g.c.c.M.M.c.M.M.C.XXXXXXG.G.G.C.V.XXXXG.G.XXG.G.G.XXG.G.G.XXG.G.G.G.XXtXtXM.M.C.C.M.M.M.M.yXXXXXXXOXdXjXjXgXfXaXdXdXdXdXgXgXdX@XdXdXaXdXdXOXIXLXHXHXLXLXHXLXJXJXLXGXFXGXGXGXGXGXGXGXGXGXGXGXGXGXGXGXGXGXGXGXGXGXGXGXHXHXHXGXDXDXDXGXGXGXGXGXGXGXGXGXGXGXGXDXDXDXGXGXGXDXDXDXDXDXHXHXLXBXI I VXJXJXDXDXDXDXFXDXDXDXGXJXFXKXSX@XdXG.D.D.l.s vXIXnX@XH.OXiXuXuXuXuXuXuXuXuXoXXXXXXXyXtXtXtXXXXXuXoXoXl.>.h.h.h.b.g.g.M.G.G.V.XXV.G.V.B.B.}.}.V.}.}.{.V.{.{.V.{.{.XXyX{.V.}.}.V.B.wXV.V.V.B.wX}.}.M.}.",
"z.x.u.x.g.g.n./ X 6 > X E b.e.x.c.z.v.x.x.g.F.@.S.( 6 : y.b.x.b.x.z.z.z.x.x.x.z.f.f.f.f.w.d.d.w.w.w.u.u.x.i.b.a.^ O 6 3 X o.n.u.x.z.z.z.z.z.z.z.z.z.z.z.w.b.n.E - 6 > 4 < 9 5 9 4 9 9 9 5 4 4 4 4 6 4 6 6 O @.b.x.f.b.y.+.@.5 O d @.+.e.w.6.v.z.z.z.f.f.f.g.f.f.f.f.f.f.4.w.b.+.9 2 y.n.6X4.b.y.s.@.@.@.@.@.@.@.@.y.b.g.f.z.z.f.f.f.f.f.z.z.z.z.z.z.z.z.v.c.z.f.z.w.i.i.w.x.g.t.y.+.+.t.t.r.E E @.^ @.s.@.s.E o.b.b.n.n.c.uXXXXXoXoXXXXXXXoXoXl.M.n.n.C.w.z.z.z.z.z.z.z.u.z.x.x. .uXXXXXOXOXOXOXOXOXOXOXOXOXOXOXoXV.XXwX}.wX}.XXV.V.C.oXiXG.C.tXV.l.oXOXOXOXOXiXiXOXOXOXOXOXaXXX}.tXeXeXeXeXtX}.}.tXwXwXwXV.V.yXtXyXwX}.}.XXyX}.XXtX}.wXwXwX}.V.XXaXaXOXaXaXaXpXpXpXpXpXpXpXpXpXpX+XpX+XpXpXpXpXpXpXpXpXpXpXpXpXpXpXpXpXpXpXpXpXpXpXpXyXXX|.oXoXl.oXaXgXaXOXfXgXfXfXlXfXdXaXG.G.G.G.G.OXiXOXiXaXuXXXXXuXXXXXXXV.aXiXaXaXOXaXjXfXgXlXhXlXhXhXjXG.} u.6.6.6.6.7.u.3.x.G.j.OXgXhXfXjXiXuXuXyXuXuXuXuXuXuXuXyXoXoXoXuXC.}.wX}.wXwX}.XXXXXXuXuXuXXXXXXXXXXX}.|.XXXXXXXXXXyXyX}.}.XXXXoXXXoXoXXXV.C.9Xn.V.G.V.G.XXG.G.oXXXXXtXuXuXG.h.j.M.n.b.j.b.b.M.M.M.g.n.tXXXG.G.XXXXG.G.G.G.XXXXXXXXG.G.G.XXoXoXG.tX9XG.V.G.G.V.M.M.M.C.C.M.M.C.uXC.uXoXuXsXOXdXdXdXdXdXdXdXdXdXaXdXdX@XdXdXdXdXOXSXLXJXGXJXGXJXJXSXIXKXLXJXHXGXGXGXGXGXGXGXGXGXGXGXGXGXGXGXGXGXGXGXGXGXGXGXGXGXGXDXGXHXGXGXGXGXGXGXGXGXHXGXHXHXGXGXGXGXGXGXGXDXFXGXDXDXGXGXKXbXbXVXJXGXDXDXDXDXDXFXHXKXnXVXnXnXmXhXhX@XD.D.zXvXnXmXnXD.uXuXC.uX9XtX9XG.G.G.G.G.G.G.G.V.V.tXtXG.G.G.G.G.G.M.l.j.n.M.n.j.C.V.V.V.V.V.V.V.}.V.V.}.{.{.{.{.{.{.{.{.}.}.}.}.}.}.}.}.V.V.V.V.V.V.V.V.V.V.V.V.",
"6.z.u.x.f.e.b.+.X > > : / F.e.w.z.z.x.x.x.e.s.2 X o @ 4 a.b.e.w.z.z.z.z.x.x.g.x.f.f.f.f.w.w.f.f.w.u.u.u.u.x.b.a.E O 3 6 3 +.a.z.z.z.z.z.z.z.d.z.z.z.z.x.w.i.t.E O 4 > 0 5 9 < 5 4 9 9 5 5 4 4 4 4 6 4 4 0 O @.n.f.f.b.E X 9 < < X 2 - +.x.6.6.6.z.f.f.f.w.w.w.w.f.f.w.f.5.f.b.+.X - y.F.e.} 9.u X O X X O O X X O R r.x.f.f.z.z.f.f.f.f.f.f.f.z.v.c.z.d.d.d.z.z.z.w.x.i.e.e.t.y.^ O 2 y.n.t.r.F.p X X O X @.F.b.g.e.g.f.f.tXXXXXoXoXoXuXoXXXuXoXiXiXiXiXn.g.w.x.f.f.f.f.u.u.z.f...XXOXaXzXzXzXlXlXhXhXzXhXhXhXzXaXoXuXtXV.XXG.V.tXV.oXdXjXOXG.tXuXXXaXzXhXhXzXzXlXlXhXzXhXzXjXiXV.tXeXeXeXV.}.V.V.tXwXtXtXtXV.tXtXwXwX}.}.}.}.}.wX}.}.wXeXwX}.}.XXaXaXaXaXOXpXpXaXpXaXpXpXpXpXpXpXpXpXpXpXpXpXpXpXpXpXpXpXpXpXpXpXpXpXpXpXpXpXpXpXpXpXpXpXpXaXaXoXpXpXoXl.l.OXgXgXgXlXgXgXlXgXgXjXjXjXjXjXgXjXjXXXV.G.G.V.V.XXC.V.l.D.D.XXOXgXfXfXhXfXhXfXhXjXG.| 4.6.6.7.6.6.4.} C.jXjXzXfX@XOXaXXXV.B.B.B.{.V.}.}.}.}.|.|.V.}.yXC.{.wXeXwXwX}.wX}.V.XXyXXXG.XX}.}.}.}.}.}.XXXX}.XXyX}.}.}.}.}.}.}.XXXXC.j.g.j.M.j.h.h.j.M.M.M.j.j.M.n.C.G.C.g.c.b.b.b.b.b.c.M.M.M.c.C.tXXXoXXXG.XXXXG.G.G.XXXXXXG.G.G.G.G.G.G.oXoXG.n.j.j.M.M.M.M.M.M.M.M.M.M.M.h.G.C.C.G.G.iXdXfXfXfXfXfXfXdXaXgXdXdXdXaXaXgX@XSXLXHXHXHXHXLXLXJ.g bXLXHXHXHXHXGXGXGXGXGXJXGXGXGXGXGXGXGXGXGXGXGXGXGXGXGXGXGXHXGXGXGXDXGXHXHXDXDXDXDXDXFXGXGXGXGXGXGXGXGXGXGXGXGXDXGXGXGXHXGXKXHXHXFXDXDXFXFXFXFXHXBX@X@X@X@XzX@XhXhX@XzXIXPXbXA.D.O. .5.w.w.f.f.g.g.g.g.h.h.j.n.j.j.n.C.V.C.G.C.G.G.V.V.G.G.G.G.G.G.oXtXXXXXV.tXV.V.V.V.V.V.}.{.{.}.}.}.}.}.}.}.}.}.}.}.}.}.V.V.V.V.V.V.V.V.V.V.V.V.",
"6.z.u.x.f.e.b.+.O > ; X ^ F.t.n.z.z.v.z.n.n.y.- 3 6 > ; y.e.x.b.z.z.z.u.i.i.g.g.g.f.f.f.w.w.w.f.6.6.u.u.z.z.x.b.u X , O : / e.v.z.z.z.z.z.z.z.z.z.z.u.x.i.e.e.E X < : 4 6 0 5 9 5 9 9 5 4 4 4 4 4 4 4 6 0 X @.n.g.g.F.@.- < 9 < 6 0 1 +.b.x.z.z.z.x.g.g.g.g.x.z.w.w.w.f.w.f.t.+.- - s.0Xe.e.0.Y - - - - - - - - X ~ g.g.5.f.z.z.z.f.z.z.z.z.z.z.z.z.z.z.z.z.z.x.z.u.u.e.b.b.y.F.^ X 2 t.t.t.y.S.d X , - X $.G.b.x.x.x.x.g.uXyXuXyXoXuXuXuXXXiXiXiXiXiXiXj.r.$.h.g.g.f.w.w.0.q.r.$.G.oXaXaXiXzXhXhXhXhXhXhXhXhXhXiXG.G.G.C.G.XXC.9Xn.G.jXjXuXC.9X9XC.aXzXhXhXzXhXzXhXhXzXzXhXgXOXl.V.V.C.V.V.G.V.G.V.M.M.G.G.V.G.XXV.{.}.}.{.{.{.}.}.}.}.wXwX}.}.oXaXaXaXaXaXaXpXaXaXaXaXaXaXpXpXpXpXpXpXpXpXpXpXpXpXpXpXpXpXpXpXpXpXpXpXpXpXpXpXpXpXpXaXpXpXaXaXaXaXpXoXD.l.OXlXfXfXgXgXgXgXfXgXlXgXgXjXgXgXgXfXoXD.G.XXV.V.XXC.l.l.l.D.D.OXdXdXfXfX@X@X@XfXjXG.] } 3.5.7.5.3.4.~ j.iXjXgXfXgXzXjXuXV.{.wXwXyXwXyXyXyXyXyXyXyXXXyX}.wXeXyXyX{.}.{.{.V.V.}.V.V.tX}.wXwXwX}.}.}.}.wX}.}.wX}.}.eX}.}.XXXXXXG.j.g.g.j.h.j.j.j.j.j.h.j.j.j.M.C.G.C.j.c.c.c.b.b.b.c.c.b.M.c.C.uXtXuXoXG.uXuXtXG.9XtXG.XXXXuXuXXXXXG.G.uXuXG.M.M.M.M.M.M.M.M.M.M.M.M.M.M.M.uX9XG.G.G.iXsXsXsXaXsXaXdXaXaXdXdXaXaXsXsXjXhXIXPXPXPXJXJXPXKXJ.J bXJXHXGXGXGXDXDXGXGXDXGXHXGXGXGXGXGXGXGXGXGXGXGXGXGXGXGXGXHXGXGXHXGXGXGXGXGXGXDXGXDXDXHXGXGXGXGXGXHXGXGXDXDXDXFXGXGXJXDXGXGXHXDXDXDXDXDXHXHXJXLXBX;XvX@X@XhX@XhXhX@XhXnXSXnXA.OXl.h.x.n.u.u.w.w.f.g.g.j.b.C.C.M.n.n.9X9X9XG.C.G.G.G.G.G.G.G.G.G.C.G.G.G.V.V.tXG.V.V.V.V.V.V.}.V.V.V.V.V.V.V.V.}.}.}.}.}.}.V.V.V.V.V.V.V.V.V.V.V.V.",
"z.x.z.x.g.x.b.0.@.@.d ; 9 R u #.c.v.c.z.x.n.y., 6 6 > ; y.b.x.x.x.z.z.u.i.i.g.w.g.g.g.f.u.u.u.z.6.6.u.u.u.z.x.a.y.s.Z.3 : @.a.z.z.z.z.z.z.z.z.z.z.z.6.z.w.i.b.0.s.@.9 > 4 9 4 < 5 5 9 5 4 4 4 4 4 4 4 4 4 O +.n.b.~ E ^ : 9 ( ( 0 0 1 +.e.e.w.w.w.w.w.w.w.r.w.w.w.w.w.g.w.e.t.+.- < p ^ E t.e.r.@.s.s.s.s.@.s.s.+.e.x.f.f.f.z.z.z.z.x.z.z.z.z.z.z.z.z.z.z.z.u.i.q.0.4.8.r.+.R R @.y.r.b.b.y.E p d X ( S.+.y.n.f.g.z.x.x.f.V.M.M.V.C.M.M.V.V.G.C.l.G.G.uXG.oXuXuX9XG.G.G.uXuXG.uXG.uXuXuXj.j.dXhX@X@XhXhXhXhXhXhXdXG.G.G.G.iXjXjXsXG.OXjXjXoXn.6XG.l.aXzXhXhXhXhXhXhXhXhXhXhXhX@XdXaXXXG.iXsXsXaXaXuXV.V.uXiXuXiXuXV.V.wX}.}.wX}.}.|.}.}.}.wX}.{.V.XXXXOXiXpXaXOXaXaXaXaXaXaXaXaXaXpXpXpXpXpXpXpXpXpXpXpXpXpXpXpXpXpXpXpXpXpXpXpXpXpXpXpXpXOXOXOXOXoXoXaXaXOXgXgX@XfXgXgXgXfXdXfXfXfXfXgXgXgXgXgXaXiXaXaXiXaXaXiXaXaXaXaXOXdXgXfXfXhX@XfX@XhXhXOXiXsXn.x.n.w.4.uXjXdXdXOXOX+XOXoXsXXXV.wXeXeXyXeXyXyXyXyXyXyXyXyXyXyXwXwXyX}.V.V.}.}.{.V.}.V.V.tX}.}.wXwXeXwXwXwXwXwX}.}.}.}.eXwXwXXXoXyXXXG.V.V.G.G.aXjXuXG.G.G.G.G.G.V.C.C.M.c.M.c.M.M.M.c.c.c.M.M.c.M.C.C.C.G.D.G.G.C.n.C.C.n.M.n.C.C.n.C.n.n.C.C.C.M.M.M.M.M.M.M.M.M.M.M.M.M.M.M.C.C.C.V.C.G.G.G.G.G.G.G.G.G.G.G.G.G.XXuXuXOXH.vXbXvXvXvXbXnXnXIXBXKXHXHXGXGXGXFXFXGXGXGXHXHXGXGXGXGXGXGXGXGXGXGXGXGXGXGXGXGXGXGXHXHXHXHXHXGXGXGXFXGXFXDXGXFXGXGXHXGXHXGXDXDXFXDXGXDXJXGXGXHXDXDXDXGXDXDXFXFXJXbXvXvX@XzX@X@XhX@XhX@X@X@XvXvXvXOXdXh.w.z.v.i.v.z.z.x.x.x.b.b.n.j.j.j.b.n.n.n.j.j.C.G.G.G.G.V.G.C.j.j.n.V.G.XXV.G.V.V.tXuXtXV.V.V.V.V.V.V.V.V.V.V.V.}.}.}.}.}.V.V.V.V.V.V.V.V.V.V.V.V.",
"x.x.z.x.z.x.x.e.S.S.d : ; , X $.b.c.c.c.x.b.y.X o > o : y.b.x.i.x.x.u.u.u.z.f.f.u.u.u.i.u.u.u.u.u.u.i.u.u.z.e.t.t.F.S.- O @.b.z.z.z.z.z.z.z.z.z.z.z.z.z.z.z.b.b.n.t.7 ; 4 0 0 0 5 5 5 6 4 4 4 4 6 4 5 < < X @.F.F.u 2 < - 9 @./ p , - @.n.a.e.e.b.b.b.b.b.b.a.b.x.g.e.e.e.e.t.@.O 4 - O - a.a.b.b.n.n.n.b.b.b.b.n.b.g.g.x.x.x.u.x.z.z.z.z.z.z.z.c.z.z.z.x.x.b.b.t.t.r.y.a./ : O @.F.b.n.F.+.- - ; O R H.n.g.h.c.f.z.x.z.5.c...h.c.x.f.f.x.c.b.r.#.j.j.uXuXiXiXoXiXiXiXOXiXiXOXOXiXaXiXuX$.$.dXzXhXhXhXhXhXhXhXhXdXD.D.D.D.OXzXxXdXoXOXgXjXOXn.9XuXG.@XzXhXhXhXhXhXhXhXhXhXhXzXhXzXjXG.l.iXsXaXiXsXaXl.l.iXiXOXOXsXXXV.XXXX}.wX}.}.}.}.}.|.}.}.{.V.V.V.oXaXaXaXaXaXaXaXaXaXaXaXaXaXaXaXpXaXpXpXpXpXpXpXpXpXpXpXpXpXpXpXaXaXiXiXaXaXaXaXaXaXaXaXaXaXaXOXaXlXgXlXlXlXlXfXgXgXgXlXlXlXlXlXlXlXlXlXlXlXfXlXlXlXlXlXfXgXgXlXlXgXlXlXgXlXgXfXfX@XhXhXdXgXjXr.} e. .} jXzXaXoXoX+XOXOXoXuXV.M.V.V.eXwX}.yXXXXX}.}.}.wXwXwXeXwX}.}.V.C.C.C.C.C.C.V.C.V.V.}.{.}.eXeXwXwXwXwXwX}.}.}.}.wXwX}.|.XXXXoXXXyXuXG.oXjXjXiXG.G.G.G.oXtXV.j.h.h.h.c.h.h.g.g.h.g.g.c.j.g.g.j.r.h.j.j.j.j.j.g.j.j.j.h.h.j.j.j.n.M.M.c.M.n.M.M.M.M.M.M.M.c.M.M.M.M.n.M.M.M.M.M.M.M.M.M.M.M.M.n.n.n.j.M.M.h.c.V.XXG.G.l.D.D.l.D.D.+XhXvXPXLXLXLXLXJXHXGXHXGXGXGXJXHXGXGXGXGXGXGXGXGXGXGXGXGXGXGXGXGXGXDXDXDXDXGXGXHXHXHXLXHXHXJXLXJXHXGXGXGXGXGXGXDXDXDXGXDXDXGXHXGXDXDXDXFXGXGXHXHXJXPXvXH.@XdXzXhXzXzXhXzXgXhXfX@X@X@XhXxXg.f.x.i.x.z.6.z.z.w.w.r.r.r.r.r.r.r.r.r.r.$.r.j.G.G.G.G.G.G.C.h.h.M.V.G.V.G.G.V.G.uXsXuXV.G.G.G.G.G.V.V.V.V.V.}.}.}.}.V.V.V.}.V.V.V.V.V.V.V.V.V.V.",
"x.x.z.z.z.z.x.g.a.y.9 ; 4 4 O s.n.g.x.x.n.n.S.; 6 6 > : y.b.x.b.x.x.u.u.u.u.f.f.u.u.i.i.i.i.i.z.u.z.i.u.u.z.e.e.t.F.s.- - @.b.z.x.x.x.z.z.z.z.x.z.z.v.z.z.z.x.x.g.y.7 < 0 6 4 5 5 5 6 4 4 4 4 < < < 9 < 6 - / @.@.R R d < 7 +./ 9 < 2 / @.@.@.s.+.+.@.@.@.s.s.s.s.9.+.s.+.+.@.@.X > d p i b.b.b.x.x.x.f.g.g.g.b.b.e.g.b.b.e.i.x.x.x.x.x.z.f.f.f.c.f.f.x.x.b.r.+.@.+.+.+.s./ 0 O @.F.e.b.n.+.i E ^ R +.n.b.b.g.c.c.v.v.x.f.M.c.M.9XtX9XV.V.9X9Xn.j.G.G.iXG.G.uXoXG.uXiXOXOXOXOXoXOXuXuX9X$.$.dXzXhXhXhXhXhXhXhXhX@XOXOXOXD.@XhXhXdXOXOXdXhXG.g.V.uXD.OXhXhX@XhXhXhXhXhXhXhX@XhXhXhXhXG.D.iXaXiXiXiXuXl.l.aXOXOXOXaXoXG.XX}.}.}.|.}.}.wXwXwXeX}.{.tX}.V.oXiXiXaXaXiXiXiXaXaXaXaXaXaXaXaXaXaXaXaXaXpXpXpXpXpXpXpXpXaXaXaXaXuXXXoXoXoXoXoXoXOXOXOXOXiXiXOXiXaXaXaXaXaXaXOXaXfXfXlXgXfXfXfXfXfXgXgXgXgXgXfXgXfXfXfXfXaXaXfXfXfXgXfXgXgXgXfXfX@XhXhXfXgXjXn.j.j.j.j.iXjXjXOXaXaXaXaXOXiXXXXXtX{.{.wXwXyXXXXXXXyXyXyXyXwXeXwX}.{.V.oXoXG.oXoXoXOXoXoXuXXX}.{.wXeXwXwXwXwXwX}.}.}.}.eXwX}.|.|.|.}.XXXXyXXXoXaXjXiXXXXXG.G.G.oXG.M.M.C.C.M.M.M.M.M.n.M.C.C.C.M.C.G.C.G.uXG.n.n.C.n.C.C.n.C.C.C.M.n.M.M.M.M.M.M.M.M.M.M.M.M.M.M.C.C.M.M.M.9XG.C.C.M.M.M.M.M.M.m.m.M.M.M.M.C.C.M.C.tXuXuXuXuXXXG.oXOXoXOXgX@XKXPXPXIXSXSXSXSXHXGXJXGXJXHXGXGXGXGXGXGXGXGXGXGXGXGXGXGXGXGXDXDXGXGXHXHXKXIXSXSXSXSXSXIXSXBXLXHXGXGXGXGXDXDXDXDXDXFXHXKXVXKXHXDXDXHXHXVXSXSXSXIXvX@XzXgXzXdXjXgXdXjXdXjXgXhXgXgXgXjXM.x.z.p.z.z.z.z.z.x.x.n.b.n.j.j.n.n.n.n.j.j.j.M.G.G.G.XXXXG.V.M.h.M.V.V.V.V.G.V.V.uXuXXXC.G.V.G.V.G.V.V.V.V.V.}.}.}.}.V.V.}.}.}.V.V.V.V.V.V.V.V.V.",
"x.x.z.z.z.z.u.x.t.y.9 ; 6 4 O y.F.g.g.f.x.b.y.X > + ; < t.b.x.x.x.g.f.w.f.f.u.u.u.u.u.u.i.z.z.z.z.z.x.u.z.z.e.e.e.t.@.- X @.a.x.x.x.x.x.x.x.x.x.z.z.z.z.z.z.f.f.x.t.8 < 0 6 6 4 5 5 6 5 4 4 < < < < 6 , 4 O 5 < 1 9 ( 0 < 7 @.s.p 6 3 4 X ; ; : : : : - - : : : - : - - - - < : ; X @.S.r.x.z.u.x.x.x.x.x.x.b.b.b.b.b.x.x.e.e.x.x.x.x.x.x.g.g.g.g.g.g.g.t.s.R - < : - - < 0 : O @.n.b.b.n.F.n.F.a.F.a.n.b.n.c.c.x.x.x.x.x.9XV.uXlXlXfXfXaXfXgXaXjXjXG.G.r.} #.#.] l.uXoXOXiXOXiXOXuXuXuXe.r.jXzXhXhXhXhXhXhXhXhXhXhXzXzXhXzXhXhXzXhXhXzXzXOX$.n.uXG.OXzXhXhXhXzXhXhXhXhXlXhXhXhXhXjXG.D.iXaXiXiXsXsXl.oXgXgXgXaXaXOXoXuX}.|.XX}.wXwXwXwXeXeX{.eXwX6XV.G.G.oXiXOXaXaXaXaXaXaXaXaXaXaXaXaXaXaXaXaXaXpXpXpXpXpXpXpXaXaXaXaXoXC.C.G.XX}.V.V.G.G.G.G.l.G.C.G.XXG.D.l.l.l.l.oXfXlXlXfXgXlXfXfXlXlXlXlXgXlXlXlXlXlXlXlXlXfXgXgXlXlXlXlXgXgXgXgXfXfXhXfXgXjXiXiXiXjXsXaXoXaXoXOX+X+X+XpXaXuXiXpX}.V.wXyXXXXXXXXXXXXXtXtXwXeXwXyX}.XXsXdXgXgXgXgXzXjXjXlXoXG.V.}.wXwXwXwXwX}.|.|.}.}.wX}.|.|.|.|.|.}.XXXXXXG.XXXXXXV.V.V.XXXXoXXXG.XXtXtXuXXXoXuXuXuXuXsXiXsXiXaXdXdXzXxXsXuXG.uXuX9XuXuXtXtXG.M.M.M.M.M.M.M.n.M.M.M.n.M.M.M.V.uX9Xn.n.C.9X9XM.M.M.c.m.m.m.m.m.m.m.m.m.m.C.6XC.C.G.oXoXoXXX}.tXuXiXiXOXOX@XKXPXIX@X@X@XA.nXJXHXJXJXJXHXGXGXGXGXGXGXGXGXGXGXGXGXGXGXGXGXGXGXGXJXJXKXvXH.@XOXOXOX+XOXOX>.mXJXGXHXHXGXGXDXDXDXHXJXJXbXJ.bXJXKXFXJXKX;X@X@X@X@X@X@XdXoXOXG.G.V.l.V.C.l.l.D.D.G.l.C.f.f.w.u.x.z.z.z.x.g.C.9XG.G.G.G.G.G.G.G.G.9XG.9XtXXXV.XX}.XXXXG.V.XXXXXXXXV.V.V.V.XX}.V.C.}.}.}.}.V.V.V.V.V.}.}.}.}.V.V.V.}.V.}.V.V.V.V.V.V.V.V.V.",
"e.g.x.x.x.z.u.x.e.a.i ; > > O S.F.j.c.c.x.n.S.X > X O X r.e.e.x.x.g.f.w.f.f.u.u.u.u.u.u.z.z.z.z.z.z.x.z.z.f.e.b.e.b.s.2 O +.t.x.x.a.a.a.a.a.i.x.x.z.z.6.z.z.f.f.x.r.- O ; 4 4 4 5 5 6 5 4 4 < < 6 < 4 ; 0 > d 9 6 d ( 0 4 7 +.@.1 X O 4 > 6 > > O O O O O O O O O - O X X X < 4 ; - @.a.e.u.z.z.w.w.f.f.f.g.g.t.b.b.b.b.b.n.b.a.n.n.b.b.b.b.b.b.b.b.j.y.S.y.( ; > > 5 : O - X O +.n.b.c.x.n.n.n.n.n.b.n.b.c.g.c.c.c.x.x.x.9X9XaXzXlXdXfXfXfXgXdXjXiXG.iXn.8.q.r.| G.sXsXsXiXiXiXiXsXsXuXe.r.jXxXzXzXzXzXzXzXzXzXzXzXzXzXzXvXzXzXxXxXzXzXvXiX$.C.sXoXdXxXzXzXzXzXzXzXzXzXxXzXzXzXzXxXoXG.aXsXaXaXaXiXl.D.fXfXgXdXjXjXsXsXXX}.XX}.wXwXeXeXeXeXeX{.{.wXwXXXV.XXsXsXaXaXaXaXaXaXaXaXaXaXaXaXaXaXaXaXaXpXpXpXpXpXpXaXaXaXaXaXuXG.G.oXyXyXyXXXuXuXoXoXoXuXXXXXoXXXXXG.V.C.j.oXfXlXlXlXlXlXlXlXlXlXlXgXgXlXlXfXfXfXfXlX@XfXfXgXlXgXfXgXgXfXgXgXgXfXfXfXgXgXoXoXiXzXaXaXpXaXoXpXpXpX+XoXiXpXsXsXyXV.wXyXXXXXXXXXyXyXuXtXyXyXyXyXV.XXjXjXgXhXgXgXzXzXjXzXoXG.V.}.wXwXwXwX}.}.}.eXwX}.wX}.}.}.|.|.|.}.}.}.XXXXV.V.XXXXXXXXXXV.XXXXXXXXtXV.}.}.XXXXG.G.oXsXiXaXiXiXaXiXjXxXjXoXG.uXG.G.G.XXtXtXG.M.M.n.M.M.M.M.n.M.C.M.C.C.M.n.9XiXuXC.n.C.iXuXC.M.M.M.B.m.m.m.m.m.m.m.m.m.m.C.C.n.H.H.H.D.XX}.}.G.D.H.OX@X@XJXLXIXA.@X@XA.bXJXLXJXGXFXDXGXGXGXGXGXGXGXGXGXGXGXGXGXGXGXGXGXDXGXFXHXJXvXA.OXOXD.+XD.OXD.O.nXPXJXJXJXGXGXDXDXGXJXJXPXnXA.mXPXLXPXPXPXvX@X@XhX@XdXgXaXOXsXoXV.XXB.yXwX}.V.XXG.C.G.G.h.f.f.w.w.f.5.f.4.4.n.G.G.oXG.G.G.G.G.G.G.G.G.G.XXXX}.XXXXV.XXXX}.G.V.V.V.V.V.V.V.V.V.V.XX}.}.}.}.V.V.V.}.V.}.}.}.V.V.V.V.}.}.}.V.V.V.V.V.V.V.V.V.",
"g.x.z.z.z.z.x.x.a.a.p ; 6 > 6 ( E ] g.x.x.n.y.- O ( @.@.r.x.x.x.x.x.z.f.z.z.z.z.w.x.x.z.z.z.x.z.z.z.w.x.v.f.e.e.g.j.@.- X @.b.x.b.a.+.E E a.a.e.x.x.u.u.x.z.z.f.x.e.9.s.( - 0 4 4 4 4 4 4 4 4 < , 4 6 3 4 > d 6 4 0 d 0 < 1 s.a.+.+.y.^ < 0 4 X / @.@.@.@.+.@.@.@./ @.@.@.R 0 0 > 4 R E { i.i.w.w.f.5.z.q.w.b.! E ^ ^ ^ ^ ^ / s.+.+.+.+.+./ / @.@.^ ^ ^ ^ ( 0 > 6 6 - / S.@.@.s.t.g.e.g.i.e.g.f.w.w.u.w.e.w.w.w.w.f.w.w.g.g.b.G.uXuXn.n.G.C.C.C.G.C.n.n.t.r.q.0.e.b.n.n.n.n.n.n.b.n.n.b.i.i.n.G.G.G.G.G.G.G.G.G.G.G.G.G.G.G.G.G.G.G.G.G.G.n.i.u.n.n.n.F.F.G.G.F.G.G.C.C.C.G.G.G.G.D.G.G.XXiXoXaXaXiXl.D.gXjXgX>.F.F.n.j.uXXX|.}.{.}.eXeXwXwX{.{.{.eX{.}.}.}.XXuXXXXXXXXXoXXXoXXXoXV.oXaXiXOXaXiXaXpXpXaXpXpXaXaXpXaXOXsXoXC.uXuXXXuXXX}.XXoXoXoXuXXXyXXXXXXXXXXXG.aXiXaXlXgXlXgXlXlXlXlXlXlXgXlXdXfXlXfXdXdXfXgXfXfXlXfXgXgXfXgXgXgXgXgXgXgXfXfXgXfXoXoXpXpXpX+XaXpXyXpXpXpXOXoXaXXXV.XX}.V.wX}.tXXXtXtXyXtXtXwXwXwX}.}.}.XXoXoXOXOXOXOXOXOXOXoXoXiXuXV.V.tXwXwX{.}.wXeXwX{.wX}.{.{.}.{.{.}.wX}.}.}.}.}.}.}.XXXXXXXXXXXXXXXXXXXX}.}.}.XXXXXXXXXXXXXXoXoXoXoXOXOXoXoXXXXXXXXXXXtXXXtXXXG.V.C.M.M.M.n.n.M.M.M.n.n.n.C.C.G.G.G.C.n.G.G.n.M.M.M.m.c.B.m.m.m.m.m.m.m.m.B.C.j.IXSXIXH.uXuXG.jXSXIXIXSXSXJXJXKXSXSXSXSXJXJXGXGXGXGXDXDXGXGXGXGXGXGXGXGXGXGXGXGXGXGXGXGXDXDXGXGXJXSXSXIXIXIXIXIXSXIXSXnXmXmXnXvXSXHXFXDXJXJXnXnXzXOXzXnXnXnXnXmXzXdXfXdXhXdXgXOXG.XXtXB.{.{.{.eXwXwXwX}.XXXXV.V.C.C.C.C.V.V.V.C.C.V.V.G.XXG.XXXXXXXXG.C.M.j.V.uXXX}.XX}.XX}.}.}.}.}.V.V.V.V.V.V.V.V.V.B.V.V.V.{.{.{.}.}.V.V.V.V.V.V.V.V.V.V.V.V.V.V.V.V.G.G.G.V.",
"g.g.z.z.z.z.z.i.i.r.7 X ; O O : X p r.g.x.b.y.- X ( S.t.b.n.x.x.x.z.z.f.z.z.x.x.x.x.z.u.z.z.z.x.x.b.b.x.f.g.b.n.e.b.@.2 - @.n.x.b.n.! X - y.F.n.b.b.x.i.x.x.z.z.x.e.e.a./ - 0 4 4 4 4 4 4 4 4 4 4 5 < X ; O X O O - : - - 2 @.t.b.t.S.^ 7 0 : X s.a.a.t.t.a.a.a.n.a.n.n.S.^ 0 0 ; ; 2 - u t.n.t.e.x.e.x.e.t.y.u X - : : - - 1 T W E E R R R ( ( d ; O O X - : O ; > - @.F.S.S.a.g.g.e.e.x.x.z.f.z.z.u.w.e.w.w.w.q.w.5.5.w.w.e.b.9X9Xe.0.0. .4. .0.4.0.e.e.e.i.a.0.e.e.w.w.w.w.w.q.w.u.u.q.q.w.e.} } 2.2.} 2.2.2.4.4.2.2.2.} #.#.#.} | #.0.0.q.i.5.5.5.0.0.0.0.5.0.q.5.5.5.0.0.#.} r.9XG.G.OXoXaXgXiXl.D.gXjXiXO.$.r.r.r.tXXX}.|.XXwXeXwXwXwXwXwXwXwXwX{.}.V.V.C.V.V.V.V.V.V.V.C.C.l.oXsXfXaXaXaXaXaXaXaXpXpXaXaXaXsXoXsXuXG.uXuXuXXXXXoXoXXXoXuXuXuXuXuXtXtXtXtXoXzXhXgXlXlXlXlXlXlXlXlXlXlXlXlXlXlXfXfXlXgXfXfXfXfXgXgXgXgXgXgXgXhXgXgXgXgXgXdXfXlXoXoXpXpXpXpXpXpXpXpXpXaXaXiXaXXXG.XX}.}.wXwX}.}.tXtXtXXXtXwXwXwX}.}.}.XXXXoXG.D.D.G.G.G.G.G.uXsXiXG.C.V.V.M.{.{.{.eX{.{.wXwX{.{.}.{.{.{.}.}.{.}.}.}.}.}.}.}.}.}.}.}.V.V.V.}.}.}.}.}.}.XXXX}.C.C.C.V.C.G.G.G.XXXX}.V.V.V.}.XXXXyXXXG.V.C.M.M.c.j.j.j.j.M.b.M.M.M.j.n.n.j.j.j.j.j.j.M.M.c.m.m.m.m.m.m.m.v.m.m.6XN.M.D.SXPXSXA.OXOXH.hXPXLXLXLXFXGXHXHXJXJXPXJXJXJXGXGXDXDXDXDXGXGXGXGXGXGXGXGXGXGXGXGXGXGXGXGXGXDXGXHXHXGXJXHXJXLXHXHXLXJXLXnXA.D.OXA.nXJXFXGXHXVX$X@XOXOXaXOXOXOXOX@XOX@XlXlXgXgXzXaXC.M.V.6X{.{.eXeXeXwXwXwXtXtX}.}.}.}.XXXXtXtXXXXXXXXXXXXXXXG.XXXXXXXXG.l.$.:.M.XXXXXXXX}.XX}.}.}.}.V.V.|.{.V.V.V.V.V.V.B.V.V.{.V.{.{.}.}.V.V.V.}.V.V.V.V.V.V.V.V.V.V.V.V.G.G.V.V.",
"g.g.x.z.z.z.z.u.x.e.E i p d p < O p t.n.x.n.y.2 O @.F.b.b.b.x.z.z.f.f.f.z.z.x.x.z.z.z.z.x.x.u.i.t.+.y.n.n.b.@.@.r.t.@.- - @.b.z.x.b.{ u R s.s.t.b.i.x.x.b.c.z.z.w.g.b.n.+.- 9 5 4 4 4 4 4 4 4 4 < 5 , < ^ p p i p T T i T R y.t.e.e.t.+.T R i u s.t.b.e.b.b.b.b.i.e.e.e.a.E 9 0 0 0 9 2 p y.S.y.s.y.s.s.s.y.s.i < 4 0 0 5 < i / / / E R ^ ^ ( ( ( > o p ^ p p p 0 i 2 +.a.t.e.e.g.g.e.i.i.x.z.z.z.z.u.e.e.e.w.w.w.f.u.w.u.w.i.b.9X9Xb.g.x.w.x.x.i.w.e.e.w.w.w.w.w.e.i.u.u.u.u.u.u.u.i.u.u.i.u.w.z.z.z.z.i.u.z.z.z.z.z.z.u.i.e.e.g.e.e.e.i.u.u.z.u.u.u.u.i.u.u.u.u.u.u.u.u.u.w.w.0.b.uX9XuXuXG.aXdXOXD.G.gXjXiXj.n.t.r.b.uXyXXXoX}.}.{.wXwXwX}.}.}.wXwXwX}.tX6X6X9XG.V.V.V.V.V.V.G.C.oXaXaXaXaXiXiXoXpXaXpXpXaXaXaXsXG.iX9XG.9X9XG.G.oXuXoXoXuXG.G.9X9X9X6X6X6XG.j.zXhX@XhX@XhXhXlXgXgXlXlXlXlXgXgXfXaXOXaXdXaXaXfXfXfXfXgXgXgXgXfXfXgXgXgXgXdXdXaXsXpXpXpXpXpXpXpXpXpXaXuXuXiXiXiXXXG.XXXXwXwX}.}.wXwXwXwXwXwXwXwXwX}.}.}.}.XXXXXXXXXXXXXXXXG.G.oXsXaXC.l.oXiXoXV.{.eXrXrXeX{.{.}.}.}.{.}.{.{.{.{.{.{.{.{.{.{.{.}.}.}.{.}.V.V.V.}.}.{.}.V.V.V.V.}.{.{.{.}.}.XXXX}.}.}.{.{.{.V.V.wXtXtXG.tXV.M.M.C.C.C.C.C.C.C.C.C.C.C.n.C.C.C.C.n.C.M.C.M.c.m.m.m.m.m.m.m.m.m.m.v.m.l.D.SXPXIX;X@X@X@XvXKXJXHXJXFXGXGXGXHXHXHXHXHXGXGXGXGXGXGXGXGXGXGXGXGXGXGXGXGXGXGXGXGXGXGXGXDXDXDXDXDXDXGXHXGXGXGXDXJXJXHXnXOXlXgX+XBXLXFXDXGXKXbXvXhXOXaXfXlXlXlXlXlXgXgXdXhXdXgXiXV.B.eXeX{.{.{.{.eXeXwXwX{.}.}.}.}.}.XX}.tXXXXXXXXXXXXXXXXX}.XXXX}.XXG.C.h.h.M.XXXXXXXX}.}.}.}.}.{.{.{.V.V.V.V.B.V.V.V.V.{.{.{.V.V.V.V.V.V.V.}.}.}.}.V.V.V.V.V.V.V.V.V.V.G.G.V.V.",
"g.g.x.z.u.u.z.z.x.x.0.s.y.S.S.^ O p b.c.x.b.y.- O ^ b.e.x.x.z.z.f.f.f.f.z.z.z.x.x.z.z.z.x.i.q.t./ X 2 +.e.} X X r.t.@.- X +.b.f.u.b.t.a.y./ i +.t.e.e.e.z.x.z.z.z.x.x.b./ - 9 4 4 4 4 4 4 4 4 4 < 1 , p S.y.y.a.a.a.a.y.y.0.b.b.x.g.b.t.s.a.a.a.e.x.x.x.x.x.i.i.x.x.x.x.n.E 7 0 ; 4 5 1 1 7 7 2 7 7 7 7 2 i i : < 0 0 0 5 : 9 / / / ^ R ^ ( ( ( ( @ X / F.S.y.y.S.S.s.a.b.t.g.x.f.e.i.i.i.z.z.z.z.z.i.e.e.e.e.w.w.z.u.u.u.u.u.i.e.x.w.w.u.w.u.u.x.i.i.i.w.w.w.w.e.i.u.u.u.z.z.z.v.z.z.z.z.z.z.z.z.z.z.z.u.z.u.u.u.u.u.u.u.u.u.u.u.w.w.x.i.p.6.6.z.z.z.z.z.z.v.v.z.z.z.z.z.z.z.x.w.w.e.e.g.r.$.iXiXOXaXOXjXjXjXjXjXn.#.b.uXyX}.XXXXXXtXyXyXXXtX}.yXtXyXwXV.V.tX9XG.G.V.V.G.XXXXtXG.G.G.G.G.G.l.l.G.l.oXaXpXaXaXaXpXoX$.r.0.0.w.r. .j.G.G.G.G.G.#.0.0.0.4.5.5.5.4.$.gXhXhXhXhXlXzXlXlXgXlXlXfXlXgXOXlXaXD.l.D.l.j.dXdXfXfXfXgXgXfXfXfXgXgXgXdXdXdXoXiXyXpXpXpXpXpXpXpXpXpXG.C.C.C.oXC.C.V.V.}.wX}.wXwXwXwXwXwXwXwXwXeX|.|.}.}.XXXXXXXXXXyXXXXXXXG.uXsXaXD.D.dXzXlXC.B.{.rXeXeXB.V.V.V.B.V.{.{.wXwX{.{.{.{.{.{.{.{.}.}.}.}.}.}.}.}.}.}.}.}.}.}.}.{.}.{.{.{.{.}.}.}.}.}.}.}.}.}.{.{.{.wXwXtXtXtXV.tXtXtXtXtXtXtXtXtXuXyXtXXX9X9XuX9X9XuXuXuX9XM.m.m.m.m.v.v.m.m.m.v.m.6Xj.D.PXLXJXKXPXPXJXKXHXGXHXGXGXDXDXDXGXGXGXGXGXGXGXGXGXGXHXHXGXGXGXGXGXGXGXGXGXGXGXGXGXGXGXGXGXGXDXDXDXDXDXDXDXDXDXFXFXJXHXnXOXlXOXD.BXLXGXGXGXHXJXPXvXOXgXzXdXfXgXgXgXgXdXgXhXG.D.G.V.wXrXeX{.{.{.{.{.{.{.{.{.{.{.{.{.}.}.}.}.}.}.XX}.}.XX}.XX}.XXXX}.XXXXV.V.V.XXXX}.}.XX}.}.}.{.{.{.{.V.V.{.V.V.B.V.V.V.V.V.{.{.{.V.V.V.V.V.V.}.V.}.}.V.}.V.V.V.V.V.V.V.V.V.V.V.V.",
"g.e.u.u.u.z.z.z.z.x.e.b.b.n.n.E O p t.x.x.b.y.- O / t.w.x.b.x.x.z.z.f.f.u.z.z.z.x.x.z.w.x.b.e.F.@.X X @.F.+.O X s.t.@.- X +.b.5.w.n.b.a.a.E R y.F.t.b.b.w.z.z.c.z.z.z.b./ - 9 4 4 4 4 4 4 4 4 4 4 1 2 p F.b.t.b.a.a.n.b.n.i.n.e.f.w.i.e.t.a.a.a.x.x.b.x.x.x.i.x.w.f.x.e.b.E 2 2 2 < < 4 4 < 5 i < < < 4 1 < 4 < 4 0 0 0 9 , 9 ^ ( ( ^ ^ ( ( ( ( ( > O ^ n.b.b.b.t.b.a.b.i.u.w.w.f.u.u.u.u.z.z.z.u.u.i.e.e.e.w.w.w.w.6.5.p.p.p.u.w.w.w.z.z.u.i.u.p.w.w.i.i.i.x.x.w.u.z.u.6.z.z.u.z.z.z.z.6.6.z.z.z.z.z.z.z.6.u.6.6.u.z.u.u.u.u.u.u.w.w.w.w.u.z.z.5.5.5.5.w.u.u.z.6.6.6.6.6.6.6.u.u.w.u.w.w.0.e.jXdXgXzXdXgXdXdXjXjXj.| j.uXsXuXuXuXuXtXuXuXXXuXuXuXtXtXyXG.C.V.V.C.C.C.G.G.G.V.G.XXuXuXuXuXuX9XuXG.l.oXaXaXaXaXaXjXaX$.0.0.0.w.w. .n.sXiXiXsX0X#.w.w.q.w.w.w.p.q.j.jXzXzXzXzXzXzXgXlXlXlXlXgXlXfXfXlXaXG.l.j.j.$.dXgXdXgXgXgXfXfXfXfXdXgXgXdXdXaXG.uXyXpXpXpXpXpXpXpXpXoXl.l.l.l.C.M.C.V.V.V.tXwXwXwXwXwX}.wX}.wXwXeXeX|.|.|.}.XX}.wXwXtXtXtX}.G.iXsXaXD.D.dXzXzXl.C.V.B.eXwXN.XXC.G.l.V.XX{.{.wX}.}.}.}.}.}.}.}.V.V.}.}.}.}.XXXXV.V.V.V.}.}.wX}.{.{.{.{.{.{.{.{.{.}.}.wXwX}.{.{.{.wXwX}.tXtXtXuXtXXXtXXXtXXXtXXXXXXXXXXXoXoXoXoXuXuXuXuXtXM.M.C.m.m.m.m.M.c.c.c.c.C.r.D.SXPXLXHXJXHXHXGXGXFXHXHXHXGXGXHXGXGXGXHXGXGXGXGXGXHXHXHXGXGXGXGXGXGXGXGXGXGXGXGXGXGXGXHXGXGXHXHXGXDXDXDXDXDXHXHXHXHXHXnXA.OX+XA.nXJXHXFXHXJXLXPXmX@X@XfXgXlXlXfXgXgXhXzXzXG.n.C.V.eXeX{.{.{.{.{.{.{.{.{.}.{.{.{.{.{.|.}.}.}.}.XX}.}.}.}.}.}.}.}.}.XXyXXXtXXXXX}.V.}.XX}.}.}.{.{.V.{.V.V.{.V.B.B.B.B.V.B.V.V.V.{.{.{.V.V.V.V.V.}.}.}.}.}.V.V.}.}.V.V.V.V.V.V.V.V.",
"g.e.i.u.u.z.z.z.w.z.f.x.q.g.t.R O p t.c.b.n.y.- X / b.z.b.n.x.z.z.z.z.z.u.z.z.z.u.z.v.w.x.t.! / ( ; : s.F.+.X : s.a.s.- - @.b.f.z.b.i.t.y.i 7 ^ ^ E t.n.x.v.z.z.z.z.z.n.+.- 9 4 4 4 4 4 4 4 4 4 < 1 - u t.b.e.e.e.e.i.e.b.e.x.w.z.z.z.i.i.i.u.x.u.z.z.u.x.i.e.x.g.g.x.g.n.9.+.+.^ / p 3 4 4 4 5 9 0 0 0 0 4 4 0 4 0 0 0 6 , 5 d T p p p d d d d d ( / s.t.e.x.x.i.x.i.x.u.b.u.z.w.u.u.u.z.u.u.u.u.u.i.e.e.e.e.e.w.f.w.w.u.i.u.u.w.w.z.u.z.z.z.u.x.i.i.i.w.q.q.q.q.w.z.z.z.z.z.z.z.z.v.v.z.z.z.z.z.z.z.z.z.z.z.z.6.6.u.u.u.u.u.u.i.u.w.w.w.w.6.w.f.z.u.u.u.u.z.z.z.z.z.z.z.z.z.z.6.u.i.p.z.e.e.G.G.G.iXOXgXgX@X@XzXiXG.G.j.n.n.x.n.n.b.n.j.j.G.uXG.g.j.uXaXaXiXiXiXiXOXiXiXoXG.G.G.uXF.j.n.n.n.G.uXG.aXaXaXaXaXaXjXsXr.0.e.w.w.w.0.b.n.n.n.n.n.0.w.w.w.w.w.p.u.w.e.9X9XG.G.G.G.D.oXjXgXlXhXfXgXgXOXG.G.iXiXoXG.G.dXgXgXgXgXgXgXfXdXdXgXgXgXgXdXaXoXuXpXpXpXpXpXpXpXpXpXpXoXoXoXOXuXoXXXyXV.V.tXV.6XwXeXwXwX}.}.wXwXeXeXeX|.|.}.yXXXwXwXwXyXtX}.XXuXoXOXoXD.OXgX@XOXOXuXC.{.{.M.oXdXdXOXiXuXV.V.V.V.V.V.V.V.V.V.V.V.V.V.}.V.}.}.}.V.V.V.V.V.V.}.}.}.}.}.{.{.{.{.}.{.{.{.}.}.{.{.{.{.wX}.}.tXwX}.wX}.}.XXXXXXXXXX}.V.V.XXXXXXXXG.G.G.G.C.C.V.n.M.M.M.C.6XtXC.c.n.G.G.G.9XG.bXvXnXJXHXHXGXDXGXGXHXHXGXGXGXGXDXDXDXGXGXGXGXGXGXGXHXHXGXGXGXGXGXGXGXGXGXGXGXGXGXGXGXHXGXJXGXDXDXDXGXGXDXFXGXDXGXGXHXBXmXnXnXmXKXHXJXnXmXnXnXnXvX@XfXlXfXlXlXlXlXlXdXoXiXG.G.tXwXwXeXeX{.{.{.{.{.{.{.{.}.{.{.{.{.{.{.}.{.}.}.}.}.}.}.}.|.|.}.|.}.}.XX}.}.wX}.V.V.}.XX}.}.}.{.{.V.V.V.{.{.B.B.B.B.V.B.B.V.V.V.V.{.{.V.V.V.V.}.}.}.}.}.}.V.V.V.}.V.V.V.V.V.V.V.V.",
"f.f.u.u.z.z.z.z.z.x.g.x.w.b.n.E O p t.x.x.n.y.O X / n.x.x.x.f.f.z.z.z.z.u.z.z.z.u.z.v.w.e.9.2 X : ; - @.j.+.O X r.a.s.- - @.n.x.z.z.e.t.y.2 O X X - { t.f.v.x.z.z.z.x.n./ - 0 4 4 4 4 4 4 4 4 4 < 5 2 u t.b.b.n.b.a.x.w.x.e.x.w.f.f.f.f.f.f.z.z.u.z.u.u.x.x.f.x.b.e.g.w.x.e.b.b.+.@.p < 6 6 5 < 0 4 4 4 4 4 4 0 0 0 4 4 6 > > 0 ; > ; ; > + + > O S.F.b.x.w.i.i.x.z.u.u.5.x.w.i.i.i.u.z.6.z.u.i.e.u.i.e.e.w.e.e.r.e.w.5.w.u.6.6.z.u.z.z.z.z.z.z.u.u.i.e.8.3.2.2.3.q.w.w.w.w.z.z.u.z.z.x.z.z.z.z.z.z.z.z.z.z.u.u.6.6.w.w.w.w.w.w.w.w.w.f.f.z.u.w.u.w.p.p.u.u.w.w.w.w.w.u.6.6.6.5.6.5.6.6.z.x.q.0.#.$.j.l.aXzX@XhXdXhXzXsX#.#.q.q.0.e.0.q.#.#.G.iXF.#.$.iXzXhXhXhXzXzXhXhXjXaXoXOXuXiXn.#.0.0.8.r.iXD.aXfXOXaXaXaXsXsXr.0.i.u.w.w.w.q.0.4. .0.w.e.w.w.w.6.6.6.6.p.2.w.4.4.4.} 4.| n.jXgXfXlX@XdXjXM...h.iXsXiXdXdXgXgXdXdXdXdXgXdXdXgXgXgXgXgXdXdXoXiXyXpXpXpXpXpXpXpXpXpXpXaXaXaXaXaXaXiXXXV.V.V.6X6XwXwX{.{.}.wXwXeXeXeX|.}.}.XX}.}.}.}.wXwX{.}.}.C.XXiXOXOXdXOXgXgXaXV.V.}.l.OXxXzXdXaXaXG.G.V.G.G.G.G.G.G.V.V.G.G.G.}.V.V.V.V.V.V.V.V.V.V.V.V.V.|.V.V.V.V.V.V.{.{.{.}.{.{.{.}.}.}.}.{.}.}.}.}.wXwXtXtX}.}.XX}.}.XXXXXXXXXXXXXXG.XXM.M.n.M.M.M.M.V.uXuXG.j.M.uXiXG.uXG.l.H @XPXHXHXGXDXDXGXDXGXHXHXHXGXGXGXGXGXGXGXGXGXGXDXDXDXGXGXGXGXGXGXGXGXGXGXGXGXGXGXGXGXHXHXGXDXDXDXGXGXGXDXDXDXDXDXHXGXLXLXLXJXLXLXKXvXA.OXOXOX@XfXfXfXfXgXlXgXgXjXOX>.C.M.V.V.B.{.{.{.{.{.{.{.{.{.{.{.{.{.{.{.{.V.{.{.{.{.{.{.{.{.}.{.|.|.|.|.{.{.}.}.}.wXwX}.XXXX}.V.}.}.{.{.{.{.{.B.{.B.B.B.B.B.B.B.V.V.V.V.{.{.{.V.V.V.}.}.}.}.}.V.V.V.}.}.V.V.V.V.V.V.V.V.",
"z.z.z.z.z.z.z.z.u.x.g.x.e.a.S.E O p t.x.x.n.S.- O / n.x.x.x.z.x.x.z.z.z.u.z.z.z.x.x.x.w.n.a.i : 1 9 - +.n.#.- - @.a.@.- - s.n.x.x.x.e.r.s.i 9 i i i r.n.w.z.z.z.z.z.x.b./ X 6 4 4 4 4 4 4 4 4 4 4 9 8 u e.e.i.i.i.e.i.q.i.w.w.w.w.z.f.f.z.f.f.f.z.z.u.u.x.i.w.g.y.r.b.g.x.g.x.e.| +.p , 4 6 4 5 4 0 9 7 7 9 7 9 9 9 4 > 6 6 6 0 6 6 6 > 6 > > > - y.a.r.x.x.i.i.x.z.x.x.w.b.w.i.i.i.u.z.6.z.u.i.e.e.e.e.e.e.e.e.e.g.w.w.u.z.z.z.z.u.z.u.z.z.z.w.w.u.x.i.q.9.q.p.2.q.x.x.z.u.u.z.x.x.x.x.x.x.x.x.x.x.z.z.z.i.i.u.u.u.w.w.w.w.u.u.i.e.w.w.w.w.w.u.u.u.u.u.u.u.i.e.w.w.w.u.u.6.6.6.5.5.6.6.u.5.w.x.e.e.G.M.iXgX@XgXgXjXjXjXr.r.i.p.q.i.i.i.r.r.0XjX0Xr.r.iXjXdXdXjXdXgXdXgXjXiXG.G.G.iXG.r.e.a.e.a.iXG.iXsXiXaXiXiXsXsXe.q.i.u.w.u.u.u.w.e.g.w.w.i.u.u.z.z.z.z.u.u.z.u.w.x.i.p.x.4.n.xXjXgXzXdXjXjXuXw.j.sXsXiXdXaXdXdXfXfXgXgXgXfXdXdXgXgXgXgXgXaXOXiXoXoXyXpXpXpXpXpXpXpXpXpXpXOXOXOXpXoXl.l.G.G.G.V.V.{.{.{.}.}.wXeXeXeX|.}.XXXX}.}.}.}.wXwXwXwXyXV.XXsXsXaXaXOXdXdXaXC.V.}.l.iXzXzX@XdXaXG.oXoXoXoXoXoXG.G.oXoXoXoXXXXXG.G.G.G.XXG.G.G.G.G.G.XX}.}.}.{.}.}.}.}.{.|.{.}.}.}.}.}.|.}.}.|.}.XX}.yX}.}.}.}.}.}.}.}.}.}.}.XXXXXXXXXXXXXXM.j.C.C.M.M.h.M.G.uXG.j.l.oXoXG.uXtXuXj.hXPXJXJXJXJXJXDXFXHXDXGXGXGXGXHXGXDXGXGXGXGXGXDXDXDXDXGXGXGXGXGXGXDXGXGXGXGXGXGXHXGXGXGXDXDXDXDXDXDXDXDXDXDXGXFXGXHXHXKXJXKXKXPXPXhXfX@XfXgXaXlXzXfXfXgXlXgXgXjXsXM.G.V.V.B.{.eXeX{.eXeX{.{.{.{.V.V.B.{.{.{.}.{.{.{.{.{.}.{.wXwXwX}.}.}.}.|.{.{.}.{.{.wX{.{.}.}.}.}.}.}.{.{.{.{.{.B.{.B.B.B.B.B.B.B.V.V.V.V.{.{.V.V.}.}.}.}.}.}.}.V.V.V.}.}.V.V.V.V.V.V.V.V.",
"f.f.u.w.w.w.u.z.u.x.w.b.9.2 p 4 O p b.b.+.^ / ; O / t.f.x.u.z.b.x.x.x.z.w.5.5.x.i.e.i.~ u ^ 4 X / F.e.a.n.+.X < 5 5 4 9 X +.a.x.w.x.| X i F.y.a.a.b.a.t.x.x.z.z.z.z.x.b./ - 4 4 4 4 4 4 4 4 4 4 - s.n.e.e.e.e.x.e.e.i.i.e.w.u.w.u.u.z.f.w.w.w.f.u.u.6.z.i.a.b.a.1 X E b.g.g.x.e.| @.p , 6 6 4 0 4 p y.y.y.y.@.y.s./ , > 4 3 0 6 6 6 > > 6 > > > - s.b.x.x.w.x.u.x.x.x.z.z.z.u.u.i.i.u.u.z.u.u.x.e.e.e.e.e.e.e.e.w.w.w.z.u.u.6.u.z.u.z.z.z.z.u.u.u.u.i.i.q.9.q.9.2.w.x.u.w.f.w.x.i.x.i.x.x.z.i.i.x.x.x.i.i.u.u.u.u.u.w.w.e.w.w.u.w.w.w.w.w.w.w.w.w.w.u.u.u.u.u.w.w.f.w.w.u.w.w.w.w.w.w.w.6.w.w.w.w.w.w.w.e.r.r.e.e.e.e.e.e.e.u.u.u.u.u.u.w.w.w.w.i.i.w.e.e.e.e.e.e.e.e.e.e.e.e.e.e.e.w.w.q.q.q.q.w.w.w.r.r.r.r.r.e.e.e.w.w.w.u.u.u.u.u.w.w.w.u.u.u.u.u.u.u.u.u.u.u.u.z.z.z.i.u.u.e.b.$.r.j.r.n.n.x.r.r.V.uXG.G.G.XXXXG.G.XXG.G.XXXXXXG.G.V.C.l.D.G.l.iXzXaXoXpXpXpXpXpXpXpXpXpXpXaXpXpX+XOXOXaXaXsXXXG.}.{.wXwXeXeXeXeXeX}.}.}.XXwXwX}.}.wXwXwXwXwX}.}.V.G.G.G.G.aXdXiXG.V.V.G.V.G.D.dXjXgXjXdXgXgXgXgXjXgXdXgXzXzXhXaXgXiXC.tXXXG.jXzXaXG.G.XXV.}.{.{.}.}.{.}.{.{.{.{.{.{.{.{.{.}.}.}.}.}.wXwXwX}.}.}.}.{.{.{.{.{.{.{.V.XXXXXXXXXXXXXXXXXXtXyXyXXXuXuXuXV.c.M.uXOXoXG.tXG.l.OXvXvXbX;XbXHXGXFXGXDXHXDXGXGXDXDXDXGXDXDXGXHXGXDXHXGXDXDXDXDXDXDXDXDXDXDXDXGXHXGXFXGXDXDXDXDXDXDXDXDXDXDXDXDXDXDXGXJXJXvX@XvXzXzXfXfXgXgXfXlXfXfXfXgXgXzXaXG.C.G.M.B.B.V.{.wXwXeXeXeXrX{.{.{.B.{.V.B.{.{.{.V.V.{.{.{.{.{.wX{.{.wX{.wX{.{.{.{.}.wXwX}.{.wXwX}.{.{.wXwXwXV.V.{.{.eXeXwXM.}.V.V.M.V.6X6XV.B.B.V.V.V.V.V.V.6X{.{.V.V.V.V.V.V.V.V.V.V.}.V.}.wX}.",
"w.f.x.u.z.u.w.w.w.x.w.b.+.X < ; X i y.t.! p ( , X @.a.g.x.x.b.b.c.x.x.w.w.x.b.n.e.n.a.Y O - O O +.b.x.x.b.! O X - 4 > > O +.b.w.n.n.+.O 2 y.t.b.x.x.x.x.g.g.z.z.z.z.x.b./ - 0 6 4 4 4 4 < < < 4 - @.b.x.b.b.a.i.e.e.e.e.w.f.u.u.u.u.z.f.w.w.w.f.w.w.z.v.b.a.e.a.1 O ^ F.b.g.x.e.{ @.R < 4 4 > 4 4 u t.g.y.y.y.y.y.@.4 > 3 > 0 6 6 6 > > > @ > ; 1 @.r.w.x.u.x.x.x.x.x.z.z.z.u.u.u.u.u.u.z.u.5.w.x.b.b.a.a.a.t.e.i.w.p.u.u.p.u.z.z.z.z.z.x.x.x.u.u.u.i.i.q.5.q.q.2.w.x.u.w.w.w.f.i.i.i.i.e.e.e.e.i.i.i.i.x.u.u.u.w.e.w.w.e.w.w.w.w.w.w.w.w.w.w.w.w.w.w.w.u.u.u.w.w.w.w.w.w.u.w.w.w.w.w.u.w.w.6.w.w.w.u.u.u.u.i.i.i.i.i.i.i.u.u.u.u.u.u.u.u.u.u.u.u.u.i.i.i.i.i.u.u.u.u.u.i.u.e.e.e.e.w.w.w.w.w.w.w.w.w.w.w.w.w.w.i.e.w.w.w.w.u.u.u.u.u.u.u.u.u.u.u.u.u.u.u.u.u.u.u.u.z.z.z.u.i.p.q.q.} 0.r.0.e.e.r.0.0.C.tX9XtXuXuXuXtXtXtXtXXXXX}.}.XX}.}.XXXXXXG.G.gXzXaXaXpXpXpXpXpXpXpXpXpXpXpXpXpX+X+XOXOXaXaXG.C.V.V.{.{.{.eXeXeXeXwX}.XXXXwXwX}.}.wXwXwXwX{.{.{.}.G.G.G.V.jXgXaXG.V.}.}.V.G.G.dXzXjXzXgXlXgXgXgXhXgXdXgXzXzXzXdXfXiXC.XXG.G.dXzXgXoXXXXX}.}.{.}.{.}.}.}.}.{.{.{.{.{.{.{.{.}.}.}.}.}.wXwXwX{.{.{.{.{.{.{.}.{.{.{.}.XXXX}.}.XXXXXXXXXXG.}.V.XXXXXXXXB.h.j.oXG.G.G.XXG.l.oXlXhXhX@XbXJXHXGXGXJXHXGXFXDXDXDXDXDXDXGXDXDXGXGXGXGXGXGXGXGXGXGXGXGXGXDXDXHXHXJXLXGXGXGXGXGXGXJXJXGXGXGXGXGXGXHXHXLXPXvX@XhXfXlXgXgXlXlXlXlXlXfXfXgXgXzXaXl.j.M.j.M.l.M.M.C.M.N.B.B.m.m.B.B.B.V.{.{.{.wX}.}.}.{.{.{.{.{.{.V.V.{.wXwXwX{.{.{.{.{.B.{.{.{.B.B.{.B.B.M.M.V.V.V.B.B.wXB.M.V.M.M.n.V.C.V.V.M.M.M.C.V.V.V.{.6XB.{.B.}.XXV.V.V.{.{.{.V.V.V.V.V.V.",
"e.i.i.u.z.z.z.w.w.e.w.t.+.X < p d ^ a.n./ 1 d 4 O @.b.g.e.g.w.5.f.f.z.w.w.g.+.E +.+.+.@.E / / ! +.b.b.c.x.e.E / u 1 0 4 X @.n.e.+.+.^ X i S.a.b.x.x.x.x.x.z.z.z.z.z.x.b.^ X 4 3 4 4 4 4 4 < < < - @.n.e.#.+.t.b.e.e.e.e.w.f.w.w.u.z.z.w.w.w.f.f.f.w.d.d.x.e.g.b.1 X E n.g.f.x.e.{ +.i < 4 4 4 6 4 7 y.n.r./ +./ ^ R > > > > 6 6 6 6 6 0 > > d ^ E t.e.w.x.x.v.x.x.x.x.z.z.u.u.u.u.i.u.z.x.z.w.x.e.e.e.r.r.y.t.r.r.0.q.w.w.w.u.u.z.z.z.z.x.x.i.i.i.i.i.i.q.5.q.5.2.w.x.u.w.w.u.u.x.x.i.i.i.i.e.e.i.i.i.i.i.i.i.i.i.x.i.i.i.i.w.w.w.w.w.w.w.w.w.w.w.w.w.w.e.e.e.e.e.w.w.w.i.w.e.w.w.w.u.u.u.u.u.u.w.w.u.u.u.u.u.u.i.x.i.i.u.u.u.u.u.u.u.u.u.u.u.u.u.u.u.u.u.u.u.u.u.u.w.w.u.u.i.i.i.u.u.u.w.p.p.p.u.p.u.u.u.u.u.u.i.u.u.u.u.u.u.u.u.u.u.u.u.u.w.w.w.w.w.w.w.w.w.w.u.u.z.z.z.z.u.u.w.w.4.b.C.n.C.V.n.b.j.G.uXtXuXtXwXeXwXwXyXyXwXwX}.}.}.}.}.}.}.}.V.G.oXoXoXiXpXpXpXpXpXpXpXpXpXpXpXpXpXpXpXpXaXaXaXoXoXXXyXuXwXV.eXwXwXeXeX}.}.}.|.|.}.}.{.}.{.{.{.wXwXtXtXtXtXG.uXiXXXV.B.{.{.}.}.C.iXaXaXaXOXiXaXaXaXaXdXaXaXdXdXaXOXiXoXl.XXV.G.iXdXiXoXXXXX}.}.}.}.}.}.}.}.}.}.{.{.{.{.{.{.{.}.}.}.}.}.}.}.}.wX}.}.{.{.{.{.{.{.{.{.}.}.}.}.}.}.XXXXXXXX}.}.}.XX}.V.V.V.M.l.iXOXiXiXiXG.M.oXfXfXlX@XvXBXSXVXVXBXGXHXHXHXHXHXDXDXDXGXGXGXGXHXDXGXGXGXGXGXGXGXGXFXFXDXHXHXKXBXSXIXIXIXIXIXIXIXIXIXIXIXIXIXIXIXIXIXnXvX@XlX@XfXdXfXfXdX@XfXfXlXlXgXOXaXaXoXG.OXiXiXiXiXiXiXiXyXV.{.{.{.{.eXeX{.wX{.{.{.}.}.}.{.{.{.}.wXwXwXwXwXwXwXtXtXeXyXeXeX{.wXwXwX{.}.}.V.XXoXXXoXuXXXV.V.}.V.G.iXG.oXiXuXV.C.V.V.V.uXuXG.C.V.wXeX6XB.B.V.V.{.B.B.B.V.V.V.V.V.9X9X9X",
"i.i.i.u.u.z.x.e.i.a.t.a.+.- , ^ o.+.t.a.E X 4 4 O / n.b.b.b.x.f.x.x.c.z.g.e.R X - O O @.F.F.n.a.e.x.x.x.u.b.s.S.^ - < 5 X +.F.r.2 - : O i y.a.e.x.x.z.z.z.z.z.z.z.z.x.b./ X 5 4 4 4 4 4 4 < < < X +.b.} 8 2 Q b.e.e.e.e.w.f.w.w.z.z.z.u.u.w.f.f.e.x.x.f.e.e.g.t.1 X ^ F.b.g.c.e.+.@.p , 4 0 6 0 6 i y.F./ O O X : : ; > 4 > 4 > : > > 4 ; ; ^ F.y.n.x.g.b.x.x.x.x.x.x.x.z.u.i.i.u.u.u.u.x.u.w.x.g.e.r.{ ! +.+.+.#.8.0.w.u.w.w.w.u.u.u.u.u.u.e.w.i.i.x.i.q.5.q.5.2.w.i.u.u.w.w.z.x.x.i.i.i.i.e.e.i.i.i.i.i.e.e.e.b.n.n.b.b.i.e.e.e.w.e.w.e.w.e.w.e.w.e.w.e.e.e.e.e.e.e.e.i.i.e.e.w.w.u.u.u.u.u.u.w.u.u.u.u.u.u.u.i.i.i.i.u.u.u.u.u.u.u.u.u.u.u.u.u.u.u.u.u.u.u.u.i.i.i.i.i.i.i.i.i.i.u.u.u.u.u.u.p.p.p.u.i.i.i.i.u.u.u.u.u.u.u.u.u.u.u.u.u.u.w.w.w.w.w.w.w.w.w.w.w.u.u.u.z.z.u.6.w.w.4.C.uX9XuXuXtXtXG.yXuXtXtX6XV.wXwXwXtXtXwXyXtXXXtXXXXXXXXXXXXXG.C.l.XXaXaXaXaXaXpXpXpXpXpXpXpXpXpXpXpXpXpXaXaXaXaXaXsXaXyXV.wX{.{.wXwXwXwX}.}.}.}.}.{.{.{.{.{.{.{.{.wX}.V.V.C.V.V.C.{.{.{.{.}.C.XXXXV.V.l.G.l.l.l.l.G.C.l.G.G.G.G.XXV.N.XXV.V.G.XXG.V.V.}.}.}.{.}.|.}.}.}.}.}.{.{.{.{.{.{.{.{.{.{.{.{.{.{.{.{.{.{.{.B.B.V.B.{.{.{.{.}.}.{.{.V.V.V.V.V.{.{.{.}.}.}.tXtXV.oXaXaXaXsXaXG.l.G.aXaX@X@X@XzX@X@X@XvXSXLXHXHXJXJXGXHXGXDXGXGXGXGXDXHXHXHXHXHXHXHXHXGXHXHXHXJXmX$X@X@X@X@X@X@X@X@X@X@X@X@X@X@X@X@X@X@X@X@XfXgXaXlXdXfXfXOXOXOXaXdXdXlXOXXXOXOXaXgXjXjXjXzXzXzXjXoXl.V.B.{.B.{.rXB.{.{.{.{.{.{.{.{.{.B.V.V.V.V.V.V.V.C.V.V.V.}.wXwXwX{.{.{.{.{.M.l.uXjXjXsXaXoXl.l.G.C.uXjXiXgXjXaXl.V.V.G.oXjXjXiXn.V.B.B.6XB.B.B.N.B.B.B.B.V.V.V.V.V.V.6X9X",
"b.i.i.u.u.x.i.r.s.y.s.S.^ - X ^ +.| 0.t.^ O 4 4 : / S.y.y.s.t.n.b.x.n.x.x.b.E O - - - @.a.r.i.i.n.x.v.b.x.n.s.s.R 2 7 : 2 / F.y.1 X , - i y.a.x.x.x.z.f.z.z.z.z.d.w.g.b./ - 5 5 4 4 4 4 4 4 4 4 X +.b.} u 8 +.a.i.i.e.e.u.w.w.w.z.z.u.u.i.i.z.g.r.y.a.a.t.n.b.r.u 2 / S.t.b.n.e.{ +.p 4 4 6 6 6 4 d y.y.+.- - 2 X - - : - - - : : < < 1 2 2 E t.r.b.g.g.x.x.x.x.x.x.x.z.z.u.u.u.i.i.p.p.u.w.w.e.e.e.r.+.{ +.s.9.9.0.0.e.i.u.w.w.u.u.u.i.i.e.i.i.i.i.i.i.q.q.q.q.2.w.z.w.w.w.w.u.u.u.i.i.e.e.e.e.e.e.e.e.e.e.e.e.b.b.b.b.b.i.e.e.e.e.e.e.e.e.e.e.e.e.e.e.e.e.e.e.e.e.e.e.e.e.e.e.e.w.w.w.w.w.w.u.u.u.u.u.u.u.u.z.z.z.z.z.x.u.u.u.u.u.u.u.u.u.u.u.u.u.u.u.u.u.u.u.i.i.e.e.i.i.i.i.i.i.u.u.u.u.u.u.u.u.u.u.u.u.u.u.u.u.u.u.u.u.u.u.u.w.w.w.w.w.w.w.w.w.e.e.w.w.w.w.w.w.u.f.z.6.6.6.5.4. .M.uXV.9XtXG.XXV.XXXXXXtX}.}.tXV.V.}.XX}.}.}.}.XXXXXXXXXXXXXXXXV.C.oXiXOXaXaXaXaXpXpXpXpXpXpXpXpXpXpXpX+XpXpXpXaXaXaXaXXXV.}.B.B.wXwXwXwXwXeXeXwXwXwXwXwXwXwXwX{.V.{.V.V.V.V.V.V.{.wX{.{.{.{.{.{.V.V.V.V.}.XXXXG.XXXXXXG.XXV.V.V.V.V.V.XXV.V.V.V.V.{.{.}.}.{.{.{.|.}.{.{.{.V.{.V.{.{.{.{.{.{.{.{.{.{.{.{.{.wXwX{.}.}.{.}.}.{.{.{.}.{.{.{.{.wXV.V.V.V.{.{.{.{.{.{.wXyXG.oXaXOXOXdXaXG.l.G.uXaXsXzXzXzXzXxXzXvXSXPXKXJXJXJXJXKXHXHXHXGXGXHXHXDXDXGXGXGXGXGXDXDXDXGXHXHXmXOX@XhXhXhXhXhXlXhXhXhXhXhXhXhXhXhXhX@X@X@XzXlXaXlXjXjXjXaXOX@XfX@XOXfXoXl.oXOX@XdXfXdXgXhXhXhXgXOXl.G.M.B.7XrXrXB.B.B.B.B.B.6X6XB.B.C.V.V.V.V.V.C.V.G.XXV.V.V.wXwXeXB.{.eX{.V.N.l.OXsXaXaXaXoXl.l.XXl.G.iXOXdXjXiXl.G.G.j.D.OXdXG.l.G.C.C.B.B.6X6XB.6X6X6XB.V.6X6X6XwXV.V.wX",
"x.x.x.x.z.x.e.+.u i i p 5 X - y.b.b.n.F./ X 3 ; X 0 R R i i ] t.e.e.x.i.x.b.E O ^ S.y.a.t.i.n.b.b.x.b.b.i.9.2 - +.y.@.- < p T p 0 ; ( @.9.b.b.x.i.x.f.f.z.z.z.u.f.f.g.b./ - 1 < 4 4 4 4 4 4 4 4 - +.t.e.r.r.a.a.i.i.e.w.u.w.u.w.u.z.u.u.i.u.z.e.! R R T Y +.b.t.i , i E R #.b.r.u R 9 > 4 6 3 > 3 6 p u +.y.y.s.s.s.s.s.s.s.y.s.s.s.s.s.s.+.t.b.e.g.x.x.x.x.x.x.x.x.x.z.z.z.u.u.u.u.u.u.u.e.e.e.e.t.t.t.t.a.a.t.t.e.e.e.i.i.i.i.i.i.i.x.i.i.i.i.i.i.b.i.q.0.0.2.2.w.z.u.w.w.w.w.i.i.i.i.e.e.e.e.e.e.e.e.e.e.e.e.e.e.e.e.e.e.e.e.e.e.e.e.e.e.e.e.e.e.e.e.e.e.e.e.e.e.e.e.e.e.e.e.e.e.e.w.w.w.w.w.u.u.u.u.u.u.z.z.z.z.z.z.z.z.i.i.u.u.u.u.u.u.u.u.u.u.u.u.u.w.u.u.i.i.e.e.e.e.e.e.e.e.u.u.u.u.u.u.u.u.u.w.u.w.u.w.u.u.u.u.u.u.u.u.w.w.w.w.w.w.w.w.e.e.e.e.e.e.w.w.w.w.w.w.6.6.6.5.6.5.5.C.uXG.tXXXXXXX}.XXXXXXXX}.uXuXuXG.XXXXXXXXXXXXXXG.G.G.G.}.}.}.XXG.XXG.D.iXiXiXaXOX+XpXpXpXpXpXpXpXpXpXpX+XpX+XpXoXaXaXoXXXyXV.{.wXwX{.}.{.}.}.{.{.{.{.{.{.tX}.V.V.V.V.V.V.V.V.V.B.{.B.B.{.{.{.{.{.{.{.V.}.V.}.V.|.}.}.V.}.{.}.}.V.V.}.}.V.wX6X{.{.}.{.{.{.{.{.{.}.{.{.{.V.V.V.V.V.{.{.{.{.{.{.{.{.{.{.}.}.wXwXwX}.}.V.V.V.{.{.{.V.{.{.{.{.wXV.V.V.V.V.V.B.{.{.{.wXtXV.XXiXOXOXdXaXoXC.G.V.M.M.G.C.G.l.XXl.D.hXhX@XhXvX@X@XmXJXLXJXGXJXHXJXGXGXHXHXHXHXHXHXGXGXGXHXLXnXOXzXgXgXfXfXlXlXlXlXfXfXfXfXfXgXhXfXhXhXfXlXaXD.oXG.oXOXOXOXgXzXlXfXfXaXOXOXgXgXfXhXfXhXhXhXhXhXgXiXiXV.6XeX6X6XB.B.B.B.B.6X7X6XN.M.aXsXsXaXsXaXaXsXaXaXoXV.G.V.6XeXeXeXeXB.}.pXuXoXD.XXOXaXOXOXaXaXiXiXgXOXgXhXjXaXjXjXdXdXjXhXhXgXiXG.C.B.B.B.6XB.6X6X6X6XV.B.6X6XeXwXB.B.",
"x.z.x.x.z.x.e.+.- - - : : X - S.F.n.n.F./ O , , X X O ; ; - E b.g.g.n.b.t.a.^ O p F.b.i.i.n.n.b.x.x.b.n.n.s.X - +.n.s.X < ; : : ; O @.F.b.b.i.i.x.i.f.f.f.f.i.e.t.e.e.b.o.- 9 4 < 5 4 4 4 4 4 1 X +.r.w.b.n.b.e.u.z.f.f.f.f.f.f.w.z.u.u.u.u.i.t.i O O - - ~ t.t.i : 5 2 - | a.+.- 7 4 > > > > > > X - O E F.a.t.e.g.b.b.b.b.t.t.t.a.t.n.b.t.t.e.x.g.x.x.x.x.x.x.x.x.x.x.x.z.i.z.u.z.u.x.b.e.r.y.y.y.y.y.y.y.t.e.b.g.e.e.i.e.i.i.i.i.i.i.i.i.i.i.a.a.a.i.q.8.2.2.2.w.u.u.w.e.w.e.i.i.i.i.e.e.e.e.e.e.e.w.e.e.e.e.q.e.e.r.e.e.r.e.e.e.e.e.e.e.e.e.e.e.e.e.e.e.i.e.e.e.e.e.e.e.e.e.i.i.e.e.e.e.w.w.u.u.u.u.u.u.z.z.u.u.z.z.z.z.z.u.u.u.u.u.u.u.u.u.z.z.w.w.w.w.w.w.w.w.w.w.w.w.w.w.w.w.w.w.w.w.w.w.w.w.w.e.w.e.w.w.w.w.w.w.w.w.w.w.w.w.w.w.w.w.e.e.e.e.e.e.r.r.r.w.w.w.w.w.w.6.6.5.5.5.5.n.uXG.tXtXuXoXG.XXXXXXXXV.iXsXuX9X9XuXuXXXtXXXG.G.G.G.G.G.tXwXwX}.V.C.G.iXuXuXpXpXpXpXpXpXpXpXpXpXpXpXpXpXpX+XpX+XaXaXpXaXpX}.V.wX{.V.}.V.{.{.V.V.V.V.V.V.V.V.V.V.V.V.C.C.G.V.V.V.{.B.N.{.B.{.eXB.V.V.V.V.N.|.V.B.V.B.B.V.{.{.{.V.V.V.V.V.V.B.{.{.{.{.{.{.{.{.{.{.{.{.{.B.{.{.{.{.{.{.{.{.{.{.{.{.}.}.}.}.B.B.V.V.V.l.C.C.V.V.V.V.V.V.{.{.C.V.C.G.G.C.C.C.}.wX}.wXtXV.XXiXdXOXOXaXoXG.V.M.V.M.V.N.}.V.}.V.k.XXD.D.OXOXD.%.vXPXLXLXLXLXHXHXHXHXHXLXLXLXLXHXHXHXHXHXLXnXOXzXlXlXlXlXlXlXlXlXlXlXlXlXhXhXhXhXhXhXgXlXaXG.XXG.C.G.XXOXlXxXzXdXfXlXlXlXlXlXhXhXhXhXhXhXhXhXhXzXjXM.B.V.M.C.C.V.V.B.7X7X6XB.C.M.iXaXOXOXaXOXOXiXdXaXOXG.V.V.V.V.wXeXeXC.V.sXaXXXl.D.OXaXaXaXjXjXjXgXhX@XlXzXzXzXlXzXzXzXzXzXhXzXzXoXM.C.B.B.B.B.B.B.B.B.B.{.rXrXrXB.N.B.",
"z.z.z.z.f.x.a.+.E / / ( d 4 O @.s.+.+.s.( O p ^ ^ 0 ; 6 6 ; E n.g.g.b.r.9.y.^ O p F.a.x.n.n.x.n.b.b.x.i.b.+.O 2 0.e.@.- 0 0 0 4 0 O / n.e.u.i.x.x.i.e.e.g.e.e.y.+.+.+.@.^ X 5 < < 5 4 4 4 4 4 4 X @.t.q.w.w.i.x.u.f.f.f.e.e.f.f.w.u.u.u.u.u.i.t.R : 0 / E 0.n.t.7 < 0 < 2 +.S.+.2 p 0 > 6 6 > > > 6 ^ E @.a.r.g.f.f.w.w.w.f.e.e.i.i.e.i.i.e.x.x.x.g.x.x.x.x.b.v.x.x.x.x.x.z.z.z.u.z.x.i.t.9.+.+./ / / +.@.s.t.t.e.w.w.w.i.e.e.i.e.e.e.e.e.e.i.i.t.t.a.i.q.q.q.q.2.w.i.w.e.e.e.e.e.e.e.e.e.e.e.e.e.e.e.e.e.e.e.w.e.i.e.e.e.e.r.e.e.e.e.e.e.e.e.e.e.e.e.e.i.i.i.e.e.e.e.e.e.e.e.e.i.i.e.e.e.e.e.w.i.u.u.u.u.u.i.z.u.u.u.z.u.z.u.u.u.u.u.u.u.u.u.u.z.u.u.w.w.w.w.w.e.e.e.e.e.e.e.e.w.w.w.w.w.w.w.w.w.w.w.w.w.w.w.w.w.w.w.w.w.w.w.w.w.w.w.w.w.w.e.e.e.e.e.e.e.w.w.w.w.w.w.w.w.w.6.5.6.q.4.n.9XC.G.G.C.C.M.V.XXG.G.G.C.G.n.j.n.n.n.n.n.n.n.n.F.D.G.V.V.C.B.B.V.V.G.uXyXuXuXpXpXpXpXpXpXpXpXpXpXpXpXpXpXpXpXpXaXpXoXaXuXV.B.wXV.}.XXXXXXXXXXXXXXXXXXXXG.G.oXoXoXoXoXoXoXoXoXuXyX}.B.{.B.{.B.B.V.V.G.G.V.XXV.V.V.V.V.}.{.{.V.B.V.V.V.V.B.B.V.B.B.{.{.|.{.{.{.{.{.{.V.V.V.V.V.V.V.{.{.{.{.{.{.}.}.XXXX}.V.}.XXoXOXOXiXiXG.V.V.V.V.V.V.V.V.G.oXOXOXOXoXoXG.G.V.}.tXV.XXaXgX@XdXdXOXiXuXV.V.B.V.N.{.B.B.{.V.tXXXXXoXoXoXD.hXIXIXBXIXBXBXIXBXBXIXIXIXIXIXIXIXBXIXIXIXbXOXzXlXlXlXlXlXlXlXlXlXlXlXlXhXhXhXhXlXgXdXgXaXG.XXXXoXoXXXoXaXlXdXOXOXaXgXdXgXhXfX@X@XfXhXhXhX@X@XhXjXn.C.V.M.G.oXuXC.M.m.6X6XG.G.D.OX@XOXOXOXOXOXdXdXgXOXD.G.G.V.tXV.B.tXV.V.aXsXXXoXoXaXaXiXaXaXiXaXOXOXOXgXdXdXgXdXgXdXdXfXfXfXzXzXG.l.V.V.B.B.B.6X6X6XB.B.B.rXrX6XV.tXpX",
"x.z.z.z.z.x.x.b.b.n.F.F.s.X : O X X - < < , 1 F.F.+.- 4 6 O E b.g.f.n.8.2 7 9 X i F.n.w.x.x.x.x.e.n.b.e.b.9.X - 0.b.@.- 4 > 6 4 6 X +.b.x.b.u.i.e.x.e.w.b.b.a.R O X - O : 4 4 4 4 4 4 4 4 4 4 4 O +.b.0.x.f.x.w.f.f.w.g.t.r.e.w.w.w.u.w.w.x.a.a.E X 7 S.F.e.n.t.7 4 0 : 2 / y./ 7 d 0 > > > 6 4 > 5 S.F.y.e.e.f.z.d.z.z.z.z.x.x.x.x.x.x.x.x.x.x.x.x.x.x.x.x.v.v.x.z.i.i.i.i.u.z.z.z.e.t.F./ X : - X : - X +.F.t.e.g.w.x.w.2.0.q.0.9.8.8.9.r.8.! W ! ! ! q.a.i.b.i.b.n.x.e.e.x.e.i.i.i.e.e.e.e.w.e.e.e.e.w.w.e.w.e.e.e.e.e.e.w.w.i.i.b.i.i.e.e.r.q.e.e.e.e.e.e.e.e.e.e.e.e.e.e.e.e.e.e.e.e.e.e.e.i.i.i.i.i.i.i.i.u.u.u.u.i.u.i.i.u.i.i.i.i.i.i.i.e.e.e.e.e.e.e.e.e.e.e.w.w.e.w.w.u.u.w.w.w.w.u.x.w.w.w.w.w.w.w.w.w.w.w.w.w.w.w.w.i.w.p.q.q.w.w.i.w.e.i.w.w.w.w.u.q.w.w.w.w.w.p.p.p.p.q.w.0.0.G.9Xj.| $.G.oXXXuX9X#.r.#.} 0.{ ~ { { { { ] +.G.uXuXsXuXc.f.m.v.M.M.c.h.l.l.OXoXpXpXsXXXpXuXpXpXpXyXyXpXpXpXpXpXaXiXpXN.V.tXV.G.sXsXaXsXsXaXsXaXaXaXaXiXOXzXzXhXhXhXgXdXdXjXjXoXl.XXV.V.V.V.V.G.G.C.G.G.C.V.G.V.C.}.V.B.{.V.{.V.V.V.V.V.V.V.V.{.{.{.B.{.{.{.}.}.}.M.{.wXXXV.V.V.C.V.V.V.V.XXXXG.G.V.XXV.oXjXzXhXzXzXG.G.XXC.G.V.V.V.C.G.iXdXdXdXdXuXG.oXuXtXuXG.G.dXgXdXdXdXgXzXsXC.C.V.V.B.{.B.{.B.B.tX9XuXiXaXpXaXOXOXOXOXOXOXOX+X@X@X$XOXOX+X+XOXOXOXOXOXOXOXgXlXlXlXlXlXgXlXlXlXlXgXgXlXgXgXhXhXzXgXoXl.G.XXXXV.}.}.XXXXC.l.l.j.>.OXlXhXhXhX@XhX@XfXhXhX@X@X@XzXjXj.C.uXuXOXjXzXiXl.M.V.l.OXxXhXhXhXhXhXzXhXdXgXzXzXjXgXzXjXlXsXV.XXXXV.XXsXjXaXlXaXaXaXXXk.C.l.l.l.l.l.l.l.l.l.l.j.l.l.l.>.iXxXzXG.G.C.V.m.6X6XC.6Xm.B.m.6XB.B.6XV.C.xX",
"x.z.z.z.z.z.x.x.x.e.r.n.+.O < < 9 p p R 0 ; 2 y.n.! X < : O E b.c.f.b.r.u p 0 ; p S.n.b.b.x.x.x.n.b.e.n.n.+.O - #.e.+.- 0 > > > 6 - / a.i.x.b.b.i.a.e.e.t.y.y.^ : 4 4 ; > 6 6 4 4 1 4 4 4 4 4 4 ; / y.r.b.w.e.x.x.g.e.a.y.y.b.e.w.w.u.u.i.x.t.y.i - u y.e.0.b.t.7 ; 0 < 1 ^ @.^ 9 p 4 > 0 4 ; < < 2 @.n.r.e.x.f.z.d.z.z.z.z.x.x.x.x.z.z.z.z.z.x.x.x.x.x.x.x.v.v.x.x.z.x.x.z.u.u.f.g.b.t.y./ - 1 5 4 0 9 7 @.a.r.e.g.w.x.w.0.q.r.r.r.r.r.r.t.r.+.Q Q { Q 9.a.e.i.i.x.b.n.b.b.b.a.a.a.a.i.e.e.e.e.e.e.w.e.e.e.e.e.e.e.e.e.e.w.q.w.e.e.i.i.i.w.e.w.e.w.e.w.e.w.e.w.e.w.e.e.e.e.e.e.e.e.e.e.e.e.e.e.e.i.i.i.i.i.i.i.i.u.i.u.i.i.i.i.i.i.i.i.i.i.i.i.e.e.e.e.e.e.e.e.e.e.e.e.w.w.w.w.u.u.i.i.x.i.u.w.w.w.w.w.w.w.w.w.w.w.w.w.w.w.w.q.q.u.p.p.u.q.w.e.w.w.q.q.q.p.q.q.q.w.w.w.5.5.p.6.6.5.2.w.q.#.n.G.j.$.r.V.G.G.uXuXr.b.r.9.t.9.3.q.3.8.8.{ #.0X0XuXuXuXv.v.B.m.m.c.h.h.l.;.D.D.OXl.oXoXiXoXXXXXpXpXpXpXpXpX+XpXpXpXuXV.V.G.C.oXiXiXiXiXiXiXiXiXOXoXiXOXoXzXhX@XdXdXdXaXdXjXaXoXl.l.G.l.G.G.G.l.D.G.D.G.G.G.D.G.C.l.V.V.V.B.B.B.B.V.V.V.V.B.B.B.B.B.{.{.B.V.M.l.G.G.V.M.l.G.XXG.D.XXG.V.l.D.G.D.D.G.G.C.oXjXhXgXhXdXG.G.G.G.G.C.G.G.G.G.iXdXiXdXiXiXG.oXuXuXuXG.G.jXgXhXhXgXdXdXOXl.G.V.M.B.wXwXwXwXV.tXuXuXiXaXiXaXaXgXfX@X@X@XfXlX@XhXfXfXlXfXfXfXfXgXgXfXfXgXgXgXlXlXlXlXgXlXlXlXlXlXlXlXhXhXlXlXlXgXoXD.G.G.G.G.XX}.V.V.V.V.C.l.>.OXfXhXhXhX@XhXlXfXhXhXhXhX@XhXzXl.V.uXiXiXjXzXH.D.l.D.j.D.@X@XhXhXhXhXzXhXdXhXlXlXlXlXaXOXaXiXl.C.C.l.XXpXaXaXaXaXaXlXuXl.V.N.V.V.V.V.V.C.l.C.l.j.j.j.l.l.iXzXgXD.D.l.V.n.M.M.M.C.n.C.h.M.M.M.j.l.l.zX",
"x.z.z.z.z.z.z.z.z.v.x.n.b.9.S.^ 0 ( ( ( 0 4 u n.C.b.r.S.( - ! b.c.f.x.+.2 5 6 + 0 ^ E +.a.i.b.b.+.u u r.n.#.O : r.b.@.2 0 4 0 6 6 - / a.r.e.e.0.r.r.r.9.s.+.@.^ 4 4 4 4 3 4 6 4 1 1 4 4 4 4 4 4 ; 0 p E b.e.e.e.w.e.e.+.i R r.e.w.w.z.w.x.0.E Y s.0.e.n.x.x.b.a.0 ; 4 4 < p p i 9 0 6 ; 0 4 : ^ s.+.t.b.e.i.u.z.z.z.z.z.z.z.z.x.i.i.i.z.z.z.z.z.x.x.x.x.x.x.x.z.z.z.z.z.z.z.z.w.w.g.r.R i / / @./ / @.+./ y.t.r.e.e.w.g.i.w.i.r.8.9.9.8.9.9.9.{ 8.8.8.{ r.b.i.i.e.0.0.r.e.0.0.e.r.r.r.r.e.e.e.e.e.w.w.e.w.w.w.w.w.w.e.e.i.e.e.e.i.i.i.i.i.i.i.x.x.x.x.x.i.i.i.i.q.w.w.w.w.e.e.e.e.e.e.e.e.e.e.e.e.e.e.e.i.i.i.i.i.i.i.i.i.i.i.i.i.i.i.i.i.e.i.i.e.e.e.e.e.e.e.e.e.e.e.e.e.e.i.i.u.u.u.u.p.p.p.u.u.u.u.w.u.w.u.w.w.w.w.w.u.u.u.i.q.p.p.p.q.w.w.w.i.w.u.w.u.p.p.p.u.u.i.u.u.u.u.p.p.q.q.C.G.n.V.G.C.M.M.V.V.C.V.G.n.F.a.9.q.q.3.9.9.9.9.+.+.F.F.G.V.V.c.m.7Xm.m.m.h.iXbXvXmXbXvXOX@XOXgXaXaXiXiXoXpXpXpXpXpXpXpXpXuXyXuXXXl.G.oXG.G.G.oXoXG.oXOXoXOXOXoXfXdX@X@XdXD.oXoXG.oXdXzXgXgXgXgXjXgXgXgXgXgXgXhXhXgXzXjXoXV.V.B.B.{.{.{.B.}.}.}.{.{.{.{.{.B.V.V.V.V.XXjXxXjXG.D.aXzXfXgXjXgXgXdXfXgXgXgXjXoXG.G.OXOXdXzXgXD.l.OXjXdXD.l.l.M.n.G.G.D.G.G.C.l.C.G.C.C.j.D.dXdX@XdX@X@XdXdXdXdXOXC.C.V.V.V.V.V.XXXXXXoXXXoXoXoXaXdXdXdX@X@XfXdXdXfXfXfXfXfXfXfXfXfXfXgXfXfXfXgXgXgXfXfX@XdXdXfXfXfXfXhXfXfXfXhXhX@XOXaXaXaXdXaXOXC.C.V.C.G.aXOXhXhXhXhXhX@XhXdXOXD.OX@XhX@XhXgXj.j.M.V.C.G.D.OXdXdXgX@X@XhXhX@X@X@X@XdXOXD.D.dXgXaXaXaXaXfXaXjXjXaXoXoXpXaXaXiXaXaXaXoXN.{.{.V.V.V.V.M.M.XXdXdXdXdX@XgX@XhXzXzX@XfXdXgXjXOXj.iXzXgXgXgXgXfXgXgXgX@XzX",
"x.z.z.z.x.x.z.z.6.c.z.x.x.n.F.R < d ( ( 0 , u b.c.c.n.F.p O ! n.c.x.b.} X X ; > O O - +.F.a.i.i.+.X - 0.n.#.X : r.b.+.- : ; 4 > > X / F.t.t.r.+.9.+.9.+.E 7 7 : : - X - ; > 4 4 1 1 4 4 4 4 4 4 3 ; X u t.b.x.x.g.g.t.+.- 8 r.g.f.x.x.e.n.+.- O r.n.n.x.x.n.n.S.9 ; 4 4 ; 4 1 < : X : O X - - / F.b.b.i.e.i.u.x.z.z.z.z.z.z.z.z.i.i.i.u.u.z.z.z.x.x.x.x.x.x.z.z.v.v.z.u.u.z.x.g.g.j.r.2 O E s.s.s.s.9.s.+.r.{ } w.e.w.w.i.i.b.r.Q { { { { { { Q 8.8.+.{ r.i.w.w.e.0.} } } } #.9.9.9.9.0.r.e.e.e.e.w.w.w.w.w.w.0.w.w.e.x.b.x.x.b.x.x.x.x.x.x.b.b.b.b.x.x.x.x.x.x.w.w.w.w.e.e.e.e.e.e.e.e.e.e.e.e.e.e.e.e.i.i.i.i.i.i.i.i.i.i.i.i.i.i.i.i.i.e.e.i.e.e.e.e.e.e.e.e.e.e.e.e.e.e.i.i.x.i.i.p.p.p.p.p.u.u.u.u.u.u.u.u.5.w.w.w.5.5.q.q.i.e.q.q.q.q.w.0.0.4.q.q.5.q.p.p.6.q.5.6.5.5.6.5.2.2.} M.9XV.V.V.XX}.V.B.C.M.M.C.n.G.e.{ { { ! 3.) Q { | | j.j.M.M.C.m.B.rXm.m.B.$.dXnXmXmXbXvXD.@X@XzXhXgXaXiXoXpXpXpXpXpXyXyXyXpXaXaXoXl.l.G.C.l.l.C.l.j.l.iXiXoXOXD.OXOX@X@X@Xl.D.D.j.l.dXzXhXhXhXhXhXzXzXzXhXhXhXhXhXhXzXgXD.l.V.V.V.V.B.{.B.B.B.V.B.B.B.B.B.wXV.V.V.C.G.jXvXxXG.D.dXzXzXzXzXzXhXhXzXzXzXzXzXiXG.G.G.H.OXzXhXD.D.jXvXxXD.l.l.M.M.M.n.M.M.C.M.C.M.C.C.M.n.G.dXhXdXdXdXgXdXhXzXzXOXD.l.C.C.l.l.l.C.D.l.l.l.l.l.l.OXgXgXlXlXgXhXhXhXgXgXlXhXhXhXhXgXjXlXzXzXzXzXlXhXlXlXhXhXhXlXhXhXhXhXhXhXhXhX@XhXgXhXzXjXjXzXzXaXD.l.l.>.l.zXhXhXhX@XhXhXhXhXgXD.>.H.hXhXhXzXjXl.M.M.B.M.j.>.dXzXhXhXzXhXzXzXzXzXzXzXzXOXD.l.aXfXOX@XlXdXOXOXvXxXaXOXOXiXdXgXjXjXjXsXuX}.{.}.{.{.{.}.V.C.aXxXzXxXxXzXvXhXhXhXhX@XzXzXzXxXiX$.dXvXzXzXvXzXhXzXzXlXhXhX",
"z.z.z.z.z.x.z.z.v.v.z.c.g.e.t.R 2 p ^ ^ 0 4 p n.6Xx.e.t.u O / n.b.b.b.r.u p p , d p p @.s.+.i.n.@.X - s.n.+.X - s.a.9.R E p 4 6 6 ; ^ s.@.+.+./ / ! +.+./ T T R E R R E p , 4 6 4 4 4 4 4 4 4 4 4 < , u t.g.e.g.f.r.e.+.X 8 y.e.g.f.w.0.n.s.2 O +.b.x.w.n.t.+.s.4 4 0 6 4 0 4 , 0 X p R R R i +.e.w.e.i.i.x.u.x.x.z.z.z.z.z.z.z.i.i.u.u.u.u.u.z.z.z.z.x.x.z.z.z.z.z.z.u.w.e.e.r.r.+.@.^ i @.a.0.0.e.2.q.0.0.} 0.w.g.w.w.e.i.b.q.{ 8.9.9.8.8.9.9.9.8.+.{ 0.g.w.w.e.t.b.e.e.t.t.y.r.r.r.r.e.e.e.r.e.e.w.w.e.e.e.e.w.w.e.g.x.g.g.x.x.x.x.x.i.x.x.x.x.x.x.x.x.x.x.x.x.x.i.x.x.x.e.e.e.e.e.e.e.e.e.e.e.e.e.e.e.e.e.e.e.e.e.e.e.e.e.e.e.e.e.e.e.e.i.i.e.e.e.i.e.e.e.e.e.e.e.e.e.e.i.i.q.q.u.i.i.p.i.u.u.p.u.u.u.u.w.w.w.w.w.w.q.w.w.w.0.e.b.b.g.g.g.g.x.x.b.x.q.q.p.p.p.p.u.u.u.u.p.6.w.x.0.c.V.V.}.B.}.|.{.N.|.B.N.V.M.C.b.0.0.r.r.e.q.q.0.r.#.n.M.M.V.{.N.{.{.m.m.N.h.OXbXvXbXbXbX@X@XOXhX@XOXOXiXOXiXpXpXpXpXoXoXyXoXuXuXXXl.l.G.G.G.D.XXG.l.G.uXoXiXiXOXOXOX@XdXhXoXG.G.G.G.dXhXhXhX@XhXhXhX@X@XhXhX@X@XhX@XhXhXOXOXuXG.tXV.C.}.}.V.V.V.V.V.V.V.V.V.V.V.XXG.XXjXxXjXD.D.dXzXhXhXhXhXhXhXhXjXhXgXjXoXC.G.iXOX@XhXdXD.D.iXdXiXD.G.V.M.m.m.C.m.B.6XB.B.N.B.B.B.C.C.iXdXdXaXdXdXOX@XzXhX@XOXOXOXOXOX@XOXOXOX+XOXoXoXOXoXOXaXaXaXsXaXjXaXaXaXaXaXaXdXjXfXaXsXlXjXaXaXdXhXhXhXhXfX@XhXhXhXhXhXhXhXhXhXhXhXhX@XdXjXdXdXdXdXOXOXG.G.D.D.hX@X@X@X@X@X@X@XdXhXH.A.H.hXhX@XOXiXM.B.N.6XB.C.l.OXgXdX@XgXdXaXaXjXaXaXsXdXiXXXG.aXaXaXfX@X@XhXhXH.G.H.j.H.H.H.H.H.H.G.G.G.oXV.V.V.V.V.{.V.M.XXjXgXgXdX@XzXhXhX@X@XhXzXhXdXjXiXh.iXzXgXdXhXfXhX@XfXlXzX@X",
"x.z.z.z.z.x.z.z.u.b.e.b.b.n.t.E 7 T R ^ 5 - u F.n.x.b.a.p O ^ a.b.x.x.n.b.F.@.9 ( ^ p i - 2 9.a.@.O - @.j.+.X - y.n.b.n.F.^ : ; 3 O 2 < - - - 7 / E s.s.9.+.+.y.t.b.b.j.^ , , 4 4 4 4 4 4 4 4 4 < 1 < p y.b.g.e.g.r.b.+.X 2 y.b.e.w.g.r.n.y.< X +.b.b.b.n.! - < 5 4 0 4 4 4 < < , X @.F.S.a.y.b.e.x.x.x.x.i.u.x.z.z.z.z.z.z.z.z.u.u.u.u.u.u.i.u.x.x.z.z.x.z.z.z.6.z.v.x.e.t.t.t.E O i @.s.t.a.b.b.n.u.b.x.x.e.x.f.f.w.w.w.i.b.q.Q Q 8.8.3.{ +.8.+.+.{ { 0.b.w.e.0.n.9X9XF.F.F.a.a.t.t.t.t.t.e.r.e.e.e.e.g.x.x.b.g.g.e.g.x.g.g.g.z.x.z.z.u.u.x.x.x.x.x.x.x.x.x.x.b.x.x.x.b.b.x.e.e.e.e.e.e.e.e.e.e.e.e.e.e.e.e.e.e.e.e.e.e.e.e.e.e.e.e.e.e.e.i.i.e.e.e.e.e.e.e.e.e.e.e.e.e.e.u.i.x.i.i.i.w.e.x.i.u.p.p.u.u.w.w.w.u.w.w.5.q.w.q.q.0.n.uXsXuXuXuXuXuXuX9X6Xe.5.q.q.q.6.6.5.5.5.5.4.c.uX6XV.wX{.wXwX}.|.{.{.|.}.|.|.V.V.V.M.V.9XC.9X9X9XC.V.c.V.C.B.{.{.B.{.{.m.m.m.:.G.vX;X;X@X@XOXhXOXOXOXhXzXgXG.OXuXoXoXuXoXuXpXpXiXOXOXOXOXOXOXiXiXaXaXiXiXoXl.dXdXdXdXOXdXhXhXjXzXdXD.D.dXzXhXhXhXhXhXdXA.>.@XhX@XhXhX@XhXhXgXzXiXC.C.G.V.G.N.V.V.V.V.V.V.V.V.V.V.V.G.G.l.G.D.oXG.D.gXzXhXzXhXOXD.OXOXOXOXOXiXG.C.uXzXhXhXzXhXD.oXG.j.D.OXiXuXc.v.m.m.B.m.m.m.B.m.m.m.6XB.M.C.j.l.j.j.l.j.D.hXvXzXhXvXvXvXvXvXvXvXvXvXzXzXzXzXjXOXOXl.h.h.h.j.j.h.j.h.j.j.j.j.j.h.l.V.G.j.:.:.hXhXlXlXhXhXhXhXhXhXhXhXhXhXhXhXhX@XD.>.j.j.>.>.>.D.dXgXgXgX@X@X@X@X@X@XhXhXhXhXzXOXH.dXhXdXD.j.C.h.B.m.7XB.N.M.M.G.l.l.D.l.l.M.N.l.M.M.C.C.C.l.sXaXgXOX@XmXSXnX  - O X X . .         $ ] n.C.V.9XV.B.B.C.M.M.C.l.j.>.D.gXhXhX@XhXfXhXOXj.l.M.M.l.j.l.l.>.>.OXD.OXOXdXO.",
"e.e.z.z.z.i.z.z.x.6Xr.t.t.F.y.^ 2 7 u E 5 - p F.9Xn.n.a.p O E n.b.x.x.n.n.F.s.T R / ^ i O 7 a.b.@.O - s.n.+.X : t.x.x.n.n.E - : 4 ; ; : : ; 4 p @./ y.s.9.{ |  .e.x.x.n.^ - , 5 4 4 4 4 5 5 4 4 < 1 , p y.t.t.b.b.r.y.@.: < y.n.i.i.n.e.t.s.< O +.n.n.t.F./ - < 5 4 4 4 > > : < X O o.F.t.e.t.b.x.z.i.u.w.u.z.v.z.z.z.f.w.e.e.w.u.u.u.u.u.u.i.u.i.i.i.x.x.x.z.z.z.x.b.e.r.r.y.y.^ X 9 @.y.a.n.n.x.n.w.x.w.x.u.w.z.f.w.f.w.i.b.q.Q ) 3.3.{ { { 8.{ +.{ | 0.e.q.w.0.n.9XF.F.F.F.t.t.t.t.t.t.t.e.e.e.e.e.e.g.x.b.b.b.b.g.g.g.g.g.g.z.z.x.x.x.x.x.x.x.x.x.x.x.x.x.x.x.x.x.x.b.b.b.e.e.e.e.e.e.e.e.e.e.e.e.e.e.e.e.e.e.e.e.e.e.e.t.e.e.e.e.e.e.e.i.i.e.e.e.e.i.i.i.e.i.e.e.e.e.e.e.e.w.0.q.r. .4.0. .w.u.u.u.u.w.w.w.w.5.5.5.q.q.q.4.| h.V.tXXXXXXXXXtX9X9XM.q.4.5.4.4.4.4.4.4.5.4.} w.9X9X}.tX{.wXwXwX}.}.}.{.}.}.{.B.{.B.B.V.V.M.V.V.V.M.{.M.B.B.{.B.N.m.{.{.{.m.m.h.OXvX@X@X$X@XdXgXD.H.H.zXvXhXD.OXoXoXoXOXOXoXoXoXoXOXOXOXOXD.D.G.oXD.D.D.D.j.$.dXdX@X@XOX@X@XhX@XhX@XA.D.dXzXhXhXhXhXzXjXD.j.aXvXvXhXhXhXhXhXhXzXdXj.G.G.C.G.l.D.D.D.G.G.G.D.D.l.l.l.G.G.D.G.D.G.l.l.dXzXgXhXzXOXOXOXoXOXiXoXiXG.V.oXjXhXhXhXhXG.iXoXj.G.iXsXuXM.m.N.N.B.B.m.m.B.B.rXB.6X6Xm.M.V.V.M.C.C.l.OXzXzXzXzXvXvXvXvXvXvXvXvXvXhXzXzXzXzXOXOXN.h.h.h.M.j.h.h.h.h.j.j.j.h.:.j.G.G.j.:.>.zXzXzXzXzXlXlXlXhXhXhXhXhXhXhXhXzXjXG.j.M.j.j.>.%.H.dXhXhXhXhX@X@X@X@X@X@XhXhXhXzXdXdXdXjXjXG.j.C.m.eXB.rX6XB.B.B.V.V.V.V.C.V.B.B.m.N.C.N.V.yXXXsXaXgX@X@XnXKXnXO p 0 i i 9 9 4 6 9 , 2 +.F.G.tXC.V.{.V.B.B.C.V.N.C.C.XXzXlXzXhXhXhXzXdXj.j.M.V.V.l.C.G.l.l.jXOXdXgXzX>.",
"e.e.f.z.z.z.z.i.i.e.E E E E ^ / @.y.t.a.^ - < @./ / / +.p - ^ n.x.x.g.e.| E E R W s.s.E O 2 t.a.o.O - @.n.+.X : 9.i.5.w.c.e.+.S.; 3 3 4 6 > ; 0 ( i s.r.e.r.w.c.v.f.w.b.^ - 4 5 4 4 4 4 5 5 4 4 , 5 < 5 ^ E +.t.+.E R R : 4 / ! r.q.e.{ +./ , X +.n.y.R ^ R : 0 5 < 4 4 4 4 , p @.^ s.n.r.e.x.w.u.u.i.x.u.z.z.z.z.z.z.z.e.e.e.e.u.u.u.u.u.u.e.i.i.i.i.i.x.x.z.z.w.g.r.{ R R ^ ( p O 0 ( ^ +.e.w.u.b.w.x.w.x.x.w.z.w.5.z.w.u.b.e.r.q.q.q.q.q.q.r.t.t.r.9.e.x.q.q.0.b.n.b.e.t.t.r.r.r.t.t.e.t.t.t.e.e.e.e.g.g.g.e.g.e.e.e.g.w.f.x.f.f.z.x.x.x.x.x.x.z.z.z.z.z.z.z.x.z.z.x.x.x.x.e.e.e.e.e.e.e.e.e.e.e.e.e.e.e.e.e.e.e.e.e.e.e.e.e.e.e.e.e.e.e.i.i.e.e.e.e.i.i.i.i.e.e.e.e.e.e.e.e.0.e.C.iXiXiXiXuXw.u.u.u.w.w.w.w.w.5.5.e.n.C.6X6XM.V.}.}.{.}.}.|.}.{.wXV.M.m.6X6XV.V.6X6X6X6XC.n.c.uX}.{.yX}.}.{.}.{.}.}.B.V.}.{.{.{.B.B.V.B.M.V.V.V.C.wXN.B.{.eXeX{.{.{.{.{.m.m.h.OXvXhXvX@XhXzXzXzXvXhX@XOXdXgXhXhXgXjXjXfXOXD.OXdXhXgXdXdXgXgXdXhXgX@XdXdXdXOXgXhXdXhX@X@X@XhX@XhXhXgXdXOXD.G.D.OXD.oXiXl.j.oXiXOXH.OX@XhXhXhXhXhXdXdXOXl.OXjXdXgXdXdXdXdXdXdXgXgXdXgXdXgXhXgXaXoXl.dXzXhXhXhXhX@XdXOXOXiXOXiXG.G.oXiXdX@XdXOXl.G.G.j.G.C.C.V.M.m.N.N.m.m.m.m.m.m.B.m.m.B.N.B.N.B.B.B.6XM.l.iXOXOXOXOXOX@X@X@XOXOXOXOXD.OXOXoXOXj.XXyXV.uXsXjXjXaXaXaXaXaXaXaXfXaXaXjXjXdXiXjXOXOXOXOXOXOXoXoXoXoXoXoXoXoXG.oXoXuXM.j.G.iXiXOXOX@XgXdX@X@X@X@X@XhXhXhXhXdXOXH.G.G.G.G.uXiXG.M.N.m.eXm.{.B.B.m.{.B.B.}.B.N.eXB.B.m.{.B.N.wXtXV.jXfXfXvXvX@XJ.J.O 0 < < 9 < 5 5 4 0 5 2 E +.E ] ] :.N.{.B.N.N.B.B.V.M.M.uXG.OXOXOXhXzXgXj.G.V.M.C.G.V.V.V.j.iXOXiXOXjXj.",
"f.f.f.f.z.i.i.i.a.t.1 X O X O +.y.r.C.F./ - : 9 < i ^ / 4 X / F.b.w.b.y.O O X - u y.S.^ O 1 r.F.@.O - s.j.+.O 2 s.9.q.w.w.g.b.S.< 4 6 5 5 4 ; ; 2 X +.t.e.x.c.x.x.g.f.b.+.O 6 4 4 4 4 4 5 1 1 1 1 0 ; < X X ^ S.@.- O - : 4 9 - Q a.y.u O 2 : X +.F.s.O - ; - < - < O O 4 - X p F.y.n.b.t.e.w.w.w.5.q.u.u.u.u.z.u.z.u.u.u.u.i.i.w.u.u.u.u.u.x.b.b.a.b.x.i.b.x.w.e.t.F.R O O O @ O O O X O i t.e.w.u.u.u.u.u.z.z.z.z.z.z.x.x.x.x.i.x.i.i.i.i.i.a.e.r.e.e.r.q.w.w.0.q.q.0.0.q.r.0.r.e.e.e.i.i.i.i.e.x.x.g.e.e.e.e.e.w.w.w.f.f.f.f.f.f.f.z.z.z.z.z.z.z.v.z.z.z.z.z.f.v.z.x.c.b.b.p.w.u.i.i.e.e.w.e.e.e.e.e.e.e.e.e.e.e.e.e.e.e.e.e.e.e.e.e.e.e.e.e.e.e.e.e.e.i.i.i.e.e.e.e.e.e.w.w.0.#.G.jXjXdXjXiX} q.i.w.q.q.q.q.4.0.0. .n.uXtXuXwXwXwXwXwXeX|.|.}.}.}.}.}.wXwX{.tXtXtXtXtXuXtXwX{.{.wX}.}.}.}.{.{.{.{.{.}.{.V.{.{.{.B.B.B.{.B.{.{.V.B.B.B.{.{.{.B.B.{.{.m.m.m.N.h.OXvXvXvXvXhXhX@XvXbXvXH.%.OXvXhXzXhXhXhXhX@XA.OXhXhXhXhXhX@XhXdXdX@X@X@X@XdXdXhXhXhXhXhXhXhXhXhXhXhXzXzXD.j.j.n.M.M.M.M.M.M.M.M.j.j.>.OXzXhXhXvXhXhXzXOXA.OXvXhXhXhXhXzXzXzXzXvXvXhXhXzXzXzXzXjXD.D.@XhXhXhXhXhXhXgXOXoXOXOXOXG.G.G.G.D.D.G.G.M.M.m.m.m.N.N.N.B.B.B.B.B.B.B.B.B.B.m.m.m.m.m.m.m.m.N.m.m.B.N.M.M.M.M.j.$.$.$.$...h.h.h.$.......h.5.f.V.G.OXzXzXzXzXhXlXzXgXhXzXgXlXhXgXhXdXhXgXG.oXoXiXoXl...h.h.v.c.c.j.k.k.k.c.M.j.O.OXzXhXzXhXhXhXhXhXhXhXhXhXhXhXhXzXzXiX$.n.M.M.M.C.C.M.N.N.B.{.m.m.m.m.{.{.{.N.N.B.B.B.6XrXrX{.m.B.6XtXV.fX@XvXnXnXA.    0 i 0 7 < < < 5 5 5 < 2 2 - - u X +.V.N.{.N.B.B.B.B.N.N.h.$.G.iXOXzXvXzXG.l.G.M.M.C.C.C.C.C.M.j.j.j.j.n.",
"z.z.f.f.z.z.i.i.b.y.5 > 3 6 O @.#. .M.C.+.u T ^ / ( ^ ( 0 3 ^ @.y.9.r.@.3 4 R E ~ e.y.^ X p @.@./ 2 2 @.y.+.O 2 @.+.0.x.x.w.e.y.7 < 0 5 4 5 4 0 p u r.r.w.c.c.x.n.x.e.b.+.X 9 4 4 4 4 4 5 1 < < : 0 0 9 < 2 ^ s./ 0 0 0 T 0 R T +.9.+.^ p p X O +.y.s.< > 0 R 9 R R R R ^ p i o.#.r.#.+.t.t.0.x.c.x.x.b.x.u.i.i.i.u.u.u.w.w.w.w.u.u.u.u.u.u.e.r.t.t.i.i.i.e.e.x.b.s.S.( 3 6 > @ 6 d p p p +.t.e.w.u.u.u.i.i.z.z.z.z.z.z.x.x.z.z.x.x.x.x.x.i.i.b.x.e.e.e.e.w.u.u.q.i.x.x.x.x.x.e.w.w.w.w.x.x.i.i.e.e.e.w.w.w.e.e.e.w.w.w.w.w.f.f.x.g.f.z.z.z.z.x.v.z.z.v.v.z.z.v.z.z.z.v.b.x.b.i.z.i.i.i.i.i.i.i.i.e.e.e.e.e.e.e.e.e.e.e.e.e.e.e.e.e.e.e.e.e.e.e.e.e.e.e.r.e.i.e.e.e.e.e.e.i.i.e.w.r.F.iXiXiXdXiXr.g.b.b.x.x.x.g.g.g.r.0.j.G.V.}.}.}.wXwXwXeX|.|.wXyXyX}.{.tXyX}.}.}.}.{.V.wXwX{.wX{.{.{.}.{.}.}.{.|.{.}.}.V.V.V.}.V.B.B.B.{.B.B.{.B.B.B.B.V.{.{.{.{.B.{.m.m.m.B.M.iXjXhXhXhXhXhXhXzXvXzXOXD.OXgXhXhXhXdXdXgXOXH.OXdXdXdXdXdX@XdXdXdXdXdXdXdXdXdXdXdXdX@XdX@X@X@X@XdXdXgXjXG.M.V.C.m.m.N.N.N.M.M.N.B.C.l.iXzXgXgXgXdXgXgXOXH.OXzXhXhXhXhXhXhXhXhX@XhXhX@XhXhX@XhXhXH.H.@XhXhXhX@XhXhXhX@XOXOXdXdXiXOXOXiXiXG.G.tXM.B.m.m.m.B.B.B.B.B.B.B.B.B.B.B.B.B.N.N.B.m.m.m.m.m.m.m.m.m.m.B.B.C.M.C.G.G.G.C.tXc.x.V.uXuXG.oXC.V.G.V.l.oXjXaXfXhXhXhXhXhXhXdXgX@XgXhXhX@XhXhXOXoXoXoXG.oXC.M.v.m.m.m.M.N.B.B.m.M.G.>.OXdX@XOXdXdXdXdXdX@X@X@XdXdXdXdXdXjXiXC.C.m.6XB.B.B.B.B.N.N.m.{.{.m.{.N.N.{.{.{.B.B.B.rX7Xm.m.rXeX6X6XC.lXzXvXbXbXA.5 9 9 0 9 7 < < < 1 1 5 1 1 9 < 9 R 2 $.9XB.wX{.B.N.m.m.B.eXM.M.tXuXOXzXzXjXG.l.G.G.G.G.G.G.G.l.l.l.l.l.D.C.",
"z.z.f.f.z.z.u.u.e.y.9 > > ; O @.r.4.c.C.e.0.e.a.S.^ < 5 3 X 5 1 < < < < ; - @.b.g.n.n.o.O X 0 0 0 - X @.F.+.X < : - E t.b.i.b.t.< > 4 0 4 4 < 9 ^ E #.|  .x.x.f.f.g.e.b./ X < < 4 4 4 4 4 4 4 4 < 0 0 0 < - 7 7 7 R E ^ @./ s.s.E Y u +.y.@.4 ; 7 7 0 : : ^ F.a.a.t.n.n.b.b.n.n.t.a.E - R r.0.c.6X6X6X6Xb.u.u.u.u.i.i.u.u.u.i.i.u.w.w.u.i.i.r.+.9.+.{ 2.8.+.0.a.s.2 : > O 3 6 O ^ y.y.s.y.a.b.g.e.w.u.u.u.u.i.x.z.z.z.f.x.x.z.z.z.x.x.x.x.u.x.b.6Xn.n.n.x.i.i.u.q.x.m.m.c.c.c.c.c.c.c.c.m.m.n.n.n.n.c.x.i.i.b.x.e.e.e.e.e.e.e.e.e.g.w.u.z.x.z.x.v.z.z.v.v.x.x.z.v.z.z.c.x.z.c.x.x.x.x.x.e.e.e.e.r.r.e.e.e.e.e.e.e.e.e.e.e.e.e.e.e.e.e.i.b.b.b.b.b.b.b.i.e.e.e.e.e.w.w.e.e.i.i.x.w.0.r.b.g.r.j.j.oXoXoXuXuXuXXX9XtXG.G.G.G.XXXX}.}.}.XXXXXX}.}.}.|.wX}.{.{.wX}.B.wXwXeXwXwXwXeX{.eXeXeX{.{.{.{.{.V.V.V.V.V.V.V.V.V.V.B.B.B.B.B.B.B.B.B.B.B.V.{.{.{.B.B.{.m.m.{.B.m.m.C.l.j.l.l.l.l.l.l.l.M.M.M.M.M.l.l.j.j.l.C.M.h.M.M.j.M.M.j.M.M.h.M.M.M.k.h.h.M.M.M.M.M.M.M.M.j.l.j.j.M.M.M.m.B.B.B.B.B.B.C.N.m.N.N.k.M.C.j.l.l.l.l.l.j.j.j.l.l.l.j.j.l.l.l.l.D.hXvXhXhXvXhXhXhXhXhXhXhXhXhXhXhXhXzXhXhXhXhXhXzXgXgXzXgXOXD.G.M.m.m.7X7X7X6XB.B.B.B.B.B.B.B.B.B.B.N.B.B.B.N.m.N.m.m.m.m.m.B.B.B.M.C.oXjXzXhXjXxXC.$.OXzXhXhXzXhXzXzXoXh.M.m.h.oXhXhX@X@XhXhXgXOXl.D.D.D.G.hXgXl.j.j.j.j.aXjXsXv.m.7XB.B.V.B.V.G.G.jXhX@XhXgXD.j.l.j.l.l.l.l.l.l.l.l.l.j.C.V.M.B.B.B.B.B.B.B.B.N.N.B.B.B.B.B.B.B.B.B.B.7X7XrXrXrXrXm.{.V.f. .4.r.$.] e e 2 2 i < < 7 1 < < < 1 < < < < 5 < 1 p O +.9XB.{.m.N.N.m.m.m.B.N.N.wXB.h.C.C.l.j.D.dXhXdXgXgXhXgXdXgXhXgXgXgXgX",
"w.w.w.w.u.u.u.u.w.t.p O X X O / +.} w.v.w.w.v.x.n.E X ; 4 ; , - 4 ; 4 ; 4 O s.n.x.n.n.+.- ; ; > > : , y.F.o.X O - X Y y.a.e.b.t.- - : ; 4 4 , p ^ R +.| 4.x.c.x.g.n.b.F.+.- < 5 4 4 4 4 4 4 4 4 : 9 i p 5 2 1 2 1 ^ E / s.+.+.+./ u 8 +.a.s.: : - X X X - R a.t.b.b.c.c.h.b.n.F.F.F.E O u #.0.x.6Xm.n.n.x.w.q.q.i.q.q.w.u.u.w.w.w.w.w.u.i.i.q.+.{ { | | +.+.r.F.S.; O ; X X X O @.y.S.j.y.b.b.x.e.x.z.u.u.i.i.x.z.z.f.f.x.x.z.z.x.x.z.z.z.u.i.x.6Xn.n.n.x.i.u.w.5.x.m.7Xv.v.m.c.c.c.c.c.m.m.m.c.n.n.n.x.e.e.i.i.e.i.i.i.e.g.e.e.e.x.x.x.x.x.x.z.x.v.c.v.x.b.b.x.c.c.m.n.x.x.n.c.x.x.x.x.g.e.w.e.q.r.r.r.e.e.e.e.e.e.e.e.e.e.e.e.0.q.w.e.x.x.b.x.b.b.x.e.q.q.r.0.e.e.w.w.w.e.e.x.c.x.x.x.x.g.g.j.iXoXoXoXoXoXoXuXuXXXuXuXuXuXyXyXtXtXtXtXtXXXXX}.wXtXtXtXuXtXwXwXtX{.wXtXwX{.wX{.eXeXeX{.{.{.{.{.V.V.V.V.V.V.G.V.V.V.B.B.B.B.{.{.B.B.B.B.B.B.{.B.{.B.{.B.{.{.{.{.rX7XB.C.C.C.B.B.B.m.m.m.m.6XrXm.N.N.B.B.N.N.N.B.N.B.N.m.N.B.M.B.B.B.B.B.B.B.N.B.B.B.B.B.B.B.B.B.B.B.N.m.B.{.B.{.B.B.B.B.N.N.N.N.m.m.{.m.M.M.c.M.M.M.C.M.M.C.C.M.M.m.m.C.C.C.C.C.j.jXzXhXzXzXhXzXzXzXzXhXhXhXhXhXhXhXhXhXhXhXhXgXzXjXhXzXhXOXD.G.M.m.m.m.7X7X6XB.B.B.B.B.B.B.B.N.B.B.B.B.B.B.B.m.m.m.m.m.m.m.m.m.N.C.M.G.jXzXhXhXxXG.>.OXzXhXhXvXzXhXhXG.h.h.5...oXzXzX@XhXhXgXzXOXj.l.j.j.D.zXhXl.j.j.h.j.jXxXjXM.m.m.B.N.B.V.C.C.j.jXzXhXhXjXG.C.C.C.N.N.N.B.B.B.B.V.V.C.V.{.{.m.B.B.B.B.B.C.C.N.N.N.N.B.B.B.B.B.B.B.B.7XrXrXrXrXrXm.B.V.0.X.| g.n.r.u E ^ R R 2 < < 1 < < 1 1 1 1 < < 5 1 < 1 X @.uXG.wXB.{.eX{.{.{.{.m.B.B.B.wX6XC.C.l.G.gXzXlXhXhXdX@X@X@X@X@X@X@X@X",
"f.f.f.f.u.u.u.u.x.t.u O p @./ y.e.w.x.v.w.w.d.f.n.E X < p p p p p 5 4 4 0 O s.t.a.n.b.r.+.@.9 4 6 4 ; ^ +.o.@.@.@.+.r.b.e.e.x.e.+.+.R ; 4 > X 9 p 7 s.t.f.f.c.v.g.e.! / p , 4 6 4 4 4 4 4 4 4 4 < 9 9 0 4 4 0 4 5 p 7 T ^ R R R ( 9 : +.t.s.X O y.a.s.y.y.+.^ +.g.c.h.h.g.| E / / / @.+.9.b.x.f.n.c.M.M.n.x.b.b.n.i.q.w.w.w.w.w.w.w.w.w.u.i.e.9.9.e.r.0.9.+.+.@.( ; > ( @.o.+.@.@.^ ^ ^ R +.b.e.g.x.x.z.i.i.i.x.u.u.f.f.x.x.z.z.z.z.z.z.z.u.u.x.x.e.x.x.e.w.w.w.5.z.v.m.v.v.m.m.v.v.v.v.m.v.v.v.c.c.x.u.w.w.w.e.e.e.w.w.w.w.w.w.u.u.w.w.w.f.f.g.g.f.g.g.w.0.q.e.q.w.w.q.w.b.b.w.x.g.c.x.g.g.f.e.i.x.b.e.e.e.e.e.e.e.e.e.e.e.i.x.e.e.e.x.x.x.e.e.e.x.e.e.e.e.e.e.e.e.e.e.e.e.g.g.f.x.f.f.x.x.x.n.M.j.j.n.n.j.j.M.j.M.b.b.c.x.M.m.c.c.c.c.c.c.c.c.c.M.M.M.j.h.n.uXV.h.h.h.h.h.M.{.{.{.{.{.B.B.B.C.V.V.V.V.C.C.V.V.V.V.B.B.B.B.B.B.B.B.B.B.B.B.B.B.B.{.B.B.{.{.{.{.rX7XB.{.{.{.{.rXeX{.6X6X7X7XrXrXB.m.B.B.B.B.N.B.B.B.B.B.B.V.B.B.B.B.B.{.B.B.B.m.N.N.N.N.B.B.B.N.6XB.m.m.{.m.m.m.m.m.B.B.N.N.m.m.m.k.m.m.m.N.m.6Xm.B.B.B.B.N.B.N.B.m.B.B.B.B.B.B.M.iXiXoXOXOXoXOXOXoXOXoXoXoXoXoXoXoXoXoXOXOXOXG.OXOXOXOXOXG.G.G.M.m.m.m.B.B.B.B.B.B.B.B.B.B.N.N.B.B.B.B.{.B.N.N.N.N.m.m.m.m.m.B.m.B.M.l.oXOXH.H.uXM.j.G.iXOXoXOXOXoXOXOXaXaXiXaXaXaXOXhXhX@X@XjXOXG.OXiXdXOXOX@XOXOXXXh.j.oXOXG.M.N.B.m.N.N.M.C.C.j.oXoXD.G.iXG.C.C.B.B.B.B.7X6XrXB.B.B.B.B.{.m.B.B.B.B.N.N.N.N.B.N.N.N.N.B.B.B.B.B.B.B.B.B.rXrX{.{.N.{.uXV.h.M.C.uX+.X 7 i 1 2 < < 1 1 1 1 1 1 1 1 < 1 5 5 5 9 - ^ @.} j.M.N.N.B.m.m.{.rXm.{.m.B.B.N.B.V.V.oXoXoXD.D.@XhXhXhX@X@X@X@X@X",
"6.w.w.w.w.u.u.u.e.t.u X o.F.n.n.n.7X6X6Xc.v.v.v.b.E X 4 ^ ^ ^ ^ ^ 9 < ; < X y.F.a.b.x.x.n.n.7 ; 6 > X - X u S.n.n.b.n.b.b.b.b.x.t.F./ : 4 0 : < < < y.F.c.c.c.f.n.+.2 - , 4 4 < 4 4 4 4 4 4 4 4 4 5 5 4 ; 4 4 > 4 i 2 8 7 7 : < ; : - +.a.y.- X y.F.b.n.F.+.X 2 b.n.j.n.n.s O X X - +.0Xn.b.c.c.6Xm.6X6X6X6X6X6X9Xb.w.5.w.w.u.w.w.w.u.w.u.u.i.e.i.e.e.a.n.y.E O : X : @.F.n.j.F.^ X X - X E y.e.e.i.g.z.u.i.i.x.u.f.f.f.x.x.z.z.z.z.z.z.z.u.w.z.w.w.w.e.w.q.w.q.5.z.v.v.v.v.m.m.m.m.m.m.m.m.v.v.v.c.x.w.5.0.0.0.0.0.0.4.5.5.5.5.5.5.4.4.5.w.g.x.b.g.b.n.t.| ~ ~ { { | ! r.n.n.g.x.h.c.c.x.x.x.x.b.b.b.x.e.e.q.q.e.e.w.w.w.w.e.x.b.x.x.x.x.x.x.x.x.x.x.x.x.b.n.n.x.g.g.g.g.g.g.g.z.x.z.z.v.z.z.z.g.h.g.g.f.0...$.$.0.0.w.q.5.4.4.5.5.5.5.5.5.0.4. .0.#. .} | g.uXG.r...4. .4.m.tXV.{.B.{.V.V.V.V.V.V.C.C.C.C.C.V.V.V.V.B.B.B.{.B.B.B.B.B.B.B.B.B.B.B.B.B.B.{.{.rXrX{.{.{.{.m.m.{.m.m.m.{.rX7X7XrX{.m.B.B.{.{.{.{.B.{.{.{.{.{.B.B.N.N.B.B.B.B.B.m.B.B.B.B.B.B.B.B.N.B.m.{.{.m.B.{.N.N.{.B.B.B.B.B.{.N.B.B.N.B.B.eX6XB.B.B.m.B.B.B.m.m.m.m.m.m.B.m.M.C.M.j.l.M.M.M.l.k.l.M.M.M.M.M.M.M.M.l.l.l.l.l.l.l.l.j.D.G.iXiXC.B.m.m.B.m.B.B.N.N.B.B.N.B.N.N.B.B.B.B.B.B.B.N.B.C.N.N.m.m.m.m.m.B.N.M.l.l.j.l.M.M.M.M.M.M.M.M.k.:.>.OXzXlXlXzXfX>.>.gXhX@XdXdXOXG.dXzXzXOXD.OXOXdXuXh.M.M.j.l.C.B.B.B.N.B.V.V.G.C.C.j.l.j.C.M.V.B.B.B.B.6X6X6XrXrXB.B.V.V.B.B.B.B.B.B.B.B.N.N.B.N.N.N.N.B.B.B.N.B.B.B.B.m.{.{.m.{.N.}.aXuX|.oXsXjXy.X < 1 2 < 1 1 1 1 1 1 1 1 1 < < < < < 1 < , < X 2 y.9XG.C.V.wXB.m.{.m.m.N.{.{.{.wXV.B.V.l.C.j.l.gXvXhXhXhXhXhX@X@X",
"6.6.w.w.w.w.w.e.e.y.p O E j.g.x.c.v.v.v.x.z.v.f.b.^ X 3 ( ^ E p p 9 ; < 9 2 +.a.a.a.n.z.x.b.7 4 > > 0 0 < E F.t.e.e.f.x.x.i.i.e.g.b./ - - 0 9 : < 1 @.s.e.n.c.w.t.s.7 < 4 0 5 < 4 4 4 4 4 < 4 5 0 4 5 4 4 6 6 4 : p i i R ^ 5 6 > < 2 +.a.s.O O s.b.g.c.F.+.O 9 y.y.y.S.y.^ u u u u #.n.c.x.n.C.B.m.m.C.m.c.n.m.n.x.w.w.5.5.5.w.w.w.w.w.w.z.u.w.e.r.t.t.s.y./ 7 i i 8 +.b.e.e.t.^ 1 5 p i +.t.g.e.e.g.f.f.u.u.z.z.f.f.g.g.g.x.z.z.z.z.z.z.u.w.z.x.w.g.e.w.w.q.q.5.z.v.m.m.v.v.v.v.v.v.v.v.v.v.v.v.v.c.f.5.5.w.q.w.w.w.w.w.w.5.5.5.5.5.w.w.g.x.b.b.t.t.a.y.+.! ! 9.9.{ Q t.n.t.n.x.x.c.c.c.z.x.x.x.b.x.x.e.w.e.e.e.e.e.w.w.w.w.x.g.f.g.f.x.x.x.x.z.x.x.x.e.e.e.e.x.x.g.g.g.g.g.g.f.f.f.z.v.v.c.v.z.x.z.f.g.h.g.h.h.h.w.w.x.z.z.w.u.w.w.w.f.r.r.r.e.g.e.r.j.j.n.9X9Xb.i.i.w.i.6X9X6X6X6XC.C.6X9X9XC.C.C.C.C.C.C.V.V.V.V.B.B.{.{.{.B.B.B.B.B.B.B.B.B.B.B.{.B.{.{.{.eXrX{.{.{.{.{.{.{.{.{.{.rX7XB.7XeXrXB.B.B.N.N.N.B.B.V.{.B.B.B.{.B.B.B.B.B.B.B.B.B.B.B.B.B.B.V.B.{.{.{.{.B.N.N.B.B.B.B.B.B.B.B.B.N.M.N.N.N.C.M.N.B.B.B.N.B.B.m.N.N.m.N.m.m.m.m.m.B.N.N.N.C.N.B.B.B.N.N.C.B.B.B.{.B.B.B.V.V.V.V.V.V.V.V.C.G.9XuXuXN.m.m.m.m.B.B.B.B.N.B.B.B.B.N.N.B.B.B.B.B.B.B.N.B.B.N.B.N.N.N.N.m.B.B.B.B.C.C.V.M.N.B.N.m.m.B.m.C.M.j.iXzXgXhXhXgXl.D.hXhX@XhXhXOXOXgXdXgXOXOX@XOXdXiXh.B.{.C.V.B.B.6XB.N.B.B.V.B.N.V.M.G.C.V.6XV.V.B.B.B.B.B.B.wXB.B.C.V.{.V.B.B.B.B.B.B.B.B.N.B.N.N.N.B.B.B.B.B.N.B.B.m.B.{.{.7XB.N.}.pXoX].oXOXdX%.X , , < 5 1 1 1 1 1 1 1 1 5 5 5 1 < < 1 1 9 9 X 2 y.F.F.n.g.9XwXB.{.m.{.{.B.N.m.m.m.B.eX6XB.M.M.sXxXdXjXjXzXjXjXjX",
"w.w.w.w.w.w.w.w.e.y.p O E n.n.6X7Xm.m.v.x.x.c.f.b.^ O ; p u 1 1 1 , - T S.y.t.b.n.a.n.z.x.b.7 > 6 > > 4 < E a.b.x.x.f.f.x.e.q.w.f.e./ - : @.S./ - 2 p 2 E b.e.} - p < 5 4 4 < 5 4 4 4 4 < 1 4 5 6 4 4 4 4 6 4 < p @.s.+.y.y.9 4 6 1 - +.a.y.O X r.b.c.c.b.+.O 5 p u i 2 2 / F.S.n.j.n.M.n.6XC.m.m.v.M.C.M.m.m.6X6Xm.m.n.x.w.5.w.w.w.w.q.w.z.f.w.e.t.a./ - 2 +.S.y.a.r.b.n.w.b.n.a.y.S.S.S.a.t.b.t.t.e.w.f.f.u.u.f.f.f.g.g.g.x.x.w.z.z.z.z.u.w.x.g.w.e.e.e.e.e.e.5.z.v.7Xm.m.v.v.v.v.v.v.m.m.v.v.v.m.v.v.v.c.m.6Xn.n.n.m.v.v.v.v.m.m.7Xm.n.b.t.t.! ! E ~ E 9.e.r.e.t.9.! +.! ~ r.b.x.c.c.z.z.x.x.x.x.x.x.x.x.b.b.x.x.x.x.x.f.x.x.x.x.x.x.x.x.x.x.u.x.x.x.x.x.x.i.e.e.g.g.g.g.e.g.x.f.f.z.z.z.v.z.v.x.z.z.n.6X9XG.oXuXg.q.u.u.z.z.u.u.w.w.f.f.r.e.r.e.r.g.G.9Xj.0.e.q.q.i.q.q.i.q.w.w.5.4.4.0.e.e.e.f.r.r.r.h.h.h.G.V.V.B.B.{.{.{.B.B.B.B.B.B.B.B.B.B.B.B.B.B.{.{.rX{.B.{.{.{.{.{.{.{.{.m.B.6X6XrXrX{.B.{.{.{.{.{.B.B.V.{.B.B.{.{.B.B.B.B.B.C.B.C.B.B.V.V.V.V.V.V.C.V.V.C.M.C.V.{.B.B.B.B.B.B.B.B.B.N.V.V.C.B.M.B.B.B.B.B.N.N.B.N.N.m.m.m.N.N.m.N.B.m.B.B.m.m.B.m.m.N.m.m.m.B.m.m.B.m.B.B.N.N.M.M.M.B.B.C.C.V.V.B.N.m.B.m.m.B.N.B.B.B.B.B.B.B.B.N.B.B.B.B.B.B.B.C.N.N.B.B.B.B.N.N.B.B.B.B.N.N.B.m.N.N.m.m.m.B.m.B.N.V.j.iXzX@XhX@XdXgXhXhX@XD.OX@XOX@XdXA.A.H.OXOX@XdXiXh.m.m.B.B.N.B.B.B.B.B.B.B.B.N.B.C.V.M.V.6XV.V.B.B.B.C.V.C.B.V.B.C.V.V.B.B.B.B.B.B.B.B.B.N.B.B.N.B.B.B.B.B.B.N.m.m.B.B.B.7XeXB.N.oX+X+Xl.XX  r r X 6 5 5 < 1 1 1 1 1 1 1 1 1 1 1 1 < < 1 1 2 9 6 - p 2 2 e 2 $.V.V.B.B.B.B.B.B.{.{.B.B.7X7X7XeXm.C.M.j.C.j.l.l.j.j.",
"q.q.4.4.5.w.w.w.w.t.p X ] n.n.n.c.v.v.v.b.t.c.M.n.+.- O - O O O O - O i a.b.e.i.b.b.x.x.c.t.9 > > 0 ; : O u y.t.e.f.f.w.w.q.0.4.w.e./ O 2 s.y.| . X X X E F.F.+.X 5 4 4 4 4 4 5 , 4 6 3 < 1 5 9 4 4 ; 4 6 4 4 < u s.y.r.a.@.p 5 - X X +.0X@.X O $.b.n.c.n.| O O O O - O X y.F.b.b.g.c.m.m.m.m.m.c.N.n.n.n.M.m.m.7Xc.6Xn.w.5.w.5.6.4.4.w.w.w.w.w.t.n.F.+.- - y.b.x.w.x.x.x.x.x.c.b.b.t.t.t.n.y.F.F.a.b.b.e.f.w.x.f.f.f.g.e.e.e.g.f.f.z.z.w.w.w.w.x.0.0.r.r.e.i.e.4.x.m.m.m.m.v.m.m.c.c.c.m.m.m.m.m.v.v.v.v.m.m.m.m.m.m.m.m.m.m.m.v.m.6XM.6Xg.b.a.! / E u Y #.e.0.} 0.| E ! Y ! t.n.e.n.x.c.v.f.x.x.x.x.x.x.x.x.x.x.x.x.x.x.x.x.x.f.f.f.f.x.x.x.x.x.x.x.u.i.x.x.x.g.g.g.g.e.e.e.x.x.z.f.f.f.z.z.z.c.f.v.f.c.uXoXoXoXG.r.} e.w.u.u.i.5.5.w. . .0.4.4.4.4.q.C.9Xf.| } } 2.0.} 4.0.} 0.} | | | } r.r.r.r.r.r.#.#.j.h.M.V.C.N.B.N.N.B.B.B.B.B.B.B.B.B.B.B.B.{.{.{.{.{.eXm.{.{.{.wX{.{.{.{.{.B.B.6XrXrXeXrXrXeXrX{.{.B.V.V.V.V.V.B.B.B.B.B.B.B.B.B.B.B.B.B.B.B.B.C.B.C.C.C.B.B.B.N.B.B.B.B.B.B.B.B.C.C.B.B.B.B.B.V.V.B.N.B.B.B.N.N.B.B.N.B.B.B.B.m.B.B.B.B.m.m.B.B.B.B.m.m.m.m.m.m.N.N.m.m.B.B.N.N.N.N.B.N.N.m.N.N.N.m.m.6X6Xm.N.N.N.N.C.B.V.B.B.B.B.B.B.B.B.N.C.C.C.B.B.B.B.B.B.B.B.B.B.B.B.B.B.B.B.B.m.m.m.B.B.B.B.B.B.C.h.aXxXlXhX@XhXzX@XzX@XOXOX@XOXhXjXG.D.G.gXdXdXjXiXM.m.B.B.N.B.B.B.V.V.B.B.B.B.V.V.V.V.V.V.B.B.B.B.N.N.B.N.N.B.B.B.B.B.B.B.B.B.B.B.B.B.B.C.B.B.B.B.B.B.B.B.B.B.m.B.7Xm.m.eXm.h.:.F 1.<.+XD.gX  , 5 4 < < 1 1 1 1 1 1 1 1 < < 1 1 1 1 5 5 5 1 1 1 4 4 < < < 2 O F.iX9XV.B.B.{.B.B.B.B.B.{.{.{.{.B.B.m.N.N.B.B.B.B.B.B.",
"x.x.z.z.f.f.w.w.0.y.i O E b.n.n.n.c.v.c.r.E | r.g.! X 5 / +.+.+./ p X R t.e.x.n.n.x.x.x.x.t.1 X ; , ; / @.s.a.g.e.f.f.f.i.i.w.w.w.b./ - 2 y.g.| ] +.u - p @.@./ O 6 5 4 6 4 , , 3 6 6 4 4 < < 5 4 0 4 4 3 ; 5 1 2 s.y.#.+.@.9 : R @.+.+.+.^ o.+.t.b.c.v.n.e.+.@.@.@./ 2 < @.+.r.n.g.c.c.v.m.m.c.M.M.+.| e.b.v.z.m.v.m.n.x.u.x.x.v.z.x.x.x.f.g.g.b.+./ / ^ E t.w.z.v.z.x.c.c.v.z.c.n.b.n.n.t.E / +./ s.e.e.g.x.f.f.f.f.f.e.e.e.w.w.f.z.z.w.w.w.e.e.e.n.n.t.r.r.0.w.b.m.m.m.v.v.m.v.c.c.c.c.v.m.m.m.m.v.v.v.v.v.v.m.m.7X7Xm.m.m.m.7Xm.m.m.6Xe.r.s.! / ! W | 0.r.0.q.e.#.+.s.~ ! 9.r.9.n.x.v.z.f.x.z.z.x.x.x.x.x.x.x.x.x.x.g.g.x.x.g.g.f.f.x.x.x.x.x.x.x.x.x.x.x.x.f.f.g.g.w.w.w.x.z.z.f.z.z.f.f.f.f.f.f.5.f.M.j.l.oXG.M.n.C.q.u.u.q.n.6X6XC.n.C.C.C.M.M.j.V.tXM.g.b.b.b.n.b.b.n.b.r.b.n.n.n.n.n.n.n.n.b.j.j.j.C.j.C.V.B.N.B.B.N.{.B.B.B.B.B.B.B.B.B.B.B.{.{.{.{.{.eX{.eX{.{.eX{.{.}.{.B.B.B.B.{.eX{.{.m.B.{.{.B.B.V.V.V.V.V.V.V.B.V.B.V.B.B.B.B.B.B.B.B.B.B.C.B.B.C.C.B.N.B.B.B.N.B.B.B.B.B.B.V.B.B.B.B.B.B.B.V.V.N.B.B.B.N.N.N.N.B.B.B.B.B.B.B.B.B.B.m.m.B.B.B.B.m.m.m.m.m.m.N.N.{.{.m.m.m.N.N.N.B.B.B.B.B.m.m.m.6X6X6XB.B.B.B.m.C.V.V.V.B.N.C.N.B.B.B.N.C.C.C.B.B.B.B.B.B.B.B.B.C.C.B.B.B.B.B.B.m.m.m.m.B.B.B.B.N.B.M.uXaXOXhXhX@X@XOXhX@X@X@XhXOXiXiXG.G.oXiXOXOXiXG.M.m.B.B.B.B.B.V.V.V.V.B.C.V.V.V.V.V.V.V.V.B.B.B.N.N.N.N.N.B.B.B.B.B.B.B.B.B.B.B.B.V.V.B.B.B.B.V.V.B.B.B.B.B.m.m.7XrX7Xm.h.xXmXmXmXnXvXH.hXO < 4 4 < 7 1 1 1 1 1 1 1 1 1 < 1 1 1 1 5 5 5 1 1 1 5 4 , , < 5 < y.y.j.G.V.B.B.B.B.B.B.{.{.{.{.{.{.m.m.B.B.B.B.6X6X6XB.",
"n.c.n.m.M.c.x.x.b.a.p X E b.n.n.n.n.c.c.! X u t.n.+.O 2 s.b.b.t.F.p O p t.e.x.x.b.x.b.b.n.a.p X 4 X - S.F.b.x.x.z.z.z.x.x.x.x.z.z.b./ O - s.n.g.n.F.R O - < X - 4 6 , X 4 4 6 6 4 4 4 6 6 < < 5 < 5 4 4 4 4 5 : 7 @.s.R X , ; X ^ F.n.u X u y.j.b.n.v.v.c.b.n.F.F.F.s.O X - X u n.b.c.c.v.m.m.c.n.y.2 O ! n.C.m.m.v.m.m.n.c.m.c.v.v.m.n.c.c.n.n.j.u - ^ a.r.n.v.d.m.v.z.c.c.c.c.z.v.x.n.n.+.: 4 0 1 E 9.0.e.e.w.w.w.f.f.e.e.x.x.w.w.u.z.w.e.e.e.e.n.0X0Xn.r.r.q.q.x.c.v.m.m.v.c.n.n.n.n.n.c.v.m.v.v.v.v.v.v.m.m.m.m.m.m.m.m.m.m.m.d.m.m.6X0.#.9./ 9./ +.t.b.g.x.g.g.t.y.s.R E E Y ~ t.g.c.c.x.f.z.z.z.x.x.x.x.x.x.x.x.x.x.x.x.x.g.g.f.f.x.x.x.x.z.z.z.x.x.x.i.u.f.f.x.f.u.u.z.z.z.z.z.z.z.z.z.z.c.5.z.f.f.f.r.M.uXV.9XuX6X4.u.i.2.n.uXtXuXXXXXuXiXuXuXG.XXXXV.V.G.G.G.9X9XG.tXG.g.G.G.G.G.G.C.G.G.G.C.G.C.G.uXV.V.V.B.N.B.N.B.{.B.B.B.B.B.B.B.B.B.B.B.{.{.{.{.{.{.{.{.{.wXeX{.{.{.V.V.V.V.V.V.B.{.{.{.{.{.{.{.B.V.V.V.V.V.V.V.B.V.V.V.B.V.B.V.V.V.V.V.V.B.C.C.C.C.C.B.B.N.N.B.B.B.B.B.B.B.B.V.B.B.B.B.B.B.B.B.B.B.B.B.B.N.N.B.B.B.B.B.B.B.B.B.B.N.m.m.m.B.B.B.B.B.B.B.m.m.m.m.{.{.{.{.B.m.m.m.m.m.m.m.m.m.m.m.B.B.N.m.m.m.N.B.m.C.V.V.V.B.B.N.C.B.B.B.N.N.B.B.B.B.B.B.B.B.B.B.B.B.B.B.B.B.B.B.N.N.N.N.N.N.m.m.m.m.7Xm.M.j.>.@XhXOXH.A.@X@X@XvXvXD.l.h.M.M.M.M.j.l.G.V.M.B.V.B.B.B.B.B.B.V.V.V.V.V.V.V.V.V.V.V.V.C.C.C.B.B.C.N.N.B.B.B.B.B.B.B.B.B.B.B.B.C.C.N.N.B.B.B.B.B.B.B.B.B.{.m.rX7Xm.:.O.mXVXKXSXJXvX& # ; 5 5 1 7 1 1 1 1 1 1 1 1 1 1 1 1 1 1 1 5 5 5 5 < 1 5 4 3 4 0 d ; , O u j.G.V.B.B.B.B.B.{.{.{.{.{.m.m.B.B.B.B.B.6XB.B.B.",
"x.x.c.c.c.n.n.b.r.y.d X ] n.n.n.n.n.c.x.E 2 R s.S.+.X - y.b.e.b.n.E O p t.b.x.x.x.g.n.t.9.s.9 ; 6 ; - s.n.e.x.x.z.z.z.x.i.i.u.u.x.a./ 2 8 +.b.e.r.y.( : 9 9 < 0 4 , 2 2 2 - 6 4 4 4 3 4 4 , < p i 1 ; ; 4 - < - u ^ @.^ : 4 6 ; E n.b.u - p y.t.b.n.z.v.c.x.n.b.g.j.s.- 0 4 2 E n.b.M.m.v.m.C.g.y.S.9 O +.F.c.z.m.v.v.m.c.c.m.v.v.v.v.c.c.n.c.e.S.7 O p a.0.z.v.v.m.v.x.x.g.z.v.c.c.x.n.F.@.O 6 d 5 / y.r.e.e.w.w.f.f.w.w.g.x.x.w.w.u.u.e.e.e.e.e.b.F.F.a.r.t.e.2.u.v.v.v.v.v.c.n.a.e.b.n.m.c.m.m.m.v.v.m.m.m.m.m.m.m.m.m.m.m.m.m.m.m.m.C.} Q +./ 9./ / r.t.r.e.b.b.y.9.@.E / R 8 E n.n.c.v.c.f.z.z.z.z.x.x.x.x.x.x.x.x.x.x.x.x.g.g.g.g.z.z.z.z.z.u.w.u.x.w.e.w.f.f.x.f.u.u.z.z.z.z.z.6.z.z.z.z.z.d.z.z.f.f.f.M.uXV.uXuXn.0.i.q. .c.G.G.XXXXXXuXuXXXoXG.C.M.n.n.n.V.V.9X9X9X9XV.n.G.C.C.G.G.n.G.C.C.C.C.n.C.G.C.G.XXV.M.M.N.N.N.B.B.B.B.B.B.B.B.B.B.{.{.{.{.{.{.{.{.{.{.wX{.C.V.tXG.G.F.G.n.V.tXB.{.{.B.m.{.{.{.V.V.V.V.V.V.B.B.V.V.V.V.V.B.V.B.V.B.V.B.C.C.C.B.C.C.B.B.N.N.B.B.B.B.B.B.B.B.V.B.N.B.B.B.B.B.B.B.B.B.B.B.N.N.N.N.N.N.N.N.N.N.N.N.N.N.N.m.B.B.B.B.B.B.B.B.B.B.B.m.B.m.B.B.m.m.B.B.B.B.B.m.m.m.m.B.N.m.M.V.V.M.M.C.C.C.C.M.M.C.C.N.B.B.B.B.B.B.B.B.B.B.B.B.B.B.B.B.B.B.B.B.B.B.B.N.N.N.N.N.N.N.m.{.rXrX6X6XM.l.gXzX@X@XOXvXhX@XhXvXoXC.m.{.eX{.V.V.M.B.B.V.6XV.B.B.N.B.B.B.V.V.V.V.V.V.V.V.B.V.V.V.C.C.C.C.B.B.B.B.V.B.B.B.B.B.B.B.B.B.B.B.C.C.C.B.B.B.B.B.B.B.B.B.N.m.7XrXd.N.OXA.mXVXVXUXKXvX. 6 4 6 1 < 1 1 1 < 1 1 1 1 1 1 1 1 1 1 1 1 5 5 5 5 < 5 5 5 4 6 0 d d 4 X ( H.G.G.N.B.B.B.B.B.B.B.B.B.B.B.B.B.B.B.B.B.B.B.B.",
"x.x.c.c.g.n.n.0.u R 3 O E j.b.c.m.c.c.n.e.r.s.p R p - 2 t.b.w.b.a.E O p y.b.b.n.c.x.t.! 8 p > > > ; - @.b.e.x.x.z.x.z.u.e.e.w.w.u.i.r.9.+.! R p u p 9 , 4 < : < < i @.y.^ 2 9 6 1 < < 4 < 2 7 ^ E u < < 9 < @.S.@.u u p 4 0 > O Y b.b.u - 0 R 8 r.n.x.x.c.g.c.b.s u p O 0 : - R n.n.m.m.v.M.n.+.1 ( 5 - +.F.n.m.m.v.v.m.v.v.v.v.v.c.c.f.x.c.e.| @.9 - ^ b.4.d.d.v.v.c.c.c.x.z.c.c.c.x.b.n.+.- 0 d 4 / S.a.e.e.e.e.w.w.w.u.u.x.x.f.f.u.u.e.e.e.e.t.e.e.r.r.r.r.q.4.x.m.v.v.v.c.n.b.0.+.r.n.n.c.v.m.m.v.v.v.7X7X7X7X7X7X7X7X7X7Xm.v.m.m.n.n.| R / W / W Y ! Q W ! } +.E i / s.S./ 7 ^ F.n.g.z.c.z.z.z.z.z.x.x.x.x.x.e.e.e.e.w.w.w.g.g.g.g.x.f.z.z.x.w.w.f.w.w.w.w.w.w.w.w.w.w.u.z.z.z.z.6.z.z.z.z.z.6.z.f.f.f.f.x.f.h.XXuXG.V.9Xx.} c.tXtX}.tXV.g.x.g.c.x.0.0.9.8.4.e.u.u.x.u.w.w.w.g.g.n.9X6Xe.g.b.j.j.j.g.h.M.j.tXyXV.M.N.B.N.N.B.B.B.B.B.B.B.B.B.B.{.{.{.{.{.{.wX{.{.{.{.B.C.G.F.+.~ E E Y +.G.V.wXwXB.B.B.B.eX{.{.V.V.V.B.B.B.B.B.V.B.B.B.B.B.B.B.B.B.B.N.B.B.B.C.B.C.C.C.B.B.B.B.B.B.B.B.B.B.N.B.B.B.B.B.B.B.B.B.B.B.C.C.N.N.N.N.N.N.N.N.N.N.N.B.B.B.B.B.m.m.N.N.N.N.C.C.C.N.B.B.B.B.B.N.N.N.B.B.B.m.m.m.B.B.B.M.V.uXtXM.M.C.G.C.j.g.h.c.M.N.N.N.B.B.B.B.B.B.C.C.B.B.B.B.B.B.B.B.B.B.B.B.B.B.N.B.B.N.N.N.N.N.k.m.B.{.M.M.XXG.D.H.H.dXhXH.A.G.V.m.m.m.B.B.B.B.{.{.B.{.{.B.N.B.N.N.N.N.N.B.B.B.C.C.N.N.N.N.C.C.C.M.M.M.M.M.B.B.C.C.V.B.B.B.B.B.B.B.B.B.B.B.B.B.B.N.N.N.m.m.m.B.m.m.rXrXh.xXSXVXBXZXBXI J.Z.  9 < 1 1 2 1 1 < < 1 1 1 1 1 1 1 1 1 1 1 1 1 5 5 5 5 5 1 < < 4 4 4 o > > d @.E j.V.B.{.B.B.B.B.B.B.6XB.B.B.B.B.B.B.B.B.B.B.",
"n.c.c.c.g.n.b.#.X 7 o O ] n.b.c.v.c.z.c.b.F.S.- - < ; < t.g.w.i.a.R O p S.n.b.b.x.g.b.E X > > > o X - s.n.x.x.x.z.z.z.u.i.i.i.i.x.e.i.n.t.E 8 7 - : 4 4 4 4 4 4 X p F.G.o.O < < 5 5 4 4 < < u ^ / p , , < O +.F.y.2 O - X 6 6 : E n.n.T O X - O y.F.n.n.n.b.b.n.u X ; > ; : - u b.M.v.m.c.c.n./ - 4 X X E b.c.m.m.v.v.m.v.v.v.v.f.c.c.f.c.c.r.E ^ 9 X p n.c.v.d.v.z.x.n.b.b.b.g.f.x.x.a.b.@.O 0 6 ; ^ y.t.e.e.i.e.e.w.w.u.u.z.z.w.f.i.i.e.e.e.e.b.r.#.#.r.r.r.q.4.x.m.v.v.m.n.n.n.s.+.r.n.n.n.c.m.m.v.v.7X7X7X7X7X7X7X7X7X7X7Xm.v.v.m.C.0X@.R / R / W Y ~ W Y Y ! ! u 2 ! y.F.^ : ( F.b.x.z.z.z.z.z.z.z.x.x.g.g.x.e.e.e.w.w.w.w.g.g.g.f.f.f.f.u.z.w.w.w.w.q.0.r.r.w.w.0.0.w.w.w.z.z.z.z.z.z.z.z.z.z.z.6.f.z.z.f.f.h.uXXXXXXX9Xr.| M.uXuXyXuXC. .0.5.e.q.{ 3.) ) ! q.5.2.4.2.4.4.4.4. .x.9Xn.0.r.e.r.e.j.g.j.M.h.uXuX}.M.N.B.B.N.B.B.B.B.B.B.B.{.{.{.{.{.{.{.{.{.{.{.{.}.B.V.9X9XsX+.8 T U 8 +.iX9XuX9X6XeX{.B.{.{.{.V.V.B.B.B.B.V.B.B.B.B.B.B.B.B.B.B.B.N.N.B.B.N.C.B.C.C.C.C.C.B.B.B.B.B.B.B.B.N.N.N.N.B.B.B.B.B.B.B.B.C.C.C.C.N.N.N.N.C.B.B.N.B.N.N.B.N.N.N.N.B.N.C.C.C.C.C.C.B.B.B.B.B.B.B.B.B.B.B.B.N.N.B.N.N.M.}.uXXXM.j.n.G.n.g.r.h.c.M.N.N.N.B.B.B.B.B.B.B.B.B.B.B.B.B.B.B.B.B.B.B.B.B.B.N.N.B.C.C.N.N.N.{.B.B.{.N.N.B.h.M.j.j.jXvXdX>.M.N.m.rXrXB.B.B.B.{.B.B.B.V.N.N.B.N.N.N.N.B.B.B.B.B.C.N.B.N.N.C.C.C.C.M.M.M.M.B.B.C.V.V.B.B.B.B.B.B.B.B.B.B.B.B.B.B.B.N.{.{.{.m.B.eXB.7XB...zXKXVXVXFXBX    3 - 9 1 1 1 2 1 1 < < 1 1 1 1 1 1 1 1 1 1 1 1 5 5 1 1 5 5 1 1 1 4 3 , 3 4 > ; - O $.XXB.{.N.B.B.B.B.B.B.B.B.B.B.B.B.B.B.B.B.B.",
"t.e.c.n.b.b.b.r.~ / 6 X ] n.b.n.v.v.x.c.f.b.a.- 4 0 4 < y.g.x.x.b.+.a o.+.+.a.b.f.g.n./ - 6 4 ; 1 u u r.x.f.x.x.x.x.z.z.z.x.x.x.x.w.w.b.r.u 7 d 4 4 4 4 4 4 4 4 , r $.+.^ X 6 6 4 5 5 4 5 < 5 p ( 5 4 4 9 X +.b.b.| +.^ : 6 4 ; d @.@.p - 0 +.o.s.@.@.@.@.@.s.s.9 ; 4 0 : ^ / +.n.c.c.v.c.v.c.| - 5 R E r.C.c.c.m.m.m.m.m.m.m.m.h.M.V.m.c.c.r.! @.9 X E n.v.m.d.v.c.b.r.E +.j.b.b.x.n.n.n.@.O > ( ( @.y.e.e.w.w.e.e.w.w.u.z.z.z.z.z.u.i.i.e.e.e.b.e.0.0.r.e.q.q.4.x.c.c.c.M.n.t.F.s.+.y.b.b.x.n.m.m.m.m.7X7X7X7X7X7X7X7X7X7X7Xm.m.C.n.0.y./ R / / / Q W ! ! ! Q 9.9.R T / 9.s.( 0 ( y.s.b.c.z.z.z.z.z.z.x.x.x.g.x.e.e.e.e.e.e.w.e.w.w.w.w.w.f.f.w.q.w.g.c.g.h.j.b.n.x.w.0.e.e.w.z.z.f.z.z.z.z.z.z.z.z.z.z.z.z.z.z.f.tXXXXXXXuXn.g.n.M.M.XXuXV.h.g.g.n.x.} 2.9.8.{ n.n.c.n.n.c.c.m.c.h.M.9XC.j.M.g.$.r.n.j.n.G.j.uXuXV.M.N.{.B.B.{.B.B.B.B.B.{.{.{.{.{.{.{.{.{.eXB.{.{.{.B.V.G.#.j./ R ( R R +.F.n.t.e.j.tXtXV.{.{.{.{.{.V.B.B.B.V.V.V.V.V.V.V.B.C.C.B.B.B.B.B.B.N.N.B.N.N.C.B.C.C.B.B.B.B.B.B.B.B.N.N.B.B.B.B.B.B.B.B.B.C.C.B.B.N.N.N.N.B.B.B.N.C.C.B.B.N.N.N.N.B.B.B.B.B.B.B.B.B.B.B.B.B.B.B.B.B.N.B.B.N.N.N.N.m.M.V.V.C.G.G.n.F.F.n.j.M.M.C.N.N.N.N.B.B.B.B.B.B.B.B.B.B.B.B.B.B.B.V.V.B.C.C.C.B.B.B.B.N.B.B.m.B.B.m.B.B.N.{.V.V.M.n.iXjXiXj.M.m.m.{.rXB.N.B.N.B.B.B.B.B.N.B.B.B.C.C.C.N.C.C.C.C.C.N.N.N.N.N.M.M.M.M.C.C.C.B.B.B.B.B.B.B.B.B.B.B.B.B.B.B.B.V.B.B.B.N.{.{.{.m.B.eX7X7XrX..vXKXVXBXbXbX% 3 < 9 < < 1 < 1 4 < < 1 1 1 1 1 1 1 1 1 1 1 1 1 5 4 < < 4 < 1 1 1 5 5 4 4 5 4 4 5 X $.G.V.B.B.B.B.B.B.B.B.B.B.B.B.B.V.B.B.B.B.B.",
"{ | q.n.b.g.b.b.n.F.d X E b.b.b.v.v.z.c.c.x.y.2 0 6 4 < t.c.v.x.b.n.F.@.X X +.a.g.f.j.^ O 6 > X f +.+.b.x.x.x.x.x.x.z.z.z.x.x.x.i.i.z.n.0.Y 7 9 > 6 3 3 4 4 4 4 < , 2 O 1 ; 0 4 4 4 4 5 5 < < 1 < : 0 9 4 O +.n.c.g.F.@.X 4 6 4 ; O - - O p F.F.u X X O O 9 i i : < 4 1 X F.9Xn.n.M.c.c.x.x.n.! X p F.F.b.c.m.m.m.m.m.7X7Xm.m.7Xc.9XuX6Xc.g.0.! / 1 - ^ G.v.m.v.d.c.b.E O e y.b.b.e.b.b.n.@.O @ Z.s.y.r.0.e.e.e.e.e.w.w.w.z.z.z.u.z.z.x.e.e.e.e.e.r.0.0.r.q.q.q.4.x.c.c.n.c.0.| +./ / s.r.0.w.n.m.m.m.m.7X7X7X7Xm.m.7X7X7Xm.m.m.n.9Xs.X X - - 7 s.8.3.3.) Q ) 9.t.t./ R W 8 T T T i i 8 +.b.x.x.z.z.x.x.x.x.g.e.w.w.w.w.e.e.e.w.w.w.w.e.e.e.f.f.w.w.x.C.V.V.V.V.9X9XC.x.e.e.g.e.g.f.f.z.z.x.z.z.f.f.f.z.z.6.z.x.z.f.uXuXuXyXuXuXiXC.....V.uXXXuX9X9XsX6X0.8.8.3.} 9XuXuXuXuXtXeXyXyXtXXXXXG.V.oXg.#.r.n.C.C.G.h.G.tXV.M.M.B.B.B.{.B.B.B.B.B.{.{.{.{.B.{.{.{.{.eXeXeXm.m.M.C.$.X X 7 R R / / ! E E u u | C.G.V.V.{.{.{.{.B.B.B.B.{.V.V.V.V.V.V.B.B.B.B.B.B.B.B.B.B.B.B.N.N.N.B.B.B.B.B.B.B.B.B.B.B.B.B.B.B.B.B.B.B.B.B.B.C.B.B.B.N.N.N.N.B.B.B.B.C.C.N.N.B.B.B.B.B.B.B.B.B.B.B.B.B.B.B.B.B.B.B.B.N.B.B.B.N.N.N.N.N.M.M.h.j.G.iXG.$.j.F.G.V.V.M.M.m.N.B.B.B.B.B.B.B.B.B.B.B.B.B.B.V.V.V.V.V.V.V.C.C.B.C.N.N.B.B.B.m.B.B.B.B.m.M.C.N.B.M.n.j.C.M.{.B.m.B.B.B.B.B.B.V.B.B.B.C.B.B.B.C.M.M.C.C.C.M.M.C.C.N.N.N.N.N.M.M.M.M.B.B.N.N.N.B.B.B.B.B.B.B.B.B.B.B.B.B.B.V.B.B.B.B.{.{.{.m.m.m.m.7XB.[ vXZXZXJ.  &   d - < 1 < 1 1 < 9 < 1 1 1 1 1 1 1 1 1 1 1 1 1 1 5 4 < < < 1 1 1 < < < 4 < < 4 4 5 O y.G.V.B.B.B.B.B.B.B.B.B.B.B.B.B.V.V.V.B.B.B.",
"5.2.w.b.F.b.n.b.b.y.p X E b.n.b.v.m.z.c.f.x.a.2 4 0 4 2 a.x.z.z.x.q.n.y.- - s.n.g.c.n./ X 6 6 ; p o.E b.g.x.x.x.i.i.z.z.u.u.i.i.x.w.i.i.q.Y 8 2 : 6 4 4 5 , 5 4 5 5 1 5 4 4 4 4 4 5 4 < 4 < < < q 8 < < : : / n.z.z.t.+.- 4 6 4 4 4 ; < O u t.n.u 2 1 X < d i i 2 - 2 - 2 +.n.c.c.m.c.n.n.n.F.+.O 7 t.n.c.m.v.m.m.c.m.m.m.m.m.7Xv.6XtX9Xx.b.8.~ / 9 O / F.v.m.v.d.z.b.^ X p S.F.n.n.x.e.F.@.@ + @.s.y.r.0.e.e.e.e.w.w.u.u.u.i.i.w.w.w.w.w.w.0.g.b.r.#.0.0.r.q.q.4.x.c.m.n.x.w.} +.+.+.+.r.} w.n.m.v.m.7X7Xm.7X7X7Xm.7X6Xm.m.v.m.b.n.S.9 4 0 8 T 9.) Q 3.Q ! Q 3.q.q.~ W ! T T R i R i R s.F.r.b.x.x.x.b.b.b.x.w.w.w.w.w.u.w.u.w.w.w.w.w.e.e.e.e.x.w.f.M.C.M.B.M.C.6Xn.4.r.e.#.r.r.g.w.w.w.w.w.g.w.q.f.5.f.w.f.w.g.c.9XsXsXuXuXuXsX9Xg.r.G.uXV.XXG.V.9Xn.2.! | | | h.V.V.}.}.wXwXeXwX}.{.}.}.C.G.e.0.e.n.n.G.C.h.uXuXV.C.m.B.6XB.B.m.m.B.B.B.N.B.B.{.{.eXeXeXB.B.eXB.{.V.n.F.S.O 2 i R W / / / ! Q ! ! y.0X9XtXV.{.{.B.{.B.B.{.B.B.B.V.V.V.V.B.B.B.B.B.B.B.B.B.B.B.B.B.B.B.B.B.B.N.N.N.N.N.C.N.N.N.N.B.N.N.N.B.B.B.N.N.N.C.C.M.C.N.N.B.B.B.B.m.B.N.N.M.M.B.B.B.B.M.C.C.N.B.B.B.B.B.B.B.B.B.B.B.N.N.N.N.N.N.N.M.M.C.M.M.j.j.G.0XF.$.j.j.F.C.M.M.B.m.m.B.{.B.B.B.B.B.B.B.N.N.B.B.N.V.V.V.V.V.C.C.C.C.N.N.B.N.N.N.B.B.B.B.B.N.N.N.N.N.B.B.V.V.V.C.N.N.B.B.B.B.B.B.B.B.B.B.B.N.N.N.N.N.N.N.N.N.N.C.B.B.B.B.B.B.M.C.C.N.N.B.B.M.M.B.B.B.B.B.B.B.B.B.B.V.V.V.B.B.B.B.B.B.B.B.N.N.N.{.rX7XB.h.l.J ;XVXVX;X  d # 5 < < < 1 1 1 1 1 1 1 1 1 1 1 1 < 1 1 1 1 1 1 1 1 1 1 1 1 1 1 1 1 < < < < 5 , 4 ; , @.qXG.V.M.{.{.m.{.B.B.B.B.V.V.B.B.B.V.B.B.V.",
"q.2.i.n.j.s s +.n.y.0 X E b.x.z.z.c.z.v.f.x.y.- 0 0 4 2 y.a.z.v.n.i.n.r.- - y.6Xe.b.b.^ O 6 6 ; < e 2 #.e.f.u.i.i.x.u.u.i.i.i.i.i.e.x.x.b.0.y.s.: 4 4 4 4 < 5 5 5 5 5 6 4 4 4 4 4 4 4 0 T R R R T R T R R T ! 8.| w.n.+.- ; 4 4 4 : ; @.a.b.6Xb.b.t.s.1 ; 6 7 2 y.s.t.r.0.n.n.x.m.c.g.G.t.u E @.S.t.6XM.v.m.m.m.m.v.m.v.m.v.v.m.f.m.m.m.e.b.i.r.y.d X / F.c.v.v.d.x.n.R O p S.y.b.x.x.b.F.@.o o @.s.r.0.0.t.t.e.w.w.w.w.w.e.e.e.i.w.i.w.e.e.r.n.n.g.0.0.r.r.q.q.4.u.v.m.n.n.c.e.b.9.s.s.n.x.n.6Xm.m.m.7X7Xm.m.m.m.m.6Xm.c.m.m.C.| p ( ; > ( ^ ! 9.) Q ) Q ! Q 3.q.q.! ! ! T R E ! / T i R ^ E b.x.z.u.w.w.e.i.w.w.w.u.u.u.u.u.u.w.w.w.w.e.e.e.e.u.w.w.x.f.f.N.N.N.6X6XM.9Xn.r.e.9X9XC.x.x.x.i.x.6XM.C.M.C.M.C.M.w.0.r.e.e.q.w.w.e.r.} } e.g.h.V.V.M.V.n.2.2.b.M.M.tXyXXXXX}.wXeXeXeX|.}.|.}.V.G.b.8.r.n.C.C.C.c.V.V.C.C.C.B.B.B.B.B.B.B.B.B.B.B.B.B.{.rXeX{.B.B.{.B.B.C.+.E ( 0 i R / / / / / / Q Q ! / s.+.n.V.B.B.N.B.N.N.B.B.B.B.B.B.V.V.B.B.B.B.B.B.B.B.B.B.B.B.B.B.B.B.B.B.N.N.N.N.N.N.N.N.N.B.N.N.N.N.B.B.N.N.N.N.C.M.N.N.M.M.M.B.B.B.N.N.C.N.M.N.N.N.C.C.M.M.N.N.C.N.N.N.B.B.B.B.B.B.B.B.N.N.N.N.N.N.M.M.M.M.C.G.G.0XiXG.G.D.G.oXG.M.M.B.m.m.m.B.N.N.B.B.N.B.B.B.N.B.B.C.B.V.V.V.C.C.C.C.N.C.C.C.C.C.B.B.B.B.B.B.N.N.N.N.B.B.B.B.B.B.N.C.B.B.B.B.B.B.B.B.B.B.B.B.N.N.N.N.N.N.N.C.N.N.N.N.B.B.B.B.M.M.C.C.N.N.N.C.M.M.B.B.B.B.B.B.B.B.B.B.V.V.V.V.B.B.B.B.N.B.B.B.{.N.m.rX7Xc.l.nXnXVXVXVX;X  r < 5 2 1 1 1 1 1 1 1 1 1 1 1 1 1 1 < < 1 1 1 1 1 1 1 1 1 1 1 1 1 1 1 1 < < 5 5 < 6 4 ; d ^ +.V.V.M.B.{.{.m.B.B.B.B.V.B.V.V.V.C.B.B.",
"n.i.b.n.s.X O E F.S.0 X E j.c.v.z.z.z.v.f.b.y.- 4 4 ; 9 S.n.n.x.c.e.b.+.- : s.n.n.n.F./ X 4 6 6 4 2 - s.b.x.z.x.z.z.z.u.e.e.i.i.x.x.x.u.x.e.a.s.- 4 4 4 6 4 4 4 < < < < 4 5 5 5 4 5 1 9 T R R R W W R W W R ! ! 8.t.n./ O ; 0 4 0 < X s.F.c.n.n.b.n.S.1 ; 0 9 i n.a.n.n.n.M.M.c.n.b.n.0Xy.X X +.9Xb.n.v.v.m.v.v.m.v.m.m.m.m.m.m.v.v.v.v.5.x.b.a.S.p O ^ F.c.v.c.x.b.F.^ O i y.j.x.c.b.x.n.+.X X @.+.9.#.#.r.e.e.e.w.w.w.w.w.e.e.w.q.w.0.0.r.r.b.C.b.0.0.q.q.q.q.4.z.v.m.c.M.m.n.n.r.9.r.6XM.m.6Xm.m.m.m.7X7Xv.m.m.c.6Xn.n.C.n.F.E X 3 ; > ( / Q 3.) Q Q Q Q Q 3.p.p.{ Q ! i T ! +./ T i 0 u u b.b.x.w.w.0.w.e.q.w.e.w.w.w.w.w.w.w.w.w.w.e.e.e.w.w.u.w.w.5.f.B.eXm.B.wXtXtXn.#.r.9X9XC.e.e.i.i.b.9XV.V.M.C.C.6Xn.b.e.8.} { } } } { 2.2.2.0.0.f.tXXX}.tXC.0.0.C.uXV.uXyXwXyX|.eXeXeXeXeX|.|.}.V.G.r.} 0.n.9XG.V.M.m.m.M.C.V.B.N.B.B.B.B.N.B.B.B.B.B.B.6XrXeXeX6X{.B.V.G.0Xo.X - 0 i E ! ! W ! Q Q Q Q / W ! E b.9X9XtXV.V.{.B.{.B.B.B.B.B.B.B.B.B.B.B.B.B.B.B.B.B.B.B.B.B.B.B.B.B.B.N.B.B.B.B.B.B.m.m.B.m.N.N.N.N.N.N.N.N.N.B.B.B.M.M.M.N.N.N.N.N.N.N.m.N.N.N.N.N.M.M.M.M.N.N.N.N.C.C.B.B.N.N.N.N.N.N.N.N.N.N.M.M.M.M.G.iXuXG.uXG.G.G.uXtX}.C.m.N.B.m.m.N.N.V.V.B.N.B.6XB.B.B.B.N.B.B.B.B.B.C.C.N.N.N.C.C.B.B.B.B.B.B.B.B.N.N.N.N.B.B.N.N.C.C.C.C.B.B.N.N.B.B.B.B.C.C.B.B.B.B.C.C.N.M.C.C.M.M.N.N.B.B.B.B.M.M.M.C.M.M.N.N.M.M.B.B.B.B.B.B.B.B.B.B.B.B.B.B.B.B.B.B.|.N.N.{.{.m.m.m.rXN.l.nXnXBXVXFX;X  6 < 7 < 9 1 1 1 1 1 1 1 1 1 1 1 1 1 1 1 1 1 1 1 1 1 1 1 1 1 1 1 1 1 1 1 < < < 6 , 6 5 , , O a 9XuXC.V.N.N.B.B.B.B.B.V.V.V.V.V.N.N.B.",
"s.+.t.F.a.E E @.@.@.0 X E g.f.c.c.z.z.c.f.n.y.- < 4 < 9 @.s.y.e.e.w.e.9.i i r.b.t.+.@.R X > > 4 4 < - y.n.x.u.x.z.z.z.f.e.e.i.i.x.x.x.w.u.e.t.+.- < 4 4 4 4 4 4 4 4 5 5 0 0 0 0 9 9 1 9 T R R R R R Y R R R R Y / +.s.^ < 0 0 ; 3 9 - y.n.f.v.v.b.n.y.1 , 4 , u n.x.x.x.z.x.n.n.0.s.y.s.@.E E y.n.f.c.m.m.m.c.m.m.d.v.v.m.m.m.v.m.v.v.m.6.u.i.a.S.p O ^ F.b.c.c.b.+.@.@.f E y.b.x.c.c.x.n.r.E ^ y.t.t.r.0.r.e.e.e.e.w.w.w.w.w.e.w.w.i.g.e.g.e.b.C.g.0.0.q.q.q.q.5.x.m.v.v.c.m.m.b.0.+.r.n.v.m.m.m.m.v.m.7Xv.v.m.x.u.x.x.b.t.0.y.^ X 6 6 > R / ! 3._ Q Q Q Q ) 3.8.8.! Q ! T R / / / T R R i Y n.n.v.x.x.x.b.x.w.e.e.w.w.w.w.w.w.w.w.w.w.r.r.q.q.q.i.i.w.5.f.6XrXrXm.B.6X6XM.g.j.G.9Xn.e.i.b.b.b.C.M.C.M.V.C.9Xb.x.r.9.8.8.8.2.2.2.2.2.8.q.0.w.6XC.V.uX6X} | x.6XB.eX{.}.eX|.|.eXeXeX|.|.|.|.|.V.g.r.e.j.n.C.C.c.C.C.C.V.V.V.B.B.B.B.B.B.B.B.m.B.B.B.6XrX{.eXeX{.B.C.$.y.( < 9 / R ! Q Q ! Q Q Q Q ! / / / ! a.n.b.b.r.M.V.N.B.N.B.B.B.B.B.B.B.B.B.B.B.B.B.B.B.B.B.B.B.B.B.B.B.B.B.B.B.B.B.B.B.B.B.B.B.m.B.N.B.N.N.N.N.B.B.B.B.B.N.N.N.N.N.N.N.N.N.N.N.N.N.N.N.N.m.m.m.M.m.B.m.M.m.m.m.N.m.N.B.N.B.B.N.N.N.N.m.M.C.M.C.tXV.C.G.G.G.V.V.V.B.N.m.N.m.N.N.M.V.tXG.M.m.B.6X6XB.B.N.N.B.B.B.B.B.C.N.N.N.C.C.C.B.B.B.B.B.B.B.B.C.N.N.N.B.B.N.N.C.C.C.C.B.B.N.N.B.B.B.B.C.C.B.B.B.C.C.C.M.M.C.C.M.N.N.N.B.B.B.M.M.M.M.M.M.M.N.N.M.M.B.B.B.B.B.B.B.B.B.B.B.{.B.B.B.B.B.B.|.N.m.{.B.m.B.7Xv.m.l.nXBXUXmXBXJ.. p 1 1 2 1 - 1 1 1 1 1 1 1 1 1 1 1 1 1 1 1 1 1 1 1 1 1 1 1 1 1 1 1 1 1 1 < < , 5 < 4 4 < 4 X p S.y.j.tXM.m.rXB.B.B.B.B.V.V.V.6XN.N.V.",
"i 2 +.F.F.y.S.+.X p > O E b.g.z.v.v.c.z.f.n.y.- i T p 9 < 2 ^ y.r.g.b.b.s.y.n.n.s.2 < < ; 6 4 ; 4 4 - s.b.x.u.x.z.z.f.f.e.e.x.z.z.u.z.u.x.e.b.+.X < 3 3 4 4 5 4 4 4 4 ; 4 4 4 4 5 < < 1 T W R W R R W W R R T q : : 2 < X 5 4 6 3 5 X y.n.m.m.c.b.n.y.1 5 6 < u n.c.m.v.v.c.n.y.O 2 - O u y.F.j.n.c.M.m.c.c.c.m.m.m.m.c.v.m.v.m.m.v.v.m.w.z.z.x.y.u O ^ G.M.c.n.@.X X @.F.F.n.c.x.v.c.x.n.n.t.n.a.b.t.e.r.e.e.e.r.e.w.w.w.w.w.w.e.w.b.c.x.g.g.c.n.g.0.0.q.q.e.e.4.z.m.m.v.v.m.v.n.0.8.q.6Xm.m.7Xm.m.m.m.m.m.m.6Xq.| | | { E u p 0 > 6 6 ; R ! Q _ _ Q Q Q Q ) ) Q Q ! Q ! T Y ! +./ T 0 T i E n.M.v.v.c.n.6Xn.w.e.w.w.w.w.e.e.e.w.w.w.r.0.0.0.q.q.u.u.w.5.z.6XB.eX{.rXB.6XwXV.9XG.9Xn.w.w.i.i.e.x.h.M.M.C.n.6Xx.} 2.8.8.9.8.8.2.0.2.2.2.9.2.5.C.h.c.wXC. . .M.9XB.eXwX|.eX|.|.|.|.|.|.|.|.}.{.V.uXuXG.g.r.M.C.c.6X6XC.C.C.V.B.N.m.m.B.B.m.6X7Xm.7XB.rXrXrXrXrX{.V.g.$ O O O 8 / / { { { Q { Q Q 3.! Q / / W +.! ! E ~ r.V.B.{.B.B.B.B.B.B.B.B.B.B.B.B.B.B.B.B.B.B.B.B.B.B.B.B.B.B.B.B.B.B.B.B.B.B.B.B.B.B.B.B.B.m.m.m.m.B.m.N.N.N.B.B.B.B.B.B.m.N.N.N.B.m.B.m.B.m.m.m.m.m.m.m.m.m.m.m.m.m.B.m.B.B.B.B.B.B.B.B.N.N.M.M.M.M.M.M.M.M.M.M.m.m.m.m.B.B.B.N.M.V.uXuXM.m.m.N.B.N.N.B.B.B.N.B.B.N.N.N.N.N.N.N.N.N.N.C.C.B.B.B.B.C.C.C.C.C.C.C.C.C.C.N.N.B.B.C.B.B.B.B.B.C.C.B.B.N.N.C.C.M.M.N.N.M.C.C.C.B.C.C.M.C.M.M.M.M.M.N.N.N.N.B.B.C.C.B.B.B.B.V.V.{.{.B.B.B.B.B.B.B.B.rXrX7X7X7X7XeXh.:.nXSX;X&   %   r < 1 1 7 7 1 1 1 1 1 1 1 1 1 < 1 1 1 1 1 1 1 1 1 1 1 1 1 1 1 1 1 1 1 1 < < 4 5 4 4 < , 4 4 X X O E C.B.7XrXB.B.B.B.B.B.V.6XV.M.V.uX",
"i 2 +.n.a.y.a.E X p 4 O E j.x.c.z.v.c.z.f.b.0.2 X - < < - - / F.+.b.n.b.n.n.n.b.t.- < 6 6 6 4 4 4 5 - s.a.x.i.x.x.x.f.f.g.g.z.z.v.u.z.w.i.q.a.+.X < 4 3 4 4 5 4 4 4 4 ; 4 4 4 0 < < < 1 i R ~ ~ W R W R R R 0 : 0 < - 2 - 2 X 4 6 < X r.b.c.x.n.n.F.S.1 , 5 , u t.c.c.v.v.c.n.s.X 2 - - p F.0XF.F.n.n.n.n.n.n.G.n.n.n.b.M.m.m.7Xv.v.d.v.5.u.z.x.y.u X ^ n.M.c.n.S.X O @.F.j.g.f.v.v.v.x.x.x.g.b.e.e.e.r.0.r.e.e.e.e.e.w.w.w.w.w.w.q.x.x.g.f.f.c.M.x.0.0.q.q.r.e.4.z.7Xm.v.v.m.v.n.4.} 0.6Xm.m.m.m.7X7Xm.7Xv.b.n.a.3.3.{ 9./ u R 4 > 6 6 ; ( Q Q ) 3.) Q Q Q ) ) ) ) ) ) ! Y Y W +./ R T 0 i R n.m.c.z.v.n.C.n.w.w.w.w.w.e.e.e.e.w.w.w.r.0.0.q.0.w.u.u.w.5.z.6X7XrXrXeXrXrXyXtXtXV.G.c.q.r.e.e.w.f.h.c.M.M.g.C.e.} 8.9.8.9.9.8.8.q.2.8.2.8.2.5.M.f.k.wXM. .4.M.9XB.yXwX|.|.|.eXeXeX|.}.}.|.}.wXB.9XtXC.h.$.h.M.h.m.m.C.C.C.M.M.m.M.C.B.m.m.6X7X7X7X7XrXrXrX{.{.{.yXn.X - 4 < 8 ! Q Q Q ! Q Q Q ! 3.Q ` ! / W ! W ! E Y e.9XV.{.{.B.B.B.B.B.B.B.B.B.B.B.B.B.B.B.B.B.B.B.B.B.B.B.B.B.B.B.B.B.B.B.B.B.B.6XB.B.B.B.7Xm.m.B.m.B.m.N.N.B.N.B.B.B.B.B.B.N.m.m.m.m.m.m.m.m.m.m.m.m.m.m.m.m.m.m.m.m.m.m.B.B.B.B.B.B.B.B.B.N.N.N.M.M.B.B.M.M.m.m.m.m.m.B.m.B.B.N.M.V.uX9Xn.C.C.M.m.N.N.N.B.N.N.N.N.N.N.N.N.N.N.N.N.N.N.C.C.B.B.B.B.C.C.N.m.C.C.C.C.C.C.N.N.B.B.C.C.B.B.B.B.C.C.B.B.N.N.C.M.C.N.N.N.C.C.C.C.N.N.C.C.M.M.M.M.M.M.N.N.N.N.B.B.C.C.B.B.B.B.V.V.B.{.B.B.B.B.B.B.6X7XrX{.m.7X6Xm.h.:.J vXSXvX  r $ , 9 2 < 1 < 2 1 1 1 1 1 1 1 1 < < 1 1 1 1 1 1 1 1 1 1 1 1 1 1 1 1 1 1 1 1 < < 5 5 4 4 4 , , 4 6 < X o.9XB.rXm.B.B.B.B.B.B.B.V.V.M.V.sX",
"+.| e.b.c.g.n.y.+.y.p O E b.g.x.x.v.z.v.z.x.e.| t.t.a.y.p - 0 ^ u t.n.h.b.b.h.g.y.- 0 0 6 > > 4 4 < - s.b.g.w.w.i.i.i.e.i.i.i.x.b.u.x.i.i.e.b.+.X < 4 > 4 4 5 < 4 0 4 < 0 0 0 T 0 i i i R E R W W R R T 7 i 0 4 0 0 7 ^ s.@.9 0 4 4 - y.F.b.~ ! ^ ^ / 2 , 6 4 u n.n.c.v.c.x.b.r.~ ! +.s.@./ ( ^ ^ ^ ^ ^ / / ^ ^ ^ / E E t.G.v.m.m.v.v.v.5.6.6.z.n.#.o.r.n.M.b.F.S.X X @.j.g.M.m.c.v.v.v.z.z.x.z.x.x.x.x.i.b.b.b.r.r.r.w.w.w.w.w.w.w.c.n.c.c.v.m.M.x.0.q.q.q.q.q.2.z.m.m.v.m.v.v.c.2.{ 0.6Xm.m.m.m.7Xm.m.m.v.w.q.q.{ 8.Q +./ 7 p 9 6 6 6 : ^ / Q Q 3.) Q Q Q ) ) Q Q ) ) Q ! ! / Q ! T R R T Y n.m.v.v.v.n.n.b.w.w.w.w.w.e.e.e.e.w.w.w.w.q.q.q.0.w.i.u.w.4.f.6XrXrXrXrXrXrXeXwXV.}.tXC.c.M.M.n.M.C.M.C.6XV.g.C.x.} 8.8.8.8.2.2.2.2.2.2.2.3.2.4.c.f.c.V.c.| } x.f.f.V.wX}.XX|.yXyXwX}.wX}.{.{.{.M.M.M.V.G.G.tXuXtXm.c.M.9X9XM.c.M.V.6XV.m.m.m.7XB.m.m.m.m.m.m.m.B.M.y.X 0 ( ( W Q Q Q Q Q { 3.{ 3.Q Q 3.! ` / / / / / ~ t.9XM.N.N.B.B.B.B.B.B.B.B.B.B.B.B.B.B.B.B.B.B.C.C.B.B.B.B.B.B.B.B.B.B.B.B.6X6X6X6X6XB.B.B.B.B.m.m.m.m.B.B.B.B.B.B.B.m.m.m.m.m.m.m.m.m.m.m.m.m.m.m.m.m.m.m.m.m.m.m.m.m.m.m.m.m.B.B.B.B.B.B.B.B.N.N.B.B.N.m.m.m.m.m.m.m.m.m.m.N.M.M.C.C.C.V.tXV.M.M.M.m.N.B.B.N.N.N.N.m.N.N.N.N.N.N.N.C.C.C.B.B.B.B.N.N.N.N.C.C.C.C.C.C.C.C.C.C.C.M.N.N.N.N.C.B.B.B.N.M.M.M.C.C.N.N.N.N.C.N.N.N.B.B.M.M.M.M.M.M.C.N.N.N.B.B.C.C.B.B.B.B.V.V.B.B.B.B.B.B.B.B.7X7X{.{.{.rXB.h.xXnXmX;XvXJ.  r 5 5 2 - 1 9 7 < 1 1 1 1 < < 4 4 1 1 1 1 < < 1 1 1 1 1 1 1 1 1 1 1 1 1 1 1 1 < < < < < < 4 4 , , 3 3 X +.G.M.{.m.B.B.B.{.B.7XB.B.V.M.V.sX",
"t.b.n.g.n.x.b.n.F.S.5 O o.F.b.x.c.v.z.v.v.c.c.n.c.C.G.F.i O O X O $.M.h.b.b.b.n.y.X , ; 6 0 6 > 4 , - y.n.c.i.i.i.i.i.i.i.i.i.i.u.u.b.i.e.e.b.+.X < 4 4 4 4 1 , O - X X - - 2 7 T R T T R R ~ R R R ^ T 2 < 4 0 0 < - E F.F.p : 4 5 X @.S.t.- - : O < - 6 6 ; 7 F.F.n.n.c.x.b.e.E | +.F.s.O O X O X X O X - ; - - - O - r.9Xc.v.v.v.v.v.d.z.d.z.g.n.F.F.n.g.n.F.S.O O @.F.x.c.c.v.v.v.v.z.z.v.z.x.x.x.x.x.b.n.n.r.r.e.q.w.w.w.w.q.w.n.6XM.m.c.m.n.x.q.0.q.q.q.q.4.z.v.m.v.v.v.v.b.4.2.q.6Xm.m.7Xm.7Xv.v.m.z.} | { Q 9./ / ( : < 4 3 4 9 : ^ 9.{ Q ) ) ) Q Q ) Q ) ) 3.) ) ) Q +.9.! 7 i R i Y n.m.m.m.m.m.n.c.w.w.w.w.w.e.e.e.e.w.w.w.w.r.r.q.0.q.w.w.w.4.f.7XrXeXrXrXrXrXeXeXtX}.tXV.V.9X9X6X9XtX6X6XtXV.g.C.b.} 0.8.2.9.9.2.2.2.2.8.2.2.8.8.x.w.c.6XM.5.q.u.4.4.C.tXtXyXyXyXyXeXwXwX{.B.B.B.k.c.h.M.uXiXuXuXiXC.c.C.uXuXM.h.c.uXuX6XM.c.m.B.m.m.m.m.m.m.m.m.M.G.S.O < ( s.{ 3.3.) ` ` Q Q { { Q Q 3.W ` ! ! Q ! ! R t.9XM.B.{.B.B.B.B.B.B.B.B.B.B.B.B.B.B.B.B.B.B.C.C.B.B.B.B.B.B.B.B.B.B.B.6X6X6X6X6X6XB.B.B.B.B.B.B.N.B.B.B.B.B.B.m.m.m.m.m.M.M.M.m.m.m.m.m.c.c.m.m.c.c.v.v.m.m.m.m.m.m.m.m.m.m.B.B.B.B.B.B.B.B.B.m.B.m.m.m.m.m.m.m.m.m.B.m.m.m.m.M.M.h.j.G.uXG.M.M.M.C.N.B.B.B.B.N.B.B.B.B.N.N.N.N.N.C.C.C.V.B.B.B.N.N.N.N.C.C.C.C.C.C.C.C.C.C.C.C.N.N.N.N.C.C.B.B.N.M.M.M.C.C.N.N.N.N.N.N.N.N.B.N.N.M.M.M.M.M.C.N.N.N.B.B.C.C.B.B.B.V.V.V.V.B.B.B.B.B.B.7X7X7X{.{.{.rXm...mXPXKX@XZ.H.. 5 , 1 2 7 1 2 1 1 1 1 1 1 < < < 5 1 1 1 1 < < 1 1 1 1 1 1 1 1 1 1 1 1 1 1 1 1 < < 5 5 5 , , 4 4 4 4 4 O o.9XN.{.B.B.B.B.{.{.7XB.B.B.M.M.uX",
"y.r.j.e.n.#.t.y.S.@.d X ^ F.r.n.c.v.c.v.v.v.c.c.z.c.C.g.E i 9 < X y.n.n.y.F.y.y.s.E u u ; 6 > 4 6 < - a.n.x.z.i.x.x.x.x.i.i.i.i.i.e.x.e.w.w.w.9.u i 1 5 , p - p a e a t H %.y.p u R R T R W W R R R R i 9 9 5 < 9 ^ u ] b.a.2 4 6 3 < @.S.@.9 5 4 4 5 1 9 5 < 9 S.S.y.t.a.t.t.t.! u y.b.+.s u s u p u E 9 4 0 4 , p s s r.C.v.v.v.c.v.v.d.5.d.d.x.b.b.b.g.n.s.S.@.p e @.b.x.c.z.c.c.z.c.c.c.z.6.z.c.z.f.x.c.c.b.r.e.e.e.w.w.q.e.w.w.c.M.v.v.m.v.c.z.5.5.q.q.q.q.2.i.v.m.v.v.v.v.x.q.} q.m.7Xm.7X7X7Xv.m.m.c.2.8.8.9.s.! ^ R 5 5 4 5 4 4 : ^ 9.Q Q ) ) ) ) ) ) ) 3.Q Q Q Q ) ` ! / ! R i T 7 R n.m.m.m.c.c.n.x.w.w.w.w.w.w.w.w.q.q.q.w.i.q.q.r.0.q.e.5.f.5.5.m.7XrXrXrX7X7XrXeXV.V.9XC.M.C.6XC.V.6X6X6XV.C.n.c.b.} 2.2.2.2.2.2.2.2.2.2.8.8.{ 8.b.g.c.C.n.q.2.p.p.g.M.C.V.V.V.6X6X6XC.h.B.wXm.{.m.c.M.h.uXXXXXuXuXM.M.M.9XtXM.h.M.uX9XV.M.M.M.N.B.B.m.m.m.N.M.V.h.H.S.1 - R +.{ 3.3.) ) Q Q Q Q Q { Q { Q Q Q Q Q Q ! ! t.9Xb.V.N.B.B.B.B.B.B.B.B.B.B.B.B.B.B.B.B.B.C.B.B.B.B.B.B.{.B.B.B.B.{.rXrX6XrX7X7Xm.eXm.6X6Xm.eXm.{.m.m.m.B.m.m.m.N.N.M.B.M.M.h.M.C.M.c.M.m.c.c.m.M.M.m.M.c.C.B.m.v.m.m.v.m.m.m.B.m.B.N.N.m.N.N.B.B.B.m.B.B.m.m.m.B.B.B.B.B.m.m.m.m.M.C.G.9XG.C.C.M.M.M.m.m.m.B.m.B.B.B.m.N.N.B.B.B.B.B.B.V.V.C.C.C.B.B.B.C.C.C.C.C.C.C.C.C.C.C.C.C.C.C.C.N.N.N.N.C.C.C.M.N.N.N.M.M.M.M.C.C.C.C.C.C.N.N.N.B.B.B.B.C.B.B.B.M.C.V.V.V.V.V.B.V.B.B.{.B.B.B.B.rXrXB.{.rXrXrXd.vXSXIX@XS.S.2 7 < < < < 1 1 1 1 1 1 < < < < 5 5 1 1 1 1 1 1 1 1 1 1 1 1 1 1 1 1 1 1 1 1 1 1 5 5 1 1 5 4 4 4 5 5 5 5 X +.uXM.m.{.B.B.m.m.m.m.rXrXB.B.6X6X",
"2 X o.F.b.2 - - 2 4 > o < 1 - +.n.v.v.v.m.v.v.c.v.c.v.M.n.F.@.: - y.n.#.X - - - p s.y.^ X 6 6 4 4 < 2 y.n.x.x.x.e.e.e.e.e.i.i.i.b.i.i.g.w.z.x.g.a.S.p < 1 i 2 y.D.D.@XOXzXvXvX%.u R R R R R T 8 7 7 9 9 5 5 4 , 9 S.r.r.n.n.7 : 6 4 : 5 5 < : 0 > 0 5 : < 1 < < 2 2 2 2 2 2 2 2 - - $.F.n.g.j.j.j.F.y.y./ : 0 0 - o.a.r.c.M.f.c.f.d.d.d.d.d.d.d.z.x.x.b.x.t.u - ^ S.y.F.c.v.v.m.c.c.z.c.z.z.z.d.6X6X6XB.6X6X6X6X0.e.q.q.w.w.q.w.q.w.x.m.m.m.m.v.m.x.5.5.q.q.q.q.5.x.7Xm.v.v.v.c.x.4.} q.m.7Xm.7X7Xm.v.m.v.c.2.8.8.8.9.Y i 9 < 4 6 5 < 4 : E 9.Q Q ) ) ) ) ) ) ) 3.Q Q Q Q ) / W R R T i R i Y n.c.m.v.m.m.n.x.q.e.e.e.w.w.w.w.w.e.e.e.w.q.q.r.0.q.e.w.M.6X7XeXrXrXrXrXrX7XB.B.M.g.g.0.| | } }  .} } } }  . .} } 2.2.2.2.2.2.2.2.2.2.2.8.8.3.q.n.g.r.w.0.| { 3.3.| | } | | | | | | } X.c.eXB.wXB.eXwXN.pXuXuXiXaXuXyXyXiXiXV.M.V.sXiXuXyXyXyXyXyXyXyXyXyXyXXXG.] . 5 X 1 / 9.Q 3.3.3.) ) { Q Q / / ` Q Q Q Q Q Q Q ! ~ ! { X.M.V.B.B.B.B.B.B.B.B.B.B.B.B.B.B.B.B.B.B.B.B.B.B.B.B.B.B.B.B.B.6XrXrXB.m.rXeX6Xm.wX6X6X6X6XN.m.B.m.B.m.m.m.B.yXyXuXpXuXG.C.G.uXuXuXsXuXM.c.tXuXuXuXuXiXiXuXV.M.M.m.m.m.m.m.m.m.m.N.N.B.V.B.B.6XB.m.N.N.N.M.M.N.N.N.N.M.m.m.m.M.M.c.M.M.M.c.h.g.h.h.h.f.c.m.m.m.m.B.m.N.N.N.N.C.B.B.B.V.V.C.C.C.B.B.B.C.C.C.C.C.C.C.C.C.C.C.C.C.C.C.C.N.N.N.N.C.C.C.M.N.N.N.N.M.M.B.B.C.C.C.C.N.N.N.N.B.B.B.C.C.B.B.B.C.C.V.V.V.V.V.V.V.B.V.{.B.{.eXB.m.m.{.rX7X7XrXm.:.+XH.e X 9 - 7 1 < 1 1 1 1 1 1 1 1 < < < < 5 5 1 1 1 1 1 1 1 1 1 1 1 1 1 1 1 1 1 1 1 1 1 1 5 5 1 1 5 4 4 4 4 5 1 < O +.uXV.B.B.M.M.B.N.eXm.{.m.rX7XrX6X",
"2 X / H.S.2 O - X - ; > 6 : O s.n.c.v.v.m.v.v.v.m.v.c.f.n.F.@.O - s.G.r.X - < O p F.F.^ O 4 5 3 4 5 2 a.F.n.t.t.a.a.t.a.a.a.a.a.a.t.a.x.f.f.x.g.a.S.i X 1 u $ >.<.,.+X+X@XvXvXo.u R R R E R i < 1 5 6 6 6 6 4 , p F.F.b.n.S.9 4 6 0 4 4 ; 4 4 6 6 4 < 2 1 < , < X - - - - - - O < - s.F.n.b.n.j.j.r.y.a.@.- 0 4 O / F.F.n.n.b.n.x.c.v.z.5.5.d.v.z.x.x.c.n.n.u O r F.F.n.c.m.c.z.c.z.z.z.z.z.z.f.m.B.6XB.6X6XB.M.4.q.q.q.w.5.4.5.5.5.c.m.v.v.v.v.m.x.5.4.q.q.q.q.4.i.v.v.v.v.v.v.x.4.{ q.7X7Xm.7Xm.v.v.v.v.c.2.2.9.9.9.8 < < < 4 5 < < 9 : R Q Q Q Q Q Q Q Q ) ) Q Q Q Q Q ) / W R 8 - - 9 7 E n.M.m.m.6X6X6Xn.i.e.e.e.e.w.w.w.w.i.e.q.q.q.e.t.0.4.q.4.v.eXeXeXrXrXrXrXeX6X6X9X9Xb.b.e.} } } } 2.} 2.2.2.2.2.2.2.2.2.2.8.8.2.2.2.8.2.2.8.8.8.r.n.b.r.0.2.3.2.8.3.2.2.3.3.3.3.3.3.3.7.X.c.eXB.eX{.eXwXM.uXuXuXpXpXyXyXyXuXuXB.M.B.yXuXyXyXyXpXpXyXyXyXyXuXuXuXiX+.  6 3 < R Q Q 3.3.3.3.3.| { / / ` ` Q Q Q Q Q Q Q / Q W ~ ~ n.tXB.B.B.B.V.B.B.B.B.B.B.B.B.B.B.B.B.B.B.B.B.B.B.B.B.B.B.B.6X6X6X6XrXm.m.f.h.[ $.[ ] O.] j.:.B.B.B.m.m.m.m.wXyXXXuXyXM.h.C.uXtXXXuXuXh.f.V.uXtXXXuXuXuXG.M.h.h.c.c.h.h.f.h.h.c.c.c.M.M.M.m.m.m.v.m.c.c.c.c.c.h.c.c.h.M.M.c.m.c.c.c.h.h.h.f.f.f.f.f.0.g.M.M.c.c.M.k.N.B.N.N.N.N.B.B.C.C.C.C.B.B.C.C.C.C.C.C.C.C.N.N.N.N.N.N.N.N.N.N.N.N.N.N.C.C.M.M.N.N.N.N.B.B.B.B.M.M.N.N.N.N.N.N.B.B.C.C.C.C.B.B.C.C.C.V.V.V.V.V.V.B.V.B.B.6XeX6XeX{.m.m.m.7XeX{. X|.l.s X 7 7 7 < 1 1 1 1 1 1 1 1 1 5 5 < < 1 1 1 1 1 1 1 1 1 1 1 1 1 1 1 1 1 1 1 1 1 1 1 1 1 1 1 1 < < < < 5 5 1 1 X @.0XG.G.G.G.G.G.V.V.M.{.{.rXrX7XrX",
"s.+.@.o.@.+.+.+.+./ 0 > 6 0 - s.n.c.v.v.v.v.v.v.v.m.m.c.f.b.+.- - @.n.r.E / ( X p / ^ p : 6 3 5 5 < - y.F.r.E E E E E E ^ ^ E E +.+.r.b.f.w.w.0.E / p 2 1 o.a :.'.=.+X+X].D.H.a 2 u T T T i 0 5 6 6 6 6 6 6 4 3 9 ^ / ] +./ 0 0 4 4 4 0 4 p 6 > 6 ; < R ^ 9 - 1 @.s.@./ / / / ( < - ^ +.! ] +.] +.E y.j.+.X 0 0 : R +.+.+.r.#.} ] r.c.c.z.d.d.d.z.c.c.x.x.b.i - p j.g.g.m.m.z.z.c.z.f.z.z.z.f.f.m.B.B.B.B.B.B.m.c.n.n.c.c.c.x.c.x.z.v.m.m.m.v.c.m.x.5.4.q.q.q.q.2.u.v.v.v.v.v.c.c.4.| q.m.7Xv.m.v.v.v.v.v.m.3.2.8.9.s.8 < 4 5 4 9 5 0 ( R ! { { Q Q Q Q Q Q ) Q ! ! Q Q Q Q / E 7 / F.0Xs.7 i n.n.v.z.x.x.b.i.e.e.e.q.q.w.w.w.w.i.e.p.q.q.q.r.8.x.M.v.m.eXrXrXrXeXrX7X6X6Xc.x.n.e.e.q.2.8.8.2.0.q.0.8.8.2.2.2.2.2.2.2.8.8.8.8.8.9.8.2.2.8.3.9.t.0. .#.2.2.8.9.8.q.2.2.3.7.7.6.6.7.5.| x.tX{.{.{.eX{.m.pXuXyXuXyXyXyXyXyXyXN.c.B.yXyXyXyXyXyXyXyXpXyXyXtXM.j.F.^ X 6 4 < R +.3.3.3.3.3.3.3.3.) ` / ` Q Q Q Q Q Q ! Q Q ! ! ! n.V.V.B.B.B.V.B.B.B.B.B.B.B.B.B.B.B.B.B.B.B.B.B.B.B.B.B.{.{.6X6X6XrXm.eXV.:.vXnXnXnXnXnXmXnXOXl.M.m.B.m.m.M.{.}.V.XXuXV.M.G.uXuXV.C.G.V.V.XXyXuXyXXXXXuXXXV.V.V.V.V.V.V.V.V.V.V.V.V.M.M.M.M.C.C.C.B.}.XXXXXXXXXXXXXXV.V.V.V.C.c.m.6XV.V.V.V.V.V.V.C.V.V.G.G.V.V.V.M.m.B.N.N.B.B.B.B.C.C.C.C.B.B.C.C.C.C.C.C.C.C.N.N.N.N.N.N.N.N.N.N.M.M.N.N.N.N.N.N.N.N.N.N.B.B.B.B.N.N.N.M.N.N.N.N.B.B.C.C.C.C.B.B.C.C.V.C.V.V.V.}.}.B.B.B.6XrXrX6Xm.m.k.eXeXeXm.k.m.m.V.] 2 u 7 2 < < 1 1 1 1 1 1 1 1 5 5 < < 1 1 1 1 1 1 1 1 1 1 1 1 1 1 1 1 1 1 1 1 1 1 1 1 1 1 < 1 < < < < 5 5 < 5 , p @.o.+.@.o.o.E E E | C.{.{.7XrXrX",
"n.F.@.O u t.n.b.n.F.^ X > 4 - s.b.v.x.c.v.v.v.v.c.v.m.m.v.n.+.- X s.n.n.F.F.^ O X X X 2 4 0 > 4 , < - y.F.+.X O O O O O O O O X 7 i +.t.e.e.e.9.X - 2 X $ %.O.:.`.`.[.+X<.y a - - q 8 q < 4 0 5 4 4 4 3 3 4 4 3 ; X O - - 2 : ; 4 4 ; 4 - , 3 4 4 : 9 @.@.p X < F.G.b.+.+.a.F.S.- X 2 - X O X X . . y.F./ X ; 0 ; - - : u E E ~ Y #.f.5.6.v.v.d.d.v.v.g.x.t.p O a j.b.M.c.c.z.v.z.f.f.f.z.f.f.w.m.{.rXrXrXeXeX6X6X6X6XM.6X6X6X6XC.M.m.B.m.m.m.m.m.z.5.4.q.q.q.q.2.u.v.7Xv.n.m.c.c.0.| q.m.7Xv.m.m.v.v.v.v.m.3.2.3.9.s.u < 4 4 5 0 5 i / / 8.{ { { { Q Q Q Q Q Q ! ! Q Q Q Q / E R ^ F.0X@.u E n.x.5.4.4.4.0.0.0.r.q.0.q.q.0.q.w.e.q.w.q.q.r.q.0.x.eXeXeXeXeXrXrXrXrXrX6X6Xb.e.e.{ } 2.2.2.2.2.2.2.2.2.2.2.2.2.2.2.2.2.8.8.8.8.8.8.9.8.2.8.{ 8.9.{ { } } 2.2.8.8.2.3.3.3.3.3.3.7.7.7.| c.tX6XeX{.eX{.m.pXpXuXpXpXyXyXyXyXyXm.h.m.pXyXyXyXyXyXyXyXyXeXyXiXn.$.y.a O > ; 2 R 9.8.Q 3.3.3.3.3.3.) ` Q Q Q Q Q Q Q Q Q Q W W ! | V.V.V.V.B.B.B.B.V.B.B.B.B.B.B.B.B.B.B.B.B.B.B.{.B.B.{.{.eX6X6X6X6X7Xm.6XC.o.nXPXKXKXSXKXKXPX@XO.c.wXm.B.c.N.tXyXyXpXuXuXuXuXuXuXC.h.V.yXuXuXyXuXuXuXuXuXuXuXuXuXuXyXuXuXuXuXuXyXuXuXh.c.c.c.M.M.M.M.uXuXiXiXuXuXuXuXuXuXuXuXV.h.c.tXuXuXyXuXuXuXuXuXsXiXuXuXuXiXuXM.N.B.N.N.B.B.B.B.B.B.B.B.C.C.C.C.N.N.N.N.N.N.N.N.N.N.N.N.N.N.N.N.C.C.C.N.N.N.N.N.C.C.B.B.C.C.M.M.N.N.N.N.C.C.M.M.B.B.B.B.B.B.B.B.B.B.B.B.B.V.V.V.wXB.B.6X6XrXrX7Xv.M.h.k.h.M.M.yXeXeXG.E X 5 9 < < < 1 1 1 1 1 1 < < < 5 1 1 1 1 1 1 1 1 1 1 1 1 1 1 1 1 1 1 1 1 1 1 1 1 1 1 1 1 < < < < < < < 5 < 6 ; X X O O O X X O O X 1 j.{.eXeXeXeX",
"g.F.o.  e b.b.x.x.b.E ; 6 6 - y.b.v.x.x.v.v.v.v.c.v.c.v.c.b./ X 2 s.b.y.F.y.p - 1 p p p ; 6 > 3 , < - s.S.@.8 7 7 7 7 7 9 9 7 7 E E 9.b.x.g.e.+.2 1 p r t >.&.,.`. X`.+X>.a ^ p < 9 0 9 4 4 0 4 4 4 4 3 4 6 6 4 0 4 < 9 1 5 0 0 4 4 4 0 5 6 > 6 4 < 7 ^ / 0 , 7 n.n.w.} 0.0.#.9.u u i 7 p u i p u u s.S.^ 1 < 4 0 4 0 0 T ^ / / Y t.n.z.6.z.v.z.z.x.x.g.c.n.p X p j.j.c.f.f.z.z.z.f.f.f.f.f.f.w.m.B.rXm.m.rXrX6X6X6X6Xc.m.m.6X6X6Xm.m.m.m.m.m.m.m.z.5.4.q.q.q.q.2.w.m.m.x.x.c.x.x.w.0.w.v.m.v.v.v.v.v.v.v.v.3.2.3.8.9.7 < 4 4 4 4 < 0 / / Q ! Q Q Q Q Q Q Q Q { Q ! Q Q Q Q / E i E 0X0X/ 2 E b.b.w.q.q.q.0.r.e.t.q.0.q.q.0.q.e.w.w.w.w.q.e.e.w.z.7XrX7XrXrXrXrXrXeX6X7XC.n.e.a.9.8.8.2.5.5.9.q.9.9.9.8.9.q.q.q.2.2.2.8.8.8.9.8.8.8.8.8.8.8.8.8.9.8.2.2.8.9.9.8.9.5.2.9.q.7.7.7.7.7.| z.m.v.eX{.eXrXM.uXuXuXpXpXyXeXeXyXeXm.k.k.yXeXeXeXyXyXyXyXyXeXeXpXC.#.y.R X 6 p 7 R 8.Q Q 3.3.3.3.3.3.3.) Q Q Q Q Q Q Q Q Q ` Q ! ! ! 6X6XV.V.B.B.B.B.V.B.B.B.B.B.B.B.B.B.B.B.B.B.{.{.B.B.eX{.eXeX6X6X7Xm.6Xm.j.o.bXSXBXSXKXSXSXBXvXH.G.h.m.m.c.c.V.V.V.yXV.tXtXG.XXXXC.h.V.XXyXyXyXXXXXXXXXXXXX}.XXyXyXyXyXXXXXXXXX}.}.}.h.c.M.M.M.M.M.M.uXyXuXuXuXuXuXuXuXXXXXyXV.h.h.}.tXtXyXyXyXuXuXuXuXuXuXuXuXuXG.c.m.B.N.B.B.B.B.B.B.B.B.B.C.C.C.C.N.N.N.N.N.N.N.N.N.N.N.N.N.N.N.N.C.C.N.N.N.N.N.N.C.C.B.B.C.C.M.M.N.N.N.N.C.M.M.M.B.B.B.B.B.B.B.B.B.B.B.B.B.B.V.V.B.B.B.6X7XrXrXm.l.OXD.D.D.OXj.j.n.G.F.E 1 9 1 4 1 < 1 1 1 1 1 1 < < < 4 1 1 1 1 1 1 1 1 1 1 1 1 1 1 1 1 1 1 1 1 1 1 1 1 1 1 1 1 < < < < < < 1 5 < 6 6 4 5 5 0 6 3 6 > 3 ; 1 F.tX{.{.{.eX",
"x.n.o.. u b.b.x.x.e.p X 6 4 O s.n.x.x.x.v.v.v.v.v.x.c.d.c.c.+.: O 4 < - 2 7 ^ @.@.S.F.^ - 4 4 4 0 4 X 7 8 +.s.y.y.y.y.r.y.y.t.t.t.r.i.c.f.z.e.+.7 p ^ %.:.+X[.#X[.[.*.:.a O , - 0 0 5 5 5 6 9 4 6 4 4 4 6 6 6 4 4 0 0 0 6 4 9 4 4 4 < d ( d > 4 4 4 2 < 9 < ; 1 n.6Xn.b.n.8.~ } n.n.n.n.G.n.n.j.F.y.u u : < 4 0 9 9 R T < : q 8 2 8.6X7X7Xv.d.z.x.x.e.e.b.n.p O p j.b.c.c.v.c.z.f.f.f.f.f.f.w.w.m.7XrXm.7XrX6X6X6X6X6Xv.m.6Xm.m.m.m.m.m.m.m.m.m.m.x.q.4.0.q.q.0.2.w.m.c.0.0.w.5.w.i.i.x.v.v.v.v.v.v.d.v.v.7X3.2.5.8.9.u < < 9 4 4 < i / Q { Q 3.Q Q Q Q Q Q { { Q Q Q Q Q { / E T Y +.0.| ! +.a.i.w.q.e.r.9.r.a.t.r.q.q.q.q.q.e.w.w.w.w.q.e.n.n.m.7X7Xm.7XrXrXrX7XeXc.4.2.} { 8.9.8.2.2.2.2.2.2.2.2.2.2.3.3.} } 2.2.2.2.8.8.9.8.8.9.8.} 8.8.8.8.9.8.2.2.8.8.8.8.2.3.2.2.8.2.2.7.2.3._ 4.4.5.6XrXeXeXm.pXpXuXpXpXyXyXyXyXpXeXeXeXyXyXyXyXpXpXpXpXpXyXeXtXb.~ ! 7 X d / / +.8.Q Q 3.3.) 3.) ) 3.3.Q Q Q Q Q Q Q Q ! Q Q / W ~ n.B.V.B.V.V.V.B.B.B.B.B.B.B.B.B.B.B.B.N.N.N.{.{.{.{.eXeXeX6X6X7Xm.m.c.r.s 2 E %.o.o.%.o.%.o.nXSXIXl.M.v.d.d.c.f.h.c.M.V.uXtXuXuXuXXXyXuXyXyXpXyXwXeXeXeXeXwXyXyXyXyXyXoXyXyXyXXXyXyXXXyXyXyXuXuXuXuXuXuXuXuXuXuXuXuXXXXXyXuXyXV.V.yXyXwXyXyXyXyXyXuXuXuXuXtXM.M.B.M.m.m.B.B.N.N.B.N.B.B.N.N.N.N.N.N.C.N.C.C.N.N.N.N.N.N.N.N.N.N.N.N.N.N.N.N.N.N.N.C.M.M.N.B.N.N.M.M.N.N.B.B.C.C.M.M.B.B.B.B.B.B.B.B.N.B.B.B.B.B.B.B.B.B.m.7X7XrX7XM.hXBXVXVXSXBX%.  . X 1 , : 1 : < < < < 1 1 1 1 1 < < < < 1 1 1 1 1 1 1 1 1 1 1 1 1 1 1 1 1 1 1 1 1 1 1 1 1 1 1 1 1 1 4 4 < < < < 1 < 4 4 1 1 4 3 3 5 > 6 3 5 G.wX{.{.{.{.",
"c.n.E   2 y.b.b.n.t.p : 6 > X y.n.b.x.x.c.c.c.c.x.x.v.c.v.n.+.O 0 > > < X X E +.! s.y.^ - < 4 4 > 4 < < X +.F.b.a.x.x.x.i.i.x.x.n.e.x.x.w.x.b.+.. . a O.F [..X.X#X+Xl.D.^ O 4 4 ; : X X ; 4 4 4 4 4 4 3 < , - O O 4 > > 0 > < < 4 6 < p p p 4 0 4 4 < < : X O O c.m.v.n.n.| Y 0.9XM.M.M.V.C.V.n.F.F.O X O - - O - : ( ( 4 4 0 9 - E ] | w.z.z.z.z.x.g.b.n.S.p X p j.b.g.f.c.f.f.f.f.d.f.f.f.f.5.m.7X7Xm.m.7X7Xm.6X6X7Xm.m.7X7Xm.7Xm.m.m.m.m.m.m.m.x.q.4.0.q.q.0.q.i.6Xc.4.} 4.} 4.x.n.n.v.v.v.m.v.v.d.v.v.8X7.7.q.2.9.i < < 7 < 5 < 7 / Q { ! 3.Q Q Q Q Q Q { { Q Q Q Q Q { / W T E { | | | | #.e.4.4.0.9.9.r.b.a.t.e.e.q.0.q.w.w.w.w.q.q.i.6X6Xm.v.m.rXrX7XrXrX6XeXc.} } 8.} 8.2.2.2.5.2.2.2.2.5.2.5.2.2.2.2.2.2.2.2.2.8.8.8.8.8.9.8.} 2.8.8.8.2.8.8.8.8.2.2.2.2.2.2.8.2.2.2.2.3.2.| 5. . .B.N.B.m.m.pXpXuXuXyXyXyXyXyXpXyXeXpXyXyXpXpXpXpXpXyXeXyXyXuXn.! +.i : p +.+.Q 3.) 8.) 3.) ) ) ) ) ) ) Q Q Q Q Q Q Q Q Q ! Q ! ! 6X6XV.V.V.B.B.B.B.B.B.B.B.B.B.B.B.B.N.N.N.B.{.{.{.{.{.{.{.B.B.m.m.m.G.F.Y 8 R ! ! ! ! / / X IXPXnX= j.h.f.f.c.f.f.M.c.V.uXuXuXtXtXyXyXpXyXwXwXeXeXeXeXeXeXwXeXyXwXwXXXXXXX}.}.yXyXyXtXyXyXyXuXuXuXuXuXuXuXuXuXuXuXuXuXuXoXoXyXyXyXyXyXyXyXyXyXyXyXyXyXuXuXV.h.f.M.m.m.m.B.m.N.N.N.N.N.B.N.N.N.N.N.C.C.C.C.C.C.N.N.N.N.N.N.N.N.N.N.N.N.N.N.N.N.N.N.C.C.M.N.N.N.N.M.M.C.C.B.B.C.C.M.M.B.B.B.B.B.B.B.B.N.B.B.B.B.B.B.B.B.m.m.7X7XrX7XM.@XVXZXAXZXVXZ.  r , 3 < 5 9 < 5 < < < 1 1 1 1 1 < < < < 1 1 1 1 1 1 1 1 1 1 1 1 1 1 1 1 1 1 1 1 1 1 1 1 1 1 1 1 1 1 4 4 < < < 1 9 < 5 9 1 < , 6 4 6 o 3 > 1 G.{.{.{.{.eX",
"w.n.b.@.@.+.| g.c.e.p : > > ; ^ +.+.g.x.c.v.c.x.n.f.f.c.z.n.+.- 6 6 X p s.#.#.y.y.p ^ p < 0 4 < 4 < < 0 - ^ F.0.g.x.g.i.x.i.i.x.x.x.x.w.e.] p %.D.<.+X'.'..X.X[.[.+Xs %.p X > 3 - 9 @.@.< 3 4 3 5 6 ; 4 5 X ^ o./ , 4 0 > 4 0 p 9 4 : i p p < 0 0 > 0 4 X / S.r.M.m.m.6Xn.~ 2 o.V.M.B.6XC.C.V.C.C.j.$.+.@.@.+.@.y./ 9 R 0 4 0 p   @XmXvXO.j.5.z.z.f.c.e.+.@.d O p j.b.f.c.f.f.z.z.z.z.f.z.f.f.f.m.7X7X7X6XrX6X7X6XeX6Xv.m.7Xm.7Xm.m.m.v.m.v.v.v.m.x.4.2.q.q.q.q.2.e.n.c.g.g.e.g.w.x.c.c.v.v.v.m.d.d.7Xv.7X8X7.7.3.i.! E 2 7 9 7 1 1 7 / ! { Q Q Q ) ) ) 3.{ | | Q Q ` Q Q { / W T R 9.| e.b.b.r.0.e.e.e.e.e.e.r.e.r.q.q.0.0.r.e.q.w.w.w.5.w.n.C.B.7X7X7XrX7XrXrXm.6Xn.4.2.9.8.2.5.5.3.7.2.2.} 2.5.q.q.q.2.8.2.2.3.2.9.9.8.8.2.} 8.8.8.2.8.8.8.8.2.2.8.8.2.2.2.2.2.2.2.2.2.2.2.2.3.3.2.2.|  .9XG.wXwXB.B.V.V.}.C.yXyXyXyXyXyXwXyXyXuXuXyXyXpXuXuXwXpX{.iXn.~ / i ; p / { 3.3.3.) ) ) ) ) ) ) Q Q Q Q Q Q Q Q Q Q ! Q Q Q W | n.G.V.wXB.}.N.{.B.B.B.B.B.B.B.B.B.B.N.N.B.B.B.B.{.{.{.{.eX{.B.m.M.r.+.@.R u ! 9.| | +.{ ! E xXnXbXbXbXG.r.x.v.d.f.f.5.tXtX}.XXXXeX{.wXwXyXeXeXeXeXeXeXeXwXwXeXeXeXeXeXeXwXwXwXwXwXwXyXtXXXXXuXXXXXuXuXuXuXuXuXuXuXuXoXyXyXtXyXyXyXuXyXyXyXyXyXyXyXpXyXuXuXXX}.wXB.c.B.B.B.m.N.N.B.B.B.B.B.B.B.B.V.V.C.B.C.C.C.C.N.N.N.N.N.N.N.N.N.N.N.N.N.N.N.N.N.N.N.N.N.N.N.N.N.M.M.M.B.C.N.N.N.N.B.B.B.B.B.B.B.B.B.B.B.V.B.B.N.N.B.B.7X7X7X7XrXh.@XVXVXZXZXVXZ.  5 4 4 4 < < 1 < 1 1 1 1 1 1 1 1 1 1 1 1 1 1 1 1 1 1 1 1 1 1 1 1 1 1 1 1 1 1 1 1 1 1 1 1 1 1 1 1 1 1 1 1 1 1 1 1 1 1 < < 1 1 4 4 4 4 3 3 o 1 C.{.{.eXrXrX",
"c.b.y.y.s.2 O +.n.y.p - > > O , O u j.b.g.e.b.g.b.b.M.c.x.n./ - 4 4 X ^ F.n.M.9Xy.- < 4 4 4 < < < < < < X R t.0.f.z.x.x.b.x.x.b.x.u.x.n.n.e   O.lX#X#X#X#X[.[.#X+XoX  O X , , , O E 0XF.p X , 5 1 1 < 5 , O o.F.y.e : 4 4 0 0 R 0 9 1 p p p < 4 > : 4 < X @.G.M.M.N.m.m.n.s X E C.N.B.6X6X6XC.m.C.C.n.n.F.F.G.G.0X+.- : 4 4 0 d   mXJXVXZ.%.e.6Xx.g.n.+.X - o X u b.n.h.c.c.v.d.z.z.f.z.z.z.f.d.B.6X6X6XB.B.6X6X6X6X6Xv.m.m.m.7X7X6Xm.m.m.v.v.v.m.x.4.2.q.5.q.q.2.x.C.9XC.C.n.C.n.C.n.c.m.v.c.m.v.v.z.c.f.e.3.2.2.| +.i 2 2 < < < < 7 +.Q ! ! Q Q Q ) Q { { { Q Q ) Q Q Q 3./ R T R 9.{ b.n.n.b.r.g.b.b.b.a.e.0.q.2.8.0.8.4.0.w.e.w.w.w.w.x.C.6X6X6X6X6X7XrXrX6XeXuXn.8.{ 8.2.3.2.5.3.q.2.0.} } 0.} } ! | { p.7.2.3.2.2.8.2.2.2.8.8.8.8.8.8.8.8.2.2.8.8.2.2.2.2.2.2.2.2.2.2.2.2.3.3.3.2.| w.iXiXyXyXV.M.M.c.c.h.yXyXyXyXyXyXyXyXyXuXuXyXyXuXuXuXyXpXyXsXb.2 T 7 ; p / { 3.3.3.) ) ) ) ) ) ) Q Q Q Q Q Q Q Q Q Q ! Q Q Q ! 2.F.0XV.V.M.V.M.B.B.B.B.B.B.B.B.B.B.B.B.B.B.{.{.{.{.{.eXeX{.m.B.C.G.+.O , 8 8 ! r.9.r.8.{ 8.! s $ H.PXPXvXE r.x.z.f.c.5.9XtXyXuXXXeX{.{.}.yXeXeXeXyXyXtXtXwXtXtXyXtXeXeXeXeXeXeXwXeXwXyXyXyXuXuXuXuXuXuXuXuXuXuXuXuXoXXXyXyXyXyXyXuXyXyXyXyXyXeXeXeXyXyXyXyXXXyXyX}.m.B.m.m.B.m.B.B.B.B.B.B.B.B.B.V.V.C.C.C.C.C.C.N.N.N.N.N.N.N.N.N.N.N.N.N.N.C.N.N.C.N.N.N.N.N.N.N.M.M.M.B.B.N.N.N.N.B.B.B.B.B.B.B.B.B.B.B.V.V.B.B.N.m.6X6X7Xm.m.m.k.@XVXVXZXZXVXZ.  5 1 4 4 < < 1 < 1 1 1 1 1 1 1 1 1 1 1 1 1 1 1 1 1 1 1 1 1 1 1 1 1 1 1 1 1 1 1 1 1 1 1 1 1 1 1 1 1 1 1 1 1 1 1 1 < 1 4 < < < 4 4 , 3 3 4 + e C.{.{.rXeXrX",
"t.t.y.F.S.7 X @.F.y.p : 6 0 ; ; X ( F.S.a.a.n.t.t.b.t.r.x.n.+.- 5 4 X ^ F.n.M.G.a.X , 6 6 4 5 4 2 u 2 7 8 { t.w.x.x.i.i.x.x.z.z.b.b.e.t.y.e & O.#X#X+X+X+X+X+X+XiXiXe < 5 9 X i 2 Y e.e.u 2 2 u 2 2 2 1 2 2 ^ S.@.u 2 7 < 4 0 T 9 < - p E p , - 9 u p 2 O @.G.M.M.m.m.m.n.~ X E G.wXM.n.9X9Xn.C.c.n.C.C.n.n.b.b.G.#.2 7 5 : < d   bXBXmXA.H.H.@.F.j.F.@.: 4 9 1 R t.e.f.v.c.v.d.z.z.f.z.z.z.u.6.m.B.7XB.B.N.C.M.M.6XM.m.m.m.7X6Xm.m.m.m.m.m.m.m.m.x.4.2.q.4.q.5.4.i.n.n.n.n.n.n.n.n.c.c.n.c.v.m.m.c. .G.D.D.O.] ] o.S.# 6 6 5 9 5 1 8 +.3.! Q Q Q Q Q Q { Q ) ) ) ) Q Q Q 8./ R T R 9.{ a.b.b.b.r.g.c.n.n.b.i.q.q.8.8.q.8.2.0.0.q.0.q.q.0.w.n.M.6XC.6X6X6X6X6X6Xm.6Xx.2.3.9.8.8.2.2.3.2.| 0.....| ] A.S.F.E 2.3.2.3.} 8.2.2.2.2.2.8.8.8.8.8.8.8.2.2.8.8.2.2.2.2.8.8.2.2.2.2.2.2.5.2.3.3.| q.9XG.V.}.V.M.M.M.M.M.tX}.tXyXyXyXyXuXuXuXuXuXyXyXuXuXyXyXuXsXF.8 R 9 : p / 3.3.) ) ) ) ) ) ) ) ) Q { { { Q Q Q Q / Q Q Q ! Q ! { b.n.9XG.n.G.V.V.B.B.B.B.B.B.B.B.B.B.B.B.{.{.{.{.{.{.N.m.m.V.9Xn.F.+.O 1 R R / s.8.8.t.2.{ 9.+.a vXPXKXbXZ.H.r.x.w.x.g.6X6X9X9XV.yXwX}.tXyXeXtXtXtXwXtXtXtXtXtXuXtXtXeXeXeXwXeXwXwXyXyXyXyXyXyXtX}.tXtXyXyXXXyXuXuXtXyXtX}.wXtXwXwXyXyXyXeXeXeXeXyXyXyXyXuXyXuXuX6Xm.m.B.B.B.B.B.B.B.B.B.B.B.B.B.B.B.B.B.B.B.N.N.N.N.N.N.N.C.C.C.N.N.N.N.C.C.M.C.C.C.M.M.N.N.N.N.N.N.C.B.B.B.N.N.N.N.B.B.B.B.B.B.B.B.B.B.B.V.V.B.B.B.m.6XB.m.m.m.m.h.@XVXZXZXZXZXZ.  5 1 < 1 < 1 5 < 1 1 1 1 1 1 1 1 1 1 1 1 1 1 1 1 1 1 1 1 1 1 1 1 1 1 1 1 1 1 1 1 1 1 1 1 1 1 1 1 1 1 1 1 1 1 < < < 1 4 < 4 1 4 4 4 4 3 6 o 1 C.{.eXeXeXeX",
"u s E o.+.1 X p ^ ^ 5 ; > 4 4 4 : , p 7 i u u i u R u u r.n./ X 9 4 X E n.n.x.n.y.- 5 6 > 4 < X / S.s.y.r.e.i.w.x.x.x.i.i.x.z.z.w.b.! - a >.>.+X#X#X<.G [ :.$.t e a , < < < 2 y.n.b.n.n.e.r.t.y.j.y.n.y.a.S.+.u +.r.y.@.i T T T R : - @.S.@.1 - o.@.@.7 O @.G.M.m.m.m.m.C.E X ^ G.C.} ~ ~ ~ ~ ~ ~ | e.b.j.n.M.M.c.b.| +.p X 5 @.f @X$X;XnXIXvX  a r p d - 0 / +.! #.| 5.c.z.z.z.d.z.z.z.z.z.u.w.v.c.c.c.c.c.c.x.0.0.x.M.m.m.m.m.m.m.m.m.v.v.m.m.c.c.4.4.q.5.5.5.4.0.w.r.0.0.w.r.0.q.4.5.c.c.v.n.w.| s jXvXmXOX>.vXIXIXr r g r d ; < i Q ) ) 3.Q Q Q Q Q Q Q ) ) ) Q Q Q Q 3./ R 8 T +.| #.} } 0. .w.g.g.x.x.e.q.i.q.8.q.9.8.8.2.2.2.2.0.2.4.q.0.4.4.4.4.4.4.4.4.4.w.q.2.8.9.9.8.8.8.9.0.#.V.XXoXoXD.nXIXnX@.r.i.2.2.} } 5.2.2.2.2.2.2.8.2.8.8.8.2.2.8.8.8.2.2.2.8.8.2.2.2.2.2.2.3.3.3.2.| | 0.| M.yXXXV.XXXXtXXXM.M.C.tX9XG.tXtXM.M.M.M.M.M.M.M.m.M.M.G.n.2 ^ 0 : i / 8.) ) ) ) ) ) ) ) ) ) Q Q { { ) ) ) Q / / / / ! Q W W +.{ ~ E ~ b.C.V.B.B.B.B.B.B.B.B.V.B.B.B.B.{.eXeX{.{.wX{.m.G.r.2 R i < p E R W Q W { ! 2.| ! r.+.F.H.H.IXKXSX+.0.8.3.} 4.} 4.}  .M.V.tXyXyXyXyXyXyXtXuXuXuXuXuXuXuXtXtXwXyXyXyXyXyXXXXXXXXXyX}.C.M.N.M.M.M.M.V.yXyXtXyXV.M.M.M.m.N.wXyXyXeXeXeXeXyXyXyXyXyXyXuXyXV.h.m.B.B.B.B.B.B.B.B.B.B.B.B.B.B.B.B.B.N.B.N.C.N.N.N.N.N.N.C.C.N.N.N.N.C.M.M.C.C.C.M.N.N.N.N.N.N.N.B.B.B.B.N.N.N.N.B.B.B.B.B.B.B.B.B.B.B.V.V.B.B.B.6Xm.m.B.eXeXm.:.@XVXZXAXZXKXZ.  5 1 1 1 1 1 5 < 1 1 1 1 1 1 1 1 1 1 1 1 1 1 1 1 1 1 1 1 1 1 1 1 1 1 1 1 1 1 1 1 1 1 1 1 1 1 1 1 1 1 1 1 1 1 1 < < < 4 < < 1 4 4 4 4 3 3 o e V.|.{.{.eXeX",
"O O X p E 2 O - - 2 - > 6 > > > 6 4 5 - : O O X - - O 2 s.F./ - 6 4 - ^ F.n.n.n.y.2 4 3 > 6 5 O ^ F.F.F.t.e.5.5.b.b.x.i.x.b.x.x.x.9X/ O 2 H.+X+X#X#XL = D o.o.$ X 2 : 0 4 : 2 F.F.n.b.b.g.b.b.n.n.n.n.n.n.F.E O u } n.0.u ( ^ ( p X - y.H.@.2 O @.y.r.u O @.C.M.C.m.m.6XC.E O E 9X9X} u Y Y Y ~ E | e.c.x.M.M.c.c.n.r.s.p O 0 Z.Z.A.J @XJXLXbX      O : O : ! s.+.{ ~ 5.m.d.v.v.d.v.z.z.z.z.i.u.c.c.M.c.c.c.c.b.} 2.b.6XM.n.C.n.M.m.m.m.v.v.v.v.n.x.4.4.q.5.5.5.4.0.0.0.} 0.0.0.0.4.4.w.n.n.n.n.n.| s xXmXmX$XO.vXSXBX&         o - R +.Q ! 3.3.Q Q Q Q Q Q Q ) ) Q Q Q Q Q Q W 8 Y Q W { ! ! 0. .0.r.w.w.e.e.e.e.4.2.8.9.8.8.2.2.2.9.8.2.2.2.2.2.4.2.2.2.2.2.2.} 4.0.2.8.8.8.2.9.9.r.+.#.G.oX+X+XA.BXKXBXr s ~ 3.5.} } 4.2.2.2.2.2.2.2.2.2.2.8.2.2.2.2.2.2.8.8.8.8.2.2.2.2.2.2.3.3.2.2.3.3.3.~ n.uXuXXXuXuXuXuXn.n.G.uXuX9X9XuXn.n.M.V.N.B.V.C.h.V.9X0XF.u / 0 : T / ` ) ) ) ) 3.3.) ) ) ) { { { { { ) Q Q / Q ! / / / Q ! Q ! ! ! ! n.9XV.B.N.B.N.B.B.B.B.B.B.B.B.eX{.eX{.{.{.N.C.M.iXy.X : < < 8 R Y Y W W 3.2.} } ~ } } ! +.  IXPXIXe s #.0.2.} | 3.| | C.XXXXyXuXuXtXyXyXuXuXuXuXuXuXuXuXuXtXyXyXyXyXoXoXoXuXuXuXuXtXN.c.m.B.V.C.M.V.uXuXtXyX}.M.c.m.m.B.tXtXyXyXyXeXeXeXeXyXyXyXyXuXuXV.h.M.N.N.m.B.{.B.B.{.{.B.B.B.B.B.B.B.B.C.C.C.C.M.M.N.N.N.M.N.N.C.C.M.M.M.M.M.M.M.M.M.C.N.N.N.N.C.N.N.N.N.N.N.N.N.N.B.B.B.B.B.B.B.B.N.B.B.B.V.6XB.6XB.m.c.m.eXeXm.:.@XSXZXZXZXKXZ.  5 1 1 1 1 1 5 < 1 1 1 1 1 1 1 1 1 1 1 1 1 1 1 1 1 1 1 1 1 1 1 1 1 1 1 1 1 1 1 1 1 1 1 1 1 1 1 1 1 1 1 1 1 1 1 1 1 1 4 < < < 4 4 4 4 3 4 3 r G.eXeXeXeXeX",
"o.E o.s.s.+.+.+./ ^ 9 0 0 > 4 4 ; 4 4 : R ^ E E E i - < / @.^ 2 5 4 : R s.e.i.e.s.2 4 4 > 4 i i ^ @.+.t.b.e.5.4.c.n.x.u.i.x.x.x.i.n./ X $ A.>.'.#X#X<.>.>.e a < < < 4 0 > < 2 y.G.e.| | t.n.t.#.y.y.y.+.#.t.#.] } g.M.#.2 i p R d 5 1 / @.^ 1 X +.y.r.2 O @.n.c.M.n.m.m.G.E O ^ G.9X} ~ / W W ! ~ ~ e.x.f.c.x.x.w.e.} 9.i - 4 ( ^ %.J $XnXnXmX@XH.%.R ( R R W { Q +.| w.7Xv.v.d.v.v.z.z.z.v.z.z.c.M.M.c.c.c.x.b.0.9.a.n.b.x.b.x.g.g.c.m.c.c.m.c.n.c.5.4.q.5.5.5.5.q.x.e.0.q.q.0.q.q.q.u.b.c.x.x.i.} ] jXvXvXOXA.@XhX;X;XbXbXbXbXZ.X i / ) ) Q 3.Q Q Q Q Q Q Q Q Q Q Q Q Q Q Q W W W Q ! { { | t.g.c.b.c.g.g.b.n.n.0.2.8.9.8.8.8.q.8.9.9.2.8.q.8.8.8.8.2.2.2.2.2.2.0.q.8.8.8.8.8.8.9.+.E E D.D.oX].L mXZXVXJ.H.H.! q.2.2.4.3.2.3.2.2.2.2.2.2.2.2.2.2.2.2.2.8.8.8.8.8.2.2.2.2.2.} 8.2.2.2.3.3.2.| b.uXG.C.G.G.G.G.b.g.n.9X9XC.G.G.b.g.b.M.m.m.C.M.M.9Xr.s.s.T ( 0 < T / ` ) ) ) 3.3.3.) 3.) ) { { { { { ) ) Q Q Q / / / / / / Q Q ! ! E n.G.M.B.N.N.N.B.B.B.B.B.B.B.eXeXrX{.{.{.B.V.V.t.y.s.7 0 7 8 8 ! ! W Q W { } ~ } } } 0.2.+.E bXnXnX@XG.b.r.w.4.| q.0.#.V.XXXXyXuXV.B.B.V.B.V.V.V.V.G.G.C.n.uXuXuXuXuXoXoXoXuXuXuXuXuXB.m.B.V.wXwXV.V.tXV.C.tXV.M.M.B.B.B.wXB.wXyXyXeXeXyXyXyXyXuXuXuXuX9XC.B.B.N.B.B.{.{.B.{.B.B.B.B.B.B.B.B.B.C.C.C.C.N.M.N.N.N.M.N.N.C.C.N.N.M.M.M.M.M.M.C.C.N.N.N.N.C.C.N.N.N.N.N.N.N.N.B.B.B.B.B.B.B.B.{.N.B.B.B.6X6XB.m.B.B.B.eXeX{.h.@XKXZXZXZXZXZ.  5 1 1 1 1 1 5 < 1 1 1 1 1 1 1 1 1 1 1 1 1 1 1 1 1 1 1 1 1 1 1 1 1 1 1 1 1 1 1 1 1 1 1 1 1 1 1 1 1 1 1 1 1 1 1 1 1 1 4 4 4 < 4 4 4 4 4 6 > 1 M.N.{.{.B.m.",
"XXuXG.G.V.V.9XG.F.y.p : > > 4 4 < 4 4 : ( y.s.@.s.^ - - < : , : 4 0 : 0 / ! { { / 2 5 4 > < T / u - - +.g.g.w.4.n.m.x.w.w.w.w.w.n.F.^ O   o.F ].#X#X+X@XD.. 1 , 5 1 1 < ; , 1 j.F.| X 2 +.y.E - X - O - 2 ] y.n.M.C.M.#.X 4 < < 4 ; X , X < X O @.S.y.2 O @.n.M.b.x.c.n.G.E O ^ G.9X0.{ +.W R R ! ! b.c.f.x.i.0.2.8.} r.R 2 ; 3 X p D D $X$XvXnXnXOXE +./ / 8.3.{ { | u.7Xv.v.d.v.v.v.v.v.v.v.z.f.f.f.f.w.f.e.e.{ 8.0.0.0.#.8.8.#.4.g.n.c.c.M.c.n.x.5.4.q.5.6.5.5.i.6X6Xe.q.q.8.q.q.2.5.w.5.4.0.e.0.0.F.H.H.o.H H t = mXKXFXZXJXJ.. p / ) 3.! 3.Q Q ) ) ) ) Q Q Q Q Q Q Q Q Q Q ` Q { | { { { n.6XC.C.C.n.g.c.G.9Xe.0.q.q.8.8.8.q.8.8.9.8.9.q.2.8.8.8.8.8.8.8.8.8.0.0.0.2.2.8.9.9.s.E - X a D H ;.t mXZXFXAXSXnXY p.7.3.4.3.4.} 2.2.2.2.2.2.2.2.8.8.8.8.8.8.8.8.8.8.8.8.8.8.8.2.} { { { Q 3.3.! n.iX9XC.G.n.g.j. .} e.n.b.e.e.e.r.0.g.c.v.m.C.M.M.j.- X 2 : 0 0 < T / +.) ) ) 3.3.3.3.3.) Q Q { { { Q ) Q Q / Q / / / ! ! ! Q Q Q Q ~ n.6XM.B.B.N.B.B.B.B.B.B.B.6X6XrXrX{.{.B.N.C.F.E X < 0 ( R : 8 / / ! 3.! ! u } 9Xn.~ ~ ~ ! Y E e %.vXvXdXy.b.i.| i.n.j.tXyXtXuXuXV.M.M.m.M.M.M.M.M.M.n.M.j.uXuXuXuXuXuXuXuXoXuXuXuXuXB.m.B.B.B.B.B.N.M.M.h.M.M.c.c.M.M.c.c.f.B.yXyXeXyXuXyXyXyXuXuXuXuXuXtX9X6XB.B.B.{.{.B.B.V.B.B.B.B.B.B.B.B.C.C.N.N.N.N.N.N.N.N.C.C.C.C.N.N.N.N.M.M.M.M.C.C.N.N.N.N.M.C.N.N.C.N.N.N.N.N.B.B.B.B.B.B.B.B.{.{.{.B.B.B.B.N.M.yXyXeXeXeXeX{.@XKXZXZXZXZXZ.  5 1 1 1 < 1 1 < 1 1 1 1 1 1 1 1 1 1 1 1 1 1 1 1 1 1 1 1 1 1 1 1 1 1 1 1 1 1 1 1 1 1 1 1 1 1 1 1 1 1 1 1 1 1 1 1 1 1 4 4 1 1 4 4 4 4 4 6 ; 2 j.k.d.d.d.d.",
"N.B.M.N.wXN.V.V.G.j.u O - - < < < 9 4 : ( @.@.+.s.^ - : < - ; 4 4 0 4 0 ! Q 3.+./ 7 6 4 4 0 R E R - 2 t.n.5.4.4.n.n.x.5.w.u.i.i.t.F.o.. $ O.F '.#X#X+XdXH.. 5 X O X - < 6 , 2 y.F.+.- 1 @.S./ < 0 d 4 p s #.j.j.h.M.C.r.X 6 6 4 > 6 4 5 ; 6 4 X @.S.y.1 O @.n.n.n.n.n.n.9XE O ^ 9X9X0.{ +.R R W E E e.c.w.b.i.8.8.q.9.9.8 - < 0 9 ( o.O.@X$X$XvXmXA.Y 9.! R 8.8.8.Q ~ p.7Xz.v.v.d.v.v.v.v.v.v.z.z.c.z.f.f.x.x.x.8.9.r.r.r.0.9.r.0.0.b.C.n.M.C.n.n.b.q.5.q.q.6.5.2.i.9X9Xw.2.q.q.q.q.5.q.w.0.5.e.0.0.g.j.OXG.@.^ %.A.= nXVXVXVXVXJ.  f / ! ) _ 3.Q Q ) ) ) ) Q | Q Q Q { ! | { Q Q Q { ! ! ! { 9X9XC.C.C.c.e.b.9X6Xe.2.2.2.2.8.9.8.2.8.9.9.9.8.3.0.0.8.8.8.8.5.2.8.8.8.8.2.2.2.2.8.s./ 2 2 @.o.%.>.G nXZXZXZXZXmXu 7.7.7.4.3.4.3.2.2.2.2.2.2.2.2.8.8.8.8.8.8.8.8.#.#.8.8.8.8.8.2.2.{ 2.2.3.3.3.~ n.uX9XG.uXM.h.c. .} e.n.b.g.g.g.0. .f.M.v.m.m.M.M.G.2 9 i 0 0 4 < T / 3.) ) ) ) 3.3.3.3.Q Q Q Q { { { Q Q Q / Q Q Q / Q ! ! Q Q ! Q W n.6XM.B.B.N.N.B.B.B.B.B.B.6X6XrXrX{.m.N.M.n.F./ O 0 ( ( 0 : 7 s./ ! 9.Q ! u r.n.n.8.! 3.! { r.S.H.nXnXvXp F.a.~ r.F.n.uXuXuXiXuXwXm.N.B.B.V.V.V.V.V.C.M.M.uXuXuXuXuXuXuXuXuXuXuXuXuXB.m.eXB.{.wX{.B.C.M.M.M.M.M.M.M.M.c.h.f.B.yXyXeXyXyXyXyXyXuXuXuXuXuXuXtXtX6XB.B.eXeX{.V.V.V.B.B.B.B.B.B.B.B.B.N.N.N.N.N.N.N.N.C.C.C.C.N.N.N.N.N.M.M.N.C.C.N.N.N.N.M.C.N.N.C.M.N.N.N.N.B.B.B.B.B.B.B.B.{.{.{.{.B.B.N.M.h.wXyXeXeXeXrXN.@XKXZXZXZXKXZ.  5 1 1 7 1 < 1 < 1 1 1 1 1 1 1 1 1 1 1 1 1 1 1 1 1 1 1 1 1 1 1 1 1 1 1 1 1 1 1 1 1 1 1 1 1 1 1 1 1 1 1 1 1 1 1 1 1 1 5 1 5 < 4 4 4 4 4 6 ; 1 M.m.m.m.m.m.",
"{.M.N.wXN.B.tXn.E E n.j.n.n.n.E : 0 < 0 4 9 u u 7 R / E R ^ p ; 4 6 4 0 / Q Q 9./ 7 , 0 4 < R ! i 2 - t.9Xx.c.c.M.m.c.v.v.n.n.b.E u o.j.$.:.F ].#X#XO.e d < X ^ S.@.2 , 4 3 - S.F.+.- 9 d d p 4 6 6 > p y.h.M.B.c.M.V.$.O 6 6 4 4 4 4 4 4 3 3 3 9 p p 1 O s.n.e. .} 4.2.r.p O a j.M. .| / 7 2 T E ~ i.x.w.4.8.8.9.8.q.8.9.y./ < > d r y >.L $XmXmX>.~ ! / ~ { 8.3.{ | p.v.v.d.d.d.d.v.v.v.v.v.d.v.v.z.z.z.z.f.i.3.9.r.r.r.r.r.r.r.#.b.9Xg.0.r.q.w.w.q.q.q.5.5.4.5.0.w.w.q.q.q.q.q.p.2.q.q.} n.n.n.n.9Xb.r.F.X X o.>.J $X$X;XmXVXBXBXBXr / ` ) ! Q ! Q ) ) ) Q Q Q Q Q { | | Q Q Q Q ! { Q Q W q.q.4.2.q.4.} w.9Xn.w.2.q.2.5.q.2.8.8.8.8.8.8.8.8.8.4.2.2.2.8.8.8.8.8.8.8.2.2.2.2.8.9.9.s.y.p X o.:.&.+X$X;XZXZXmXe q.6.5.| } 2.3.2.2.2.3.2.2.2.2.8.8.8.8.9.9.9.8.8.8.#.8.8.8.8.8.8.3.{ { 3.3.3.! e.g.#.V.tXG.C.G.M.M.C.C.C.V.C.C.C.C.V.V.rX{.wXB.M.n.2 < 9 0 0 0 < T +.Q Q 3.) 3.3.3.{ 3.3.3.{ { { +.{ Q { { Q Q ` ! Q Q Q ! / Q Q Q ~ n.V.M.B.B.B.B.B.C.B.B.B.B.eXB.{.B.m.c.V.r.$ i 5 4 > 0 q 7 < 9 8 8 R +./ W ~ E ! ! W W W W ~ +.i S.IXIXmX  / Q W Q +.| n.C.M.M.N.N.N.B.B.B.B.B.B.B.V.V.V.V.M.M.M.M.M.M.M.M.M.M.M.M.M.N.B.m.{.{.m.B.B.B.V.V.uXtXV.V.tXtXwXwXwXtXtXtXyXtXtXtXuXM.j.M.j.j.n.9XG.g.5.c.N.N.B.B.C.V.V.C.C.B.B.B.C.V.V.B.B.B.N.B.B.C.M.M.M.M.C.M.N.N.N.M.M.M.N.N.N.N.N.C.N.N.N.N.N.C.C.C.N.N.N.N.N.N.B.B.B.B.B.B.{.{.B.B.B.B.V.iXXXyXyXeXeXeXeXN.@XVXZXZXZXFXZ.  9 5 < < 5 1 1 1 1 1 1 1 1 1 1 1 1 1 1 1 1 1 1 1 1 1 1 1 1 1 1 1 1 1 1 1 1 1 1 1 1 1 1 1 1 1 1 1 1 1 1 1 1 1 < < 1 1 5 5 5 < 4 4 4 4 4 4 > e j.m.m.m.7X7X",
"V.V.V.V.B.V.G.$.. 2 G.uXC.M.n.E - 0 4 0 < < 2 2 - i E W W ^ T , > > ; 0 / / Q 9./ < 4 6 > < R W i 2 : y.9XC.6Xm.n.m.v.v.m.m.n.F.X X %.OXl.:.F ].#X#XH   4 ; , @.S.y.1 , 3 , - y.F.+.- - X O X > 4 6 ; u b.M.m.m.B.M.C.$.O 6 4 4 4 4 4 4 3 3 3 > : - X - O s.F.n.2.{ 2.2.9.u O a b.c. .| / 8 : T / E b.x.5.3.2.2.2.3.2.2.8.r.! - : 6 X 2 O.F $XmXmX>.~ ! Q ~ { 8.3.{ | w.v.v.d.d.v.d.v.v.v.v.v.v.d.d.d.z.z.z.z.i.8.9.r.r.0.#.9.r.9.r.n.9Xg.0.0.#.0.0.4.0.q.q.5.4.4.5.5.q.5.4.5.q.q.q.2.q.q.q.n.9XC.C.9Xb.r.a.: - ^ %.H 1.G $XmXmXBXVXmX  O R ` ) ) Q Q Q ) ) ) Q Q Q Q { | | Q Q Q Q ! 8.8.8.Q q.5.2.2.q.5.3.e.9X6Xq.2.2.2.5.5.2.4.8.8.8.8.8.4.8.4.4.2.2.8.8.0.0.8.8.8.8.2.2.2.2.8.9.9.9.s.i 2 E >.[ O.= $XGXZXmX  E ~ | 2.2.3.3.2.2.2.2.2.2.2.2.8.8.8.8.9.9.9.8.8.#.#.#.8.8.8.8.8.3.{ { { 3.3.! } ..X.M.tXtXtXuXM.V.V.V.V.V.V.V.V.B.B.{.{.{.eXB.V.n.2 4 0 0 0 0 2 u ! 8.{ 3.3.Q 3.{ { ) Q Q { { +.+.Q Q Q Q Q Q Q Q / Q ! ! Q ! Q Q ~ n.V.M.B.B.B.B.B.C.B.B.B.B.B.B.B.B.m.n.9Xy.O 1 4 4 4 0 q q 2 < 2 8 R ! ! ~ Y ~ W ! ~ W ! W 8.W - S.PXLXnX  p T R E Y u x.6Xm.N.B.B.B.m.B.B.B.B.B.B.B.V.V.V.M.M.M.M.N.N.N.N.m.m.m.N.N.B.B.m.{.{.{.m.B.B.B.V.uXuXuXuXuXuXuXuXuXuXuXyXyXuXuXuXuXV.M.n.h.r.j.9X9Xr...h.B.B.B.V.6XC.C.6X9X6XV.V.V.V.V.C.C.B.B.B.B.C.N.N.M.M.C.M.N.N.N.M.M.M.N.N.N.N.N.C.N.N.N.N.N.C.C.C.N.N.N.N.N.N.B.B.B.B.B.B.{.{.B.{.V.B.V.uXV.yXpXyXeXrXrXk.@XZXZXZXZXKXZ.  9 5 < < 5 5 1 1 1 1 1 1 1 1 1 1 1 1 1 1 1 1 1 1 1 1 1 1 1 1 1 1 1 1 1 1 1 1 1 1 1 1 1 1 1 1 1 1 < 1 1 1 1 1 1 1 1 1 4 5 5 < 4 4 4 4 4 4 > e j.m.m.7X7X7X",
"B.tXn.r.g.G.G.y.O e y.y.b.C.9XE u R 4 6 > , < 1 : i W ~ E ! R < 4 4 ; 0 / / W ^ R 5 4 6 ; < R W T 2 : s.e.x.C.v.c.m.v.m.m.x.q.t.< X f j.$.:.&.[.#X@XJ   6 4 1 / @.@.1 , 5 5 2 a.n.0.E E p p p 5 4 0 7 i c.m.m.B.M.r.e.+.X 5 , 3 4 4 3 3 3 4 3 > 6 4 : R i +.t.e.3.3.3.3.9.i O p e.g.} { +.7 2 R R R t.e.q.2.2.2.2.3.3.3.2.q.8.Y E p X 1 %.F $XvXvX%.R ! Q ~ { 2.{ { | w.v.v.d.d.d.d.z.z.c.z.d.d.d.d.d.d.z.z.z.i.2.8.9.0.0.e.b.e.#.r.b.n.b.e.e.r.e.e.0.4.0.q.q.5.4.4.5.5.4.4.5.5.5.5.2.q.q.5.b.n.n.n.m.x.r.r.u Y ^ o.o.D.>.@XmXmXmXVXBX@X@XS.Y ` ) ) Q Q Q Q ) ) Q Q Q Q ! ! Q Q Q Q Q 8.Q / W 8.q.5.7.q.2.3.u.9X6Xq.3.2.5.2.5.4.4.4.8.0.2.2.8.8.4.2.2.2.4.4.8.8.5.5.9.5.2.2.2.2.2.2.2.8.9.! E +.@.o.%.F @XVXmXUXJ.hX+.{ 2.3.3.2.2.2.2.2.2.2.2.2.8.8.8.8.8.8.8.8.8.#.#.#.8.8.8.8.8.2.} { 3.3.3.! 0.g.#.M.V.}.}.wXV.V.V.V.}.}.{.{.{.{.{.{.{.{.{.B.V.n.< 4 0 0 0 T p R 9.r.{ Q ) 3.{ 3.3.{ Q Q { 3.Q Q Q Q Q Q Q Q ! +.+.+.Q Q Q Q Q Q ~ n.V.M.B.B.B.B.B.B.B.B.B.B.B.B.B.B.V.y.S.@.O 6 6 6 4 0 q T T R T R ! / Q ! W ! Q ! ! Q Q W Q ! U F.SXnXBXA.H./ R Q W ~ M.B.N.B.{.{.B.B.B.B.B.B.B.B.V.V.V.V.B.B.B.B.B.m.m.m.B.B.B.N.B.B.B.{.{.{.{.m.B.B.B.B.V.G.XXuXtXtXtXtXuXuXuXyXyXyXyXXXXXV.C.M.j.h.n.9X9Xg.#.c.V.V.V.V.V.V.C.M.M.n.C.9Xn.M.C.C.C.M.C.C.C.C.N.M.N.M.C.C.N.N.N.N.M.N.N.N.M.N.N.N.N.N.N.N.C.C.C.C.C.C.N.N.C.C.B.B.B.B.B.B.{.B.B.V.V.M.C.uXuXuXyXeXeXeXeXN.@XZXZXZXZXZXZ.  6 5 < 1 5 4 1 1 1 1 1 1 1 1 1 1 1 1 1 1 1 1 1 1 1 1 1 1 1 1 1 1 1 1 1 1 1 1 1 1 1 1 1 1 1 1 1 1 < < 1 1 1 1 1 1 1 < < 5 5 < 4 4 4 4 4 4 > u M.B.m.7X7Xm.",
"m.6X#.2 ~ j.C.y.+.@.p 2 #.C.C.| @.@.4 4 4 4 4 4 4 R / ! W ! T < 4 3 : 0 / ! 8 < 0 4 6 6 ; 4 R R i < : E E } M.m.c.c.g.c.x.| Y R 9 O X $ $ [ &.'.#X#XH   6 d 1 i 2 5 - - d ^ E n.b.b.t.F.y.y.@.- < R R ! n.c.m.B.b.| | E - 5 , 4 4 4 4 3 4 4 3 > ; : 2 s.s.+.8.{ 3.3.3.3.9.Y O p #.q.} 9.s.7 X 7 : 8 +.8.2.3.2.2.2.3.3.3.3.5.q.8.#.E , 1 %.D '.%XhXo.Y ! Q ~ { { { | | w.7Xv.v.v.z.v.v.v.c.v.z.z.v.d.z.z.z.z.z.x.0.q.0.} r.9XiXn.} 0.r.e.n.F.n.n.9Xn.w.4.4.q.q.q.5.5.5.5.5.5.5.5.5.5.2.q.q.4.w.0.#.0.4.w.q.t.9.a.y.$ $ >.>.;.L L $X;XmXVXKXhXq 9.) ) Q Q Q Q ) ) ) Q Q Q Q ! Q Q Q Q Q +.R R Y 9.p.6.7.5.2.2.i.9X9Xe.2.q.q.2.2.4.4.4.4.2.2.8.0.0.4.4.2.2.4.4.8.5.5.5.5.5.2.2.5.2.3.2.2.2.2.8.#.+.X $ D F D J h bXKXBXS.! 3.3.3.7.2.2.2.2.2.2.2.2.2.8.8.8.8.8.8.8.8.8.#.8.8.8.8.8.8.2.2.} 3.3.3.! n.tXV.tXV.B.B.{.V.V.V.{.{.}.{.{.}.{.{.{.{.{.{.B.M.n.1 4 4 < < ^ / +.n.n.{ ! Q 3.3.3.3.{ Q { 3.3.8.` Q Q ) ) ) Q r.r.+.s.9.9.Q Q Q Q ~ n.V.m.B.B.B.B.B.B.B.B.{.{.rXB.m.m.j.e O O : 4 4 0 > < : ^ +.9.+.+.9.9.+.3.3.8.8.8.9.9.Q ~ W 9./ / @.r nXPXSXH.W Q W ~ M.c.m.B.{.{.B.B.B.B.B.B.B.V.V.V.V.V.B.B.B.B.B.7X6X6XB.B.B.B.B.B.{.{.{.{.m.N.N.N.N.C.M.V.G.uXuXuXuXuXtXuXuXuXuXuXoXXXXXG.G.G.G.C.G.9XG.G.C.V.V.V.V.G.C.9X9Xh. .#.n.G.G.C.V.G.V.V.V.C.C.N.M.M.M.M.N.N.N.N.N.N.N.N.N.N.N.N.N.N.N.N.N.N.C.C.C.C.C.C.B.N.B.C.B.B.B.B.B.B.B.B.B.}.V.C.G.uXXXyX}.eXeXeXeXl.@XZXZXZXZXKXZ.  5 1 2 2 < < < 1 1 1 1 1 1 1 1 1 1 1 1 1 1 1 1 1 1 1 1 1 1 1 1 1 1 1 1 1 1 1 1 1 1 1 1 1 1 1 1 1 1 1 1 1 1 < < 1 1 1 < < 5 < 4 4 4 4 4 4 > u M.B.7X7X7Xm.",
"9XiXy.2 R n.V.g.F.F.E X #.C.c.4.] E X : > 4 4 > > p ( / / ^ T < 4 < , i / / 7 2 4 4 6 6 ; 4 R R i < 2 E ~ #.n.C.n.n.n.n.n.+.Y ( 4 4 5 X . $.<.].kX+XH   , p 1 1 < 4 < X R ^ E e.c.n.n.G.s.s.@.- < R R / n.b.n.n.b.E ! E 2 9 4 4 4 4 4 4 4 4 4 ; : : : s.s.{ 2.3.3.3.3.3.9.T X i 0.e.r.t.s.i - < 8 8 +.{ 2.3.2.2.3.3.2.4.2.2.2.2.0.E X 2 $.S <.$X@XD Y ! ! W | | { { | q.v.v.v.v.z.v.b.x.x.x.x.x.z.z.z.z.z.z.x.x.3.3.} |  .V.uXb.4.e.0.0.n.9X9X9X9Xn.w.4.4.5.5.5.5.5.5.5.5.5.5.5.5.5.5.w.q.q.w.0.q.i.5.p.4.4.q.t.+.. X +.j.>.<.+X$XvX;XBXVXhX- ! ) ) ) Q ) ) ) ) ) Q Q Q Q Q Q Q Q ) Q 8.R Y Y 9.9.5.2.2.2.2.i.9Xn.e.2.9.q.2.2.4.2.2.8.8.8.8.8.8.2.2.2.2.4.5.5.5.5.2.2.7.5.2.2.2.3.3.2.3.3.2.2.! X # ] :.[ >.= BXZXBXS.E 2.5.7.7.3.2.3.2.2.2.2.2.8.8.8.8.2.8.8.8.8.8.8.8.8.8.2.2.2.3.} } 3.3.3.! g.tXV.tXV.N.{.}.B.{.{.{.{.}.{.{.wX{.{.{.{.{.{.B.M.n.1 > ; : : R / +.b.n.8.Q Q ) ) 3.{ Q Q { Q Q ` ` { Q ) ) ) Q u E s +.W s.Q Q Q Q ~ n.V.m.B.B.B.B.B.B.B.{.{.{.B.B.B.6XG.u - 4 < 4 4 0 4 4 q E 9.9.9.9.9.Q Q 2.2.3.{ Q 8.9.Q ~ W 9.q.9.s.. bXLXPXH.R ` W ~ C.wXB.{.{.{.B.m.B.B.B.B.B.V.V.V.V.V.V.B.B.B.B.B.6X6X6XB.B.B.B.B.{.{.m.{.m.m.N.N.N.N.M.M.G.uX9XuXuX9XG.uXuXuXuXuXuXXXuXoXuXuXG.G.G.uXG.G.G.9XV.V.G.G.G.9X9Xg...$.n.G.0XG.G.G.V.V.V.V.M.M.M.M.M.M.M.M.N.N.N.N.N.N.N.N.N.N.N.N.C.C.C.N.C.N.C.C.N.C.N.N.B.B.B.B.N.N.B.B.B.V.V.tXV.M.9XiXuXpXpXyXeXwXeXl.vXFXZXVXZXJXZ.  6 4 1 2 < 4 < 5 1 1 1 1 1 1 1 1 1 1 1 1 1 1 1 1 1 1 1 1 1 1 1 1 1 1 1 1 1 1 1 1 1 1 1 1 1 1 1 1 1 1 1 1 1 < < 5 5 1 < < 5 < 4 4 4 4 4 4 > 7 M.m.7X7X7X7X",
"{ r./ 8 E n.C.0.Y +.R 8 #.C.c.f.n.t.i p 0 4 4 > > 0 0 0 0 0 0 < 4 5 < 9 / / i < 4 3 6 4 ; 5 R R i 2 2 R R { 0.} E ~ E +.+.R 7 T : ; 6 < $ %.>.<.<.l.a . 5 p p 5 < 3 4 O ^ r.r.C.m.n.M.n.E p R 1 < R R R ! E t.C.n.! / R < 0 4 4 4 4 < < 4 4 > : R / W +.9.3.9.3.3.3.3.3.9.i O 9 ! E R R R 8 - ^ / ! r.8.8.2.2.2.2.2.2.2.9.5.3.2.0.~ X 2 $.S '.%XlXo.~ ! W W | 3.{ { ! 2.q.4.4.2.q.x.i.2.#.0.q.e.x.z.z.z.z.g.x.x.4.4.c.V.M.tXuXM.} e.q.0.e.i.e.b.x.e.q.4.5.5.5.4.5.5.5.5.5.5.5.5.q.5.5.q.q.q.w.q.0.q.5.p.w.5.p.u.0.| +.s s ] [ ;.;.A.$XmXnX@Xu 8._ _ _ ) ) ) ) ) ) ) ) ) ) Q Q Q Q Q Q 8.W R Y 9.4.4.5.5.5.2.q.i.i.0.2.8.9.8.2.2.2.2.8.8.8.8.8.4.2.2.2.2.5.5.5.5.2.2.7.7.7.2.7.7.3.4.4.3.3.3.2.! , , ] [ [ <.= mXVXBXA.! 2.7.7.7.3.3.3.3.2.2.2.2.2.2.8.8.2.2.2.8.8.8.8.8.8.8.2.2.2.3.2.2.3.3.3.~ e.V.M.V.B.}.}.|.{.{.{.{.}.}.}.}.}.{.{.{.B.{.{.m.B.n.< > 9 0 7 ^ ! ! 9.r.3.3.) Q Q Q Q Q Q Q Q W W Q Q Q Q ) Q ~ j.xXzX0XY / ! Q ! Q ~ c.V.N.B.B.B.B.B.B.B.{.B.{.B.rXB.N.G.~ 7 d 0 0 4 : 9 ( R / { { / / ! Y ~ | } | W W { 8.{ { 9.Q ~ W a.2 bXKXKXA.T ` ! ~ M.m.m.m.{.B.B.B.B.B.B.B.B.V.V.V.V.V.B.B.B.B.B.B.B.B.B.B.N.N.B.B.m.{.{.B.m.m.N.N.N.N.M.M.C.G.C.G.C.j.j.M.C.V.C.C.C.C.G.n.j.j.j.j.F.9XG.g.$.j.C.C.C.C.G.g.g.n.n.n.F.G.j.e.r.g.g.j.M.M.M.M.M.M.M.M.M.M.N.N.N.N.N.N.N.N.N.N.C.C.C.C.C.N.N.N.C.C.C.C.N.N.C.B.B.B.N.N.B.B.B.V.V.V.M.$.M.V.C.N.m.m.B.{.{.l.@XKXFXUXvXmXo.X 4 < 1 1 < < < 5 1 1 1 1 1 1 1 1 1 1 1 1 1 1 1 1 1 1 1 1 1 1 1 1 1 1 1 1 1 1 1 1 1 1 1 1 1 1 1 1 1 < < 1 1 < 5 p 9 5 4 5 5 5 4 4 4 4 4 4 > 7 j.m.m.7Xv.d.",
"8 Y T 8 E n.n.#.X 2 i u +.C.c.M.6Xn.i T 0 : 5 4 4 4 < : ; ; 4 4 4 1 2 8 E E i < 4 3 4 4 , 1 T R i < : R R ~ ~ Y 2 - - i p < : 4 0 ; > X . $.>.;.S [ r # p ^ p p 6 4 0 O +.n.n.C.m.m.M.j.u X < < < R R u 2 X #.C.x.X.+.R ; 4 < , > 4 4 < 4 3 > : / s.9.{ 8.8.8.3.3.3.2.2.9.i X 4 8 2 - - : - - ^ s.8.t.2.2.2.2.3.8.8.3.3.9.9.2.5.q.~ X 1 $.S <.@XlX] ! Q W ~ 3.8.{ 3.! 3.3.| | | 2.a.r.! W / +.0.i.e.w.w.f.f.g.g.| } C.sXyX}.tXM.} q.q.8.8.4.4.4.q.5.4.4.5.6.4.4.4.4.4.5.5.5.4.4.q.5.5.5.4.5.q.4.0.q.q.u.w.5.6.6.2.e.y.2   y >.;.;.F A.nXnX@XE 9._ _ _ _ ) ) ) ) ) ) ) ) ) Q Q Q Q ! ! / W R Y 8.5.5.5.7.q.2.3.2.8.8.2.8.9.9.2.2.8.8.8.8.8.8.8.2.2.2.5.5.5.5.5.5.2.2.2.5.7.5.5.7.4.7.7.7.7.2.7.{ 5 # ] F S ;.y mXVXBXS.W 3.3.3.7.3.3.3.3.7.7.7.3.5.5.7.7.7.7.2.2.8.8.8.8.2.2.2.2.2.3.2.3.3.3.3.~ g.V.M.V.{.}.}.{.{.{.{.{.}.}.}.}.{.{.{.{.B.{.{.B.B.n.1 > 0 R i / +.! | ! ! ) ) ) Q Q Q ! / +.! ~ ~ Q { ! ! ) ! Y >.vXbXdX2 W ` Q ! ! ~ c.6XB.B.B.B.B.B.B.{.{.B.B.B.eXm.m.C.~ u T R R 9 2 7 / / +.8.8.9.9.! Y Y Q 8.! Y ~ Q 9.8.9.+.! W _ p.- bXGXKXA.T ` R E M.7XB.m.B.m.m.m.B.B.B.B.B.B.B.B.B.B.B.B.B.N.N.N.N.N.B.N.N.N.B.m.B.B.B.B.m.m.B.B.N.B.V.C.C.C.C.G.n.$...g.n.M.j.j.n.n.n.h.r.e.r.r.n.0XG.$...g.C.n.n.G.C.$...M.G.G.G.G.r.} } 0.r.g.M.M.C.M.M.M.N.N.N.N.N.N.C.C.N.N.N.N.C.C.C.C.C.C.C.C.B.B.B.B.B.B.B.B.C.B.B.B.N.B.B.B.C.V.M.V.h.X.h.c.c.c.f.v.f.f...D @XKXVXvX'.OXe X 5 5 1 1 < < 1 1 1 1 1 1 1 1 1 1 1 1 1 1 1 1 1 1 1 1 1 1 1 1 1 1 1 1 1 1 1 1 1 1 1 1 1 1 1 1 1 1 1 < < 1 1 < 9 p p 9 5 5 5 5 4 4 4 4 4 4 > 1 h.m.d.d.d.d.",
"W Y R T ~ t.n.#.E / s./ r.C.r.C.6Xc.u T T 7 9 < 4 > 4 4 6 4 3 4 < 7 7 i / +.R 0 9 4 4 4 < < T E i < 2 ( R W W ! 8 2 7 R R 5 > 4 4 3 4 , $ >.>.[ :.$.p X 1 p p 5 , ; 9 X #.n.n.b.b.n.b.t.i : 0 4 : p R i 1 X @.F.r.~ / T ; 4 4 4 4 4 4 4 4 3 > : E +.2.{ 3.3.3.8.3.2.2.8.9.i - 1 E E R T R i 7 / 9.{ q.3.2.9.9.2.2.q.9.9.9.9.{ 8.9.R X e $.S l.aXgX] | ! W W ` 9.) 9.) 9.9.3.8.8.9.9Xa./ ! 9.9.9.i.e.e.e.e.e.g.g.} } M.tXB.{.wXm.2.q.q.q.q.q.q.q.q.q.q.5.5.5.5.5.5.5.5.5.6.6.5.4.4.2.6.6.6.q.q.5.q.4.q.q.q.q.p.p.u.2.r.u 2 a >.>.:.;.<.vXmXdX$.e._ _ _ ) ) ) ) ) ) ) ) ) _ _ ) ) ) ) ) / R Y Y q.5.5.2.7.q.q.2.8.2.8.8.9.9.q.5.2.8.8.9.8.4.4.8.2.2.2.5.5.7.7.7.5.5.2.7.5.7.7.7.7.5.5.3.7.3.2.5.8.9 X o.[ S ;.D mXVXUXS.! 4.7.7.3.9.7.7.7.7.7.9.7.9.7.7.7.7.7.2.2.8.9.2.2.2.2.2.2.2.3.2.3.3.3.3.~ g.V.M.wX{.{.}.}.{.{.{.V.V.}.{.{.{.{.{.{.{.{.{.B.B.n.1 ; 0 i 7 / { | { Q Q 3.) 3.) Q Q Q +.9.! Y ~ { +.{ { 8.Q Y F.vXvXiX8 9.` W Q Q ~ c.6XB.B.B.B.B.B.B.{.B.{.B.{.B.m.eX6X~ 8 0 9 9 9 2 7 ^ R { +.{ +.9.! Y Y +.9.{ ~ W Q 8.+.8.9.! ~ ) 8X: bXKXSXJ.@.s.^ E n.m.B.m.B.m.m.m.B.B.B.B.B.B.B.B.B.B.B.B.N.N.N.N.N.N.N.N.N.N.B.B.B.m.B.B.m.m.B.B.N.B.V.M.n.n.n.G.n.$. .g.C.G.C.C.C.C.C.j.j.n.j.g.n.uXG.j.h.M.V.V.V.G.G.h.r.n.G.F.G.G.j.r.j.n.n.M.V.M.C.C.N.N.N.N.N.B.N.N.N.C.N.N.N.N.C.C.C.C.C.C.C.C.B.B.B.B.B.B.B.B.C.C.B.B.B.B.B.B.C.V.V.V.h...M.V.m.B.B.m.v.B.jXzXvXSXSXmX$XlXs - 4 5 < 1 1 < < 1 1 1 1 1 1 1 1 1 1 1 1 1 1 1 1 1 1 1 1 1 1 1 1 1 1 1 1 1 1 1 1 1 1 1 1 1 1 1 1 1 5 1 1 1 < < 9 p p 9 5 5 5 5 4 4 4 4 4 4 > 1 j.m.v.v.d.d.",
"R R Y R W ~ 8 9.F.n.F.F.b.s u e.9Xx.Y R W R E 2 , 4 6 6 6 6 3 4 2 R ! ! { { ! / / 1 , 4 < 9 T T 0 2 : E Y ~ ! R 8 2 < , < 4 4 4 4 ; 4 X $ $.:.[ [ $.r 5 < r p 1 2 1 +.+.q.n.b.8 u u u u 8 q 5 4 X R ( R < < X , 2 8 8 8 4 3 , < 4 3 4 4 > 3 4 : R 8.3.2.9.3.8.8.8.3.2.2.9.Y O R s.s.9.2.8.9.9.9.q.0.4.2.5.8.8.9.9.{ 9.s.R - 8 7 2 2 # e %.$.O.[ [ $.b.r./ / s.s.s.s.s.s.s.s.9.s./ a.Q / / Q Q ! ! ~ Q ! ~ i.e.w.V.C.V.wXwXeXeXm.2.q.q.q.q.q.q.q.q.5.5.5.5.q.q.5.5.6.4.3.6.6.5.u.u.6.6.u.p.q.q.w.5.w.q.q.q.q.q.q.5.q.r.u 1 5 5 e D O.D F G O.l.r.Q 3.) ) ` ` ` 9.9.Q ) 7.7._ 3.! ) ) Q / R T R q.q.5.6.5.2.2.0.8.2.8.2.8.2.2.2.2.8.8.8.2.4.4.9.9.w.| q.7.6.5.5.q.p.p.p.6.7.7.q.p.7.6.7.5.q.2.q.9.9 X O.[ F >.= mXAXUXS./ a.p.p.s.s.8X8X8X8Xp.p.p.9.p.7.p.7.2.3.q.0.2.2.2.2.} 2.8.2.3.{ 3.3.3.3.| g.G.M.V.{.{.{.{.{.{.{.}.}.}.}.{.{.{.{.{.{.{.B.B.C.n.< < 0 i T ! { { 3.3.3.! ! Q Q Q Q Q +.+.Q R Y +.b.r.t.y.9.Q { | E E ! ! / Q Q ! ~ b.V.B.V.B.B.B.6X6X{.{.{.{.{.{.{.{.6XE 8 0 4 3 4 , 7 T Y ! 9.! Y Y Q Q Q 9.i.{ W W W W W 8.+.! ~ _ p.3.>.H.$XSXKXbXO / 6Xm.B.m.B.B.B.m.B.B.B.B.B.B.B.B.B.B.B.C.C.B.B.B.B.B.B.B.B.N.N.N.N.N.{.{.B.B.B.N.N.B.V.M.h.g.g.c.h.g.h.h.f.h.n.V.G.V.V.V.V.V.C.C.B.M.V.V.V.B.B.B.V.V.V.V.V.V.V.V.V.V.V.C.V.C.V.V.C.C.C.N.N.C.C.C.C.B.N.N.B.B.B.B.C.C.B.B.B.B.B.B.B.B.V.V.B.B.B.B.N.N.B.B.B.B.B.B.V.V.B.V.V.V.B.N.N.N.m.m.m.m.rX..nXKXVX@X$X$X#XlXs X 1 < < < 1 1 1 1 1 1 1 1 1 1 1 1 1 1 1 1 1 1 1 1 1 1 1 1 1 1 1 1 1 1 1 1 1 1 1 1 1 1 1 1 1 1 1 1 1 1 1 1 1 1 1 1 5 5 5 5 1 5 4 4 4 < 4 4 > i C.B.eXeXrXrX",
"R R Y ~ Y Y 8 9.0Xn.n.n.e.~ ! a.9Xb.~ R ! R E 2 2 , > > > 3 3 < 1 R E ! { { Q / / < - 4 4 < T R 0 2 : R ~ W W W 8 < < 4 4 4 4 < 4 3 4 X $ O.:.[ :.$.r 5 1 r p 2 1 7 +.9.5.i.t.Y 8 u u u 8 < < : - p R R < < 6 6 < 9 8 < > 3 4 4 < < 4 4 3 4 4 - / 9.8.2.9.3.8.9.9.+.8.8.9.u X u 9.8.2.7.2.5.5.8.+.@.+.+.s.+./ +./ / @.@.p < 9 < 5 1 , r @.] ] [ [ [ ..s $ . X - X X - O - X X X R E Q ) ) ) ) 3.) Q ) ) ~ q.b.g.V.M.}.yXwXyXyX6X4.q.q.q.q.q.q.q.q.5.5.5.q.q.q.q.7.5.6.6.6.6.6.4.| | +.@.9.q.r.9.r.y.s.@.s.s.s.s.y.9.s.i , 6 0 , o.O.] :.D [ k.:.~ R Y 8 : ; X X 1 T Y ~ _ _ _ _ ) ) W Q / R Y 9.9.7.7.4.5.5.8.2.2.2.2.2.2.8.2.2.8.8.9.5.4.4.8.8.} } 7.3.5.| E f ( ( / ! / E ^ d +.+.+.^ p f ^ p < 2 o.F S :.y mXAX;XJ . X O X - - - - - - - X X 8 ! W 7.2.5.q.3.2.4.5.2.8.9.2.{ 2.3.{ 3.3.3.3.| g.G.M.V.{.{.{.{.{.{.{.}.}.}.}.{.{.{.{.{.{.{.B.B.C.n.1 < 9 i T ! Q Q Q ) Q Q ! ! Q Q Q Q / +./ W E 9.a.#.r.9.9.Q 9.9.+.+.+.! Q Q Q Q ~ b.V.C.V.B.B.6X6XeX{.{.{.{.{.{.B.V.6XE 8 0 > > 4 , 9 T Y ~ / Q Y Y Q ! ! 2.e.3.W ! Q ! ! 8.9.Q ~ W 7.{ j.OXA.nXJXnXX E n.B.B.m.B.B.B.m.N.N.B.B.B.B.C.C.B.B.N.C.C.C.B.B.B.B.B.B.B.N.N.N.B.N.{.{.B.B.B.N.N.B.M.h.r.h.h.h.f.h.f.h.f.h.M.C.V.V.B.C.B.C.N.N.N.N.B.B.B.B.B.B.B.B.V.V.V.V.V.V.V.V.N.N.N.N.N.C.C.C.N.N.C.C.C.C.C.B.B.B.B.B.B.B.B.B.B.B.B.B.B.B.B.B.V.V.B.B.B.B.N.N.B.B.B.B.B.B.V.V.B.B.V.B.B.m.N.N.m.m.m.m.rX..nXFXVX$X$X#X#XlXs - 1 1 < < 1 1 1 1 1 1 1 1 1 1 1 1 1 1 1 1 1 1 1 1 1 1 1 1 1 1 1 1 1 1 1 1 1 1 1 1 1 1 1 1 1 1 1 1 1 1 1 1 1 1 1 1 5 5 1 1 1 4 4 4 4 < 6 4 > i C.B.{.{.{.{.",
"R Y R W R R Y ! +.! e.n.r.~ ! s.r.+.8 8 W W E u p 9 < 3 6 4 3 4 , 5 7 i ! ! R T 0 < , 9 3 4 9 9 9 9 < R ! ! W ! 8 < < 4 4 3 4 < < , 5 , $ o.O.] [ O.r , r p p 5 2 7 / +.| | Q R W 8.+.! T 8 8 0 < 4 0 9 - 3 > > 5 i T 7 , 4 0 U 0 0 0 9 4 4 < - ! 9.3.3.8.3.Q 8.R i ! s.s.Q R { 9.2.3.7.2.2.2.+.( b b b ' b b b b ' ' @.( d ( 4 < 0 < 7 u e O.l.l.oXOXhXbXmXmXUXUXUXUXmXUXUXUXnXH.r 9.3.3.3.) 3.W ) W ) Q q.x.5.f.5.M.}.|.}.wXc.4.5.q.q.q.q.q.q.5.5.5.5.q.q.q.q.q.0.q.q.0.0.5.0.%.J.^.J.%.@.s.@.Z.Z.Z.Z.Z.Z.Z.Z.@.p ( 0 ; 4 p 2 o.O.[ ..F l.+XOX+.p H.UXbXUXUXUXJ.;XS./ 3.7.3.9.) 9.) ) Y Y Y s.q.5.2.2.5.4.2.2.2.4.4.4.2.2.2.2.2.9.7.5.4.4.9.8. .5.7.7.9.Z.;X;X:X;X;XI P Q.~.~.P P Q.^.^.^.bX^.@ , o.[ [ >.= mXAXAXmXmXUXUXUXUXUXUXUXUXUXUXUXBXnXhX+.s.q.2.q.3.2.2.7.2.2.2.q.p.8.3.{ { 3.3.3.! g.V.M.V.{.{.{.{.{.{.{.}.V.V.}.{.{.{.{.{.{.{.B.N.C.n.1 < 9 i T Q 3.3.) ) 3.) Q Q ) 3.{ Q Q { Q ! ! +.9.+.9.+.8.Q Q 8.9.8.Q ! Q ! Q ! ~ c.V.B.B.B.B.B.6XrX{.{.{.{.rX{.{.{.9XE 8 0 4 4 5 < i / W Q Q ) ! W Q ! ! 8.q.{ W W Q W W 3.8.! ~ ! 3.~ $.G.>.hXmXbX- / C.m.B.m.B.B.B.m.N.B.B.B.B.B.C.C.B.B.N.N.C.C.B.B.B.B.B.B.N.N.N.N.C.N.B.B.B.B.B.B.B.B.}.V.M.M.M.M.M.M.M.C.M.M.V.V.V.V.B.B.B.N.N.N.N.N.B.B.B.B.B.B.B.B.B.V.B.V.V.V.B.B.N.N.N.B.C.C.C.C.N.C.C.N.N.N.B.B.B.B.B.B.V.B.B.B.B.B.B.B.B.B.V.V.V.V.B.B.B.B.N.N.B.B.B.N.B.B.B.B.N.B.B.B.m.m.N.{.{.m.m.m.rX[ nXZXVX@X%X#X#XlXa X < < < 1 < < 4 1 1 1 1 1 1 1 1 1 1 1 1 1 1 1 1 1 1 1 1 1 1 1 1 1 1 1 1 1 1 1 1 1 1 1 1 1 1 1 1 1 1 1 1 1 1 1 1 1 1 5 1 1 5 4 4 4 4 < 4 4 > i C.B.B.B.m.m.",
"R Y W R Y W Y Y - 2 r.9Xr.u R R E E : : R W ! E / u 2 , , 3 > > 3 , : 7 ^ / 8 : q 0 , +   & @ + > 3 9 T R R R ^ 9 ; + @ @ @ @ @ @ o @ o # 2 $ e >.>.r . 6 d 6 6 4 6 ( ( f p p ( p ^ @.f + O : < < ; : 4 , 0 6 4 4 R E i < 9 T R R T T 9 < 4 4 - W s.s.9.s.s.9.9.- O Y 9.9.9.9.q.9.5.8.9.9.9.+.@.g v b b b x x c c v x b b g g > @ 6 ; > .   Z.@X<.+X$X;XZXCXNXMXMXCXCXMXMXNXMXFXUX& f E R E R Y Q Q W W ! 9.q.5.5.4.M.yXXXyXuX6X4.5.5.5.6.6.6.q.5.5.5.5.q.q.q.q.e.8.2.9.+.o.+.$.o.;X<X^.I @.Z.Z.' ' b v v v b ' g @ > 3 3 4 9 2 o.O...] F +X$X@XH & ;XDXNX2XNX4X<XUXJ.3 u Y 8 u 8 R Y ) Y Y R +.9.q.2.2.2.2.2.8.2.4.4.2.2.2.2.2.8.9.7.2.4.0.8.8.} 2.9.y.^ Z.<X<X<X<X<XP P !.<X:XI.P !./.~./.<X~.& % H H O.O.= bX4X4XMXCXCXCXNXNXNXMXMXNXNXNXMXCXDX;X$ E +.! 8.q.2.2.7.q.2.{ 3.3.8.3.3.3.3.8.3.! f.V.M.V.V.{.{.{.{.{.{.V.V.V.}.{.{.{.{.{.{.{.m.N.C.n.1 ; 9 i T Q Q ) ) ) ) ) ) Q Q ) 3.Q Q { Q Q ! ! W W Q ~ W ~ W W Q Q ! Q Q Q Q Q ~ c.V.B.{.{.B.rXrXrX{.rXeXeXrX{.{.{.9XE 8 0 4 4 4 , i / Q Q Q 3.) ) ) Q { 9.i.8.! ! Q Q Q 3.! ! ! ! _ ~ r.oXD.>.A.H.O E C.B.B.m.B.B.B.m.N.N.B.B.B.B.C.C.B.B.N.N.B.B.B.B.B.N.B.B.N.N.N.N.C.N.B.B.B.B.B.B.{.B.wXV.V.V.V.C.C.C.B.V.V.B.V.V.B.B.N.N.N.N.N.N.B.B.B.B.B.B.B.B.B.B.B.V.B.B.B.B.B.B.B.N.N.B.B.C.C.C.C.N.C.N.B.B.B.B.B.B.B.V.B.B.B.B.B.B.B.B.B.B.V.V.V.V.B.B.B.B.N.N.C.B.B.N.N.N.B.B.N.{.B.B.m.m.{.{.{.{.m.m.rX..nXZXVX@X%X#X#XlXa - < < < 1 < < 4 1 5 1 1 1 1 1 1 1 1 1 1 1 1 1 1 1 1 1 1 1 1 1 1 1 1 1 1 1 1 1 1 1 1 1 1 1 1 1 1 1 1 1 1 1 1 1 1 1 5 5 1 1 4 5 4 4 < < 4 6 > r C.B.B.m.m.m.",
"W Y ~ W W ~ R Y u u y.F.s.W / E ! W 8 8 R W ~ E ! i 7 1 < < 3 3 3 3 ; 9 ^ ( 0 : : 4 & w x * * * g @ w d d ( ( ( 6 @ * w * * * * * h * * g 6 2 a %.o.w @ w w w w * * b b b x x V ' P P P A v b o 4 0 ; 4 , 5 : < < R E i 2 1 0 0 p 0 0 9 3 4 4 - E s.s.E / +./ / u 8 W s.9.3.2.3.3.8.+.@.@.@.@.@.b v b b b x c c c c z c c z c c v v * w x * J.;X$X$X;X;XAXNXNXNXNXNX2XNXNX3XNXNX;X& I I I Z.Z.A.+.Y 9.8.! q.p.p.p.5.c.V.C.V.tXM.4.6.6.5.5.5.5.5.5.q.4.q.q.q.6.6.4.q.4.+.Z.J.Z.Z.b ^.~.I.v ' Z.' ' V V V V M M V v * w w 6 6 5 1 %.%.%.%.y A.$X$XI A ;XAX4X2X2X,X<X<X^.A I J.J.J.J.H.R Q Y 8 R y.Q 8.8.2.2.2.2.q.2.2.2.2.2.2.2.2.8.8.2.4. .4.4.4.$.@.( @.b P :X/./.:X;XP P ^.:X~.P V Q.~.U././.~.* x Z.H H Z.h ;X4X4XNXNXAXNXNXNX2X2XNX3X2X2X2X2XAX;Xh Z.Z.%.%.~ 0.3.2.2.2.0.0.2.8.3.8.8.3.8.3.! g.}.M.{.B.{.{.{.{.V.{.V.V.V.}.{.{.{.{.{.{.{.m.N.C.n.1 ; 0 i T / ! ) ) ) ) ) 3.3.Q ) Q Q Q Q { { Q Q ! ! Q W +.#.#.! { Q ! / Q ! Q Q ~ c.V.B.{.{.{.{.{.{.rXeXeXeXeXeX{.wX9X~ 8 0 4 3 5 < T / ! ! Q ) ) ) ) ) 3.3.9.3.Q ! ) Q Q Q Q Q Q ! W ~ 0.G.9XOX@XhXe E c.N.B.B.B.B.B.m.N.N.B.B.B.B.B.B.B.B.N.N.N.N.N.N.N.N.B.B.B.B.B.B.C.C.B.B.B.B.B.B.{.{.B.B.B.B.B.N.M.N.M.B.B.B.{.{.{.{.B.{.N.N.N.N.m.B.B.m.m.m.B.B.B.{.{.{.B.B.B.B.B.B.B.B.B.B.B.B.B.C.B.B.B.N.B.B.B.B.B.B.B.B.B.B.B.B.B.B.B.B.B.B.V.V.V.V.B.B.B.N.N.N.C.N.B.N.N.N.N.N.N.{.B.B.m.m.{.{.m.m.m.m.rX..nXZXVX@X%X#X#XfXs X < < 1 1 < < 4 1 5 1 1 1 1 1 1 1 1 1 1 1 1 1 1 1 1 1 1 1 1 1 1 1 1 1 1 1 1 1 1 1 1 1 1 1 1 1 1 1 1 1 1 1 1 1 1 1 5 5 1 1 4 4 4 4 4 < 4 4 > r M.B.B.m.m.m.",
"R Y Q 9.9.W W W ! Y E ! W R R R ! W R R ! ! R ~ E E E R 9 < 4 6 > > ; 4 9 9 < < 6 @ @ ^.;X^.Q.^.P * w g g g g g x x V Q.Q.Q.Q.Q.Q.^.P v b w > r r % ' J.' x b ' M V Q.Q.^.Q.I.~././.:X/./.<X^.& g d 6 6 6 0 < 2 8 R ^ i < < 5 5 4 < 9 4 3 3 , X ( s./ : 2 9 4 9 @.+.s.p.q.7.5.2.+.+./ ( b b b b x v v x v c c M M N m N m n C Q.~.I.* Z ~.~.<XAXAXAXAX4X<X:X-X-X>X-X-X,X2X1X,X,XAX:XAXAXAXAXAXKXH.p @./ ~ 9.p.7.p.5.w.w.0.g.x.w.4.q.6.5.5.5.5.5.5.4.5.q.q.6.6.5.5.w.#.Z.^.;XJ.g b P L.l Z V V V M M N N B m B C C V ' w @ 6 6 3 r r r r & ;XmX;XAX4X3X2X1X,X=X-X*X,X:X:X4XAXAXAXZXSXo.E ! U T Y Y { 0.0.8.2.2.9.5.5.2.2.2.2.2.8.8.8.4.4.#.8.7.4.@.Z.' Q.Q.Q.Z j l k n c c A Z l v c n L.l U.R.T.~.;XJ.g b ^.Q.<X<X5X,X>X>X>X>X>X>X,X,X,X,X,X=X-X<X4XAXBXVXSXvXp +.8.q.2.| } 0.} 8.3.8.8.8.8.3.! g.}.N.{.B.{.B.{.B.V.{.V.V.V.V.{.{.{.{.{.{.{.m.N.C.n.1 ; 0 i T / Q 3.) ) ) Q Q Q Q Q Q Q ! ! { { { Q ) ` 8.Q F.iXn.} 9.+.Q ` ! ! Q Q ~ c.V.B.{.{.{.{.{.{.rXeXeXeXeXeX{.eX9XE 8 U 4 ; 1 - 8 Q Q ) ) Q Q Q ) ) 3.Q ! ! ! ! / Q ! Q ) Q Q ! ) ~ { } ~ $.%.A.u ! C.m.B.B.B.B.B.m.N.N.B.B.B.B.C.C.B.B.N.N.N.N.N.N.N.N.B.B.B.C.B.B.C.C.B.B.B.B.B.B.{.{.B.B.B.{.{.B.B.B.N.{.{.{.{.}.{.}.{.{.{.{.N.N.B.B.B.B.B.B.B.B.B.B.{.{.B.B.B.B.B.B.B.B.B.B.B.B.B.B.B.B.B.B.B.B.B.B.B.B.B.B.B.B.B.B.B.B.B.B.B.V.V.V.V.V.B.B.N.N.N.N.C.C.N.N.N.N.N.B.B.B.B.B.m.m.m.m.B.m.m.m.rX$.BXZXVX@X%X#X#XfXu X < < 1 1 1 < 4 < 1 1 1 1 1 1 1 1 1 1 1 1 1 1 1 1 1 1 1 1 1 1 1 1 1 1 1 1 1 1 1 1 1 1 1 1 1 1 1 1 1 1 1 1 1 1 1 1 5 5 1 1 < 4 4 4 4 < 4 4 , r C.B.m.m.m.m.",
"R R 9.s.9.W W ! / ! R R ! W W W W R W W W ! W W ~ W / E 7 - , > 4 4 4 , < 2 , 4 > @ & Q.~.~.~.~.Q.* g x x x x x z z V Q.Q.Q.!.!.I.!.I.n v * @ % @ & P ^.P j z n Z Z Q.Q.!.!.U./.(.(.>X(.(.:X!.* & & & @ O : 8 q 8 R ( T 4 4 4 6 4 4 4 4 , 4 < : / s.! q : < - : s.9.q.q.7.2.2.+.@.@.b b v x x x z c x x x c c M C C N C N n L.^.^.Z * l R.T.>X,X,X2X2X,XR.R.>X&XE.E.E.,X2X,X,X,X,X>X>X,X,X2X3XMXI   . X 7 Q q.p.p.p.i.q.q.x.x.w.2.q.q.5.5.5.5.q.0.q.5.q.6.6.5.4.5.0.^ b ^.~.Q.* b V n l m m l l m m m m m m m B C V ' w @ % w % & @ @ * * ;XAX4X2X1X1X1X,X,X-X-X-X>X-X>X,X2X2X2XNXAX& O 8 8 W Y 8 Q 9.8.8.8.2.8.2.5.2.2.8.8.8.8.9.7.4.4.+.+.2.9.Z.P m U.!.!.C M M c v ' c A j j j j j j j I.U./.:X~.Z * * I.Y.:X>X*X*X*X&X>X&X&X>X>X=X=X,X,X*X-X-X,XNXNXZXFX;X  E ! 3.q.5.4.0.} 2.3.8.8.3.3.3.! g.V.N.{.B.B.B.{.{.V.V.V.V.V.V.{.{.{.{.{.{.{.m.N.C.n.1 ; 0 T T / Q _ W W ! Q ! W Q ) Q Q ! Q Q { 3.3.) ) Q ~ n.uXD.] +.+.! / W Q Q Q ~ n.V.V.{.{.{.{.{.{.{.{.{.wXeXeX{.eX9XW 8 U > : 1 2 8 W Q 3.) Q ) ) ) ) Q W W E ! / / / Q 3.) ) Q Q ) ~ ~ Y ~ u r Z.p Y G.N.N.N.N.N.N.B.N.N.B.B.B.B.B.B.B.B.B.B.N.N.N.N.N.N.C.C.B.B.B.B.B.B.B.B.B.B.B.B.B.B.B.B.B.{.{.{.B.B.B.{.B.B.{.V.B.B.{.{.{.{.B.B.B.B.B.B.B.B.B.B.B.B.{.{.B.B.B.B.B.B.B.B.B.B.B.B.B.B.N.B.B.B.B.B.B.B.B.B.B.B.B.B.B.B.B.B.B.B.B.V.V.V.V.V.B.B.B.B.N.N.N.N.N.B.B.B.B.B.B.V.B.B.B.B.B.B.B.m.m.m.rX$.BXFXVX@X%X#X#XfXe X 1 1 1 1 1 1 < < 1 1 1 1 1 1 1 1 1 1 1 1 1 1 1 1 1 1 1 1 1 1 1 1 1 1 1 1 1 1 1 1 1 1 1 1 1 1 1 1 1 1 1 1 1 1 1 1 1 1 1 1 < 4 4 4 < < 4 6 , r M.B.m.m.m.m.",
"R W Q W Q ~ ! W Y W ! R ! R R ! ! ~ ! W R W R W W W ! R 7 < 4 3 3 3 > , < < < 3 w b j P I.I.I.I.C * x x x v v c M A m I.L.L.L.I.Z L.Z n V z x x b * V C C A c C m m !.I.Q.I.U.R.R.R.R.R.R.(./.Y.~.~.;X^.w ; 0 8 < i R 0 0 0 6 6 6 4 5 5 < 9 i 8 W 9./ T R i ; 0 9.q.7.3.9.{ / ^ Z.' v v v c v v n M M M M M M M V M c M M c Z Q.I.!.I.T.(.W.E.>X*X=X,X>XY.U.>XE.E.E.E.&X,X,X,X1X=X*X*X*X*X,X1X2XUXbXbXvXvXF.8.p.5.p.q.0.i.b.x.w.2.q.q.5.5.q.0.q.q.q.5.5.6.5.4.4.0.@.Z.V C I.P c v ' M Z I.I.I.I.L.L.L.L.L.L.L.L.N c v g w w g w J.P V Q.Z ^.~.Y.,X,X=X=X,X,X,X,X2X,X*X*X*X=X,X=X,XNX;XUXH.: R R 8 +.r.8.8.0.8.8.2.5.5.8.8.8.8.8.8.5.4.#.@.@.+.@.Z.C m P.L.L.V ' v ' V V n Q.!.!.~.~.!.~.U.U.U.U.U./.!.U.Y.:XR.>X&X&XE.E.E.&X&X&X&X&X*X,X,X,X,X*X>X*X,X<X4XMX<X;XhXy.8.8.7.2.2.2.2.8.9.8.3.3.3.! g.V.N.{.B.B.V.{.{.V.V.V.V.V.V.{.{.{.{.{.{.{.m.N.C.n.1 ; 0 T T / ) ) ! ) 2.q.8.3.Q Q ) ) Q Q Q Q { Q Q ) Q ~ j.G.n.] +.+.! Q W Q Q Q ~ n.G.V.}.V.V.{.{.{.{.{.wX{.eXeXeXeX9X! 8 U > < p T W ) Q Q ! ! ) ) ! Q Q R T T i i R R W Q ) ) Q W Q W ) W ) Y H.nXS.2 C.C.N.N.N.N.N.B.N.N.B.B.B.B.B.B.B.B.B.B.B.B.N.N.N.C.C.C.C.C.B.B.B.B.B.B.B.B.B.B.B.B.V.V.B.{.{.{.B.{.B.{.B.B.{.}.{.{.{.{.{.{.B.B.B.B.B.B.B.B.B.B.B.B.B.{.{.{.B.B.B.B.B.B.B.B.B.B.B.B.N.B.B.B.B.V.V.V.V.B.B.B.B.B.B.B.B.B.B.B.B.V.V.V.V.V.V.B.B.N.N.N.N.N.N.B.B.B.B.V.B.B.B.B.7XB.B.B.B.m.m.m.rX:.BXFXVX@X%X#XkXaXe X 1 1 1 1 1 1 < < 1 1 1 1 1 1 1 1 1 1 1 1 1 1 1 1 1 1 1 1 1 1 1 1 1 1 1 1 1 1 1 1 1 1 1 1 1 1 1 1 1 1 1 1 1 1 1 1 5 5 1 1 4 4 4 4 < < 4 6 , r M.B.m.m.m.m.",
"R R ~ ~ W W W W W W W W W W W W W W W W W W W W W W ! R 1 , 4 3 3 3 3 , 5 , 4 @ w ' V Z I.L.k j z c c c c v V V N N B m m m m n j * z M M M v v v c c n M M M V N N n m N m k U.R.U.P.P.U.U.R.>X,X>X<X<X* @ 0 0 7 9 : : 4 0 4 3 3 4 9 1 < i / / Q 9./ / / p : : 9.9.9.9.+.+.( ( ' v v c c c x V V N N N N N N C V V v x v x c A j !.>X(.E.E.E.E.W.&X>XR.k k R.>X&XE.E.&X-X*X1X2X,X*X&X>X&X*X=X5XNXNXMXZXKXhXE 0.4.0.e.0.q.b.x.w.q.q.q.5.q.q.q.q.4.5.5.5.6.4.4.r.@.Z.' V A A x v c V n L.!.!.U.U.!.U.!.I.!.!.L.C M c c b b v v c !.!.!.!.~.L.j K.>X>X*X-X*X,X2X2X3X2X,XR.&X&X*X*X-X,XAXFXUX  ^ R 8 Q r.8.2.2.2.8.2.2.2.8.8.8.8.8.9.9.} +.' Z.Z.Z.' P V n A n V v V C C !.U./.>X(.>X>X(.:X/.U.K.K.K.k /.>X>X>X>X>XE.E.W.W.E.>X&X&X&X&X*X-X,X2X,X*X>X*X,X,X2XNXNXZXKXH.E 9.p.3.| 2.8.2.8.3.3.2.3.| g.V.B.N.{.B.B.{.B.{.N.V.G.V.V.V.B.{.m.{.{.m.B.B.C.n.7 ; 0 R T ! ) ) W W b.9Xn.{ ! ) ) ) Q { { { Q Q Q Q Q Q { 0.| ! W ! Q Q ! ! Q ! ~ n.9XV.9X9XV.V.{.{.{.{.wXwXeXeXeXeX9X~ q U < : / +./ Q ) 3.) ) ) ) Q ` / 8 2 < < < q : 7 / ) Q Q ! ! ! ! ! ) U H.PXH.2 G.V.N.B.B.B.B.B.N.N.C.C.B.B.B.B.B.B.B.B.B.B.B.B.B.B.B.B.B.B.B.B.B.B.N.B.B.{.N.N.wXV.G.M.}.M.m.{.B.B.{.{.B.{.V.V.V.V.|.|.{.{.B.B.B.B.B.6XB.B.B.B.B.B.B.B.{.{.{.B.B.wXV.V.V.B.C.N.N.N.B.V.B.V.V.V.V.9XV.V.6X6X6XB.B.eXrXm.m.}.V.M.V.C.9XC.V.V.B.B.N.M.N.N.N.N.B.B.B.B.N.wX6XrXm.B.m.{.{.m.{.m.rX..nXFXVX$X%X#X+XgXe X < < 1 1 1 5 - 9 1 1 1 1 1 1 1 1 1 1 1 1 1 1 1 1 < < < 1 1 1 1 < 1 1 1 1 1 1 1 1 1 1 1 1 1 1 1 1 1 1 1 1 1 1 1 1 1 1 1 1 < 4 4 4 1 < 4 4 3 p C.B.m.{.{.{.",
"R R ~ ~ W W W W W W W W W W W W W W W W W W R R W W ! R 1 , 4 3 6 3 3 , 4 o 6 @ * v M n I.Z c c c x x c c c M n C N N N N V n V c z c n n n A n z c n n c c n M C C m m n N m !.U.U.U.U.U.T.R.&X&X*X>X:X* * g : 8 q 4 0 9 < < 4 3 4 4 1 1 i ^ E ! / / / ( R 4 9 s.9.9.@.@.( g b b v c c c c c M M N N m N N N M V M c z v c A l l T.(.E.E.E.E.E.E.>X>XT.k K.R.>X&XE.E.&X*X*X,X,X,X*X&X&X&X*X*X,X2X2X2XNXVX@Xa b.w.q.q.0.q.n.b.x.q.q.5.5.q.q.q.q.5.5.5.5.5.5.0.@.Z.' V V v v v v c C n L.U.U.U.U.U.I.U.I.!.Q.L.L.M c c v c c n l I.!.!.!.~.I.l P.(.>XE.*X>X,X2X2X2X2X,X-X>X*X&X&XE.*X2XNX;X& J u 8 Q q.q.q.8.2.q.2.2.2.8.8.8.8.8.9.8.+.@.' V Z.Z.' ' V V n A M M n m K.U.P.R.(.R.R.(.(././.!.P.P.P.K.R.>X&X&X&XE.E.(.R./.(.>XE.>X&X&X&X*X,X1X,X,X,X*X*X,X2X2X3XAXAXI y ^ W p.p.8.8.2.3.3.3.2.3.| g.V.B.B.{.B.B.B.B.{.C.V.V.C.C.M.B.N.m.m.m.m.B.m.C.n.< : 0 R T / ) 3.) W a.9Xn.{ { 3.) ) { { { Q Q { Q Q Q Q { 2.{ Q Q Q / / Q Q ! ! ~ n.9XV.V.C.C.V.6X{.{.{.{.{.wXeXeXeX9XW q U < - / +.Q ) ) ) 3.) ) ) Q ` / 7 1 5 4 0 4 < i / Q Q Q ! Q ! W _ ) U H.PXH.2 G.V.C.N.N.B.B.B.N.N.C.C.B.B.B.B.B.B.B.B.B.B.B.B.B.B.B.B.B.B.B.B.B.B.B.B.B.B.B.B.V.g.n.n.tXB.{.{.B.B.B.B.{.{.V.V.V.V.V.|.{.{.B.B.B.B.B.B.N.B.{.{.B.V.V.B.{.{.{.{.B.V.V.B.V.B.C.N.C.B.M.C.C.V.V.C.n.9X9X9X6X6X6X6X6X6XB.{.B.C.M.M.G.M.G.F.G.V.C.B.B.B.N.N.N.N.B.B.B.B.B.rXB.rXm.{.N.m.{.m.{.m.rX..nXKXVX$X%X#X+XgXs X < 1 2 1 < < < < 1 1 1 1 1 1 1 1 1 1 1 1 1 1 1 1 1 < < 1 1 1 1 1 1 1 1 1 1 1 1 1 1 1 1 1 1 1 1 1 1 1 1 1 1 1 1 1 1 1 1 1 < 4 4 4 1 < 4 4 3 p C.B.m.{.{.{.",
"R W R W W W W W W W W W W W W W W W W W W W W W ! W ! R < : , , ; ; 4 3 , . g b z v c c n c c c v v c v M M C N N m M M V c z c C N L.Q.I.I.P.I.I.I.L.m C L.L.).M C Q.Q.C C N L.K.U././.T.T.R.&X&X&X*X,X:X<XJ.o ( T i 9 0 R R 9 0 p p 1 , < 7 < 8 8 8 7 9 5 4 1 R T ( ( ' g x b b v c c c M M V N V N N N B N M n n c c Q.Q.!.T.U.E.>XE.E.E.E.E.W.&X>X>XR.R.>X&X&X&XE.&X&X*X>X*X,X2X,X>X>X>X&X*X>X-X5X2XZX@Xa i.p.6.q.4.2.q.q.0.q.q.q.q.q.q.5.5.5.6.5.5.5.8.+.@.' M c v v v v V M C m L.U.U.U.U.U.K.K.L.L.C m C V c c v n C Q.I.U.U.I.K.L.I.U.!.U.P.U.>XE.Y.Y.Y.,X,X1X1X,X>X>X>X>X*X*X5X2XAXBXe u +.q.3.2.q.8.2.4.0.8.8.8.8.8.2.5.2.+.Z.V C V v V M n ).I.L.I.P.U.T.T.T.T.U.K.L.L.L.L.l l U././.(.(.&X&X&X&X&XE.E.>XK.K.L.I.K.(.>X&X&X&X*X*X>X,X1X>X*X>X:X-X<XNXNX4XBXbXE p.8.{ 8.#.8.8.2.8.3.| g.V.B.N.{.B.B.B.B.{.C.M.M.g.f.h.B.N.N.N.m.m.m.m.V.n.1 < 0 R T / _ _ ! ~ r.n.e.| { ) ) Q Q { Q ! { / / / Q Q Q 3.Q Q Q / / / Q Q ! Q ~ n.9Xc.q.4.M.C.V.{.{.wXwX{.}.wX}.tX9XW q U < - / / Q ) _ 3.3.3.) ) Q / / 7 5 6 6 6 9 < i / / Q Q ! Q _ _ _ ) U H.PXJ.# G.C.C.N.C.N.B.N.N.N.C.C.B.B.B.B.B.B.B.B.B.B.B.B.B.B.B.B.B.B.B.B.B.B.{.wXB.B.V.V.C.#.] } M.M.{.{.B.{.B.B.B.V.V.V.V.V.V.V.{.{.B.B.B.6XB.B.B.N.B.B.B.6X6XB.m.m.{.{.B.B.B.B.B.B.B.N.N.N.C.B.V.V.C.e.0.0.0.0.} | } x.6Xn.M.B.C.M.V.V.M.$.} $.C.G.V.B.N.B.B.B.B.B.B.B.B.{.eXeXB.rXB.{.N.m.m.m.m.m.rX..nXZXVX@XlX#XkXfXy r , 9 7 7 1 2 p < 1 1 1 1 1 1 1 1 1 1 1 1 1 1 1 1 1 1 1 1 1 1 1 1 1 1 1 1 1 1 1 1 1 1 1 1 1 1 1 1 1 1 1 1 1 1 1 1 1 1 1 1 < 4 4 4 1 < 4 4 3 p C.B.m.{.{.{.",
"W R R R W W W W W W W W W W W W W W W W W W W W R ~ W Y 2 - , - , - < 3 ; O w b c v c c c x x x x c c M C N B N N C N V V c z c L.m L.!.U.U.U.U.U.!.L.m C Q.Q.L.n N Q.Q.B m N C m U./.T.U.P.W.>X&X&XE.&X>X2X^.  R R R T R R T 0 9 p 9 1 - - 2 2 2 2 2 - - , 5 < p 0 g ' ' b x b x x x x c M M N N N m N N N M M c c A A Q.!./.(.E.&X&XE.E.E.E.E.E.E.E.&X*X>X>X>X>X>XE.&X&X&X&X-X,X2X2X,X>X,X>X&X*XR.-X2XAXJ.e E 2.7.p.u.q.q.0.0.0.q.q.q.q.q.q.5.5.5.6.q.q.s.@.Z.' M x x v v M C N C m L.!.!.!.!.!.m l m m m M V M c c M n I.~.!.U.!.U.m l I.!.U.L.l U.<X(.P.K.P.>X,X2X3X1X-X*X*X&X>X*XW.,XNXVX= 2 8.i.q.2.2.8.8.2.0.8.8.8.8.5.2.2.} +.Z.C C V v M n n Q.!.!.!.U.U.T.T.R.(.U.k L.C C n A k U./.(.>X>X>X&X&X&X&X&X&X(.k k n m l :X>XE.E.&X*X*X*X,X2X>XE.R.T.K.:XNX2X3XZXbXX 8.q.a.8.#.8.8.2.8.8.| g.V.B.N.B.B.B.B.m.B.C.C.M.r.#. .B.N.N.N.m.m.m.B.B.b.2 < 0 R 8 Q ) _ ! W i.b.i.{ Q ) ) Q ! Q Q Q Q / / / / Q Q Q Q Q Q / ! ! Q Q ! Q ~ b.6Xf.| X.M.C.V.wXwXwXwX}.}.}.}.tX9XW q U < - / +.Q ) _ 3.3.) ) ) Q / / 7 5 4 4 6 0 1 i / / Q Q Q ! _ _ _ ) U H.KXJ.$ G.C.C.C.C.N.N.N.N.N.C.C.B.B.B.B.B.B.B.B.B.B.B.B.B.B.B.B.B.B.B.B.B.B.6X{.B.B.V.G.n.{ ~ | C.V.{.B.B.B.B.{.{.B.{.V.V.V.V.V.{.{.B.B.6X6XB.{.wXB.V.V.6XuX6XwXB.B.{.{.wXwXB.B.B.B.B.B.N.N.B.B.V.9Xn. .] | | { | ~ ! n.0X6XV.V.V.C.C.G.M...s ] j.V.V.B.N.N.B.B.B.B.B.B.B.B.{.eX{.eXB.wX6X6XrX6X6X6XeX[ nXFXVX@X$X+XaXOX$   . ; 1 - 5 1 5 1 1 1 1 1 1 1 1 1 1 1 1 1 1 1 1 1 1 1 1 1 1 1 1 < 1 1 1 1 1 1 1 1 1 1 1 1 1 1 1 1 1 1 1 1 1 1 1 1 1 1 1 1 1 < 4 4 1 < 4 4 3 p C.B.m.m.{.{.",
"W W W W W W W W W W W W W R W W R R W W W W W W W W ! R i 7 i 7 p 2 < 4 6 @ w v c c c c v x v x c c n V C m m m m N N n M M c n I.L.L.I.I.U.U.U.I.Q.L.m C Q.L.L.B L.L.I.L.L.C B K.U.R.T.T.T.E.&X&X&X&X*XE.>X^.@ d 0 9 0 R T 7 i 9 7 7 i i 7 7 i R T T 0 < p ^ R d w x v v v v x v x c c n N N N m Z N N M M V V c n V n I.U.T.(.E.E.E.E.E.E.E.E.E.&XE.E.&X>X/.R.R.&XE.&X&X&X&X*X>X1X,X,X,X>X*X>X>X-X=X2X2X;X@XhX$.r.q.2.4.0.0.0.0.q.q.q.q.q.5.5.4.5.6.q.s.@.Z.' V M b v V M n N V M n C I.I.I.Q.Q.N N C C C V V M n n V m L.U.U.I.I.).L.m !.U.U.l l I./.R.T.T.T.>X*X,X,X,X,X,X*X&X&X&X*X,X2XAXh p ! { 2.0.2.8.q.8.8.8.8.8.9.5.8.+.@.b V C B M c V n m L.I.L.I.L.T.R.T.P.T.U.l C M c M C m Q.!.T./.T.>X&XE.E.E.E.E.>XY.!.I.m l (.&XE.&X&X&X&X*X,X,X*X*X*X-XR.,X2X1X2XMX;X# F.9.Q 9.8.8.8.8.8.8.| h.V.B.N.B.B.B.B.m.B.C.V.C.h.c.c.B.N.N.m.m.m.m.B.m.n.7 < 0 T i / ) ! ! W q.e.q.{ ) 3.3.) ! Q Q Q Q ) Q Q / / ! ! ! / / / ! ! Q Q Q Q ~ n.9XM.g.w.C.V.V.{.{.wXeXwX}.wX}.tX9XW q U 4 - / / ) 3._ 3.3.3.) 3.) 9.+.i < 4 4 4 5 < 0 / / ) Q Q _ _ _ _ ) U J.KXJ.= G.V.V.B.C.C.N.N.N.N.C.B.B.B.B.B.B.B.B.B.B.B.B.B.B.B.B.B.B.B.B.B.B.B.6X{.B.{.B.G.G.} E #.9X6X{.B.B.B.B.B.{.B.V.V.V.V.V.V.V.B.{.B.6X6X6XB.eXN.C.M.g.f.g.V.N.N.{.m.{.6XB.B.B.B.B.B.B.B.N.N.V.tXC.g.r.g.e.e.e.q.q.b.n.b.C.g.M.C.j.G.G.h.r.j.C.V.B.B.B.{.B.B.B.B.{.{.{.{.N.B.B.V.f.x.x.x.x.z.z.x.m.] BXFXBX@XlX+X+XlX@X@XZ.. p 2 1 1 < 1 1 1 1 1 1 1 1 1 1 1 1 1 1 1 1 1 1 1 1 1 1 1 1 1 1 1 1 1 1 1 1 1 1 1 1 1 1 1 1 1 1 1 1 1 1 1 1 1 1 1 1 1 1 1 4 5 1 < 4 4 3 p C.{.m.m.m.m.",
"W W W W W W W W W W W W R R W R R R R W R W W W W W ! ! E E E E E 7 < 4 6 @ x V c c c v c x v z v V V C C m N N N M M A c M M m !.!.L.l Z I.I.U.I.I.L.m N n m L.I.I.I.U.U.!.!.L.K.U.R.W.(.>X>X&XE.&X&X&X*X>XI.& d 0 0 < < 9 : - < 2 2 0 R T i i W W W T i ( @./ ( g x v c c v v x c M V M C B B m N C M n c c v x V Q.I.I.U.T.>XE.E.E.E.E.E.E.E.E.&X&X&X&X(.K.k Y.E.E.E.&X&X&X&X*X*X-X,X2X,X*X&X*X*X,X,X2XNXZXVXy s.e.q.q.0.8.0.0.q.q.q.q.q.5.4.6.4.q.9.@.Z.' v c c b v M B N N M M m m m m m m N M M C M V C C C C V C Z L.!.!.l m N N m U.U.!.j A l K.K./.(.R.R.R.*X-X,X2X2X>XE.E.E.*X,X2XAXh r @.r.r.q.8.9.3.8.8.8.8.8.9.7.8.@.Z.' C C B V c V Z m Z Z m m k R.>X(.K.K.L.B C z * v C m m K.K.K.K.W.E.E.E.E.E.E.>XE.:X!.k l :X&X&X&X&X&X&XE.*X*X,X,X,X>X-X,X,X=X2XMX;X$ s.9.p.9.8.8.8.8.8.8.| g.V.B.m.B.N.B.B.B.N.M.C.C.j.b.M.B.N.N.m.m.m.m.m.B.n.u < 0 T Y Q W ! Q W 3.{ { ! ) 3.3.Q ! ! ! Q Q ) Q / Q / / / / / / / Q Q Q Q Q ! ~ b.9X6XwX6XV.{.{.{.{.{.wX{.}.}.|.tX9XW q U 4 - / / 3.3._ 3.3.3.) 3.3.9.9.T < 4 4 4 5 < i / / ) ) ) ) ! ! _ ` U J.KXJ.= OXV.V.V.B.C.N.N.N.N.C.B.B.B.B.B.B.B.B.B.B.B.B.B.B.B.B.B.B.B.B.B.B.V.V.B.{.{.C.V.9X9.~ } 6XB.B.m.B.B.{.{.{.B.V.V.V.V.V.V.B.B.B.B.6X6X6XB.N.M.M.n.} ~ } m.m.m.{.m.m.B.B.B.B.B.B.B.B.B.B.B.B.{.V.M.M.9XtXV.9X9Xn.0.| { | X.j.G.G.G.oXG.G.V.tXV.N.{.B.{.B.B.B.B.{.{.{.{.{.{.V.m.| | | | | | | 3.4.e nXFXVX$X$X$X+XvXSXLXbX  d 9 1 1 1 1 1 1 1 1 1 1 1 1 1 1 1 1 1 1 1 1 1 1 1 1 1 1 1 1 1 1 1 1 1 1 1 1 1 1 1 1 1 1 1 1 1 1 1 1 1 1 1 1 1 1 1 1 1 1 4 5 1 < 4 4 3 p C.{.m.m.m.m.",
"W W W W W W R R W W W W R R R R W W W W W R W W ~ R ~ W R W ! W ^ u 4 > > @ z v c c x x x x c z n N N N B N N N V M M c c M C m !.!.I.l m I.U.U.!.Q.L.m N n n L.L.K.P.P.P.L.Q.L.L.U.R.W.E.E.&X&X&X&X&XE.&X>XY.* @ O d d , 9 9 < : < < 7 T T T T W W W T T / @./ ( g b v v c v c c z n M M N N m N N N N n c c c A n Q.I.I.P.U.(.E.E.E.E.E.E.E.E.E.E.E.E.&X>XI.l P.E.&X&X&X&X&X&X&X*X*X,X2X,X*X*X*X*X>X=X,X2XNXUX  ^ 9.3.q.i.r.t.q.q.q.q.q.q.5.5.6.4.q.9./ b v z x c c c N N N C N B B m m N N N N N B B M M Z Z N C N N N L.!.!.m M M C l U.U.!.A c Z L.K.R.E.E.R.(.>X>X,X2X2X,XE.E.E.*X,X2X4Xh   E +.+.3.{ 9.q.9.8.8.8.9.8.7.9.@.Z.P C m N V c N B m C N m L.K./.<X:XL.L.L.).V c z c C m L.m B L.l R.>XE.E.(.(.(.E.&X>X!.j l :X>X&X&X&X&X&X&X&X*X,X,X,X>X*X*X*X=X2XNX;X& a ! p.9.8.8.8.8.8.8.| g.V.B.m.B.m.B.B.N.N.M.C.C.g.g.h.B.N.m.m.m.m.m.m.m.n.2 2 0 R 8 W Q Q 3.! 3.Q ) ) ) ) ) Q { { { Q Q Q Q Q Q / / / / / / Q Q Q Q ! ` W ~ b.C.B.tX}.{.{.}.{.{.{.{.{.}.}.|.tX9XW q U 4 - ^ Q 3.3._ 3.3.) ) 3.) 9.9.i 1 4 4 6 9 < i / ) ) ) ) ) _ _ ) ` U J.KXH.e OXV.V.V.B.C.N.N.N.N.N.N.B.B.B.B.B.B.B.B.B.B.B.B.B.B.B.B.B.B.B.B.V.V.wXB.B.{.N.V.G.8.! 8.6XB.{.{.B.B.{.{.B.V.V.V.{.{.{.{.B.B.B.B.B.6X6Xm.B.M.V.9X0.| 2.C.V.B.{.m.rXrX6X6XB.B.B.V.V.B.{.{.{.{.{.N.N.{.B.N.M.V.n.} ~ | | | j.G.G.G.G.G.V.C.{.{.N.{.N.N.B.B.B.{.{.{.{.{.{.{.wX6X| { 3.3.3.3.3.9.q.u BXDXBX$X$X$X$XvXSXKXUX  p 7 < 1 1 5 1 1 1 1 1 1 1 1 1 1 1 1 1 1 1 1 1 < 1 1 1 1 1 1 1 1 1 1 1 1 1 1 1 1 1 1 1 1 1 1 1 1 1 1 1 1 1 1 1 1 1 1 < < 4 4 1 < 4 4 3 p C.{.m.m.m.{.",
"W W W W W W W W W W W W R R R W W ~ W W W R R W ! W W W W ! W R E < ; w g g v c c c x x x c M M n C m m N N N M n c c c z M N m L.m C m m I.!.L.m L.m n N V Z I.U.U./.(./.L.Q.L.L.U.R.W.E.E.&X&X*X&X&X&X&X&X:X:X^.w @ d 0 p 0 , ( @./ E R R R W R W W 8 q R ^ R 4 % g v v c c c V n N C m N N N B B C C C C C C N Z Q.I.I.U.T.(.E.E.&XE.E.E.E.E.E.&X&XE.&X>XI.n P.(.>X&X&X&X&X&X*X,X=X*X-X-X,X2X*X*X>X*X-X,X2XAXUXBXjX8.5.q.q.e.q.q.q.q.q.q.5.4.4.2.s.@.' ' V c x M V C C Z N M N B B m N N N N N B N N C M A A n C M N N m L.C C M V C k !.!.!.n c n I.L.R.R.R.P.U.R.R.:X-X-XE.&XE.E.E.*X,X4X;XBXhXo.{ i.8.8.9.9.8.8.8.8.8.9.@.( ' C m n M v c n B B C N L.!./.I.I.L.m ).N C V x z n C m L.B B B l T.>XR.P.P.P.P.T.E.>X~.j l (.>X&X&X&XE.&XE.&X&X*X-X*X1X,X>X*X=X1X3XNXUXIX0X~ 9.8.8.8.8.8.9.| g.V.B.m.B.m.B.B.N.B.C.tX9Xn.b.c.B.N.m.m.m.m.m.m.m.n.8 < R / ! 8.{ Q Q ! 3.Q ) ) ) ) Q { 8.q.8.3.{ Q ) ) ) Q Q / / / / Q Q Q ! ! ` W ~ n.C.m.{.m.N.{.}.}.}.wXwX}.}.}.}.tX9X~ q 0 4 - W Q ) ) _ ) ) ) ) ) ) 3./ 7 < 4 4 5 9 < i / Q ) Q Q ) ) ) ) ` U J.PXH.e uXV.V.C.B.N.N.N.N.N.N.N.B.B.B.B.B.B.B.B.B.B.B.B.B.B.B.B.B.B.B.B.V.V.wXB.B.B.M.C.n.{ W } 6XN.{.{.{.B.{.{.{.V.V.V.{.{.{.{.{.{.B.B.B.6XrXB.wXm.M.n.8.{ 2.6XM.m.B.m.{.{.{.B.B.B.B.V.V.V.N.N.N.{.{.{.N.{.N.|.B.M.V.C.n.9X0Xn.r.+.$.$.+.j.V.M.{.{.N.{.{.{.B.B.B.{.{.{.{.{.{.{.wX6X3.3.9.7.7.7.7.9.9.2 nXFXZXVXVXmX$X@XZXFXbX  d < 1 1 < 1 1 1 1 1 1 1 1 1 1 1 1 1 1 1 1 1 1 < < 1 1 1 1 1 1 1 1 1 1 1 1 1 1 1 1 1 1 1 5 5 1 1 1 1 1 1 1 1 1 1 1 1 1 < 4 4 < < 4 4 , p C.{.m.m.m.m.",
"~ W W W ~ ~ W W ! W W R R R W W W W W W W R R R W W R R R ! / W / 9 ; w b x x c c c c c x z M C M N m m B C N V c z c c z c M N m m N m Z Q.Q.I.m m N M N N m !.U.U.R.>X~.Z Z Z k P.(.W.E.&XE.&X&X&X&X&X&X&X*X>X<X* & + 7 R 5 < E s.+.W W ! W W W W R 8 : q 0 5 @ @ * b v c z c C M C N N C N m m N N M L.m m m m l k l L.U.U.(.>XE.E.E.E.E.E.E.E.E.E.E.&X>XI.A I.>X>X>X*X*X*X>X*X*X>X*X-X*X2X2X-X*X&X*X*X,X2X2XNXZXvX~ i.p.9.r.0.q.q.q.q.5.4.4.5.+.Z.' V C C c c M C C Z m N N N B m m N M N Z N B B N C V x z c C N N N N N N B M N N l I.T.U.l c n I.L./.(.R.K.K./.(.R.E.T.E.E.E.E.&X*X=X,X2XZXbXe i.3.9.+.r.7.2.8.9.5.2.o.Z.v C Q.N c v v z n m B C m L././.I.j j A j n C V z z c C N Z C B m l /.>X/.l l m m K.(.>X!.j l (.>X&X&X&X&XE.&X&X&X&X-X*X2X2X,X-X,X2X2X2XNXZXH.W 9.2.r.8.{ q.8.{ g.V.C.N.N.N.m.m.N.m.V.uXuXM.h.h.V.M.M.m.k.m.m.d.N.C.2 8 T +.{ { Q Q Q Q Q Q 3.3.3.9.{ !  .| } | 3.) ) ) Q Q Q / / / / / Q Q Q Q Q ! ~ n.wXeXeX{.{.{.{.{.{.{.{.}.}.}.|.tX9XE q 0 4 - W Q Q _ 3.Q 3.Q ! 3.) 8./ u 7 1 4 5 1 1 i / +.Q / / / Q ! ! ) 8 H.KXJ.e uXG.V.V.B.B.N.N.N.N.B.B.B.B.B.B.B.V.B.B.B.B.B.B.B.B.B.B.B.B.{.V.B.B.B.tXM.M.M.n.F.9.W { 9XB.{.{.B.B.{.{.B.B.{.{.{.{.{.B.{.eXeXB.rXrX7XrXN.V.C.9X9.~ } n.C.C.tXB.{.m.{.B.B.B.B.B.B.V.V.{.{.{.{.N.{.{. X{.{.m.C.XXG.G.G.G.$.E ! E ~ e.V.{.{.{.{.{.{.{.{.{.{.{.{.{.{.eX{.{.wX6X| 3.3.3.3.3.7.3.q.2 BXJXFXFXVXmX$XvXVXZXbX  p 7 1 5 1 1 1 1 1 1 5 5 5 5 5 5 1 1 1 1 1 1 1 1 1 1 1 1 1 1 5 5 5 5 5 < 1 1 7 1 1 1 1 5 5 6 1 1 u 2 1 9 1 1 1 1 5 5 1 1 5 4 4 3 3 6 ; p C.B.B.B.B.m.",
"~ ~ W W W W W W W W W R W W W W W W W W W R R R W W W W W W R T R 5 + w b b v c c c c c c c M M N N n m N M N V c c v c c M M C m m N n m L.I.C m N N M N N n !.!.T.E.>X/.l L.U.T.T.R.T.E.&XE.&XE.&X&X&X&X&X&X&X:XK.P ' 4 R < 1 R +./ ~ ~ W W W W u T R R ( ( d g w x b v c c n N N N N N N N B C C N n L.L.L.I.K.U.:X/.!.I.U./.E.E.&XE.E.E.E.E.E.&X&XE.E.>XI.l I./.U.>X=X=X,X2X,X,X,X*X*X*X,X,X>X,X,X*X*X,X,X,X,XAXvX! a.3.3.e.q.0.q.q.q.5.4.5.q.@.' v M C V c z n C N m m N N N m m N C C N N N B C N V V c z c C N N N N B B N N V m l I.!.U.A n n L.L.!.T.U.I.L.!.U.U.T.U.(.&XE.E.E.*X=X,X:X<X;Xa 2.5.q.9.{ q.2.#.9.7.9.Z.' V L.Q.C c v M n N C C C m L.T./.Q.j m !.Q.L.N V x z c C Z m C B B m U./.!.m B N n L.(.>X!.j l (.&X&X&X&X&X&X&XE.&X&X*X*X,X,X>X*X*X,X,X1X4XAXJ./ a.9.{ 8.9.8.8.2.g.V.B.N.N.m.m.m.m.M.B.V.V.C.n.j.V.N.N.{.m.k.m.d.m.n.8 7 R 9.Q Q Q Q ) Q Q Q Q W W Q ! X.g.b.e.~ Q ) ) ) Q Q Q / / / / Q Q Q Q Q Q ! ~ b.6Xm.eX{.{.{.{.{.{.{.{.{.}.}.}.tX9X~ q 0 < - ! { ) Q ) ! Q ) ) ) ! W ! i 7 9 5 5 5 1 9 R E E R R R R W Q ) 8 H.KXJ.e iXG.V.B.B.B.N.N.N.N.B.B.B.B.B.B.V.V.B.B.B.B.B.B.B.B.B.B.B.{.V.V.B.B.V.tXM.M.M.n.F.9.Q 8.9XN.N.{.B.eXm.{.eXwX{.B.B.{.{.{.{.{.6XrXrXm.m.m.M.C.b.n.r.+.r.r.e.b.n.h.{.{.{.B.m.{.{.{.B.V.V.V.{.{.{.{.{.{.{.{.N.{.B.h.r.l.G.D.j.$.t.Q W b.6X{.{.{.{.{.{.{.{.{.{.{.{.{.{.{.{.{.6X6X3.3.9.7.3.7.7.3.2.u bXBXUXZXVXmX$XvXVXZXbX  p 7 1 5 1 1 1 1 1 1 5 5 5 5 5 5 1 1 1 1 1 1 1 1 5 1 1 1 1 1 5 5 5 5 5 5 1 1 7 1 1 < < 5 5 1 5 1 7 1 < 5 1 r 1 1 5 5 1 1 5 4 6 4 3 6 ; p V.{.B.B.B.m.",
"R R R R W R R W W W W W W W W W W W W W W W R R W W W ! W W T q 4 ; @ * b x c c c c c M V V C N N m m B C N m N z x v v c M M B N m N n n m B m m N n M N N m !.U.T.E.>XT.k I.<X>XR.R.R.>X&X&XE.&X&X&X&XE.&X&X&X>X>X<X^.6 ( 4 9 E +.+.W R R R W i : u s.s.s.@.( ' v v c c M V M N M N N B m n L.!.I.L.N Q.U.I.U.K.:XZXZX~.K.U.U.P.W.E.E.W.W.W.E.W.E.E.E.&X>XI.n Z L.k /.,X,XMXCXNX3X2X*X*X*X*XR.1X3X2X*X*X&X&X>X*X<X^.p r.3.2.{ q.q.q.q.q.5.6.q.r.@.b v n C C c c n V B N N N N N N N m m m N C N M C M c v x z v V N N N M N N N m N m m I.~.!.A v v N m L.K.K.L.L.L.L.K.K.k T.>XE.E.&X*X*XR.k * g f #.6.3.5.q.4.2.#.#.2.+.Z.P N C Q.M z c V C m B B N m L.T./.Q.j l :X<XU.l V x z M C B m N N B m L.l m n B N n L.(.>X!.j l (.>XE.&X&X&XE.&X&XE.&X&X*X&X&X&X&X*X*X-X,X3XNXJ.f +.9.q.2.8.8.9.{ g.V.C.M.N.m.m.m.N.C.M.h.h.M.C.M.tX{.{.eX}.k.m.m.V.F.8 : R / W { Q Q ) ) Q +.Q ~ Y W ~ | 9XsXV.~ { ) ) ) Q Q Q / Q Q Q Q Q Q Q ! ! ! ~ u.z.v.m.{.{.{.{.{.{.{.{.{.}.}.{.tX9X~ : 0 < : ! { ) ! ) Q Q / Q / W Y T i i p 6 5 5 < 1 9 2 2 : < : : Y W ) 8 H.KXJ.e uXV.V.B.B.B.N.N.N.N.B.B.B.B.B.B.B.B.B.N.B.N.N.N.B.B.B.B.B.B.{.V.V.V.V.V.f.w.r.0.9.W W 8.9XV.{.{.m.{.{.{.{.{.{.m.{.wXwXwXeXrXrXrXrXm.rXB.C.g.~ | y.F.s.Y u W Q | n.m.{.{.{.{.{.{.B.V.V.B.B.{.{.N.{.{.{.{.k.N.M.X.~ r.G.G.F.F.F.+.~ b.V.{.{.{.{.{.{.{.{.{.{.{.{.{.{.B.V.V.9XV.3.{ 3.3.3._ 7.7.p.~ E   @XVXZXmX$XvXVXFXbX  d 7 1 5 1 1 1 1 1 1 5 5 5 5 1 1 1 1 1 1 1 7 4 4 5 5 5 5 1 1 5 1 1 1 1 1 1 1 < 5 5 4 1 9 9 7 7 < 1 1 1 5 , 2 1 1 5 5 1 1 5 4 3 3 3 6 X p n.B.B.7X7X7X",
"R R R ( ( R R W R W W W W R W W W W W W W W W W W ~ W W ! W T : - o @ * b x c c c c c M N N C N m N N N n l l k c z v v M n N N m N N M m m N m N N n M N N n !.U.T.E.>XT.K.K.:X>XE.T./.>XE.&X&X&X&X&X&X&X&X&X&X&X>X<X^.@ ( 9 9 ^ +.+.^ R R R E 0 : Y s.s./ ( g ' V M c c M C n N N N N C m m L.!.I.L.k L.I.K.K.l ~.NXNXY.K.Y.P.U.(.>XE.W.R.E.E.E.>XE.E.&XE.I.l Z m k /.,X,XCXCXNXNX2X-X*X&XE.E.1XNX1X-X*X&X&X&X*X<X^.% E ~ 3.2.q.q.q.q.5.5.5.q.s.@.b c n C V c c M N N B N N V M N N m l l n N C M C n c c z z c C N N N N N Z N m N m m I.!.!.n V v M n L.k l k l l K.L.L.K./.>X>X(.(.&X&X>Xk v g g ^ +.5.q.| 2.8.9.9.8.+.' V C Q.Q.M z c V C m L.m m m L.!.~.l j l R.>XY.k M x z M C B B N N N B L.m B N C N n L.E.>X!.j l /.>X&X&X&X*X*X*X&X&X&X&X&X&X&X&X&X&X&X*X,X2X4XI & o.! i.{ 8.9.9.} x.C.B.m.N.m.m.m.N.N.M.h.h.M.C.M.M.k.m.eX{.k.{.M.G.F.i 2 R +.! 3.Q Q ) ) Q 9.Q R Y W ! } 9XiXC.~ { 3.Q ! Q Q ! Q Q Q Q Q Q Q Q ! ! ! ~ w.z.v.B.B.{.{.{.{.{.{.{.{.}.}.}.tX9X~ : 0 < : ! Q Q ) 3.Q / / / / / i i i p p 6 4 5 5 < < < : ; ; : - u / ` 8 J.KXJ.e uXV.V.B.B.B.B.N.N.N.B.B.B.B.B.B.B.B.B.B.B.B.B.B.B.B.B.B.B.B.{.V.V.V.}.V.h.r.r.#.r.{ W 8.9XV.{.{.{.{.eX{.B.{.{.m.{.wXB.wXeXrXrXrX7X6XrXB.9Xn.| | t.F.a.E Y / +.{ 6X6XB.{.{.{.{.{.{.V.V.B.B.{.N.N.N.{.N.|.N.{.V.4.} n.0X9XF.F.F.+.E t.{.{.{.{.{.{.{.{.{.{.{.B.B.V.V.C.C.G.G.C.8.2.3.3.2.} 3.3.3.5.q.y J.ZXKXmX$XvXVXFXbX  d 7 1 1 1 7 1 1 1 1 1 5 5 5 1 1 1 1 1 1 1 7 7 7 5 5 5 5 7 7 1 1 1 1 1 1 1 1 1 5 9 9 5 1 1 7 7 < 1 1 5 5 1 1 1 1 5 5 1 1 5 4 4 4 4 6 X p C.V.6X6X7X7X",
"7 0 0 i i i i R R R W W E W W W W W W W W W W ~ W W ~ W ! W T - ; 6 w w v c M M M M n N N N N N N N C N m I./.~.Z A M C C Z m m N M N N m m m N m N N N M m m U.U.U.E.>XE.T.R.>X,XR.P.U.U.U.R.>X&X&X&X&X&X&X&X&X&X*X>X~.* @.9 2 p R p i 9 i 0 0 0 < u / E ^ ( b v c c c c M N M N N N m B L.L.L.I.L.L.m ~.:X-X,X,X2XMXMX,X-X>XU.U./.>XE.T.T./.T.T.(.&XE.&X>X>X(.~.U.K.:X,X,XCXCXCXMXNX5X,X>X&X&X>X>X,X,X,X,X*X&X*X>X<XUXnXr.| 5.w.q.q.q.5.5.5.0.s.Z.b c N C N n n Z N N B B N N C B B L.!.!.L.Z C N N c v V z z n N C N N N m m N N M N m L.L.L.c v c n Z /.:X:X>X>XT.U.U.m k T.>XR.U.U.E.>X>Xl A Q.;XbXZ.+.8.q.2.8.9.9.8.@.' C V V V M M N C B B L.B B B B L.K./.R.-X,X2X-XI.Q.z z M C C B C N m N C N C m N m n K.E.>X~.j l /.&X&X&X*X,X,X,X*X&X&X&X&X&X&X&X&XE.&X*X,X2XNXAXBXvXE r.2.8.2.{ | x.V.B.N.N.N.N.m.M.N.C.M.C.V.V.M.yX{.yXpXyX}.iXg.~ +.7 : R 9.Q Q 3.3.) ) Q ` / ~ ~ W ~ ~ #.#. .! { ) Q Q 9.9.Q Q Q Q Q Q Q Q ! ! ! ! ~ a.m.m.eX{.{.{.{.{.}.{.wXwX}.wX}.tX9X~ : 7 4 : E Q ) ) Q W 9 0 0 0 0 < 5 9 9 6 4 < 5 9 5 1 0 9 4 4 ; : T / ` 8 J.KXJ.e uXV.V.B.B.B.B.B.N.C.B.B.B.B.V.V.V.B.V.B.V.V.B.{.{.{.{.{.{.B.{.B.B.B.}.tXM.n.j.g.b.e.9.q.b.f.c.B.rXrXeX{.{.eX{.{.6XB.6X6XrXrXeXrXrXeXm.f.b.t.r.r.r.y.y.+.+.9.9.+.n.6XB.B.{.{.{.{.B.B.V.B.B.{.N.N.{.|.N.|.N.B.M.2.! 9.t.t.y.s.y.! W a.wX{.{.B.m.m.m.m.N.M.C.M.M.j.h.$.r.r.r.e.2.2.3.2.| 4.2.6.3.7.6.~ @XKXKXmX$XvXVXFXbX  d 5 5 1 1 1 1 1 1 1 1 1 1 1 1 1 1 1 1 1 1 1 1 1 1 1 1 7 7 7 7 1 1 5 1 1 5 1 u 8 < 5 5 5 e r 7 7 1 2 2 2 1 1 1 1 5 5 1 5 5 4 5 4 ; < X u C.wXB.B.m.B.",
"2 2 < < 1 < < i ^ / E W W W W W W W W W W W ~ ~ W W ~ ~ W E i - > g b x v c M C C C B C N m N N N N V n k U.>X:Xl j l I.I.Z m N M M N M m m N N N N n N N m l U.U.U.(.&XE.W.*X,X,XR.k l K.l P.>X&X&X&X&X&X&X&X&X&X&X>X~.* g , u < 5 6 , < 6 0 4 < : 2 T p d b x c z c n n M N V M N N m B Q.Q.L.L.B B k ~.,X,X2X3X3X3XNX1X>X>XT.U./.>X(.P.P.U.P.P.(.>X>XE.&X&X>X>XU.K.:X,X<XCXCXCXCXCX<X2X,X*X&XE.R.-X2X2X,X*X&X*X*X,XZXBX%.~ 2.w.q.q.q.q.5.0.+.@.Z.b c N C C N Z Z Z m B B N N n m k K././.K.j l n C n v V z z c C N N N N m m m N N N m m m n M M n k l :X,X,X1X,XR.R.U.l l /.>XT.K.K.R.*X/.k k !.<X<Xb e E 3.8.8.8.9.8.@.Z.P V c z n C N B B B B B C N n l j :X-X=X1X1X-XY.I.A z c C C B C B C B N N B N N C m K.(.>X~.j l /.&X*X*X-X1XNX2X-X*X*XE.*X&X&X&X&X&X&X*X,X1X2XNXZXBXe 9.2.0.0.3.2.x.V.B.N.N.N.N.m.N.N.C.V.V.V.V.V.uXXXeX}.yXuXjXy.O 2 2 - Y +.Q ) 3.{ ) ) Q ` / Q ! ! ~ u Y u ~ { ! Q ! 8.q.s.+.Q / / Q Q Q Q Q Q Q ! ~ b.6X6XeX{.{.{.}.{.}.}.wXwX}.wX}.tX9X~ q 0 4 : / / ) ) Q Y X - - - - X , < < 4 4 5 5 1 1 9 7 < < : : : u ! ` 8 J.KXJ.e uXV.V.V.B.B.B.B.B.C.B.B.B.B.V.V.V.V.V.V.V.V.V.{.{.{.{.{.{.{.B.B.B.B.}.tXG.C.n.j.e.0.e.0.0...c.B.rX7XB.B.{.{.m.{.tX6XtXwX{.{.eXeX{.eXN.f.r.r.t.r.r.r.y.r.s.t.a.t.9XB.B.B.B.{.B.{.B.B.V.V.B.{.{.N.{.|.|.{.B.V.C. .! +.! ! E ! +.! W a.9XwX6X6XB.B.B.B.C.C.G.G.n.j.$.| | | | } { 3.3.{ | } W 3.7.7.6.u @XKXVXmX$XvXVXFXbX  d 5 5 1 1 1 1 1 1 1 1 1 5 1 1 1 1 1 1 1 1 1 1 1 1 1 1 7 7 7 1 1 5 5 1 7 5 5 7 4 > @ @ % % % o 3 1 1 2 2 1 1 1 1 5 5 1 5 5 4 4 , , p i a n.N.N.m.m.m.",
"7 i 9 4 9 5 < 9 ^ R T T R W W W W W W W W ~ W W W W ~ ~ W E i - o g b x v c M N N B N N m m N m m N C m l Y.>X>XY.K.K.Y.!.I.n V M M N M m m m M M M n N N m m !.U.T.>XE.E.E.-X*X,XR.K.Y.Y.Y.T.>XE.&X&X&X&X&X&X&X&X*X>X~.A b @ 5 5 p p 4 ; 4 0 4 0 T i R d d v z c x c n M Z C N N N C N N Q.Q.L.N B L.k ~.1X1X3X3XNXNXMX1X=X>XY.U./.(./.R.R.T.U.U././.>X>X&X&X&X(.K.k <X2X4XCXZXZXZXCX4X2X,X-X*X&XE.*X,X,X*X*X*X*X*X,XAXBX%.o.0.q.q.q.q.5.5.8.+.( ' v c N C C C N Z m m B N N Z l I.K.Y.:X-XY.K.I.l C M x b x z c V N N N M N N N N M N N N m N M c Z K.K.-X,X=X=X=XW.R.U.l l !././.L.K.R.>X(.l l Q.:X:X^.J.H.] +.8.2.2.#.@.' ' V c z M C N B C B m m C n B I.K.-X-X=X1X3X,XR.~.A z n C Z Z C B m N N B B B N N m K.E.>X~.j k /.&X*X,X5X2XNX2X-X,X*X*X*X&X&X&X&X&X&X*X,X2X1X2XAXBXr s.8.} } 5.3.x.B.B.N.N.N.N.m.B.M.M.M.M.c.M.V.yX}.}.yXiXC.0XF.X 2 9 7 R Q Q 9.{ | Q ) ! ! ! ! R Q ! Y ~ Y ! 3.! Q ! { 9.9.Q { / / / Q Q Q Q Q Q W ~ b.6XC.wX{.{.{.}.}.}.}.wX}.wXeXwXeX9X~ q 0 4 : / Q Q ) Q R 7 9 9 i 9 i p 6 4 4 4 5 4 , 1 i u u i i 8 Y Y ! ` U J.KXJ.e uXV.V.V.B.B.B.B.C.B.B.B.B.B.V.V.V.V.V.V.V.V.V.{.{.{.{.eXeXeX6X6XB.B.6X9Xn.b.j.j.h.h.g.f.h.5.M.B.{.m.B.B.B.N.N.V.6Xx.x.6XwX{.{.{.{.{.B.0.b.a.a.r.t.y.0.r.y.9.9.0.G.M.B.B.B.B.{.B.B.B.V.V.V.B.B.B.V.{.}.|.|.{.M.#.| +.s.@.+.E / Q Q p.7Xm.n.n.n.n.n.n.n.n.F.F.b.a.t.+.{ +.{ 9.8.9.3.8.3.3.} 3.3.3.7.~ @XKXVXmX$XvXVXZXbX  d 5 1 1 7 7 7 1 1 1 5 5 5 5 1 1 1 1 1 1 1 1 5 1 1 1 1 7 4 1 1 1 5 4 5 4 5 6 @ g v A A A A * z * o < 5 1 9 9 1 1 1 1 5 5 5 4 4 4 5 ( ^ +.C.M.m.m.m.m.",
"R R i 7 9 5 < 5 2 : : < i R W W ~ R W W W W W W W W W W W E i - o g b x v c n N N B m N N N N m m m C L.l ~.2X,X,X,X,X,X>XY.l N N N M n N N N N M M n N N m m !.~.U.P.P.R.>X*X=X,X,X,X,X>X>XE.R.W.W.E.&X&X&X&X&XE.W.T.R.~.^.g 6 d ( ( p 4 0 0 < / @./ ( d g b c c c c M M N C m N N C N N Q.Q.C n N L.l :X3X1XNXMXCXMXMX1X,X,XY.P.I.l K.R.>XR.P.K.K.k U.>X&X&X&X>XY.I.AXCXMXZXZXZXZXCXMXMX2X=X,X&XE.*X*X*X&X&X*XW.W.=X2XUXJ ] 8.q.q.q.q.q.q.8.+.( ' v c N C N N N Z m m N N N Z l /.>X,X2X2X,X<X<XI.Z V v b x w c C V N N M N N M M N N N N N C M A I.:X-X2X2X1X1X,XR.R.U.L.l m k L.L.K.R.>X/.l n I.U.Y.AXZXnXe #.8.2.8.+.( g x z c c M N N B B B m B C n Q.<X,X1X1X2XNXMX3X,X<Xl c M C Z m B N m C B B m B C N m K.E.>X~.j k R.*X*X2X2XMXCXNX2X2X,X=X&X&X&X&X&X&X&X*X*X*X-X,XNXUXr s.8.#.| q.3.x.B.C.N.N.N.N.m.M.M.C.V.M.h.h.h.yXwXwXyXC.$ - - 7 9 ^ R R R Y W Q ! ! ! Y 8 8 8 8 W +.Q 9.) 9.) ) 3.! ! { Q ! +./ Q / Q Q Q Q ! Q ! ~ b.C.m.{.wX}.}.}.}.}.}.}.}.wXeXwXeX9X~ q 0 4 : E ! ! Q 3.! / / / / / @./ 9 < 4 4 4 < < 0 / ! ! / 9.` Q Q Q ) Y J.KXJ.e iXG.V.B.B.B.B.B.B.B.B.B.B.B.V.V.V.V.{.{.V.V.V.{.{.{.rXrXeX6X6X6X6XB.c.c.0.#.j.V.}.V.C.{.tXN.{.{.{.{.eXB.{.{.{.{.g.~ Y f.V.N.N.N.m.B.M.~ E Y Y W s.r.9.t.n.9.R E C.V.B.B.B.B.B.{.B.B.B.V.V.V.V.V.V.}.}.{.}.XXG.G.0X0XG.G.S.E ! Q W ) | | | | | | | { { | { { ! +.+.Q Q 9.+.9.{ 9.3.8.2.| 2.| 3.7.2.~ @XKXKXmX$XvXVXFXbX  d 1 1 1 1 1 7 1 1 1 5 5 5 1 1 1 1 1 1 1 1 1 1 1 1 1 7 4 5 5 7 1 4 4 4 9 4 6 & P ~./.~.~.~.I.^.I @ , 6 < 7 7 1 1 1 1 5 5 4 4 5 , 4 ( o.+.n.M.m.m.m.m.",
"R R T 8 2 2 - - 7 < : 1 i / ~ ! ~ R W W W W W W W W R R R ^ R : o g x x n c n N N N N N N N N m m C k L.k Y.2X1X4X1X,X-X-XK.k j m N N N m m N N N M n M N m m !.U.U.P.K.R.,X>X=X=X=X,X,X*X*X>XR.T.E.&X&X&X&X&X&XE.W.P.Y.U.^.* @ d ( / 9 : < 8 : W 9.! R g g b c z A c M N N N N N N C Z Z Q.Q.Z M n L.K./.3X4XMXCXCXCXMX4X1X>XK.Y.P.l K.R.>XW.P.U.K.l U.>X&X&X&X>XK.l <XCXCXCXCXCXCXCXCXCX4X5X,X&XE.&X&X&X&X&X&XE.E.*X2XUXH { q.q.q.q.p.5.4.0.^ b v c A n C N C N N C C M M M m K.R.-X=X3X2X5X:X:Xl l n z ' x z c C Z N C B N N M M n m m N M M k j Y.R.R.2X3X3X,X,X*XR./.l B C m B B k /.<X:Xl N N m j <XAXbX= +.#.#.+.( g b x z v c n N N B B m C N C n I.,X-X1X2X3XNXMX3X5X<X* * j c L.n N N m C B N B N M C l K.(.>XU.k k /.*X*X2X3XCXCXNX4X2X=X-X*X&X&X&X&X&X&X&X&X*X*X1XNXnXe s.3.q.2.8.{ g.V.V.M.M.m.k.m.N.N.M.M.B.f.c.c.pXeXwXyXG.2 8 7 7 < p 2 i 2 Y Q +.{ ! / R 8 8 i 8 W +.+.{ 3.) ) ) 3.{ Q Q Q Q Q Q Q Q Q Q Q Q Q ! W ! n.9XV.wX}.{.{.{.}.}.}.}.wXwXeXwXtX9X~ q 0 < : E Q ) Q 3.{ Q Q Q +.Q +./ 7 2 4 5 < < 2 0 / W 3.3.3.3.) Q ) ) Y H.PXJ.e OXG.V.V.V.B.B.B.B.B.V.V.B.B.B.B.V.V.{.B.{.{.V.B.B.eXrXrXrXrX6XB.6XB.m.C.g.r.h.G.M.N.{.{.B.B.{.{.{.{.B.B.B.{.{.tXn.~ ~ n.tXwX6XyX6X9X0X{ ! 9.` ! r.y.y.F.F.s.! +.G.G.V.{.m.wX{.{.B.B.V.V.V.tXtXG.G.uXXXtXtXV.uXG.iXiXG.0XS.+.! Q ! 3._ | | ! ! ! ! ! { ! ! { E E / ! Q | | ] | { { ! | | 3.} 3.3.7.Y @XKXFXmX$X;XVXZXbX  d < 1 2 p 1 1 1 1 1 5 5 1 1 1 9 1 1 1 1 5 9 7 7 7 4 < 5 5 5 8 7 < 9 8 8 X % & P Y.K.R.R.Y.l Y.P @ d 4 5 < < 1 1 1 1 5 5 5 5 6 4 5 ( +.#.C.6XC.C.C.m.",
"~ R R T R ^ +.^ 7 T 9 < 9 E R W ! ! W ~ ~ W W W R W W W T i p 4 o g x c M n m N N M N N N N N N m Z L.<X<X2XMXNXNXNX3X1X1X>X/.:XZ N n N N m N N M M M N N N m !.!.T.(.R.2XNXNXNX3X3X3X2X=X*XE.P.P.R.>X&XE.E.&X&X&XE.E.R.U.~.c b ( 4 0 T ( ( / W { 9./ ( ( x v c v n n Z N m N m N m N C N C Z Z N L.U.Y.:XNX4XMXCXCXCXCXNXNX2X-X-XT.K.L.E.>XE.R./.Z k U.>X&X&X&X>X<X<XZXCXCXCXCXCXCXCXCXCXNX1X2X*X*X&X&X&X&X&X&XE.E.*X,XUXJ ] q.w.q.9.q.q.q.r.( b v M n N C N B C M C N M N N m K.R.-X,XNXNX3XNXNX~.~.I.z v x z c Z N N N N m m N M N m N N M n I.K.R.,X,XNXMXMXNXNX>XR./.l C N C B B m I.U.U.l C C N j <XAXUXr +.2.#.@.b b b v c V M M C N B B N C N C n Y.1X1X3XNXMXCXCXNX2X3X<XUX;Xn C B C n m m N B B N N C L.K.R.>X!.j k :X>X,XNXNXCXCXCXNXNX1X,X,X*X&X&X&X&X&X&X&X&X*X1XNXUXr y.8.} } 9.| g.C.V.N.C.B.N.N.M.M.M.M.V.h.c.c.{.N.{.yX9X2 8 7 7 7 @.@.@.2 Y W ~ ~ ~ / R i i i 8 W +.{ { ) ) ) ) 3.3.Q Q Q Q Q Q Q Q Q Q Q Q Q / W W r.x.h.B.B.{.}.}.}.}.}.}.eXwXeXwXtX9X~ q 0 < : E Q _ Q { Q Q ) 3.{ Q / / u 1 4 4 4 4 < 7 ! ~ 3.3.3.3.3._ ) ) U H.PXJ.1 G.G.V.{.V.V.B.B.B.B.V.V.B.B.B.V.V.V.B.B.{.}.wXV.eX{.B.B.6X6X7XB.m.B.c.M.e.0.g.G.M.{.{.{.{.B.{.{.{.{.B.V.B.B.N.V.n.~ Y b.9XM. .q.w.q.0.W ! / Q W 9.9.#.t.t.s.W / r.#.h.N.m.{.m.{.{.{.N.C.V.V.V.j.g.g.V.tXwXV.G.r.$.$.s.y.+.! { { Q 2.n.n.n.b.b.b.n.n.n.n.t.t.a.F.F.+.{ e.n.j.e.g.b.b.b.2.3.3.3.7.5.u @XKXZXVXmXVXVXZXbX  d < 1 2 1 1 1 1 1 1 5 5 1 1 1 1 1 9 5 < < 1 7 7 < < 4 4 5 1 8 8 1 9 9 9 6 Z.x ^.<X,X2X2X2X,X<XQ.@ d 5 1 1 p 1 1 1 1 5 5 5 5 4 , 5 ^ ! | e.f.w.w.w.w.",
"R R R R ! r.t.+.8 R 9 : 9 ^ Y ! ! ! ~ ~ ~ W W W W W W R 8 - , ; @ g b v C B N N N N N N M N C N N m l <X2XNXMXCXCXCXNX1X1X,X>X<XZ m N N N N N N N M N N N m m U.U.T.>X-XAXCXCXCXCXMXMX3X,X5X/.k k R.>X&X&X&X&X&X&X&X>XR.U.~.n b b O 4 ^ / / / / 3.9./ ( b x x c V V N N m m m N N N M C Z n n m m L./.R.,X3X4XMXCXCXZXZXCXCXNX:X>XR.K.I.E.&XE.R./.l j U.>X>XE.*X,XNXMXCXCXCXCXCXCXCXCXCXCXCXNXNX>X&X&X&X&X&X&X&XE.E.*X>X:Xh f ] q.q.q.q.q.0.s.( x v C C C C N C N N C B N C B K.K./.-X<XMXCXCXCXNX:X<XQ.j c x c c N N m N N N N N N N N N N M l Y.Y.-X,X,XNXCXCXCXMX:XR.!.l L.N N n N m L.k m m B B C A <XAXUXr r.3.+.@.' v v x c C N N B B B B N C N N k Y.1X1XNXCXCXCXCXNX3XNXZXGX<X* A N C C C N N B B N N m m l (.<XU.j k <X,X1XMXCXZXDXCXCXMX2X,X,X*X&X&X&X&X&X&X&X&X*X,XNXUX% ^ +.} 4.9.| x.C.V.M.V.V.C.V.M.M.C.C.C.h.h.h.m.k.{.yX9X2 8 7 7 1 @.H.@.X 2 8 8 u Y ! T U i 8 8 W +.{ { 3.3.) ) 3.3.3.{ { { { { { Q Q Q Q Q Q ` ! W 9.e.f.V.}.}.}.}.}.}.|.wXwX|.eXwXtX9X~ q 0 < : ! Q 3.| { { Q 3.3.3.! / / 7 < 4 3 4 1 2 7 W W 3.2.3.3.3.3.Q ) U H.PXJ.e uXG.V.{.V.{.B.B.V.B.V.V.B.V.V.V.V.{.B.V.V.V.V.V.{.B.eXrXrXrXrXrX6XB.N.V.g.r.b.9XC.}.{.eXeXeX{.{.eXeXB.V.V.}.V.6Xn.W ~ n.sXn.Y Y Y Y ~ W W W W ~ r.r.#.r.r.s.` s.s.! 4.B.m.m.{.{.m.B.B.V.V.V.C.f.} ] tXXXtXtX9X} ! Q E +.! Q 8.3.{ 3.6X6X6X6XwXwXtXtX9XG.j.j.j.G.F.o.] j.uXV.M.M.M.C.9X4.3.3.3.7.5.u @XKXVXVXVXVXVXZXbX  d < 1 1 2 1 1 1 1 1 1 1 1 1 1 < 1 9 1 1 1 1 5 1 < < 7 8 7 7 U 8 4 + ; o @ Z.x ~.NX2X3X3X1X1X2X^.  0 6 , 1 1 1 1 1 1 5 4 5 5 4 , 1 ^ ! ~ 2.2.} | | } ",
"~ W R Y ! r.r.! u R 7 : 9 R 7 / ! ! ~ ~ W W W W W R R R 7 - < 6 @ b b v N B C N N N N V M N N m l K.K.<X2X3XCXCXZXCXMX2X2X,X<X<XZ n N N M N N n m N N N N m l U.U.T.*X-X2XCXCXCXCXCXMXNX1X,X:Xk k /.>X&X&X&X&X&XE.&X&XW.T./.Z v x O 0 ( ( ( / / Q +.^ ( b x c x C N N N m m N N N C M M C n c Z L.P.E.-X5X3X2XMXCXCXZXZXCXCXNX-X*XW.K.I.E.E.E.E.:XZ A !.:X>X>X(.-XNXNXMXCXCXCXCXCXCXCXCXCXMX3X3X>XE.&X&X&X&X&X&XE.E.E.*X:XP I %.+.u.q.q.q.9.@.( x v C C N B N C N N B N m m m L.K.:X5X4XCXCXZXCXNX<X<X^.* c v z c V N N N N N N N B N N N C n Z ~.Y.5X1X4XNXCXZXCXCX<X:X/.l L.C N N C m L.m m B m m C A <XAXUXr q.3./ ( b v c x c C C N B B B C N C m L.l Y.1X1XNXCXCXCXCXNX3XNXMXZX<XA P m n C C B N m B C C B m L././.!.l K.<X,X4XMXCXZXZXZXCXMX3X2X,X*X&X&X&X&X&X&X&X&X*X,X2X<Xh Z.%.| 5.9.{ b.n.C.n.M.M.M.M.M.M.M.M.M.c.M.k.N.k.{.yX9X2 Y T u 1 @.Z.^ 2 2 E E ~ Y ! T 8 0 T 8 W 8.3.3.3.Q Q ) ) ) 3.3.3.3.{ { { { Q Q Q Q Q ! ! ! 9.0.f.6XwX{.}.}.}.|.|.wXwX{.|.wXtX9X~ q 0 < : ! Q 3.| 3.{ Q 3.3.) Q +./ 7 1 4 4 4 4 < u / W 3.8.3.) Q Q Q ) U H.PXH.e uXV.V.{.{.{.{.{.B.B.V.V.V.{.{.{.{.{.V.V.C.M.M.C.V.N.B.B.m.m.B.m.m.m.M.C.r.#.e.C.c.B.{.{.{.{.m.N.B.B.}.M.c.M.V.9Xn.W ! a.9X8X~ W ! W W Q Y ! | ~ 0.#.r.r.e.9./ ` 9.~ r.V.m.B.{.{.m.m.B.V.V.V.C.c.r.$.XX}.}.}.9X} | 8.{ 8.{ { 3.3.! } m.m.B.B.{.B.{.{.XXC.h.j.j.F.j.] ] j.G.M.:.h.M.c.9X} | 2.3.3.5.Y @XKXZXVXVXVXZXZXbX  d 5 1 1 2 1 1 1 1 1 1 1 1 1 1 1 7 1 < 9 9 5 1 5 1 < 7 q 1 1 q - g * * * * Z l ~.,X,X2X3X1X=X1XY.  d 0 < 1 1 1 1 1 1 5 4 5 5 5 < 9 ^ { | 2.3.2.2.2.2.",
"R W ~ Y ! r.t.{ Y W 7 < 4 1 2 @.y.+.~ ~ W W ~ W W W W E 7 ; 3 + @ x x v N N N N B N N N M N N m I./.R.2X2X3XMXZXZXDXCXMXCXMXNXNXI.l N B N N C N m N N N N m l U.T.W.*X-X2XCXCXCXCXCXCXMX2X2X<Xk l /.&XE.&X&XE.&X&X&X&XE.E.>XI.P b @ 3 4 : < 8 : E / ( b x x x c V M N N N N N N N C M M C n n L.!.U.&X*X=X3X3XMXCXCXZXDXCXCXNX-X*XT.K.I.E.*X*X,X<XZ j Z P Z l j ~.MXCXCXCXCXZXZXCXCXCXCXCXNX2X2X*XE.E.&X&X&X&X&XE.E.&X&X>X:X<X;Xo.p.q.q.q.r.@.( x c C B N B B C N C B N C L.I.~.Y.NXMXMXZXCXCXCXCXMXZX;XA V v z v V M V N M N n m B B C B B l K.<X,X2XNXNXCXZXZXDXDXZXZX<XK.L.L.B C B m L.L.B N N N C A <X2XUXr 9.3.+.( b v v c c C C m L.B B C N B m I.L.Y.2X1XNXCXCXCXCXCXMXMXCXCXMX4XAXQ.n B N B B B B B m L.N m L.K./.:X-X2X3XNXCXCXZXZXZXCXCXMXNX2X*X*X&X&X&X&X&X&X&X*X*X,X<X<XUXJ.E 2.8.2.} }  .}  . .} } } }  . . .f.h.h.M.k.{.yX9Xu ! W Y u @.( ( 1 X F.sXn.~ E R 8 8 T 8 W 9.3.) 3.Q Q ) ) ) ) ) ) Q Q { Q Q Q Q ! Q Q ! ! W { |  .M.m.{.{.}.wXeXeXwXeX{.|.}.tX9X~ q 0 4 : ! Q 3.3.3.{ Q 3.{ Q Q { ! 8 : ; > ; < : 7 / W 3.9.{ ! ! ! W ` U H.PXH.e uX}.{.{.{.{.{.{.V.V.V.V.{.{.{.{.{.{.B.V.j.r.r.j.C.C.B.6Xm.m.B.m.m.B.m.M.0.| 8.b.f.N.{.m.B.{.{.B.{.V.V.g.X.X.4.x.r.Y ~ ! ! ! ~ Q ! ! W Q Y r.9Xn.C.n.j.n.n.9.Y W W Y 0.9XM.B.{.{.{.{.B.{.{.}.wXwXV.XXXXXXXXXXtX0.{ 8.8.8.3.3.3.{ { } m.m.{.{.{.{.{.{.{.V.C.G.G.G.H.$.$.j.V.M.h.M.M.M.9X} | 2.3.3.6.Y @XSXZXmX$X;XVXFXnX  6 5 1 u 2 1 7 1 1 1 1 1 1 1 1 1 9 < < 9 1 < p p p T p 0 d 0 6 w ~.R.:X<X:X>XT.R.*X*X1X1X=X-X,XY.  0 4 , 7 7 1 1 1 1 5 4 5 5 6 5 7 / +.| 5.2.5.9.9.9.",
"R R R Y ! r.t.r.Y ! 0 4 4 : 2 s.F.+.~ ~ W W W W W W ! ^ 9 X o @ @ x x v C N N m B N N N M N N l U.(.R.2X3XNXCXZXZXZXCXCXCXCXCXCXl j l n N n N N N N N N N m l U.U.T.*X*XNXCXCXCXCXCXCXCX3XNX<Xj k /.&X&X&X&X&X&X&XE.&X&X&X>XU.Q.V @ 6 6 4 0 i 7 ^ ( ( b x x c x V M N N N N N N N N M N C c n Q.~.U.>X*X,X3X2XMXMXCXCXCXMXMXNX-X*XR.K.I.E.*X*X,X<Xl j n n M N j ^.CXCXMXMXCXCXCXCXMXMXMXMXNX1X1X*XE.&X&X&X&X&X&XE.E.E.E.&X*X<X^.^ p.q.q.i.s.@.( x c C B B C N B C C N N m k K.~.Y.NXCXMXCXCXCXCXZXCXZX:XA Z z z v V V C M m m n B m N B n l k l 2X1XNXCXCXCXZXZXZXFXZXDX2XK.K.L.m B B m B B N N B M V A <X2XbXr 9.8.@.@.b c c c c C C N B B B N N B L.U.U.R.2X4XNXCXCXCXCXCXCXCXCXMXMXNXNXI.A N B B B m m k k k B B n k T.>X=X3XMXMXCXCXCXCXCXCXMXCXMX3X5X-X&X&X&X&X&X&X&X&X&X*X>X<XAX^.p 8.3.8.2.2.2.} } } } } 2.} } } | h.c.c.k.k.{.eXtX~ { W Y 7 ( ( ( # O 0XsXj.e u u 8 8 Y 8 ! 9.3.3.3.Q Q 3.3.3.3.) ) ) 3.3.{ Q Q Q Q Q Q Q ! W Q ~  .M.N.{.{.}.eXeXeXeXeX{.{.{.tX9X~ q 0 4 : ! { 3._ 3.{ ! { ! ! { { ! 8 : < < < < : 7 W ~ 3.8.{ W W W ~ ` 8 J.PXH.$ iX}.{.{.{.{.{.{.{.{.V.{.{.{.{.{.{.B.6XV.j.#.#.n.G.C.C.6X6XC.6XB.m.B.M.C.0.Q 8.n.h.B.eX{.wXyX{.V.G.G.uXn.| } e.n.t.W ! Q W ! ! ) W Q Q ! ~ b.uX0X0X9XF.9X0Xs.R R W Y r.9XC.V.B.{.{.m.{.{.{.wXeXeXyXyXXXoXoXXXuXe.3.{ 3.2.2.2.2.3.{ } B.{.{.eXeX{.eX{.{.}.XXG.G.G.G.y.y.n.G.V.M.C.V.G.9X4.3.3.3.3.6.u @XSXFX;XI $XBXHXvX& % . X 1 2 7 7 1 1 1 1 1 1 1 1 1 9 < 1 9 - 4     & & & & &   & * :X-X-X,X=XW.W.E.-X,X2X2X1X,X2X^.& 0 5 0 7 7 1 1 1 1 5 4 5 5 5 5 7 / #.| 2.2.2.2.2.2.",
"R R R R W +.9.{ ~ W 0 < 4 5 2 / / E E R W W W W W R T R 4 ; w g w x z c C N N N B N N B N N N l U.E.W.2X3XNXCXCXZXCXCXCXZXZXZXCX:X~.I.l C B n n N N M N N m l U.U.T.*X*X2XCXCXCXCXCXCXCX3XNX<Xj l /.>X&XE.E.E.E.&XE.E.&XE.>XI.P b @ 6 0 9 1 7 9 d d g b v x x x V N N N N N m m N N N N N c c C Q.I.R.-X*X,X,X2X3X2X1X1X2X2X1X-X*XT.l L.E.E.E.>X,XT.U.I.m C C A Y.NX2X1X1X2X3X3X3X3X3X3X3X1X=X,X&X&X&X&X&X&X&X&X&X&X&X&X&X&X,X^.f 6.q.q.9.! ( g b n C B B C B N N C N C L.m U.<X<XMXCXCXCXCXCXCXZXCXCX<XI.Q.A c c V C N m m L.I.B n N C l !./.-X1X1X3XCXCXZXCXCXZXZXZXZX2XY./.I.m C B N N n n C N M N k <X4XbXp s.E d g b c c c c C C N B B N N B m m U.U.:XNX3XMXMXMXMXCXCXCXCXZXCX3X3XNXI.A B B B C m L.~./.U.m C C k T.*X-X2X3X3X3X3XNXNXNX3X3X3X3X2X,X,X,X*X&X&X&X&X&X&X&X&X&X>X<X^.^ p.2.8.8.8.8.2.2.8.8.2.8.2.} } | c.M.M.m.k.m.k.m.X.2.~ ~ T ( g g 3 2 y.D.l.:.l.E 8 T U 8 W 3.) ) ) { Q ) ) ) ) ) ) ) 3.3.3.Q Q Q Q Q Q ) Q ! { | 4.wXwX{.}.wXeXeXeXeXeX{.{.{.tX9X~ q 0 4 : / Q ) _ 3.Q ! Q ! Q Q Q Q R T R R R R R ~ ! W 3.2.3.3.3.Q ~ ) 8 J.PXJ.$ iXV.{.{.{.{.{.{.{.{.{.{.{.{.{.{.{.B.6X6Xc.#.#.n.G.n.q.g.e.w.g.w.w.c.M.n.8.| 8.b.h.C.}.{.}.}.M.r.e.e.e.0.{ { 9.r.9.W ~ Q ! ) ! ! W Q ) Q ~ +.#.0.+.9.y.s.t.+.R ! W R +.t.0.M.B.m.{.m.m.{.{.{.{.{.{.{.V.tXM.0.x.8.3.{ 3.3.2.2.2.3.{ | N.{.{.{.{.{.{.{.{.{.N.l.j.$.j.y.y.t.t.b.b.g.g.b.x.2.2.3.7.3.7.u @XVXZXVXmXBXmXbXnXvXvXg . 1 1 < 1 1 5 5 1 1 1 1 1 1 9 < 9 1 - g ^.~.Y.Y.Y.~.^.P & x 4X,X=X1X=XW.R.R.I.^.;X;X;X^.;XI X i 4 p 1 1 1 1 1 1 5 4 5 5 5 1 7 / 8.3.7.3.2.4.4.4.",
"R R R R R R Y Y ~ ! 0 < 5 p - < - 7 E E W W W W / 8 q < : o g ' b v z c C N B N B N N N N m m l T.E.W.2X3XNXCXCXCXCXCXCXZXZXCXMX2X2X:Xk m B N m n m Z Z m m l U.U.W.*X-X2XCXCXCXCXCXCXCX3XNXAXj l /.>X&XE.&X&X&X&X&X&X&XE.>XI.I.v & @ 3 9 0 i p 0 + w x v x z z V m N m N N N N N N n n C V n n n k U.Y.T.R.R.,X,X=X*X=X=X,X,XR.E.U.k L.(.E.E.W.W.R.>X!.n N C A I.<X=X=X=X=X1X1X1X1X1X1X1X,X*X*X&X&X&X&X&X&X&X&X&X&X&X&X&X&X>X~.f 5.q.q.Q 2 < g v M C C N N B B C C M C m k ~.CXMXCXCXCXCXCXCXCXZXCXCXAX<X:Xl j n V N m l L.!./.L.m B n j /.2X,X1X1X3XCXCXCXCXCXCXCXCXCX2X5X,XY.l N N N M z A n B m Z k <X2XbXr s.u X w b v c c c C C N C C N N C B m U.U.:XCXCXMXMXNXMXCXCXCXCXCXCXNX3XNXI.A B B B m k K.<X,XU.l M B k T.>X-X1X3X4X3X3X3X3X3X1X1X1X1X2XNXMX2X*X&X&X&X&X&X&X&X&X&X*X:X^.p q.2.{ 8.2.2.8.8.8.8.2.8.8.8.2.} C.V.{.m.h.h.$.$.E y.+.@.@.g w % % # . & G +XgXo.X 9 4 , p ^ E E E ~ ~ E E E E R E ! Q 3.3.Q Q Q Q Q Q Q Q ! Q ! q.wX{.wXeXwXeXwXeXwXwXwXwXwXuX9X~ 2 0 4 : / / ) ) 3.Q ! { Q Q ) ) 3.Q / 9./ / 9.+.Q { ! 3.q.9.q.p.3.~ ) 8 J.PXJ.$ iXV.{.{.{.{.{.{.{.{.{.{.{.}.{.{.{.B.6X6Xc.} } t.n.e.~ | | | | | |  .C.C.0.| 9.b.0.N.{.{.wXV.r.| | { | { { { { { +.! ! Q W ! W ) ! W W ) W ~ u Y Y Y E u R R T W W R R u 8 e.6XN.{.{.{.{.{.{.{.{.{.wXtXtXr.~ | | 8.8.3.2.2.2.2.3.3.} 6X{.eXeX{.{.{.{.{.N.C.V.$.] +.@.y.+.! ! { | | | | | 2.3.3.3.2.u @XKXFXVXFXVXA.& mXJXLXJ.  , 5 1 1 1 1 1 1 1 1 1 1 1 1 < p < , I <X:X-X*X-X>X:X^.& b AX2X1X1X1X-X,XY.* &     &     & . 9   & . 5 < 1 1 1 5 4 5 5 4 5 9 / r.2.q.2.2.2.2.2.",
"R R W W R ~ W ~ ~ E 7 < 5 4 4 < 7 R R T W ! W W E R < 4 5 O w v v c z v C C m B N C N N B l K.K.W.W.W.1X3X3XCXCXCXCXCXCXCXCXMX3X1X,X/.j B L.n Z K.l l K.Z l k !.T.W.*X*X2XMXCXCXMXMXCXMX3XNXAXj l /.E.E.&X&X&X&XE.&X&X&X&X(.I.Z n A c w < R < d d w w x c c z z V N N N N N N m N C n M C c c M N m !.U././.R.>X,X>X*X,X>X>X>X/.(.U.k L././.-XR.R.-X>X~.A C M A I.<X>X,X*X=X1X2X1X1X1X1X1X,X*X&X&X&X&X&X&X&X&X&X&X&X&X&X&X&X>X^.f p.8.9./ i 6 b c n C B N B B C N C M C C k ~.NXNXMXCXCXCXCXCXCXCXCXCX4X5X:XA c c V N m l K.R.R.I.l B N j :X,X-X1X2XNXMXCXCXMXMXCXCXMXMX2X=X>XY.k C N C M c c V B N m l <XAXbXr @.R X w b v v c c C B B N C M M C L.m !.~.:XZXCXNXNX3X3XNXNXMXMXMXMXNXAXNXI.A B C k K.K.K.*X>XT.l B C k T.*X>X2X2X2XNX2X3X3X1X1X,X,X,X1X2X3X,X*X&X&X&X&X&X&X&X&X&X*X<X^.f 9.3.3.2.2.2.8.8.2.2.2.} 9.r.! 2.m.yX{.m.h.H.J.J.g Z.( ( g x z * @ w % $ O.fX+XJ & * b x b I g J H f H f Z.Z.I Z.Z.E 9.! 8.! ! ! Q { Q Q Q Q ) Q w.6XwX{.{.}.}.wXwXeXeXV.C.6X9X9XE 9 0 4 : / ` ) ) { Q Q Q Q Q Q Q ) ) Q Q Q Q { { Q Q Q 8.{ { q.q._ ~ ) 8 J.PXH.e 9X}.{.eXeX{.wXwXwX{.wXwXB.B.wX{.B.{.6X6Xc. .} b.n.e.| } 2.3.2.{ | r.C.C.0.{ 9.a.4.6XeX{.wXtXg.{ q.3.2.2.3.3.8.9.9.! Q ! ! W W ) ) ! ! ! ! W W ! W W W W ! W / ! R W W W W F.n.9X6X{.{.{.{.{.eX}.{.wX}.uXn.| 2.3.3.2.2.2.3.3.2.3.{ } 7XrXrXrXrXrXrX{.eX{.V.C.r.$.y.@.y.+.+.+.{ } 2.} 3.3.3.3.3.3.3.~ OXSXBXFXZXZX$XJ mXSXSXZ.. 0 < 1 1 7 1 1 1 1 1 1 1 5 , 5 < r O J.4X,X5X,X=XW.>XY.& I AX1X=X=X1X5XNX<X  g w g 6 w w @ * * A Z g # 5 1 < < 5 5 5 5 6 5 7 +.9.2.5.5.2.2.2.2.",
"W R W W R R W W ~ E 7 - 4 4 5 < < 9 9 7 R W W ~ R i : 4 9 > g v v c z v V C m B N C N N Z L./.>XE.*X-X1X3X3XMXMXCXCXCXCXMXNX3X3X=X=X:Xk m N A !.<X,X,X<X:Xl k /.>X*X*X*X2XMXMXMXMXMXMXNX3XNX<Xj l /.>XE.E.&X&X&X&XE.E.&X&X(.I.l !.:X<XJ.p ! 7 d w w w x c c x c V N N N N N N N m N n n C c c M n A B l K.K.K.P.K.Y.E.R.K.k K.l K.L.l m L.k :X1X,X2X3X:Xj n C C l I.K.R.*X*XY.l R.-X-X*X*X&XE.&X&X&X&X&X&X&X&XE.W.R.E.E.&X&X>X^.5 3.! Q W 1 + b c n N B N N m m N n c M B k ~.NX3XNXMXCXCXCXCXCXCXMXCX3X1X<Xl z n V m L.I.T.,X2XU.k M C j :X,X=X2X3XNXMXMXMXMXMXNXMXNX3X1X=X,XY.k B N C M c c M N N m l :XAXbXr @.R O @ x x x c c C B B N V c z n N n L.L.L.Q.Z :X,X,X1X1X,X,X,X1X2X<XP Q.Z n N B m :X>X-X=X,XR.l N ).l T.E.R.Y.Z P P l -X,X=X-X*X*X*X*X*X>X*X&X&X&X&X&X&X&X&X&X&X&X<X^.f 9.8.8.2.} } 8.8.2.2.2.} { 8.9.2.w.$.$.k.O.;XUX;XA ' ' ' ' V N C Q.^.J.b J D y Z.^.~.<X:X:X<X;X;X;X;XvX;XBXAXAXZXVXH.p @.+.! 9.9.8.W Q ! ! ) ) Q w.6XB.m.{.{.V.V.{.{.B.4. .4.e.r.u < 5 4 : / ` ) ) { ! Q Q Q Q Q Q Q Q ! ! Q Q { 3.3.{ Q W Y ~ 8.q.3._ ` 8 H.PXH.1 G.V.B.eXeXeXeXwXwXwXwXwXV.V.6XB.B.V.V.9Xb.| | a.n.i.| | 2.3.3.{ | r.G.F.0.! { 9.| m.eX{.{.eXe.{ q.3.2.2.2.2.8.9.8.W ! W Q Q ! ! W W ! ! ! W ~ R W ! W R W / s.9.W R W W R Q ~ 0.m.m.k.{.N.N.{.{.B.V.G.uXn.! { 3.3.2.2.2.3.3.3.3.{ } m.rXrXrXrX{.{.{.B.B.V.G.D.F.G.F.F.j.n.b.9.{ 2.2.3.3.2.3.3.3.3.| ] H.J mXZXZXOXF mXKXSXZ.O 0 < 1 1 7 1 1 1 1 1 1 1 5 < 5 , r   J.MX3X3X2X2X*X,XY.& b AX1X=X=X1XNXCXUX  g % w w g w I ^.~.<X<X^.  9 1 < < 5 5 5 5 6 5 7 +.9.2.2.2.2.2.2.2.",
"! ~ ~ W R R R R R E < - 4 4 5 < < 1 : 2 T ! W ~ / i : < 1 X w b v c z v V C m N N V M n m L./.>X&X&X-X1X3X3X3XNXNXNXNXNX3X3X1X1X,X1X:Xk N C k ~.2X,X,X1X<Xj j ~.>X*X*X-X1X3X3X3X3X3X3X3X1X2X<Xk k R.&XE.E.E.&X&X&X&X&X&X&X>XI.l U./.<XP r E 2 4 w w w x c c z z V B N N N N N N N C n n C n M M V n C m Z L.L.I.l U.>X:XL.k m B m L.B N B j :X2X,X2X3X:Xj k N n N Z k R.&XR.Z k R.*X*X*XE.&XE.&X&X&X&X&X&X&X&XE.(.R.>X&X&X&X<X^.5 ) ! Q W 7 3 b v M V V C C N C C n z c C l ~.3X3XNXMXCXCXCXCXCXCXMXMX3X2X2XZ j M C m L.P.R.,X1XY.j n m j :X2X1X3X3XNXNXNXNXNXNXNXNX3X2X1X=X,XY.k C N V M c c M B B N l <XAXbXd y.^ X w b x c v c C B L.C N z z c C m B m l n j :X,X,X=X=X=X5X=X,X2X:Xj k m N N k k :X,X=X=X>XY.j j A k U.E.>Xl l m l k ~.>X>X*X*X*X&XE.*X&X&X&XE.&X&X&X&X&X&X&X&X&X<X^.f q.9.9.8.} 8.8.8.} } } q.3.3.6.| 0.o.o.J g ;XUX:Xk N C V V l k K.U.I.Z b g h h P ~./.>X>X*X>X:X;X;X;X;X;XAXMXAXMXAXJ.    . 2 i Y 9.Q 3.! ! ) 3.| w.tX{.eXeXwXwXtXyXyXtX} } 3.8.9.i < 0 4 : / / ) ) 3.Q Q Q ! ! Q Q Q Q ! Q Q Q { 8.{ Q +.! Y ~ 9.i.2.) ` 8 H.PXS.2 G.XX{.{.{.wXwX}.{.wXtXtXtXuXtX6X6XtXV.9Xn.{ { a.F.b.| { 3.3.3.{ { r.G.G.r.{ 8.8.| m.eX{.{.tXx.| q.2.2.2.2.2.9.9.+.W W ~ W ! W W W W W W W ~ ~ ~ W W ! ~ W 9.y.s.W ~ W ! W ! Y e.6XwXB.{.{.B.V.tX}.}.G.uXn.| 2.8.8.2.3.2.3.3.3.3.{ } B.{.eXeX{.rXeXeXwXV.V.G.G.G.G.S.F.F.F.n.q.{ 2.2.3.3.3.3.3.3.3.| } j.D nXGXZXA.G mXKXSXZ.  0 < 5 1 7 1 1 1 1 1 1 1 1 < < , r   J.MX3XNX3X3X,X2X^.  I AX3X1X=X,XNXCXBX& 6 & & & & & l ~.Y.-X,X^.  6 5 < < 5 5 5 5 6 5 7 +.9.5.2.2.2.2.2.2.",
"W R ~ W W R W W W / 0 ; 4 4 5 9 i 9 , < T ! W W / i 2 7 < X g b v z z c V Z N N M c M N N Z !.U.W.*X-X1X1X2X3X3X3X3X3X3X3X1X=X=X-X:X~.A C C j ~.3X2X1X2X2Xl Z !.R.W.*X*X,X1X1X1X1X1X1X1X1X1X1XR.R.>XE.E.&X&X&X&XE.&X&X&XE.(.U.l U.(.:XP ^ 9.2 4 w g z c c c x x V N N N N N N N N V n c V c c c M c C Z C I.L.m L.I.!.!.L.n N M B n M M ).j :X2X,X1X3X4XY.~.Q.c M N k /.>X(.L.k /.>X>X&XE.&X&X&X&X&X&X&X&X&X&XE.T.U.E.&XE.&X,X^.6 ) ! Q W 7 3 b b c M M M M M N C M z z V k Y.1X,X1X1X2X2X2X2X2X2X2X1X,X,X,XZ c c m m U.K.R.2X2XR.I.Q.A k ~.>X-X1X1X1X1X1X1X1X1X1X1X,X,X=X=X,XY.k B M V v c c M M N M n ~.;XJ.p ^ p O w b z z c c C B L.C C c z c C N N L.m C l ~.:X-XR.-XR.Y.Y.R.:X~.l m C n m !.Y.,X2X2X2X2X<X;X;X).k T.E.>XK.n B B l U.!.U.R.Y.E.&XE.&X&X&XE.E.&X&X&X&X&X&X&X&X&X<X^.f 9.Q Q 8.#.8.8.8.2.} } | 3.3.p.| qX^.J.^.^.^.~.!.L.B m M Z I.U.U./.R.~.^.^.^.I.R.R.R.W.E.E.*X-X5X<X<X:X:X4X2X,X2XAX<X;XbXmXnXqXR s.) ~ Q ! Q 3.~ 4.6Xm.B.{.B.m.M.M.M.M.4.2.2.q.9.i < 0 4 : / / ) ) 3.Q Q Q ! ! Q Q Q Q Q Q Q Q Q 8.Q ~ ! R Y ~ #.2.{ Q 9.Y H.KXZ.X iXaXyX{.{.}.}.{.{.tXc.f.g.x.f.w.w.g.g.n.i.{ { r.i.q.2.2.2.3.3.{ { 0.t.t.9.{ 8.8.| m.eX{.{.tXx.| 3.3.3.2.2.2.9.9.8.Q 8.! W ! ! Q Q Q Q ! ! Q 9.9./ W ! W W Q 9./ W W W W W Q Y e.V.C.B.{.C.h.h.M.V.V.g.b.i.| 2.3.3.{ 3.2.3.3.8.3.{ } N.{.{.{.{.{.{.{.yXM.g.j.n.n.n.r.r.r.e.e.8.2.2.2.3.3.3.3.3.3.7.| } C.[ nXKXVXH.J mXKXSXZ.  0 5 1 1 7 1 1 1 1 1 1 1 1 1 < , 9 O J.AX1X2X3X2XY.;XP   h ;X;X5X=X>X2XAXUX  % J.^.^.^.Y.:X*XW.*X,XQ.& r 5 < < 5 5 5 5 6 5 7 +.q.5.0.2.2.2.2.2.",
"R R R W Y Y Y Y R W 0 ; 4 , 1 i R i < , T / W W W i 2 < ; @ w v v x z c V N N N M z c n N n l k Y.-X-X1X1X1X3X3X3X3X3X3X2X,X-X-Xj j k n B n j <XCXNXNXNXAXl P Z j l -X*X,X1X1X2X2X1X1X1X1X1X1X,X,X&XE.E.&XE.&X&X&X&X&X&XE.E.I.l U.(.:XP @.q.2 5 g b c c c c x x M Z Z Z N N N N C M c c M c n n M n Q.I.I.I.C n A j j j n N B n M M B N M * <XMX3X3XNX3X,X<X!.* V N k !.>X(.Z j T.>X&X&X&X&X&X&X&X&X&X&X&X&X&XE.K.K.T.E.E.&X<X^.6 ) W ! ~ 8 > b v c c c c c c M C M x x M j K.,X*X*X*X*X*X=X=X*X=X=X=X=X=X-Xl j n B l I.l ~.NXNX,X,X:Xk k U.Y.Y.*X*X*X*X*X*X*X*X*X*X*X*X*X*X*XP.l N n c c x c M N n c z j * @ O < 2 . w x x c c c C B B N C c z c C M N B m B N j k k k l j * * j j n n C N l I.:X-X2X3XNXNXMXZXGXFXQ.j T.>X>XK.n M B n m k k l k T.>XE.E.&XE.E.E.&X&X&X&XE.&X&X&X&X<X^.f 8.~ Y #.#.2.2.8.8.2.2.2.9.9.o.d vXUX:X:X:XI.j j N Z m j l /.>X(.E.E.&X>X-X>X>X>X&X&XE.E.E.E.*X1X2X2X-X>X*X-X*X-X,X2XCXMXZXDX;X  R 9.p.) Q ) 3.| r.tX{.B.{.M.h.g.g.f.f.2.2.2.q.9.T < 0 4 2 / / ) ) 3.Q Q Q Q Q Q Q Q Q Q Q { { +.9.Q Y T T i R { { ! Q 9.Y H.SX( . iXlXsX{.wXwXwXwXtXuXw.X.X.| | | | | 4.0.8.{ | { { | 4.q.5.2.2.{ { 8.} #.{ 3.8.2.| m.eXeXeXuXn.{ 2.7.2.2.2.2.8.9.9.8.q.{ W ! ! ! ! W / / / 9.s.s.9.W ! ! ! ! ! W W W ! R W Q ~ e.9XV.V.V.M.$.#.j.G.C.| | } ! 8.3.3.3.3.2.2.3.3.3.{ } 6X{.wX}.}.wX{.V.uXh.X.~ ! ! { { +.| { } 2.3.2.2.3.} } 3.3.3.7.3.3.6X[ nXJXFXH.= mXSXSXZ.O 0 1 < 1 1 1 1 1 1 1 1 1 1 9 < < 0 O I 4X-X=X1X5X& &   + @ & * Y.-XW.Y.:X^.    ;X4X1X1X1X=X=X=X=X,X^.  r 5 < 5 4 5 5 5 4 5 7 +.q.5.q.2.2.2.2.2.",
"R R R R Y E ~ ~ Y W 7 : 4 , 1 T E T < , T W W W W T 2 , > @ w v v x z c V N N N V z c M C N n k !.>X>X1X1X2X2X2X3X3X3X2X2X1X,X<Xl N B B A n j ;XCXNXMXMXAXP I.A j I.:X>X,X1X2X1X2X2X2X2X1X1X,X,X>X&XE.>X&XE.&X&X&XE.E.&X&X>XU.l U.(.:XP +.8.2 4 g b c z c x x x V Z Z N N N N M M M M c M c v n c c I.I.I.L.L.c n M c c n C N m M n N m N j <XNXNXNX3X2X,X,X!.* n m k U.(.(.m j R.>X&X&X&X&X&X&X&X&X&X&X&X&X&X(.K.k T.&XE.*X<X^.4 ` W ! W 7 3 b v c c c v c c V C M x x V A I.:X>X*X*X*X*X*X*X*X*X=X*X*X*X:XZ c n n j I.l ~.NX3X5X,X:Xj l !.U.U.>X*X&X*X*X*X*X*X*X*X*X*X*X*X:XU.m N c c c c c M N n M c n c g 0 < 7 o w x c v c z C B B B C c z c V N N B N B C C C B C C M z v V M N V C N l I.:X5X2XNXNXNXZXFXFXFXQ.j U.>X(.K.n M B N N n B N k /.>XE.&X&XE.E.E.&X,X&X&XE.&X&X&X&X<X^.^ 3.~ ~ 8.#.2.2.8.8.2.2.2.{ ( Z.x ^.:X/./.:XQ.A n Q.Q.C A l /.:XE.E.E.>XE.&X>X(.>XE.(.E.R.(.&X&X,X2X2X-X*X&X&X*X-X,X,X2X2XAXNX;X& f R W ) ) 3.8.{ w.9XV.V.wXB.h.g.g.x.x.5.2.7.q.9.T 9 0 4 2 / / ) ) 3.Q ) ) ) ) Q Q Q Q Q Q { 8./ / ! Y R T i R { } | | 9.Y H.KX(   OXzXpXB.{.wXB.wXtXuXb.| | 3.3.3.3.2.2.2.2.2.3.3.3.2.5.q.2.3.2.3.2.} #.8.2.8.8.2.| 6XeXeXN.6Xn.2.2.q.7.5.2.2.8.9.9.8.q.{ ! ! W W ! { Q W ~ ! { +.Q ~ W W ~ ~ W ~ E ~ Q ~ Q Q ~ t.9XC.C.G.F.$.$.n.9XG.} | 3.3.q.3.9.9.2.2.3.3.3.3.{ 2.C.B.V.V.V.V.V.C.uXb.} } 8.{ 8.9.} } } 2.2.{ 3.2.3.| } 3.3.3.3.| | M.S nXFXVXJ.h mXZXSXZ.O i 1 < 1 1 1 1 1 1 1 1 1 1 1 1 < 5 X b 4X5X5X4X<X& % w @ 6 @ & ^.<X<X:X<X^.* & 5X1X=X1X1X=X=X=X-X<X^.& 6 1 < 5 5 5 5 5 4 5 7 +.q.4.q.2.4.2.2.2.",
"R R R R ! e.b.r.! ! 7 : 4 , 1 R W Y 2 < T / W W W T , 3 b b v v v x z c V N N N V c c c V M c A l I.K.Y.Y.Y.Y.Y.!.~.Y.I.P P Z Z n B N n Z <X<XNXCXMXMXCXCXAXAX;X* n I.l Y.-X:XY.K.I.I.Y.Y.Y.Y.R.E.T.P.T.E.&X&X&XE.T.Y.R.&X(.I.l U.(.:XP o.q.8 0 g c c c c c x x V N N N B N N M c c c z v x c c c A I.!.I.L.L.c z v c z M N n N C M m m B A Q.Q.Y.<X,X>XE.>XI.* I./.T.(.>X(.l j T.>X&X&XE.&X&X&X&X&X&X&X&X&X&X>XL.l T.&XE.*X<X^.3 ) W W R 2 + b v c c x v x c C C n x z v c Z I.Y.Y.I.I.I.I.K.K.K.U.P.Y.Y.U.n c n C n UXAXNXCXMXNXCXAXj A n n l I.P.P.P.P.K.K.K.K.K.K.K.K.K.L.Z C C c c c c c N m m c c C P ' O 9 9 o w x x x x z C C C C C c z c N N N m m N N N m B N B M z x V V M M n n n L.I.K.Y.~.~.Q.Q.^.^.^.C j Y.>X(.K.m n N n N M C M k ~.E.E.&X&XE.E.E.&X,X&X&XE.&XE.E.&X<X^.^ q.3.3.8.2.2.2.9.9.8.8.0.o.Z.^.!.I.L.Z Z Z M M n Q.Q.L.c n L.L.I.U.P.T.(.R.K.K.R.(.(.U.K.R.&X*X>X,X,X-X*X,X1X,X*X*X>X*X,X2X3XNXUXnXH./ / 9.9.9.Q } r. .h.M.j.0.4.5.6.p.7.7.7.2.9.i < 0 5 2 / / ) ) ) ) ) ) ) ) Q Q Q Q Q ! +.+.! W R T R T i R Q { | | 9.Y H.KX(   OXzXpXm.{.N.c.C.6X9Xb.! | 2.3.3.3.2.2.3.2.2.2.2.2.2.q.p.7.7.9.8.8.} 8.#.2.8.2.2.| C.wXN.5.w.r.{ 2.3.7.7.5.5.2.2.2.2.8.2.9.9.! W 0.n.F.0.} 0.j.g.e.b.t.r.9.r.t.r.j.F.9.Y W ! Y { r.} g.n.y.+.E y.C.n.} { 2.3.9.3.2.3.2.2.2.3.3.3.{ 2.4.5.w.w.e.e.e.0.0.8.{ 2.9.8.8.3.8.8.8.8.2.3.2.2.3.| 3.3.3.3.3.| 4.uX;.VXFXZXBXBXVXZXSXZ.O 0 7 < 1 1 1 1 1 1 1 1 1 7 1 5 5 5 , w Z.I A I Z.@ @ b ' P g % b b v v ' b %   5X1X1X3X3X4X1X<Xj I g . 5 1 < 5 5 5 5 5 5 5 7 +.9.4.q.8.4.4.2.2.",
"R R R Y | n.C.g.#.@.u : 4 4 5 T ! R 2 < R / W W W T X + ' ' c c v x z c V N N N M c c c V M z z A L.l L.L.K.l Z L.L.l j * * * * M C n l l AXNXNXNXMXMXMXMXMXCX;X* v n j Y.(./.k j A Z m l k K.R.R.U.K.Y.>X&XE.&X>XP.K.T.>X(.I.l U./.:XP o.2.8 6 g x v c v c x z V N N B B N M M z c b x b x x x c A I.I.I.L.I.n v v z z M C N N n N m m m k A j j /.,X>XE.>XI.j L.<X(.E.E.(.Z * Y.>X&X&XE.&X&X&X&X&X&X&X&X&X&X>XL.k R.&XE.*X,X^.6 ` W W R 2 + b v c c x v c c C C n x z V M n l l l m Z l n A j j L.l l l m z v V V A AXCXMXMXNXMXCXAX* * * z z Z l l l l n l l l l l l Z k A n C V c c c v c m m m n M V V b ; 0 5 O w b x x c c C B N N C c z c N C N B B B N m m B B C M z z n C M C N C N m m k I.I.Z j j j j j N l U.>X(.K.m n N n M n M M j ~.E.E.E.E.E.E.E.&X=X*X&X&X&XE.&X&X<X^.^ p.2.p.8.2.2.4.9.9.8.9.#.f P ~./.K.j c c c c c k Q.!.Q.A M C n L.l k /.(.T.k k T.(.(.K.j !.>X&X&X*X&X*X*X,X2X,X*X*X*X*X-X2X2X3XMXZXI . R / ` 3.3.{ 2.| e.n.n.0.} 2.7.7.7.2.7.q.9.i 4 0 5 2 / / ) ) ) ) ) ) ) ) Q Q Q Q Q ! Q Q R Y T T T T T R Q { | { 9.Y H.SXf   @XzXsXB.{.m.5.c.6X9Xb.! 3.8.3.3.3.2.3.2.5.2.9.e.e.q.q.i.q.q.q.9.9.#.8.8.2.9.9.8.| 6XuXC.} } 9.8.q.q.7.3.5.5.5.2.2.2.2.2.r.9.~ Y 0.9XC.| ~ ..g.g.r.n.n.r.#.e.e.r.G.sXn.Y R / W Q #.| t.F.a.o.E y.C.n.} { 8.3.9.2.8.{ 2.2.2.2.3.3.{ 2.2.2.q.q.e.e.r.r.{ 8.3.{ 8.3.8.2.2.3.3.2.9.2.2.2.3.| 3.2.3.3.3.| ..pX1.nXZXCXZXZXVXZXVXZ.O 9 1 1 1 1 1 1 1 1 1 1 < 9 < 9 1 5 4 < O o &   O 3 @ V I.l * & & & &     O d & 5X3X3X3XNX3X3XAX  O # r 5 1 < 5 6 5 5 5 4 5 7 +.9.5.q.8.4.4.4.2.",
"R W R Y ~ n.G.$.E ^ p ; 6 0 5 i ! T : < R R R W ! i < % b v c c v x z c N N N N M c z c V M z z c C C L.L.L.L.L.L.L.Z z x x x z V M C l l ,X1X1X1X2X2X2X1X2XNX:X* V M k U.(./.l k Z L.L.L.L.P.(.(.U.k I.>X&X&XE.>XP.K.T.>X(.I.l U.(.:XP ^ 3.8 6 g v v c v x x c V B C B N N V M x v x x x v x x c A I.I.I.I.L.M v c c z c V N N N N N m L.L.L.m L.~.(.*X&X&XI.j K./.R.E.>X(.Z j T.>XE.&X&X&X&XE.&X&X&X&XE.&X&X>XL.l T.E.E.&X<X^.4 ` W ! R < 6 b v c c x x c c C C M x z M n n Z Z Z Z Z Z N n c n C C Z Z L.c c v Z j <XNX2X3X3X3XMX2X;X;XJ.* z V C m B N C N Z Z Z m Z m m n C C N c c c c c M N m n c n V b > 4 5 3 w b x x c c C N B B C c z c C N C B B C N B B N N N n z z M N M M M M M M B m I.U.Q.n m n Z M B k U.(.(.K.l n n B m n N N j T.E.E.E.E.E.E.E.=X,X&XE.&XE.E.E.&X>XQ.f 3.q.3.8.8.4.2.8.9.8.#.$.( C !.!.L.n V v c M N Z L.U.I.n n C C m m L.!./.U.m k T.(.(.K.l T.E.&XE.&X&X&X*X,X,X,X,X,X>X*X>X,X,X1X3XAX;X@XH.R s.+.! 3.q.{ b.a.e.e.q.4.2.7.2.5.5.9.9.i < 4 4 : / / ) ) ) ) Q Q ) ) Q Q Q Q Q Q +.Q W W R T T T T Y 8.{ { { 9.Y qXSXf . OXlXuXC.}.M.M.6Xx.9Xi.2.{ 2.2.{ { { | 2.2.{ { 8.9.8.9.9.9.9.9.8.{ +.8.{ 8.8.8.} 8.g.6XM.w.2.2.8.q.q.7.5.2.2.8.2.3.2.4.4.9.{ { ~ w.C.M.......h.C.0.r.r.9.+.9.0.r.j.F.9.! ! ! W / 9.{ a.n.a.+.! b.G.n.} 2.2.2.2.3.3.3.{ { 3.3.3.3.{ { 9.9.q.r.r.r.r.r.9.+.3.8.8.2.2.2.2.2.2.2.2.2.2.2.3.} 3.3.3.3.3.| ..oX1.nXZXZXZXZXZXZXVXZ.O 0 1 1 1 1 1 1 1 1 1 1 7 7 9 5 5 5 5 5 p p 6 r p d   I.R.Y.Y.Y.Y.^.^.& 6 4 0 & :X1X,X2X1X1X2X<X& 0 p 1 1 1 5 5 5 5 5 5 4 5 7 +.9.5.8.2.2.2.2.2.",
"R ~ R Y ~ j.C.$.O 2 < ; 4 : < ^ E R 5 ; , - 8 ! ! i < % b v c c v x z c N N m N M c z c V M x x c N N B m m m m m Z n z x x x z V M V l l >X=X=X=X=X=X=X-X-X:XY.j M M k U././.l A N L.B B L.P./.(.U.k I.>X&X&X&X>XY.K.T.(.(.I.l U.(.:XP @.9.8 0 g b v x c x x c V B B N N N V M x x x b x c A A A l I.U.U.L.I.n c x c c M C n n m N M C !./.U.K.K.K.K.P.*X>XI.j K.U.P.W.>X>Xm * T.>XE.&XE.&X&X&XE.E.&XE.&X&X&X>XK.l T.E.E.&X<X^.3 ` W ! R 2 3 b v c c x x c c C C c z z M n n C Z Z Z Z Z V c z c V V Z m B c x c A * :X,X,X,X5X1X3X3X2XAX^.* z V C N C N C N C Z Z m B N n A m C N c c c c c M N N n c n V b > 6 6 6 w b x x c c C N B B C c z c C C C B B m m n B C N Z c z z M N N M V M V C M n I.U.I.l m N M N B k U.>X(.K.l M B B m m m m k T.&XE.&X&XE.W.E.&X&X*XE.E.E.E.E.E.:XQ.p { 9.3.2.2.2.2.8.8.2.#.@.b Z L.L.m c v v n C Q.I.Z Z l A c M C ).C m m l m m l U.>X(.K.l /.E.&X&X>X&X*X*X*X*X-X,X2X,X-X&X*X-X,X2XNXAXFXnX2 ! 8.9.2.3.2.2.2.2.} } 3.3.3.2.4.5.q.s.u < 4 4 : / / ) ) ) ) Q Q Q Q Q Q Q Q Q Q Q Q / / ! T R T T R 8.3.{ { ` 8 qXSXd . dXzXiXV.tXM.M.c.| } 2.| { 3.} } } } } 8.8.! W W W ~ ~ W W W ! W W ! +.{ 9.9.8.{ { #.} } 3.2.9.q.q.7.3.5.9.8.2.} } } } } 9.9.0.} c.wXV.M.wXwXC.C.| ~ ~ ~ W ~ ~ Y ~ E ! Y W W W Q 9.3.{ 8.+.! E t.9XC.} 2.2.3.3.3.3.3.{ } { 3.3.{ { { 3.{ { { +.+.+.{ 8.+.{ 2.2.2.2.2.2.2.2.2.2.2.2.3.3.3.3.3.3.3.3.| ..oX1.nXZXZXZXAXZXZXSXZ.  p 1 1 1 1 1 1 1 1 1 1 7 7 9 9 5 5 5 5 5 6 4 5 < 0 & ^.,X*X,X,X,X<X<X* > 0 6 & Y.-XR.R.-X-X-X:X  < 5 5 1 1 5 5 5 5 5 5 4 5 7 +.q.5.8.8.2.2.2.2.",
"R ~ W ~ ! a.F.s.O 5 6 , : - 2 u W R 9 3 < - 8 / ! u 2 @ b v c c v x z c V N m N V c z c V M z z c V M B N M N N N Z M z x x z x M M N m K.:X>X-X*X*X*X*X*X-X:X!.j M M A I./.~.Z j M C B B Z P.R./.U.k I.>X&X&X&X>XP.K.T.(.(.I.l U.(.:XP @.9.8 0 g b v c c x x x V N B m N N V V z v x x j A k k k k K.P.P.P.I.A z x x z n n k l l l j Z R.R.Y.K.U.P.K.Y.,X-XK.j k P.P.W.&X>Xl j T.>X*X*X*X*X*X>X>X&X&X&XE.&XE.(.K.k T.&X&X*X,X^.3 ` W ! R 2 3 b v c c x x c c V C M z z M M M V M Z Z n Z Z v z c V V N B m c x c c j :X,X,X,X,X,X,X1X2XAX^.* z M m m m m Z m Z C C M C M n n N C N c c c c c M M n v c M V b > 9 5 3 w b x x c c C N B B C c z c C C B m m l l l m B B V M z z N m N N M N N N M n I.U.Q.n M M M C B l U.:X/.L.n M M n l k k k k U.E.E.&X&XE.E.E.&X&X&XE.E.E.E.E.E.>XQ.p | 8.3.2.8.8.8.8.5.5.9.@.b N L.L.m c n n n L.Q.Q.n M c c c N m N C B B B L.B m !.<X(.K.l ~.>X&XE.>X&X&X&X&X*X*X,X,X=X-X*X*X*X,X,X2X3XZXnXX s.8.3.2.9.8.2.2.2.2.2.2.2.4.2.4.5.8.s.u < 4 4 2 / / ) ) ) ) Q Q Q Q Q Q Q Q Q Q Q Q / / ! R Y Y Y R Q Q Q +.s.8 qXSXd X jXxXsXV.9Xn.n.n.} { { 8.9.9.+.+.#.#.8.9.8.W W W ! W ! ! W W ! W ! ! 9.9.9.9.9.9.#.#.} } 3.3.3.3.7.7.2.2.2.2.2.8.#.{ } } 9.9.9.| g.6XN.N.yXtXC.9X} ~ W Q / ! W W W W ! W ! / W Q 8.2.3.2.8.{ { b.0X9X2.2.2.2.2.3.3.3.} } 2.2.3.2.} { 8.8.8.8.#.{ { { 3.} 2.2.3.2.2.2.2.2.3.2.2.2.2.3.3.3.2.2.3.3.3.|  .yX>.nXJXZXZXZXZXZXSXZ.  u < 1 1 1 1 1 1 1 1 1 7 7 7 7 1 1 5 5 5 5 4 4 0 d & ~.*X-X=X1X=X,X<X* % 0 0 @ ^.:X:XR.-X-X:X~.@ 9 < 5 1 1 5 5 5 5 5 5 4 5 7 +.q.5.0.8.2.2.2.2.",
"~ ~ W R Y +.+.E X 0 6 , p @.+.! R i , 3 5 1 7 E / i < % b v c c v x z c V C N N M c x c V M z z v C V C N N C V V V M z x x z x M M C n l U.Y.Y.Y.Y.Y.Y.Y.Y.Y.Z j v M c Z I.I.A z M L.L.B L.P./.(.U.k I.>X&X&X&X>XP.K.T.(.(.I.l U.(.:XP @.7.8 7 g b v c x x x x N N N m N N V M z v v z P :X:XR.R.R.E.E.E.(./.l n v c c V Z K.~.:X!.j Z >X>XR.R././.R.>X2X2X:XR.:X,X>X>X>X>Xl k T.>X*X,X,X,XW.R.E.W.E.&X&X&X&X>XK.l T.&X&X*X<X^.> ` W ! R 2 + b v x c x x c c C V c z z V M M N Z C Z Z Z C n A n C C C B m c x v c j I.Y.Y.Y.Y.Y.Y.Y.Y.~.I.j N C B m C m Z l Z m C V C M c n N C N c c v v c v v c c c M V b > 6 6 3 w b x x v c C N B B C x z z C M C B L.U.U.I.L.L.L.C M z z C N C C C C B N M n I.!.Q.c M M M n N m L.U.I.m N M B m !./.R.R.U.(.E.E.&X&XE.E.E.&X&X&XE.E.E.E.E.E.:XP p { 9.2.8.0.9.9.q.9.8.+.' v N L.C Z M M N m L.).).N C V c c C B N C B C B N B m L.U.!.L.k !.>XE.Y.Y.W.&XE.&X&X&X*X=X=X,X,X&X&X,X>X,X2XMXUXO y.9.8.3.q.2.8.8.8.2.2.3.2.2.2.4.5.8.9.u < 4 4 2 / / ) ) ) ) Q Q Q Q Q Q Q Q Q Q Q Q ! W ! / +.E Y E 8.8.! ~ ` : H.IXd X H.n.b.0.r.0.e.i.} 2.8.9.9.Q E { +.#.8.9.8.! ! 8.9.9.! / ! ! ! ! ! Q / Q / ! Q 9.9.8.8.8.5.2.3.7.2.7.2.3.{ { 8.r.+.E ! E ! ! ! ~ 5.m.h.c.M.h.0.n.} ~ ! 9.9./ W Q / / ! W ! ! W ! 2.{ 3.3.8.{ | 0.e.0.2.2.2.3.3.3.3.2.} } 2.2.2.2.} { 8.9.8.8.8.} { { { 2.2.3.2.2.2.2.3.2.2.2.3.2.2.3.3.3.3.3.3.3.3.3.| h.S lXmXbXVXZXZXZXSXZ.  9 < 1 1 1 1 1 1 1 1 1 7 7 7 7 1 1 5 5 9 5 4 < 0 d & ~.>X*X=X=X=X=X<Xh o 4 4 @ c A A k l l A b & 5 , 9 1 1 5 5 5 5 5 5 4 5 7 +.q.5.0.8.2.2.2.2.",
"W R W R Y Y i 2 , 0 4 - E S.y.! E p 4 3 < , 9 / / R 4 > b v c c c x z c V C N N V c x v V M z * A n l l l l l A M V M z x x z z M n M N n l k l l k l k l k Z j z v V c n l n z z n L.L.m K.P./.(.U.k I.>XE.E.&X>XP.K.T.(.(.L.l U.(.:XJ.@.p.U 7 g b v c x x x x V B B B N N C V c v z j I.<X>X*XE.&X&XE.&X&X(.l j A j j l l I.:X<XY.* j <X>XR.W.R.R.W.*X3X3X,X-X=X,X=X=X*X-Xk j Y.:X-X,X1X=XY.T.T.U.R.>X>X>XE.E.L.l R.&X*X&X,X^.o ` W / ! 1 + b v v v x x x c N N c x z V n n m m m l l n l A j A N C M C N z x x x j Z l k k k k k k k l m N C N m m m l m l l l l n C M n n m C N c c c x x v c c x c n V b > 5 5 + w b x x x c C N B B C x z c C N C m L.R.R.P.k l m n n w z M n n M M N N N N n I.!.Q.A n M N m m m L.m m n B m B l /.*X&XE.&XE.E.E.&X&XE.E.E.>X&X&XE.E.E.E.E.E.:XP a } 3.| 8.0.9.9.9.0.+.@.b M N N M V C B C Z L.L.L.m N n c c N C N N m m C N C B m l l l k !.(.E.K.K.Y.>X&X&X&X&X*X*X=X,X,X*XE.*XW.-X2XMXUX& p E q.3.9.2.} #.2.2.2.2.2.4.4.4.5.q.9.u < 4 1 2 ! / ) ) ) Q Q Q Q Q Q Q Q Q Q Q Q Q Q ! 8.s.9.E u E 9.q.! Y W q qXSX@.- +.~ } | 3.3.8.8.! ! 8.9.9.! W Q 9.9.9.9.8.! ! 8.9.9.W ! E W ! ! W ! W W W R ! 9.8.2.3.2.5.7.7.3.2.2.8.3.{ } 0.t.9.~ ~ Y W ~ W ~ e.6XV.V.V.M.r.b.} Y { 9.r.Q ~ W ! W ! W ! ! W Q 9.2.2.2.2.2.{ { } | 2.2.3.3.3.3.2.2.2.2.8.8.2.2.2.2.8.8.8.8.2.2.{ } { 2.8.3.3.8.8.3.{ 2.8.8.3.} 3.3.2.3.2.3.3.3.3.3.| | u XX$X$XVXZXZXZXSXZ.  0 < 1 1 1 1 1 1 1 1 1 1 1 7 7 1 1 1 5 5 5 9 , 6 w & ^.<X-X1X1X1X1X<Xh . 7 0 : %   % & & & & @ X 1 < 9 5 1 5 5 5 5 5 5 5 5 7 +.9.5.8.2.2.2.2.2.",
"R T R W R R R u < 6 4 1 p +.@.E R i 4 4 3 , 9 ^ R 7 , @ b v c c c x z c V N N N V c z c V V x * n I.I.Y.P.K.I.I.C V V z x x z z M n M C N N N C C B C N B N C M x z M n n n M M j m I.U.I.P.U./.(.U.k I.>XE.E.&X>XP.K.T.(.(.L.l U./.:XP ( 9.u 5 g b v c x x x x V B B B N N C V z c c A I.:XR.*X&XE.E.E.E.E.E.P.K.I.L.I.K.k Y.<X,X-Xl I.<X2X:X>X>X-XR.,X3X3X=X=X=X1X1X,X=X*XP.K.R.<X,X1X1X=XY.R.!.I.!.(.(.(.&X>XK.l R.E.E.*X<X^.o ` R R ^ 5 + b v c v x v c c V C M x z V n m I.U.P.P.I.I.I.K.Z L.m C B L.C c x x v c N C L.L.B B B C N n N B m N N B m m I.I.I.U.U.l n n n n m C M c c c c x v x x x c n V b + 5 5 3 w b x c c c C N B B C x z c C B B l I.>X*XR.Y.Y.U.I.Z z z M N N N M M N N C n I.U.I.A M M B m m m m L.B ).L.L.L.k R.*X*XW.E.E.E.E.&X&XE.R.R.>X>X&XE.E.E.E.E.>X:XJ.o.5.} | 8.0.9.9.8.9.+.@.b M M c c M B B V N L.L.L.m B n n n C C N N N B B N B B L.B L.L.l U.(.(.I.K.U.>X&X&X&X&X&X&X&X,X&X*X&X&X*X*X2XNX<XJ.J.%.+.3.q.2.8.#.8.2.2.2.5.5.2.4.5.q.9.7 < 4 5 2 / / ) ) ) ) Q ! Q Q Q Q Q Q Q Q ! Q Q Q Q 8.{ | E | 8.9.! Y ! T H.nX( < +.} 3.2.5.5.q.9.3.3.8.q.9.{ Q +.+.+.9.9.+.W W +.9.9.{ +.! ! ! ! ! W ! ! ! W Q 9.9.8.2.5.2.7.7.3.2.3.3.8.q.0.0.t.9.R W W ! W ! ~ 9.b.g.c.c.g.r.e.{ ~ Q 9.9.{ ! W ! ! Q ! ! ! W +.9.2.8.2.0.2.2.8.0.2.2.2.3.3.3.3.2.2.2.8.8.8.3.3.2.2.8.8.8.8.8.2.2.2.3.2.2.3.8.9.8.{ Q 8.9.9.8.{ 3.2.2.2.3.2.3.3.3.3.3.3.~ aXzX$XVXZXZXZXSXZ.  0 < 1 1 1 1 1 1 1 1 1 1 1 7 7 1 1 1 1 9 1 6 4 6 w & P ;X:X5X<X<X:X;Xh # 7 7 7 7 < p 5 p 9 0 9 7 1 5 5 5 1 5 5 5 5 5 5 5 5 7 +.9.5.8.2.2.2.2.2.",
"< 2 8 W R W E R : ; 4 , , < 2 - < < ; > 4 4 4 9 < 2 X @ x v c c c x z c V N m N V c x v C C x j !.<X>X>X*X*X>X:XI.m V c x x x z M M M n m m N M M M N n N n M c z z M n N n M n k I./.(.R.R.W.E.R.U.k I.>XE.E.&X>XP.K.T.>X(.I.l U././.Z o T 2 > b b v c x x z x V N N N N B N M z z V n l l k P.W.W.E.E.E.E.E.E.*X>X>X>XR.K.R.2X1X1X1X4XNXCXMXMXNX1X,X2XMXNX1X1X1XNXNX1X=X=X*X>X2XMXNX3X1X,XY./.L.j l L.P.R.&XE.L.l R.(.E.>X<X^.O ^ 8 < 9 ; @ b v c x x x c c V C M x w M l I.(.(.E.E.>X(.E.-X>X/.K.L.L.L.B c x v v c C L.B C N C N C C C N C m B B L.L.L./.>X*X>X/.L.A c v n N C V c c c c x v v x x c n V b + 5 5 3 w v x v c c C N B B C x z c C B B k Y.,X=X=X=X=X*X>X~.A M C B B B B B V C C n I.!.I.l n n ).L.).B L.).L.!.!.L.L.K.,X,X=X*X&XE.E.E.&X&XY.k K.>X>X&XE.E.E.E.E.:X<XJ.j.m.4.4.8.9.0.8.8.9.@.@.b V M z x v C N N m B m B n C C n n L.L.B C B B L.).).B N N m L.l U.(.(.I.l Y.>X&X&X&X&XE.E.&XE.&X&X&X&X&X&X*X-X4XAXFXH.E 2.q.2.2.8.#.} } } 3.2.2.5.5.q.s.7 ; 4 5 2 / / ) ) 3.Q ! ! Q Q Q Q Q Q Q Q ! ! Q ! W ! | e.j.j.{ ! ~ ~ W Y a S.5 8 Q 9.3.3.3.| 3.3.3.3.3.8.8.8.+.Q ! W 9.9.9.W W 8.9.8.9.9.+.! ! ! ! ! ! W ! W Q 9.8.2.5.2.3.7.2.5.9.8.{ q.i.e.0.y.s.W W W W W W Y W ! ~ ~ ~ ! ~ Q W ~ ~ W ! ! W W ! ! W W W W ~ ! { | } } } } | 3.2.3.2.2.2.2.2.2.2.2.8.8.8.8.8.8.8.8.+.+.8.3.{ } } } { 3.+.+.9.9.+.! ! +.r.9.+.{ 8.8.2.2.3.3.3.3.3.3.3.| u oXzX$XVXZXZXZXSXZ.  6 < 1 1 1 1 1 1 1 1 1 1 1 1 1 1 1 1 7 9 < 1 4 4 6 O % & & &   &   %   5 < < 1 7 0 9 < 1 2 8 2 1 , 5 < 5 1 1 5 5 5 5 5 5 5 7 +.9.5.q.2.2.2.2.2.",
"9 q U W R R R p < 4 4 4 4 5 5 , - 2 4 4 4 3 3 4 < < , @ b c c c c x z c V C m N V c c c V A * * Y.>X*X*X*X*X*X>XK.j A z x x x x n C B m m m N M M M N m B N N c z z M n n M M c j I.T.W.W.W.W.W.R.P.k P.>XE.E.&X>XP.K.T.>X(.I.l U./.:XZ   9 5 6 g b b c c x z x V Z N N m N N M c z v V N m k U.E.W.E.E.E.E.W.W.W.R.*X>XY.K.Y.2X1X1X1X4XNXCXMXMXNX1X,X2XMXMX2X4X4XMXNX4X-X=X=X-X1XMXMX3X1X,XT./.I.A N L.K.R.>XR.L.m /.>X-X>XAX^.O / 8 - 1 , @ b b v x x c c c V M M b x n k P.&XE.E.E.E.E.W.-X,X:Xk k k k l z c c z A l l k l l l k A m N N m n j j j j k Y.R.W.-X:XK.A c M n N C V c c c c x v v x x c V ' b + 5 5 > w b c c c c C N N C C x z c C B C l ~.AX1X=X=X*X*X*XY.* * j j j j j j j k N l I.!.I.k k j j j j j k k k K.K.k k j >X,X=X*X>XE.E.E.&X>XT.l K.>X>X&XE.E.E.&X:X:XbXJ.F.6X| | 9.0.0.0.2.9.@.@.v M M x x M N m B m m n l j j j n j j j j m m l k k j k m L.m m k U.(.(.L.l U.<X>X*X*X*X*X&X&XE.&X&X&XE.&X&X&X-X,X2XZXJ.s p.2.q.8.8.8.2.2.2.4.4.4.5.5.9.9.7 ; 4 5 2 / / ) ) 3.Q Q Q Q Q Q Q Q Q Q Q Q ! Q ! ! ! ~ 0.j.g.! W Y ~ W W p @.p ( Q | 2.5.3.3.2.2.3.{ { 2.8.9.9.+.! W 9.s.9.W W { 9.8.9.9.+.! ! Q Q ) ! W ! W Q 9.8.2.5.2.3.3.7.5.2.{ { q.b.e.r.t.s.W W W W W ` W ! W Q ! ! Q W ! W Q Q ! W ! Q Q Q ! W ! Q Q W Q +.{ r.r.0.2.3.2.2.} 2.2.2.2.2.2.2.8.8.8.8.8.8.8.8.8.8.9.9.8.8.} } } { { { { +.9.+.E W 9.t.s.+.{ 8.8.2.2.3.3.3.3.3.3.| 3.u uXmX@XVXZXZXZXSXZ.  6 < 1 1 1 1 1 1 1 1 1 1 1 1 1 1 1 1 7 8 8 7 9 < 9 1 1 0 d p p ( 6 p e < 4 5 p < 8 1 1 1 2 7 < 5 , 9 , 1 1 5 5 5 5 5 5 5 5 8 +.q.2.9.4.2.2.2.2.",
"T T R E R 0 9 9 4 4 4 4 < 5 # p p p : 4 4 , 6 4 5 , # @ b v x c c x z c V C N N M c z M A P <X5X5X,X,X=X=X=X=X=X-X-X~.j M z v c M N N m N C n C C B N N ).N C M x c C n n V c c * ~.2X,X*X*X*X,X,XR.P.U.(.&XE.&X>XP.K.T.(.(.L.l P./.:Xn @ 0 4 4 6 w w b c x x z C N M N m N N M x z v V N m k U.E.W.&X=X=XW.-X1X2X2X2X2X-XR.<XNX3X2X1X1XNXMXCXCXNX1X=X2XMXMXNXNXNXCXCXNX2X2X1X5X4XNXMX3X1X,XT./.I.j m L.K.R.(.R.K.l /.:X/.Q.^.S.i / 2 9 < , 3 w w x v x x c c v n c x x V k K.E.E.E.W.E.=X,X3XNX2XR.R.R.R./.n V n M j ~.:XR.U.R.T.T.~.m m N m Z <XUX<X<X<X4X2X,X-X>Xl A M M c n C n c c c x c v v x x x b b d > 6 6 > @ b v v c c V C N m C x z c C N n A P ~.~.5X=X=X=X-X5X<X<X:X:X-X-X:X/.R.~.l Z I.!.I.I.l <XAX<X<X5X-XY.-X,X,X,X5X,X=X*X&XE.E.E.E.E.&X>XU.l K.(.>XE.E.E.W.R.~.V J.@.0.4.g.r.0.! 8.q.5.8.@.( b V M z x M C B m m m L.K././.!.j V UXUX<Xj Z ~.>X-X-X:X!.k B m k U.(.(.Z A I.~.I.AXNX2X*X&X&X&X&X&X&X&X&X&X&X-X,X2XZXJ.R q.9.3.2.} 8.8.2.2.2.2.5.2.5.q.s.i 4 4 < 2 / / ) 3.3.3.Q Q Q Q Q Q Q Q Q Q Q ! ! ! ! ! ! 9.b.e.} | Q W Q ~ 8 R 0 < 9.} 2.2.2.2.2.2.3.3.3.2.3.2.9.8.W ! / Q Q { { { } 8.9.9.+.! ! Q Q Q Q W ! ! Q 9.9.5.5.2.2.3.3.3.3.2.3.8.i.t.8.+.9.W ! W W W W W ! ! ! W ! ! W W ! Q ! Q W Q ! ` ! Q ! W ! ! W ! ! ! / ! Q 8.3.{ } } 3.2.2.2.2.2.2.2.8.8.8.8.8.2.2.2.8.{ { 8.8.{ { { { 9.r.r.9.+.+.! ! 8.r.9.+.{ 8.3.{ 3.2.2.3.3.2.3.| 5. .G.OXOXVXZXZXZXSXZ.  p 2 1 1 1 1 1 1 1 1 1 1 1 1 1 1 1 1 7 i R 7 2 9 9 < 9 4 5 5 5 9 9 1 1 1 1 1 1 1 1 1 1 1 1 1 1 1 1 5 5 5 5 5 5 5 5 5 5 5 1 < +.9.9.q.5.2.8.2.2.",
"R R R R i 4 : , , 4 4 4 , 2 . a o.o., 5 4 4 4 4 4 ; o @ b v c c v c z c V C B C V c c M n I.AX3X1X1X,X1X1X1X1X,X=X,X/.j k A n n Z m m l k k j k k k k k k k n c V x z j j v z * * ;XMXNX,X*X=X2X2X:XU.T.>X>X&XE.>XP.K.T.>X(.I.k U./.<XZ @ 6 4 < X # @ x c x z z C C C V B C C M x z v M n m l U.(.W.,X,X,X-X,XNXMXMXMXNX,X-X4XCXMX3X1X4XNXMXCXCXNX1X,X2XMXMXMXMXCXCXCXCXMXNX1X1X3XMXMX3X2X,XT./.L.j m L.K.T.(.(.L.l ~.:XQ.* @ 9 R / 2 X 2 < , 6 @ w x x c c x c x c x z M l I.>XE.E.W.>X1X1XNXMXNX5X,X=X*X>XL.C n Z j :X,X-XR.R.R.-X/.K.Z Z m Z ZXCXCXCXMXMXMXNX,X<XZ A c v n Z C n c c v v v c c x g w d p 9 : 4 6 3 w ' v v v c V B N N C x z c C N n c z z & 5X1X1X=X=X2XMXMX2X1X,X,X,X,X>X:Xl L.I.U.U.I.l <XCXNX3X3X1X5X,X2X3X3X3X1X*XE.E.W.E.E.E.E.&X>XU.l K.(.>XE.E.E.W.R.Q.@ p 2 u ~ g.g.+.R 8.r.q.+.@.( v M M c c n B N C m B L.K.<X<XU.* P ZXHXUX* l <X,X=X=X,X~.k L.m k U.(./.l j j P j AXZXNX,X,X&XE.&X&X&X&X&X&X&X*X,X3XAXI X ! { 9.2.2.9.8.2.4.2.2.2.2.5.q.9.u 4 4 < 2 / / ) ) 3.3.Q Q Q Q Q Q Q Q Q Q Q Q ! ! ! ! W q.b.r.| { Q W Q W 7 ( d 1 #.} 3.2.2.2.2.2.3.3.3.2.} 3.9.Q W W ! ! { 9.8.8.8.8.9.9.Q W ! ! ! Q ! W ! W Q 9.9.9.2.2.2.2.7.2.7.3.3.q.b.i.{ ! Q R W W W W W ~ ~ ! W W W ! W W W W Y W W W W Q ! ! Q ! ! W ! ! ! W W W Q 9.9.8.8.2.2.2.2.2.2.2.2.2.8.8.8.8.8.8.2.2.8.2.8.8.8.8.+.+.+.9.t.r.9.8.+.! W Q 8.8.Q { 3.{ { { 2.3.3.2.5.2.5.m.5.| ] %.VXZXZXZXKXZ.  4 < 7 1 1 1 1 1 1 1 1 1 1 1 1 1 1 1 7 E R 7 2 7 7 < 1 5 5 5 5 7 7 7 7 1 1 1 1 1 1 1 1 1 1 1 1 1 1 1 1 5 5 5 5 1 1 5 5 < < 2 +.9.9.q.5.8.8.8.2.",
"R R R i 0 4 , 4 4 5 3 , 2 e = D $.O.X 6 4 4 3 6 5 4 + @ b v c c c x z x M M M M M c c v c P <X2XNXNX2X2X3X2X2X2X,X1X:Xk l K.l l Z k L.I.K.I.Y.Y.I.I.Y.K.K.I.I.n z c P I.V c c ^.P <XMXNX,X=X,X,X2XR.U.U.(.(.E.>X>XP.I.U.(./.I.l I./.<XZ & 4 4 > 3 + @ b c x x c M M M M M N N M x x v M M N n I./.T.,X,X=X-X,XNXMXMXMXNX,X5X4XNXMX3X4X4XNXMXCXMXNX4X4X2X3XNXMXMXMXMXMXCXMXNX3X2X3X3X3X2X1X,XY./.L.l L.L.K.R.(.(.l n U./.^.* d / W R u 2 u u p , % w x x c c x x c x c z M n L././.R.Y.:X3X2XNXCXNX4X1X=X*X*XK.Z Z Z j <X4X5X:X:X-X>X:XK.l m m Z AXMXMXMXNXMXMXAX:X<XP c v V n n C N c c c v c c c v g g f R T 7 0 6 3 6 b x b v c M N N C C x z c C M n c M v * 5X1X=X*X-X1XMXMX4X,X,X,X,X,X<X:Xk K.P.I.U.U.l <XMXNXNX3X2X,X4X2XNX3X1X1XR.T.R.T.T.(.E.E.E.>X!.l K./.(.E.E.E.T./.^.% ( W ! | c.j.s.R / +./ / Z.b v M n c c M N N N n N Z l /.:X/.P Q.AXZXUXA P 5X1X=X=X,X~.k m m l U.(.R.I.l l Y.l AXCXAX5X,X*X*X*X&X&X&X&X&X&X&X,X2X2X;XJ.H.E 9.2.8.9.8.2.4.4.4.4.2.5.q.9.u < 4 < 2 / / ) ) 3.) ) Q Q Q Q Q Q Q Q Q Q Q Q Q Q ! ~ w.n.h... .+.~ W R 2 ^ p 1 +.} 2.2.2.2.2.2.2.3.3.3.| 3.8.3.Q Q Q W { 9.8.8.9.8.9.9.+.Q Q Q Q / ! ! Q W Q 9.8.2.2.3.2.5.7.5.7.3.| 0.a.r.{ Q Q ~ W W ~ W Q Q E W ! W W ! ! ! ! W ~ 8.8.+.W ! ! Q ! Q ! ! ! ! W ! W W ! +.8.9.9.8.2.2.2.2.2.2.2.2.2.2.8.8.8.8.8.2.8.2.2.8.8.{ { 3.3.8.9.9.8.{ +.{ { 3.8.8.{ 3.8.{ { } 2.3.3.3.2.2.3.v.p.0.+.S.SXZXAXZXKXZ.. 6 < : 1 1 1 1 1 1 1 1 1 1 1 1 1 1 1 7 T i 7 7 7 7 1 5 5 5 5 5 7 7 7 7 1 1 1 1 1 1 1 1 1 1 1 1 1 1 1 1 1 1 5 5 1 1 1 1 9 < 2 +.r.8.5.5.9.8.2.2.",
"i R u 2 1 4 , 5 4 6 3 # f H.>.l.l.>.. < ; 9 , 4 , < > @ b v v v c x w x c c c c c x x c z A ^.I.<XMXCXCXCXCXMXMXMXCXNXY.T./.~.U.L.l R.<X<X2X2X2X2X4X2X2X2X2XAX~.* n <XAXQ.* A AXNXNXNX3X2X2X1X-X>XT.U.U.P.K.W.>X(.P.P.U.U.U.Z l I./.<XZ   3 4 > 4 3 > b x x x x c c x z c M V M x x v M M V n Z l K.>X=X=X=X,XNXMXMXCXMXNX3XNXCXMXMX3XNXMXCXCXCXMXNXNX3X4X2XNXMXMXMXCXMXMXMXNXNX1X5X=X-X-XR.k K.I.I.I.U.P.R.(./.l n Z I.V @ 9 : u 8 s.s.$.$.y.r % w b c c c x x x x v c M n m L.K.k j ~.NXNXMXCXCXNX3X1X=X=XY.I.I.L.j AXMXNXNXNX1X,X<XK.l L.L.K.AXNXNXNXNXNXMXAXk I.A z c v c M C M c c c c c x c x g g ( +./ E ( 0 : 4 d > w b c c c n C C x z c C N n c v v * :X1X=X-X-X1XNXNX3X2X1X1X2XNXMXAXR.(.!.U.U.U.k <XCXCXMXMXCXMXNXMXMXNX3X2XY.K.P.K.K.T.E.E.Y.U.L.k l U.T.U.U.U.U.~.^.w / ! E ~ g.g.+.8 Y p 9 d b b c c n M M M N N N N C L.K.U.Y.<XZXAXZXDXDXAXMXNX1X1X1X3X/.k B B l U.(.(.R.R.:XAX<XCXCXCXNXNX,X*X*X*X&X&X&X&X&XE.&X-X>X2XZXbXa t.8.q.8.8.4. .4.4.4.2.5.q.9.u < 4 < 2 / / ) 3.3.) ) ) Q Q Q Q Q Q Q Q Q Q Q Q Q ! ~ e.B.c.h.g.9.Y / E 2 ^ p 9 +.#.8.2.2.2.2.2.3.2.3.3.} 3.8.3.3.8.Q W ! Q ! { 9.9.! ! ! ! ! ! W W W ! Q W Q 9.8.2.2.3.3.2.5.2.3.3.3.2.q.0.8.9.9.~ ! W Y ! t.a.+.W ! ! ! ! ! ! ! W 8.n.n.r.W ! ! ! W ! ! W ! W R R ! W W W W Q 8.8.2.2.2.2.2.2.2.2.2.2.8.8.8.8.8.8.2.2.{ 2.{ { { { { { { { { { 8.9.9.9.q.t.r.r.9.{ 2.} 2.3.{ 3.3.{ 3.3.| q.t.S.IXZXZXFXKXg & 6 9 9 1 1 1 1 1 1 1 1 1 1 1 1 1 1 1 7 2 7 T R i 1 1 9 5 5 5 1 7 7 7 1 1 1 1 1 1 1 1 1 1 1 1 1 1 1 1 1 1 1 5 1 1 1 1 5 5 < 2 +.9.8.5.5.2.8.2.2.",
"T ^ i 2 < < ; 4 3 6 > O f S.:.l.].:.  X O , $ $ 2 < o @ b v v c v x z x v c c c x x x c c c Z j <XZXDXZXDXZXCXCXCXCXAXY.R.:XT.P.K.k T.>X>X1X2X4X2X4X4X4X4X2XAX:X* n <XAX^.& j AXNX3X3XNXNXNX2XR.E.T.U.U.K.K.W.>XE.P.P.P.I.I.Z l U./.<XV   4 4 ; ; > 6 ( b b x x c x z z c M V V z c v M n M n m k K.<X,X,X,X,XNXMXMXCXCXNX3XNXCXCXMXNXNXCXCXMXMXMXMXMXNX1X1X3XMXMXNXMXMXMXMXMXMX2X=X=X-X:XR.k k I.U.!.U.P.T.R.T.l N l Z v @ 4 2 - 2 y.y.y.s.y.e o w x c c c x v c c b v V n n N C l j ~.CXNXMXCXCXMXMX1X*X&XU.U.L.K.k 4XMXMXMXNX1X,X>XK.k k k k NXNXNXNXNXMXMXAXj L.n x x v c M C M c c c c c c c x x g ( ! +./ / p < 1 0 + w b x x z n C C x z c C C n M V v * <X3X1X1X1X1X3X3X3X3X3X3X3XMXCXNXR.>XU.P.!.U.k <XZXCXCXCXCXCXCXCXCXNX2X3XR.I.I.L.k /.>XE.P.U.L.n l U.U.U.U.U.U.~.^.6 ^ Y W } m.h.~ 2 u 2 o 6 b b z z c V V N N N N N C L.K.U.K.:XCXCXCXZXZXZXCX3X2X2X3XMX:Xk L.L.l U.R.E.T.Y.-X2X4XNXCXCXCXMX4X-X,X*X&X&X&X&X&XE.E.E.-X2XCXmXr 9.7.7.8.8.4.4.4.4.4.5.5.q.9.u < 5 < 2 / / ) 3.3.) ) ) ) ) Q Q Q Q Q Q Q Q Q ! Q ! ~ f.B.m.m.M.r.u u Y 2 p 1 7 +.8.2.2.2.2.2.5.2.2.3.3.3.2.5.5.8.9.Q ~ W ! W Q 9.9.W ! ! ! W ! ! ~ W ! W W Q 9.9.0.8.2.3.2.5.2.3.3.2.3.2.3.2.q.8.~ Y Y Y E s.y.+.R ! ! ! ! W W W ~ } n.n.0.~ W W ! ! ! ! W W W W W W R R ~ W Q 8.8.2.2.2.2.2.2.2.2.8.2.2.2.2.2.8.8.2.3.3.3.{ { { 2.3.{ { { { { 3.9.8.8.r.t.r.r.9.2.8.3.8.{ { { { | | X.~ } #.S.SXZXAXZXBXh & 3 O < 1 1 1 1 1 1 1 1 1 1 1 1 1 1 1 7 < 7 R ^ i 1 1 1 1 1 1 1 1 1 1 1 1 1 1 1 1 1 1 1 1 1 1 1 1 1 1 1 1 1 1 1 1 1 4 4 , < 2 +.9.8.5.q.2.2.2.2.",
"9 0 9 1 4 4 3 4 < 5 4 # r H y l.].].] o.f 5 a f ^ p X @ b v c c c x g x v v c v x x v c v c M j ~.AXAX:X:X<X4XAXMXCXNX<X<X2X>XT.R.Y.*X=X,X2XNXNXNXNXNX3X3X3XNX:Xj I.4X3X:XP Y.2X1X1X1X1X,X,X,X-X(.U.I.U./.R.E.&X&XW.R.T.U.U.I.L.U.!.~.v   < > ; 4 4 4 d w g b x x c x c M N V V z x c M n M M M Z Z ~.R.R.R.-X3X3XNXMXMX4X4X4XMXMXNX4X2XMXCXNX4X3XNXMX3X1X1X3XNX3X4X,X4X1X1X2X2X=X-X*XY.Y.U.n m L.U.U.U.P.T.T.T.m V n V b w ( ^ E E ^ a E E E e o w b x x x x b c x x x v c M C C N j Q.<X5XAXCXNXNXNX,X*X*XP.P./.:X~.NXCXCXCXNX1X,X,XY.T.R.R.R.,X,X,X,X,X1X2X<Xk ).c x z v c M M M v c c c c c c v x g / / ! T T 0 < 7 p 3 g b x c z n N C x z c C M c c v c * ^.:X-X,X1X=X1X,X,X,X1X2X3XMXCXAXR.*XU.K.U.U.k <XZXCXCXCXCXCXCXCXMX3X,X,XY.L.L.C k /.>XE.U.U.I.l l U.U.U.U.U.U.~.J.6 / ~ Q } h.f. .E E p 3 w b x v z c M N m N N m m L.L.K.:XR.4XCXCXCXZXCXCXMXMX3X3XNXCX:Xj L.m l U.E.E.R.T.-X3XNXCXCXZXCXCXNX3X2X*X*X&X&X&X&X&XE.E.-X,XNXbXr s.9.7.8.8.2.4.4.5.5.5.5.q.9.u < 5 < 2 / / ` ) 3.) ) ) ) ) Q Q Q Q Q Q Q Q Q Q Q ! ~ w.m.k.k.N.#.2 ! s.@.s.9 7 / +.3.3.2.5.5.2.2.2.2.2.2.2.2.2.2.9.3.{ { 9.+.+./ / ! ! ! ! Q r.t.0.Q ) Q W Q +.{ 8.r.0.2.2.9.5.7.2.2.3.2.3.3.2.2.! { 9.9.9.+.+./ ! ! ! ! ! W W ! W | n.C.r.~ { { 9./ ! W W ~ Q s.s.E E ! { 3.3.8.2.2.2.2.2.2.2.8.8.8.8.2.2.2.2.8.2.2.2.2.2.2.3.8.9.9.q.9.9.r.q.9.9.q.8.q.8.8.8.8.{ 8.3.8.8.3.2.2.{ } F.9Xj.] >.SXZXZXZXFXbXbXvX# p 1 1 1 1 1 1 1 1 1 1 1 1 1 1 1 7 7 7 9 p 9 1 1 1 1 1 1 1 1 1 1 1 1 1 1 1 1 1 1 1 1 1 1 1 1 1 1 1 1 1 1 1 1 1 5 4 5 p u +.r.8.2.5.2.2.2.2.",
"- - : , 4 4 3 , < 2 1 # X .   :.].].l.H.%.$ a o.>.^ X @ b b v c c x w g b v c c v x v x x c M j l R.Y.K.k K.:X5X3XMXMXMXMXMX2X-X,X=X=X=X1XMXCXCXCXCXCXMXNX3X3X-XI.:XNXNX2X5X5X1X1X=X=X-X-X-X*XE.R.P.k L.:X>X>XE.&XE.>X/.U.U.I.U.I.I.!.c @ , ; 4 5 4 ; 6 + w x x x x x c M N M M z x c V n M M M M A l k k k l ,X1X3XMXNX1X,X2XMXMX4X,X1XNXMX3X1X4XNXMX3X1X2X3X3X,X-XW.*X*X*X*X=X*X-XR.l j l n N I.U.U.U.P.T.T.U.Z V c x g ^ o.o.o.o.2 X X - X X o w b b x x g x c z w * x z c V M N j I.~.Y.4XMX3X3X3X=X=X,XK.K.:X,X,XNXMXMXMXNX1X=X,X-X*X>X&X=X=X*X*X-X-X-X*XR.k ).c z x M c n n c v c c c c x x x g g / / T - < : : < 9 ; w b x x c n N C x z c C C M c c z j j j k R.*X-X*X*X-X-X,X2X3XMXCXNX-X*XP.k K.L.k <XFXZXZXCXCXCXCXMXMX3X5X:XK.k n n k /.(.E.U.U.I.l m !.U.U.U.U.U.^.J.6 / ~ Q | f.h.f.0.$.s e w b z v c c M N m N m m N C m l <X1X3XCXCXZXZXCXCXCXCXCXCXCXZX:Xj L.m l U.(.R.R.Y.:XMXMXCXCXZXZXCXCXCXNX,X*X*X*X&X&X&XE.E.W.1XNXUX% @.9.5.8.8.2.8.8.8.5.5.5.q.9.u < 5 < < / / / ) 3.3.) ) Q Q Q Q Q Q Q Q Q Q Q Q Q Q ~ w.m.f.k.M.#.e E y.S.S.< 7 +.+.2.2.3.2.2.2.2.2.2.2.2.2.3.2.5.5.2.8.9.9.9.{ E W W W W W { t.n.t.8.8.8.! Q Q Q 9.t.r.9.8.9.5.7.7.2.2.2.2.2.2.2.2.8.r.a.0.~ Y ~ W Q ! ! ! ! ! Q ! #.G.9Xb.{ 9.9.s.9.W W ! W 9.F.F./ Q { 9.9.2.2.2.2.2.2.2.2.8.8.8.8.8.2.2.2.2.2.2.2.2.2.2.2.2.8.q.p.i.e.e.a.a.i.q.p.e.e.q.2.{ { { 2.3.2.8.2.2.2.{ ..iXxXl.s %.SXZXAXZXZXKXHXIX. 6 < 1 1 1 1 1 1 1 1 1 1 1 1 1 1 1 7 < < < < 1 1 1 1 1 1 1 1 1 1 1 1 1 1 1 1 1 1 1 1 1 1 1 1 1 1 1 1 1 1 1 1 1 5 5 9 ^ R s.r.0.2.2.8.2.2.2.",
"5 < < 4 > 4 4 , X X $ $ # # . D.[.,.:.H.%.. a O.%.a X + b b v c v x w g b v x x x x x v v x v A K.:X:XY.k Y.,X:X2X3XNXMXMXNX2X-X1X1X1X5X4XCXCXCXMXMXNXNXNX3X3X-XK.:XNXNX1X=X=X=X1X,X,X>X>X>XE.R.(.I.k L.:X(.E.E.E.E.>XT.P.I.I.U.U.I.Q.x @ 4 > 4 ; 4 4 p 6 w b x x x x c M N N V z x c V n M M n V M N N ).L.K.2X1X1XNXNX1X,X2X3XNX2X,X1X3XNX2X1X1X3XNX2X4X2X3X3X2XR.R.&X&X&X*X>X-X:X:XK.k C N n L.U.U.U.P.T.T.U.m V b g p ^ o.D ] o.2 p 1 1 2 2 O w b b g g g b v x w w v c c V V V j I././.AXNX3X2X2X=X,X,XY.K.:X1X4X3XMXNXNXNX1X=X,X-X=X=X=X=X-X-X*X*X-X*X>X/.k ).c z x v c n c c c c c c c v v v g d / / R : 0 4 < < 9 > g b b v c c V C x z c C C c c c z z V N K.<X,X-X>X-X-XR.,X2X2XNXNX2X-X,XY.I.U.~.I.AXZXZXZXCXMXMXNXNXNX3X,X<XI.m B L.k /.(.(.U.U.L.l l !.U.U.U.U.U.Q.J.3 R R 9.{ #.r.e.e.$.e = r b v c z c V N N N m C m N Z l 2X4X3XCXZXCXZXCXZXCXCXCXCXCXCX;Xj L.m l !./.R.R.Y.:XCXCXCXCXCXCXZXCXCXNX5X-X*X*X&X&X&X&XE.W.,XNX<Xh Z.+.} #.2.5.5.8.8.5.5.5.q.9.u < 5 < < / / / / 8.) 3.) Q Q Q Q Q Q Q Q Q Q Q Q Q Q ~ e.C.v.c.m...e ~ y.F.S.- 7 +.+.3.2.2.2.2.2.2.2.2.3.2.2.2.2.5.5.2.q.2.2.8.| ~ W W ! W ~ { a.n.r.8.8.Q W Q Q ! r.a.r.9.8.8.5.2.2.5.2.3.3.3.2.2.3.0.r.b.y.E ~ ! ! W W W ! W ! ) Q 0.9X9Xa.{ 9.9.s.9.W W ! ~ 9.9XF.! E ! { 3.3.2.5.2.2.2.2.8.8.8.8.8.8.8.2.2.2.2.2.2.2.2.2.2.2.8.q.q.e.9.8.i.a.i.9.q.q.e.e.2.{ { 2.8.3.2.2.2.3.3.| $.iXxXl.s %.VXZXZXZXZXVXKXBX  d 4 1 1 1 1 1 1 1 1 1 1 1 1 1 1 1 < 9 9 1 1 1 1 5 1 1 1 1 1 1 1 1 1 1 1 1 1 1 1 1 1 1 1 1 1 1 1 1 1 1 1 1 1 1 5 5 < p R +.9.0.0.2.8.2.2.2.",
"4 ; 4 ; 6 ; O ^ S.$.y.H.( X . >.|.k.= p p 2 e $.>.o.X < w @ w v v x g x v v x v x x x c x c c c A j A A A l l k :X5X4XNXNX2X,X1XNXMXNXNXCXMXCX4X5X,X,X=X1X2X1X1X2X3XMXMX2X-X=X1X1X5X* P A l l K.L.l A A L.K.T.R.W.T.T.U.L.I.I.I.I.I.Q.z @ 6 ; 6 4 ; 5 p 6 w x x x x x c M N V M c x v M c M M M n M n N B l K.,X=X=X1X1X1X=X=X1X1X=X=X=X1X1X=X=X=X=X,X-Xj k :X,X:X* j Y.(.R.k k l l l n M M V m L.U.U.P.U.I.I.I.Z V x w f E ] ] ] o.1 6 < , X @.S.o.r 6 w g w x v x w w x c c V M c c n I.K.~.~.Y.,X,X1XNXNXNXMXMXNXNX4X2X,X=X,X3XNXNXNXNX2X,X,Xk l l l l K.l l m N x z x c c c c c x c c v v z x g b ( @.+.^ X < d @.^ < ; 6 g * b x z c x x z c C V c c v z z v V n Z K.K.l l l k K.R.R.-X-X1XNXNXCXZXZXCXCXCXCXZX^.I.R.=X=X=X,X:XK.I.L.B B L.m I.U.U.U.U.L.n m !.U.U.U.U.U.Q.' 3 R T R R u u u u 2 >.H.Z.w c c z c C N N N N m C B N P NXCXMXCXCXZXCXCXCXCXZXZXCXMXZX<Xj L.B B m L.l AXNXMXCXCXNXNXNXMXCXCXCXCXNX3X,X*X&X*X&X&XE.E.*X>X,X4XAX@Xa $.0.q.5.4.0.5.5.5.9.9.8 < < < 1 7 : u Q Q Q ) ) ) ) Q Q Q Q Q Q Q Q Q ! W ! ! ! ~ | c.m.g.r.t.s u p 1 2 +.} 2.! 2.3.2.3.3.2.3.3.2.2.3.3.2.2.2.5.2.8.8.8.9.9.9.9.3.! Q Q ! { ! Q W W ! ~ ! s.y.+.W ~ { 9.q.5.5.2.3.3.3.2.3.} 2.} } r.t.F.s.! ` ) W Q ~ W W W ! | ! ! W W W Q ! W ! ! ! ! ! ~ t.9Xn.8.{ 2.2.3.2.2.2.2.8.8.8.8.8.8.2.2.8.8.2.2.{ 3.3.3.2.2.2.2.3.3.3.3.3.3.3.3.{ 3.{ { { { 2.3.2.2.3.3.3.3.3.{ |  .#.+.~ %.VXZXZXZXZXVXZXBX  w 4 1 1 1 1 1 1 1 1 1 1 1 1 1 1 1 1 1 1 1 1 1 1 1 1 1 1 1 1 1 1 1 1 1 1 1 1 1 1 1 1 1 1 1 1 1 1 1 1 1 1 1 1 1 5 5 4 1 2 +.9.8.q.q.8.8.2.2.",
"4 ; 4 , 4 3 X ^ S.$.$.H.%.X   j.l.:.$ 2 , X r %.S.o.- , 6 @ w b v x g x x x x v v x x x x x c c c x c c c n l j <X<X,XNX3X1X=X,XNXMXCXCXCXMXCX2X,X,X=X=X=X1X1X1X3X3XMXMX1X-X,X1XNX<X& x z x A l Z n c c L.K.U.R.R.U.U.U.L.I.I.U.I.!.^.b O < 4 4 3 - < 0 6 w b x x x z c M N N M x x v V M M M M n M M M V m K.,X,X,X1X,X1X=X=X1X1X1X1X1X1X=X,X,X=X=X=XY.* j -X,X:X* A !./.!.k A A n n M v n Z m L.U.U.U.U.U.I.I.n V z & r f %.] ] o.1 6 4 , X o.%.a $ . 6 g g x v x w w x c c c c c c n L.l I.U.Y.>X,X2XMXCXCXMXNX3XMX3X2X1X=X5X3XMXMXNXNX2X,X,Xl n m m l l m m n C c x c c c c x v c c x c v z * b Z.( +.+.^ - ; ^ s.R - : 0 w w x x x c x x x c C C c c x z * v V c n m Z c c n k K./.R.-X*X=XNXMXCXCXCXCXMXMXCXNXI.K.W.*X*X-X>XR.k l B B B m m I.U.U.U.U.C n Z !.U.U.U.U.U.!.' > d U R T u u 8 - e j.H.Z.w c c z c C M m N N B N n A I.ZXCXCXCXCXCXCXMXMXCXCXMXCXMXCX:Xj L.L.L.m L.l AXMXCXCXMX3X3X3XNXMXCXCXCXNXNX,X*X&X&X&XE.E.E.E.*X*X,X4X@Xa $.0.5.5.4.0.q.5.5.8.9.8 < 4 < 1 < 2 u / ` Q Q ) ) ) Q Q Q Q Q Q Q Q Q Q ! ! W ! ! } c.n.g.b.g.u X - X 2 y.n.e.| 8.} 2.2.2.2.3.2.q.9.2.2.9.2.2.5.2.8.9.9.9.9.s.9.) ! ! W ~ W ! ! W W ! W Q s.a.9.! W { 9.2.2.5.2.3.3.3.2.2.3.| | ~ | +.t.+.~ R R Y ~ Y ! Q W ~ ~ ~ W W ! ~ ~ W W W W ~ ~ ~ Y b.9Xn.9.{ 2.2.{ 2.2.2.2.8.8.8.8.8.8.2.2.8.8.2.2.3.3.3.2.2.2.2.2.2.2.2.2.2.2.2.2.3.3.3.2.2.2.2.{ 2.2.3.3.3.3.3.3.| | | | E S.SXZXZXAXVXVXZXBX  w 4 1 1 1 1 1 1 1 1 1 1 1 1 1 1 1 1 1 1 1 1 1 1 1 1 1 1 1 1 1 1 1 1 1 1 1 1 1 1 1 1 1 1 1 1 1 1 1 1 1 1 1 1 1 5 5 < < 2 +.r.8.q.2.8.8.2.2.",
"4 ; 4 3 4 < X p o.o.a o.f .   y.G.j.$ , 4 4 r ^ ^ a X < 4 @ w b b x w x x x x v b x x x x c c c x x x x x v c j ~.Y.:X2X1X1X=X=X3X3XMXCXMXNXNX<XY.R.*X=X=X1X1X,X1X1XNXMX,X-X,XR.:X^.* b v z A Z Z n c c L.K.U././.P.I.I.L.I.I.I.Q.C J.g X 9 0 ; 9 5 9 p w g b x x c x c M M M n z z v M M M M M n V n M V n l /.:XR.~.Y.-X=X=X1X2X5XY.:X2X3X,X-X-X*X=XR.j j -X,X:X* A Q.Q.I.c c c c n M v n Z m L.U.P.U.U.L.Z C Z V P Q.J.f o.E $.+.r 0 6 5 2 a o.o.o.o.f g w x v x w w x c x v x x x v P Z !./.U.(.*X-X:X<XNX3X3X3XNX5X~.-X,X=X3XMXMXNX3X1X*X>Xl m N M m Z n n n V c z x c c c x v c c v v v x w b Z.^ +.+./ 1 - E +.E T R R d g b b x c x x x c V M c v b x * c M n N N V x b b z L.~.Y.E.&X*X1X1X1X1X1X1X1X1X2X2XI.K.W.*X*XW.R.U.l B C C B m m L.U.U.U.U.L.n l !.U.U.U.U.I.Q.' @ 0 0 8 i | +.^ X u j.>.%.x c v c n V M C N N m m C n I.AX<X2X2X2X1X2X2X3X3X3X3X3X3XNX/.k L.m L.L.m K.2X3X3X3X3X1X1X1X1X3XNXMX3X1X1X,XE.&X&X&X&XE.E.E.E.*X=X4XJ.H r.2.q.q.5.5.q.q.q.9.9.u < 4 5 1 < 2 8 ! Q ! Q Q ) ) Q Q Q Q Q Q Q ! ! ! W W ! Q ! 3.w.f.w.x.b.#.+.+.a s l.uXc.| } { 8.8.3.| 2.2.8.3.{ 3.8.2.3.3.2.} 8.+.8.8.Q Q ) 9.9.) Q ! ! ! W W ! ! ! 9.s.9.! ! 8.9.9.8.9.2.2.3.2.2.2.3.} e.t.t.0.a.s.! Q s.a.s.W / ` ` Q ! ! Q ! W ! +.! Q ) ) Q Q Q W r.a.e.} { 8.} 2.2.2.2.8.8.8.8.8.8.8.8.8.8.8.2.2.2.2.2.2.2.2.2.2.2.2.2.2.2.2.2.2.3.2.3.3.2.2.2.3.2.2.2.2.2.2.2.3.3.3.3.8.! S.SXZXZXZXZXZXZXBX  w 5 1 1 1 1 1 1 1 1 1 1 1 1 1 1 1 1 1 1 1 1 1 1 1 1 1 1 1 1 1 1 1 1 1 1 1 1 1 1 1 1 1 1 1 1 1 1 1 1 1 1 1 1 1 5 5 < < 2 @.y.9.q.2.8.8.2.2.",
"; ; 4 3 3 , X < . $ .   X X < o.>.$.2 , 0 4 , $ . # X 6 4 . w b b x w w x x x v b x c x x x v v x x x x x b v c j j K.>X=X=X=X=X1X1X3XNXNX4X4X:X* k R.,X*X=X=X=X-X5XNXMX,X-X-Xk * * * v v z c C C n c c L.K.U./.U.l l L.Z L.I.Q.V * @ > : 0 0 4 p i p d d g b b x c c c M M M v * w v v M M M M M M n n M n k U.K.l j j Y.R.*X,X3XY.* l 2XNX:Xk K.R.>XR.j A :X,X:X* j c A c x v c v n n c n C L.I.U.U.U.I.L.n n n j Q.UX^.& $ o.$.o.e p p p 2 e = D l.l.o.r w b v x w w x c x b x x x x V n Q.~.U.R.T.K.k Y.1X1X1X1X4XP j K.>X,X3XMXMXNX2X,XR.R.l N M M m Z Z M V V x z x c v x * * * z x w w g w w ( @.@.s.^ O 1 E | ] ! ! E ^ d g g w * w g g z z z z v b w * c V n V V v z b x z n L.K.T.E.W.*X-X-X-X-X*X-X-X:X:XK.k Y.>XR.K.k Z n C N N m L.m L.I.U.U.!.L.n l I.U.U.I.I.I.^.J.@ 4 9 X u G.G.y.X 2 D s f x c V C M M N C N m B B N A l I.l Y.-X-X-X-X-X-X=X=X=X=X=X2X/.k L.m L.L.l l 4X2X,X1X1X=X=X=X=X,X2XNX4X5X-X*X&X&X&X&X&XE.E.E.E.&X*X<XJ.o.t.4.q.q.q.4.5.5.q.9.9.8 < 1 9 5 9 7 i ! ! W W W ! Q Q Q Q Q ! ! ! ! Q Q Q Q W W ~ ! | | } w.g.n.F.j.] a C.}.C.} 9.9.9.9.9.2.2.2.3.! W Q 8.8.9.9.9.9.9.9.9.9.W ! 8.s.9.Q W W Q Q W W ! W W +.9./ W ! 8.s.r.9.8.8.2.3.3.3.} } ~ n.0XF.#.s.+.Y / F.0Xa.~ W ! W ! W W W Q ! +.a.s.9.9.9.9.8.8.8.} 8.8.{ 2.8.2.8.2.2.2.2.2.8.8.2.8.8.8.8.8.8.8.8.2.2.2.2.2.2.2.2.2.2.2.2.2.2.2.2.3.2.2.{ { 3.2.2.2.3.3.3.3.2.2.2.3.3.2.8.! >.SXFXZXZXZXZXZXBX  w 5 1 1 1 1 1 1 1 1 1 1 1 1 1 1 1 1 1 1 1 1 1 1 1 1 1 1 1 1 1 1 1 1 1 1 1 1 1 1 1 1 1 1 1 1 1 1 1 1 1 1 1 1 1 5 5 5 1 2 @.r.8.0.2.8.8.2.2.",
"; < 3 ; 3 4 3 3 4 , 2 $ # , , 1 u s X , 6 3 X $ $ # # 9 4 o w b b x w w x x x b x x v x x x v c x x x z z x v v n A Y.<X,X,X,X=X1X1X2X3XNX4X4X:X* k ~.>X=X=X=X=X=X,X3XNX,X>X<Xl A x v c v x c V V c c c L.K.U./.!.L.L.L.Z I.Q.^.J.> o 0 8 q : : i R R p p d g g x c x v M M M v * w v M M M M M M M n M M N l L.!.I.A k ~.>X,X1XAX~.j P NXMX<Xj Y.:X<X~.j c :X<X~.j c c z x x x v c n n c n L.L.I.U.U.U.I.L.n V V A Q.;XJ.  $ a y.@.p p p p p a e F l.<.F D g g v x w w b v g g x x z x c z n Z I.~./.U.K.Y.3X1X=X=X2XK.j I.<X:XNXMXNXNXAX<X/./.l N M M V V V M M M x z x v v x x x x g g h 6 d r r ( ^ +.s./ 2 O a ] s s s u p d w w g x x g b b c z c v b g w v V c V V c z x x x n Z l /.(.R.*X-X*X>X>X>X:X:X:X/.I.K.U.<X:XK.m L.N C N N N B m I.U.I.U.U.L.n m I.I.I.I.Q.Q.Q.Z.3 < p $ e h.h.$.2 s ] ] H w z M C M N N N n Z l k A P ^.Z I.:X>X*X*X>X>X>X,X,X,X,X,X2X~.k m L.I.L.Z I.:X2X,X1X2X,X,X,X,X4XAXNX<X,X-X*X-X*X*X*X&XW.E.E.E.E.&X<XJ.+.b.4.q.q.q.5.5.5.q.q.s.i 2 < < : < 2 i E W ! ! / / 9.` / / / / / / Q Q Q Q ! Q Q ! Q 3.} 4.x.x.n.n.t.+.] }.}.M.| 9.9.+.+.9.8.8.9.8.! ~ Q 9.9.9.9.9.9.9.9.9.9.! ! 8.r.8.Q ! ! Q Q ! ! Q ! W Q Q Q W W +.9.9.9.+.9.9.8.3.3.} { | n.0Xn.! E E E E r.n.9.Y W ! W u Y ~ ~ ! +.s.t.s.9.{ 8.2.3.3.8.2.8.2.2.8.8.8.8.8.8.8.8.8.8.8.8.8.8.8.8.8.8.8.8.8.8.8.8.8.8.8.2.8.8.2.8.2.2.2.2.3.2.{ { 8.8.} { 3.3.{ 3.3.3.3.2.3.3.| { | j.SXZXVXZXZXZXZXBX  p 5 1 1 1 1 1 1 1 1 1 1 1 1 1 1 1 1 1 1 1 1 1 1 1 1 1 1 1 1 1 1 1 1 1 1 1 1 1 1 1 1 1 1 1 1 1 1 1 1 1 1 1 1 1 5 5 4 < - +.r.9.0.8.8.8.2.2.",
"p p 6 ; , 4 4 4 3 o ^ @.f X , 5 X 2 , 4 4 4 5 a f r , 4 , + w b x x w w x x x v v b x x g x x x c c c c z x x z M A K.~.T.Y.W.W.=X=X=X1X,XY.Y.P j j Z K.Y.*X*X*X*X*X,X,XR.Y.~.A c x x z x x c C C n c n I.I.U.U.!.m Z Z N V x x g 6 0 R R T 0 < R / E 0 5 9 6 w x c z c c c c x g w v v c n c c M M M M M M n B B N z j I.I.Y.Y.Y.I.j P AXMX<Xj l K.I.Z j A I.I.I.j c M v v x w v c n n c Z I.L.L.I.I.U.I.L.M M n n P P I A.H.] s E 1 2 < < 1 1 $ t ;.&.&.D.A.g b x w w x b g w w g x x v c c n A Z L.L.Z Y.2X1X=X5X<XK.j m I.K.I.I.I.I.I.I.K.L.m M M n M V n c z x x c x x x x * w g g J Z.%.%.%.S.%.2 i R 9 < X H.iXk.l.G.>.a %.6 % g b x w % w x z z x g w w w x z M V M x v b x c P l L.L.K.K.K.K.K.K.K.K.l l Z m m K.I.I.m Z B m N N N B B m L.L.L.U.!.L.n m I.I.I.Q.J.b g d 1 1 o.y.>.l.M.$.] $.j.l.%.w c M M m B N m n Q.AX<XUXFXUXA k I.K.K.K.K.K.K.K.K.K.K.I.U.L.j ^.AXFXZXZXUXI.K.Y.Y.R.Y.Y.Y.I.I.I.I.Y.2X2X1X,X,X2X2X,XE.E.E.E.E.&X<XJ.+.e.4.q.q.q.q.5.q.q.r.s.u < < 9 4 1 < 7 i Y R Y T R R Y Y Y Y R R R R W ! ! W ~ ~ W W ! ~ ! { ~ | ! | ~ e h.B.g.~ +.W Y R 8.2.2.q.9.! W / 9.8.Q Q ! Q Q Q ! ! ! W #.t.t.t.t.s.! Q ! W Q ! ! Q 8.+.! ! ! Q Q Q Q +.9.8.2.2.2.} { 0.r.r.! { s.n.#.j.F.t.~ W 9.r.g.uXiXj.{ { ! ~ +.+.8.9.q.2.{ 3.2.2.2.2.8.2.#.#.8.8.8.8.8.8.8.2.8.8.8.8.8.8.8.8.8.8.8.2.2.2.2.2.8.8.2.2.2.2.2.2.2.2.{ 2.i.i.8.{ 2.3.{ { 3.3.3.3.3.3.| 0.5.$.vX$XUXZXZXZXZXBX  p 5 1 1 1 1 1 1 1 1 1 1 1 1 1 1 1 1 1 1 1 1 1 1 1 1 1 1 1 1 1 1 1 1 1 1 1 1 1 1 1 1 1 1 1 1 1 1 1 1 1 1 1 1 5 5 4 , - - +.s.9.r.0.8.8.8.2.",
"p f 5 , < , 3 3 ; X o.%.f   # 5 # , 6 6 3 , e f o.r # , < o w b x x w x v c c v v b x x w w x x c c v c z x x z n n Z U.U.U.U.Y.,X=X=X,X<XI.l A c z z j K.:X>X-X*X*X*X,XR.K.I.A z x x x x z c C C c c n !.U.U.L.Q.L.L.N C ' % O ; < < i R R 9 - E +./ 7 1 5 5 6 b v z x x z x z w w x c c c c c M n M M n M n m n c x z B L.K.K.Z Z z P AXNX<Xj Z n A n M n n j n z v n V v x w c c v M c Z I.I.I.I.I.I.I.L.V M V V x h J +XfX] . u - X 2 - O O   $ [ &.-.].D.H b x w w x b w w w g x x v c v n c n A l Z Q.2X2X,X:X<XI.n N l l l l l l l m l m N M n m n M n c * z x c x z g g x x w w o.>.:.[ [ >.o.X 7 i < 1   D.aX].].].;.y a     w b b w @ w x x z w x x g @ w * v V M z x x x c L.m m l l m m l l l l l A j z C B l l m C B B B B N C B B m m l l I.Q.C l m Q.Q.Q.^.J.g o 7 u 2 o.H.>.,.,.h.$.:.$.h.o.w c M N m B N m l Q.AXAXZXHXBXj j A Z l l l l l k k k j j A k j ~.JXFXZXGXZXk j K.U.Y.K.l m n n l j Z NXCXNX3XNXNXNX,XE.E.E.E.&X*X<XJ.+.r. .q.8.q.q.q.q.q.9.9.7 < 5 4 ; , - - - : : : : : : : : : : - - : q 8 Y Y Y Y Y Y Y Y Y u u Y Y Y Y u 2 g.uXg.~ +.R 8 Y 8.8.3.0.8.! W Q 9.8.! ! ! ! ! ! ! Q ! ! 8.b.b.n.n.t.! Q Q ! Q W ! { 9.8.Q ! ! ! W W W { 9.8.2.2.2.3.8.2.| } ~ { 9.t.j.G.9Xn.~ ~ 9.b.h.aXsXj.| W ~ Y 8 Y E ! { 3.3.3.3.3.3.2.2.2.2.2.8.8.8.8.8.8.8.8.8.8.8.8.8.8.9.8.8.8.8.8.8.{ { { 8.8.2.2.3.2.8.8.2.2.{ 2.t.t.9.{ 8.{ { { 3.{ 3.3.{ 3.| q.z.X.].L mXZXZXAXZXBX  p 5 1 1 1 1 1 1 1 1 1 1 1 1 1 1 1 1 1 1 1 1 1 1 1 1 1 1 1 5 5 5 5 1 1 1 1 1 1 1 1 1 1 1 1 1 1 1 1 1 1 5 5 1 5 5 4 , - - +.s.9.9.0.8.8.2.2.",
"r a 1 , 5 , 3 3 4 X p ^ a $ r # 5 3 3 4 4 < 2 p d 5 # 5 < o w b x g w x v v x x c v b g w w g x x c c x z x x z v Z m L.L.L.L.I.:X-X-X-X<XL.m C z x c * Z ~.~.R.R.R.Y.R.U.l C c x x x x z c c M V c n n I.L.L.L.L.B ).M ' ' 6 1 0 U 7 i R 9 < 5 R / ( 7 1 p 9 6 b v x x c c v x w w x v c c c c v c n M n M M M V v x z M C C Z Z N c n <X<X^.j n n n n n n n M v c M c n c x z v v v v c Z I.L.I.I.I.I.I.C v b b b b J O.[ j.$.O.y.a 1 E ^ +.o.o.S ,.-.=. X<.J b x w w b b d 6 w g x x v c c c c V n C Z P <X:X:X~.:Xl N C N C C B L.L.C C L.C N V N n N M M M * x x v c z x x g g g d o.O.[ -.:.>.%.2 9 i 7 p X S.G.:.-.;.:.>.>.H J b b b w % w x x x x g g g f f g v V M z b b x c C m B N C C B B N N M M v c c V B B L.N B C N B B B B B B m L.L.L.Q.Q.C N N Q.P J.J.H.f < 7 u - o.j.:.k. X-.:.:.$.l.o.z z N C m n n Z n I.:X:XAXDXFX^.;X^.C C C B m m L.L.~.!.L.B L.j Q.UXUXUXUXUXn m L.U.!.I.L.L.B C ).m Q.ZXNXNXNX3X4X2X,XW.E.E.E.&X*X<XJ.O.r.4.e.8.9.q.0.0.8.9.+.7 < 4 4 5 p R ^ / | +.+.+.+.+.+.+.+.+.+.+.+.+.+.0.#.#. .} } } #.#.} #.#.9.{ +.! Y n.G.g.| 9.E 8 R 9.2.2.q.9.! ~ { q.9.Q ) Q Q ! ! ! Q ! W 2.r.0.r.b.e.! +.Q ! ! W W Q { { ! W ! ! ! Q W { 9.9.8.2.2.3.| 2.2.8.{ r.t.t.e.r.b.t.~ ~ 2.e.h.oXoX>...$.$.+.G.dXH.y.8.2.7.3.2.3.2.2.3.2.2.2.8.8.8.8.8.2.8.8.8.8.#.#.8.8.8.8.8.8.8.8.3.3.{ { 8.8.8.2.3.2.2.8.{ 8.3.{ r.r.9.0.8.#.3.3.{ { 3.3.3.2.! 2.z.5.fX+XmXZXZXZXZXBX  p 5 1 1 1 1 1 1 1 1 1 1 1 1 1 1 1 1 1 1 1 1 1 1 1 1 1 1 1 5 5 5 5 1 1 1 1 1 1 1 1 1 1 1 1 1 1 1 1 1 1 5 5 1 1 5 4 5 ; X / @.+.9.8.8.8.2.2.",
"s a e 1 , , 4 3 ; 4 X X e %.A.r X 3 5 , 5 d 6 X , 3 3 3 3 + $ . % g w g g w x x c c b b g g g w z v v z z z z z v M n n A j j j l l k k k m C M x x x z j j j * j j * * j A z x x x z x M C V A c c c c m L.m j n N Q.v & X , < 0 ` ( < - < 4 4 ; : < < , 5 p + b x x v c c c x w w w * z c v z * z v c c M M M M v x x x z z c c n n A j * j n n n M M M M n M M c c M M c x * x x z c c m I.L.L.I.I.c b Z.I Z.J J J H o..   o.oXG.o.2 F.oXN.|.+X]. X X_.`.oXy g x w w x b g 6 6 g w z z z c c c n n m C n j * j j j l N N B N m m m N N N N N N M M N M M M n * g x v c z z g w g Z.A.D t t oXXX:.e u R R R R T 8 : u X.X.,.+X].].H.Z.b b w % * v v x w g b @ A.OXJ.b v M z x x x c C N B m m N N B C M z x z z c N C B m N m N N N B B N N m m I.!.I.l l M V ' w & g A.H.a 2 9 9 1 u s S |.|.k.:.:...j.%.z z N C M j j n Z Z l * UXGXHXDXHXUXj L.m B m m j <XAX<Xk L.L.m A j j j * j n n L.!.!.L.L.L.).).).C Q.ZXMXNXMX3X5XW.E.E.E.E.E.E.&X<XJ.O.e.4.4.q.9.r.+.y.E X 2 7 : 4 9 2 @.j.j.C.M.C.M.j.C.V.V.V.V.N.V.V.}.}.{.{.{.{.{.{.{.V.M.M.M.m.m.c.V.n.#.#.C.yXC.r.F./ 8 R 9.2.2.9.8.~ ~ 3.9.9.! ! ! Q ! ! ! ! ! W ! W W { 9.0.t.s./ W W W W ! ! ! W ~ ! W Q ! W ! ! W W Y W 2.q.3.3.0.F.F.C.G.0XY Y ~ ~ ~ 3.i.! 2 . l.@X+X[.<.zXSXSXH.o.9.p.7.3.2.} 2.2.8.2.3.2.2.2.2.2.2.8.8.8.#.#.#.+.8.8.8.#.+.3.3.8.8.8.8.{ } #.8.} { { } { { 8.} | | r.F.F.9.+.9.} { 3.3.3.3.3.3.| | lX$XmXZXVXZXZXBX  d < 1 1 1 1 1 1 1 1 1 1 1 1 1 1 1 1 1 1 1 1 1 1 1 1 1 1 1 1 1 1 1 1 1 1 1 1 1 1 1 1 1 1 1 1 1 1 1 1 1 1 < 1 1 5 5 5 5 5 - O 7 s.e.q.0.0.4.",
"$ = $ . $ . X . . 2 O X u $.%.r 5 , 1 X - p p 4 4 4 3 6 3 # $ e $ d g g g * x x c c b g f f g g b v v x x x g z v V M V V c x z C L.L.L.B C C M z x x c x x x x v v x x x x x x x x x z n C V A c c c n L.Q.C A M C Q.v @ 6 5 : i ( T 9 9 1 < 4 4 > < , , < 6 > b b b x x x v x w z x w z x v x x x v V M M M M M c x x x x x c M M M M n n M V n M M M c v n n M n c M M c c x x z z c A m I.L.L.I.Q.V Z.Z.J J J H H a o.2 1 y.aXl.a & ..].`. X'.].`.].].oXD.f g x w g b b w 6 w g z z z z c c v n c n C N n n M N m B B m m n m m N N N N N N M M M V V M M v z w x v x z x x w g Z.A.D t S l.G.j.R T T T Y Y R R U ! r...k.].`.<.A.Z.g g %   w w w g h % %   A.H.J.b V M z x b x c C N C B B m N N M M x z x z c N B B B B N m N N B B N N C m Q.!.L.m Z V ' b g . t >.>.e . X X . $ e S |.|.,.k.k.:.j.o.z c n N M j z V C C C j UXHXFXFXFX<Xj L.L.m k Z j :X2X:Xk P.m m C C L.L.B N C m K.U.U.K.l k k k j j ^.NXMXNXNX3X>XE.E.E.E.E.E.E.&X<XJ.o.r.4.q.q.9.9.s.y.^ 2 7 9 4 4 < - o.$.$.k.h.k.k.k.k.N.k.k. X Xk. X X X X X X X X Xk.k.k.k.d.d.k.d.c.h...#.C.tXV.e.a./ 8 Y { 2.3.2.8.! W 3.8.8.Q ! Q Q Q W W ! ! Q Q Q Q 9.r.8.0.9./ W ! Q ! ! ~ W ! ! Q R W ~ Q ! ! W Q W ! { 2.3.3.r.G.G.C.V.F.E ~ Y Y Y | q.p.Y 2 H.lX+X[.1.%XnXVXA.e E 3.q.2.2.2.} 3.3.2.2.2.2.} 2.8.8.8.8.8.+.#.#.8.8.8.8.+.+.3.8.8.8.8.8.9.9.{ { { { } { { { } } { { 0.j.a.+.+.9.} } 2.3.| 3.3.3.| | lX$XmXZXZXZXZXBX  d < 1 1 1 1 1 1 1 1 1 1 1 1 1 1 1 1 1 1 1 1 1 1 1 1 1 1 1 1 1 1 1 1 1 1 1 1 1 1 1 1 1 1 1 1 1 1 1 1 1 1 1 1 1 5 5 5 < 6 4 X p s.q.q.q.q.0.",
"Z.J.Z.I Z.o.o.[ O.%.e X 1 p r o ; ; 5 p r p r X 5 < 4 3 # X e p r g w w w * x x c v b g r r g w w z w g z z x x x x z M V c z x N C B L.C N N M z x z x x x x x z x x x x x x c x c M M N C V A c c c n C Q.C j n N Q.v @ 5 6 < 7 7 8 T ^ T 7 0 T 0 i R R i 5 > w w g b b x b b w g g g g x x g w w x x c n M M M c x x x x c v n c n M V M M c v v M M v v v v v n n n n v c c v c c C Z L.!.!.L.L.V z g Z.A.O.>.>.O.o.%.e 1 f o.D D.<.k.`.`.'.`.,.t o.D D f H Z.g % 6 b b d 6 6 g x z x x v c c c c n V M n n n N N L.L.L.I.L.m m N n N N M M c x c c c z x x z w x x g g x x x g g a O.>.h.$.y.+.7 T R R R R T T T R { ~ | ] F J Z.g @ g Z.H.%.3 6 Z.H.A.H.H.Z.Z.P V Z M z x x x x c c n N N N C n c M z z v M M B B B N B m m m m B N N N N n L.L.L.B M x g % H.+X].+X|.k.l.oXXXXXXX].k.[.[. X XN.-.>.%.z c M N M z z c x c C j UXDXZXZXDXUXj L.L.L.L.:X~.2XMX2XR./.L.l m N m L.B B C n L./.T.R.:X<XAXAXAXAX4XMXNX3X2X1XE.W.E.&XE.E.E.&X&X<XJ.O.r.4.0.r.0.9.u p i , 5 9 4 0 9 2 +.#.:.N.k.N.k.k.k. Xk.k.k.k.N. X XN.k.k. X X X X X Xk.k.k.k.d.h.c.h. . .f.g.f.} r.! R R { 8.3.2.8.{ ! { Q Q 8.8.9.9.8.Q Q Q W ! ! W ! 9.r.{ ! ! ! W Q 9.8.Q ! { 0.0.9.! { ! ! ! ! W 9.8.0.0.2.3.3.} t.$.:.M.C.} q.q.3.3.q.r.9.q q ^ o.s O.;.'.$X@XvXnXvXE 0.2.2.5.2.{ } 2.} } } } } #.#.8.9.9.9.9.9.8.8.8.+.+.#.8.3.8.#.+.+.9.+.{ { { #.} } #.{ { } { { +.#.r.+.+.8.{ 2.2.3.3.3.3.3.3.| lX$XmXZXVXZXZXBX  r < 1 1 1 1 1 1 1 1 1 1 1 1 1 1 1 1 1 1 1 1 1 1 1 1 1 1 1 1 1 1 1 1 1 1 1 1 1 1 1 1 1 1 1 1 1 1 1 1 1 1 5 1 1 5 < 1 < < 3 X p 9.q.0.0.0.0.",
"J.J.P ' Z.Z.;.:.<.l.a X , O   X O X i p p r r , < , , , # , r ( d g g w w h x b c v b g r r w w w g g g z z x g g g z M M x h * V Z N N N V C V x x x x x x z z z x x x x x z c z c C C C C N c c c c M ).Q.C A M C Q.v @ , 5 < < 2 : R / E T T R T R / / T < < X O w b b g x b w w g w w g g w + > g b c M M c V c x x x x c c n n M M n c c c v v v M v v v v c n n n n c n M M v M C L.L.!.!.L.Q.V * h Z.D.D.D.H.%.D a 2 2 < - X G.+X X].[.`.].:.. $     e S.A.f . . g b d 3 6 g x x v x v x c v c M V V n c M M C L.L.L.L.L.m N N m N M V V z x c c c z z x g x x w w g w w w w % $ >.oXl.S s 2 O 8 8 T R Y T R T 8 Y u Y u r f Z.g   # >.D.%.    >.+X<.<.+XZ.v V Z C N z x x x x c c M N N N N A j z z z M C C C C B N B N m m N N C N N N L.m m n n b w     @X#X[.].[.|.+X[.[.[.].].'.`.`. X X{.-.>.O.h z V N M c z z z z n j UXDXZXZXZX<Xj k k j l <X:XNXMXNX:X/.K.j j j j j j j j j l U.Y.*X,X4XNXMXMXMXMXMX3X1X1X1XR.T.E.&XE.E.E.&X>X<XJ.O.0.4.0.r.r.s.- < < < 4 4 4 5 : - E #.h.B.N.|.{.{.N.{.|.{.}.{.{.}.}.{.{.{.|.{.{.{.N.k.k.k.k.k.m.m.C.c. .| | X.| X.+.E W ! 3.3.3.2.8.8.3.{ ! W 9.r.r.r.9.8.{ { W ! ! ! ! +.r.+.~ ! W W { r.9.{ ~ | r.r.+.~ Q W ! ) ) W 9.8.} } { 3.2.| } ] r.uXV...r.e.3.{ { { ! - q - X X S.OX].+X'.nXPXbX& ] 2.3.8.8.} 2.2.} } } } } 8.8.8.9.9.9.9.8.8.8.8.8.+.8.8.3.8.#.+.+.+.#.8.8.#.} } #.8.8.} { 3.3.| | +.+.8.8.{ } 2.3.3.3.7.3.3.| lX$XnXFXVXZXZXBX  r 1 1 1 1 1 1 1 1 1 1 1 1 1 1 1 1 1 1 1 1 1 1 1 1 1 1 1 1 1 1 1 1 1 1 1 1 1 1 1 1 1 1 1 1 1 1 1 1 1 1 1 1 1 1 1 1 2 2 , o O p r.e.0.0.0.0.",
"P J.P V Z.%.o.:.:.l.p . r a s S s E p i p 5 5 5 6 6 3 6 3 , 6 d 6 g g g g g g b x x g d r r g g g g g g g x x w x w x v v x g h V C M n n V C M z x x x x x x z x x x x x x z v n n m N B M n c c c c M B C N n M C C v @ 9 9 < 0 < < T ( T T T i 8 u E ! Y 8 i i 1 p f f g g g r r d d d f d r X 5 g g x v M M M x x g x x x n n n M M n M M M n n n n c c n n c M M M M M M n v c n C L.L.I.L.L.C V I J J o.o.o.$.o.a ] s E p p e k.k.-.,.,.<.l.j.X p a H H %.H y e e 6 d 0 < 3 w g g g g x x x v c c M M M n n M N L.L.L.L.L.N N N N N M v v w w x v x x x x x z * * g g r o.%.J F G :.k.k.S a o.+.+.Y R R Y Y R R Y W ~ W E ^ d ( g % e <.<.1.= = <.].`.`.D.Z.z n Z m n z x x x x c z M C m C B m N n n n N B N B B m m m N N M M V V V C B m B C V P J.Z.D F +X'.[.[.[.[.[.[.[.[.[.[.[. X[. X X{.k.,.O.f b v n M c c x g x C j ;XAX<XNXNX4X~.~.;X^.^.AX4XNXMXMX<X<X:X~.;X;X;X;X;X;X;X;X/.R.Y.,X1X4XNXMXNX2X2X2X2X1X,X,XU.U.R.(.E.&XE.&X>X:XA.$.f.q.r.+.9.9.2 < 6 6 4 4 4 5 0 7 E } #.c.h.M.V.M.h.h.b.b.n.b.g.b.b.n.n.j.j.M.g.c.h.h.M.{.M.h.h.h.c.f.4.4.0.0... .y.E Y E { | | | 2.8.9.8.W ! { 8.r.9.8.{ { { W W { +.+.+.+.+.! ! ! W Q 9.9.! ~ | j.j.#.~ Q W ! ) ) W 0.0.#.| } 3.7.3.q.} e.9XC.h.c.w.~ ! 0.g.0.u / 0 2 e S.>.:.+X+XmXbXmX@XhX$.| 3.8.{ 8.2.3.2.2.2.2.2.8.8.#.#.#.8.8.8.8.8.8.8.8.8.8.8.8.8.8.9.9.8.8.8.#.{ { { } 3.3.3.8.#.| { #.8.8.{ } 2.3.3.3.7.7.3.X.kX+XmXVXBXZXZXBX  r 1 1 1 1 1 1 1 1 1 1 1 1 1 1 1 1 1 1 1 1 1 1 1 1 1 1 1 1 1 1 1 1 1 1 1 1 1 1 1 1 1 1 1 1 1 1 1 1 1 1 1 9 5 1 1 < 2 p p < O p r.9.0.0.0.0.",
"c n c x b r $ t l.j.$   o.H.oX<.oXj.e 2 p p p 5 6 6 6 6 3 o # 3 + w g g Z.J g b g w w r 2 r g b g @ % g g x x x x g x v b Z.A.Z.b V c j z M C n z z x x x x z z z z x z x x c C Q.N n n n n c c n M V M n n M M V V V b o 9 i R 0 9 < 0 i T ( ^ 7 8 u ! ! ! ! / / / R - $ f H f f f f f a ^ ^ p - i d w w x z x c x h w x x c M c n n n M M M M n n M n n n n n M M M M M v c c c c c C N n m m N n v J.H.a $ $ . $ s ] $.j.F.y.E ] M.k.X.= $ :.XXj.O $ %.dXD.$   a %.%.6 o < 1 ; 6 w 6 % w g g w v c c c x c c n M M n n n m N M M M M M v c x w w g b x x x x x g x g g   & D.OX+X+X].].oX|.e . +.iXG.E u R Y Y R R ~ ) W W E ( , > 3 o $ <.].<.;.>.+X+X[.[.D.J.c V C V M z x x x x x z M C N N N Q.Q.Q.C N N C N B N N N C N M c z z z z z c n V c I J.@X@X$X+X#X[.#X+X+X+X+X+X#X+X#X#X#X#X#X].;.k.k.|.].A.J.b v n c v x * x M j A j j ~.<X<XNXNXMXCXMXCXNXCXCXCXMXCXCXCXCXCXZXZXDXFXZXZXAXY.R.3XNXNXCXMX<XR.R.-X-X-X-XR.l l K.U.P.E.E.&X&X:XA.:.M.g.t.+.R R 2 < 5 5 4 4 4 4 4 2 i Y ~ X.~ | g. .~ Y ~ Y Y Y Y Y Y ~ Y Y Y Y Y ~ Y ~ 0.M.h.X.|  .w.f.h.c.c.M.f.g.n.E 2 u 9.0.} | } 8.9.8.W ! 8.9.9.8.{ | ! W ~ ~ 3.t.9.! E ! / / ! W ! 8.9.W ~  .XXuXb.| 9.) ! ! ! ! b.6Xn. .2.3.3.3.i.8.} } X.h.}.c.~ ~ 4.w.x.| y.R - X 2   t [ F D & @XBXmXS.| 8.9.{ 2.2.3.2.2.2.2.2.2.2.2.#.} } 2.8.8.8.8.8.8.8.8.8.8.8.8.8.{ { { { +.2.{ } } 2.3.3.3.#.#.} #.8.8.{ } 3.3.| 3.3.7.3.X.+X].$X;X;XVXZXBX  r 1 1 1 1 1 1 1 1 1 1 1 1 1 1 1 1 1 1 1 1 1 1 1 1 1 1 1 1 1 1 1 1 1 1 1 1 1 1 1 1 1 1 1 1 1 1 1 1 1 1 7 7 5 1 1 2 u ^ ^ 5 O p s.0.0.0.0.r.",
"Z C M c b r $ ] l.&.$ & o.>.l.<. X&.$ $ 2 , r 1 r , o ; 4 < 1 , + w g g %.o.g g g w 6 r 2 r g b g % % g g x x g h h g g h Z.D.A.b V c z z M C n x x x x x x x x x x b x x z z C Q.Z n n n v v b V V ' V c c v V ' ' ' b o 1 i ^ 7 8 < 0 i T ^ / i 8 i / / / / / W ! R - 2 a f ^ o.E E a E E E i X < 6 w b b x b x x w w g x x M c n n n n M M c n n M M M n n n M M M v v v c c c c v ' P V P V C V ' J.H.f . 5 , O a O.[ :.l.O.u E g.C.$.2 e F.G.>.. . [ +XD.  . f S.%.p , 7 9 1 9 0 6 3 6 d g g b v v v c c c v V V V V M V V V V V V V v b b w w g b b x g g g w g w w   & >.oX].].oXl.oXl.$ . ] OXOXE u R R T T R R ` W ~ E i - : < < $ j.oXl.l.D.oX+X+X+X@XJ.v V V M V x b b b x b x V V V V V Q.Q.Q.P C C C C V V C V C V V M c x x x x v z x h b H.@XOXaXaXpX+X+X+XaXfXOX+X#X[.+X+X+X+X+XL F ;.:.|.|.D.H.b n n n v x * x V V N m K./.:X2XNX3XNXMXNXNXNXMXCXCXCXMXNXNXNXNXCXCXZXZXCXCX4XY.-X2XMXCXCXZX<X:X>X>X&X*X*X-XK.m L.U.U.(.E.&X*X:X%.h.k.h.j.] Y R 7 9 9 5 5 5 4 4 4 < i R ~ ! ! 9.t.r.~ ~ ! W Q ! W W ! ! W W E E ~ ~ Y ~ b.C.e.| } 0.0.h.k.k.:.h.h.c.n.E - u t.b.4.} } +.9.+.~ W 8.8.8.{ Q Q ! ! ~ ~ 8.t.s.+.! ! / / ! W ! 8.9.! Y } G.uXg.| 8.! ! ! ! W b.9Xc.| 2.7.3.7.a.q.} | X.n.uXC.~ ~ 2.4.f.X.r.R : q 8 - s O.>.>.H vXSXnXA.E { q.3.2.3.2.} } 2.3.2.2.2.2.2.2.} } 2.8.8.8.2.2.3.3.8.8.3.3.{ { 8.8.{ { { 2.8.} 2.3.3.3.{ { #.3.{ 3.} { 3.3.| 3.3.3.| | aX+X$X@X;XVXFXBX  r 2 1 1 1 1 1 1 1 1 1 1 1 1 1 7 1 1 1 1 1 1 1 1 1 1 1 1 1 1 1 1 1 1 1 1 1 1 1 1 1 1 1 1 1 1 1 1 1 1 1 1 1 9 9 < 2 u E ^ 1 O p @.s.9.0.q.q.",
"Q.Q.C c b 6 $ O.oX].;.>.;.t t [ ,.,.:.D.o.e a a ^ p < ; , 5 1 , 3 w w r f f d g g w r p r r g g g r r g g g x g I Z.Z.b g Z.D.;.g V M c c M C n x x x z x x x x x z x z x z z C C N n n M v x w g g g g g w g g g g b g 3 i 7 i i 7 7 i u u p i u 2 7 R T T R T W W W E ^ p 1 a p p p p i R E R / / 0 + w w w b b x g w g g x c c v M c c c M M n n M M v n M n n M v v v v c c v c z b x w g w x v b f o.r o 6 4 . o.j.:.k.l.] - u 0.r.R 0 p a o.O.O.j.l.:.>.  2 p p p < 5 9 2 q < 9 5 4 0 0 0 w w w g b x x b w x x x g g x g x x x g g g w w w 6 w g w w w w w 6 w % J A.O.l.|.,.S O.] o.%.>.D.l.oXoXs 2 q 7 0 8 8 8 Q W W ! ! E R R p 1 n.l.$.] D ] O.[ F %.b w x x w g * w w w w w w x b x x x b b b b x b b x x v c c c x c z g w w w g g & J.bX@X%.H O.$.$.$.:.O.] $.o.D D.@X@XmXmXmXmXmXmXnXmX+Xk.,.O.%.b c n n c x * x z c z N L.L.K.R.<X,X3XNX4X<X,X2X<X4XMXNX4X5X,X<X<X:X;X<XNXCXNX2X2XNXNX<X^.~.I.P.P.T.W.W.*XR.l m I.U.U.(.E.&X>X:X%.k.k.f.j.E u i < 9 5 < 5 5 5 5 5 7 T R W W ~ +.9.8.~ ~ W ~ W R W W W W ! ! / +.8.8.{ { r.t.#.| { { |  .c.k.h.k.h.h.j.E 2 i a.e.4.} } { 9.+.W ! ! ! Q Q Q { { { W ~ ! 8.+.! ! / / / ! ! ! 8.8.! Y } 9XuXh.| 8.Q ! Q ! ~ e.C.x.| 3.3.3._ q.3.4.w.4.x.c.w.~ | w.c.f.X.q.Q Y / 9.+.E a a ] D A.$X@Xo.2 W 9.3.3.3.9.2.} 3.2.2.2.2.2.2.2.2.2.2.8.8.8.2.2.3.3.8.8.3.3.{ r.b.a.9.{ { 8.{ { { 3.8.3.2.8.3.{ { { } { 3.2.3.3.3.3.| ..lX$X@X@X;XVXFXBX  r < 1 1 1 1 1 1 1 1 1 1 1 1 1 7 1 1 1 1 1 1 1 1 1 1 1 1 1 1 1 1 1 1 1 1 1 1 1 1 1 1 1 1 1 1 1 1 1 1 1 1 1 9 9 < 2 s ] ^ u X 4 d i 9.2.8.8.",
"Q.L.V x b %   %.+X`.<.+XD..   o.<.,.k.D.O.. y %.%.a X , 6 > , 5 o + . . a r f o.( w 6 d f a r r d r a f g g g g Z.A.A.J h A.+X>.h g c v V V V M z x x x x x z v x x x z c z c c c c n c c v x @ O 5 0 ; O O ; O O     &   O - 7 9 1 9 < 1 2 2 2 1 1 1 i i 0 R T W Y W s./ 1 X 2 7 7 u u 8 u 8 / s.s.1 X < O @ g b g w w g w z v c c v n n M M n n n M M n n n n n c v v c c c x x b b @ & @ @ O b b g 6 1 < : ; : X $.l.k.k.h.+.X 9 2 - u 7 7 2 . a H.j...X.E - : : - - : < < < < < , < 3 3 3 o o + @ w b b x b w @ & @ @ O + o @     @ O @ 3 X X , O O O X X o o o &   H +X<.<.+XO.& . .   $ OXuXoX|.OXe - - : : , O - E W ~ ! ~ u : < - X e e $   .   $ $     O O O O     . . O O ; ; > 6 > +                 &   &   & & & &           &       J.vX@Xe . O . . O . . X - - $ %.hX@XBXKXVXZXVXVXVXKX+X:.k.$.%.b M n n v x z x x j c B C l k U.>X-X2X3X3X-X=X=X-X,X3X3X,XY.R.Y.~.I.* Z NXMXCXCXMX2XNX<Xj A l l k U.P.W.>X(.Z n L.U.U.(.&X&X>X:X%.h.c.f.n.E 2 u 1 5 5 4 5 5 4 5 4 < R W W W W Q +.| ~ Y Y ~ ~ R Y R Y Y ! 9.+.t.t.r.0.9.#.+.+.Q Q { ! w.M.h.M.h.h.M.n.E O E F.F.e.} { #.9.{ ~ Q W ! ! W W { 8.3.! ! ! ! ! ! / / / / ! ~ ! 9.r.! Y } 9XsXj.~ { Q ) W W W b.C.c.| 2.3.3.3.! | w.6XM.X.~ 3.| | c.eXm.s | ~ ! 9.~ 0.i X X ] ] t y r r : R 9.3.5.! 8.7.7.7.7.3.4.2.2.2.8.2.2.3.3.3.9.8.{ } 8.9.2.{ 8.| #.F.F.0.{ { 9.8.2.3.2.3.{ 2.3.{ 9.3.{ 8.2.{ 2.} | 3.3.~ ] zXlX@X@X;XVXZXBX  r < 2 7 u 2 < 1 1 1 1 1 1 1 1 5 5 1 1 7 1 1 1 1 1 1 1 1 1 1 1 1 1 1 1 1 1 1 1 1 1 5 1 1 1 1 1 1 1 1 1 1 1 5 5 1 2 u ] +.p X ; , O | q.q.2.",
"L.Q.C c b w % o.D.<.1.>.%.X , ^ >.&.k.l.O.t D H o.a 2 4 6 > , , 4 3 + 3 f p f f d w d d p p a r d r a f g g g g Z.Z.A.J h A.D.A.%.Z.Z.b v ' ' ' x x b x x g g x g x b x x x b x c v v b b b g % , u R R U U 0 1 6 Z.J g Z.%.p p i i 7 u i u E a u a i u u i i T R W R R ( p 9 i 9 i i 0 7 T 8 / +.! u 2 u p p g g x g g g g x v v v v v v v v v v v v v v v v v x v b x b v b v b b b w % 6 0 6 g g d r 5 5 5 4 i 2 #.M.k.k.M.] - 9 E E ! E / 1 1 E y.} ..#.9.: 0 0 9 4 4 9 9 9 0 0 7 < 4 6 0 5 5 6 6 d ( g g b d 3 < p p p p p 1 5 i i i 1 r p 1 p 8 u u T 9 1 p 5 f y F <.,.'.].<.D D a a D XX].].k.l.s u R i u p p E | | 2.} $.H.H.H.H.H.H.H.A.A.A.H a a p p p p a p s s s p u R R u T i < p @.o.o.D D D a a a y J g J I I Z.I Z.Z.Z.I I I Z.I ;XvXvXr u ~ u R E s i R ~ E u %.hXhXmXnXBXBXBXVXZXVX@Xl.:.] Z.b M n c v x z x x * c C C B l U.:XR.2X2X2X-X>X>X:X,X2X3X:XY.T.U.!.!.l P NXMXNXMXNX<X<X<Xn C B m L.!.U.R.(./.Z n I.U.T.E.E.E.>X:XZ.h.h.r.r.E u 9 5 5 5 5 5 5 4 5 5 < T W ~ W W ! { E ~ Y R R R R Y ~ W ~ { +.{ t.t.#.+.+.+.+.+./ ! +.Q 0.e.e.b.#.h.G.G.] 2 E s.n.8.} 2.{ 8.{ W Q W ! ! ! ! 3.9.8.! ! ! ! ! ! ! ! ! ! / { Q { 3.! ~ 8.n.C.g. .8.~ _ ) Q ! b.G.b.| 3.3.3.3.3.| w.m.5.5.8Xu._ | z.eXm.3.7.3.~ | | 0.^ - 2 ^ ] ] O.%.i 0 Y p.9.3.8.) 7.7.7.7.7.2.3.3.7.7.5.5.2.2.9.9.{ 2.8.2.{ { 3.#.| 0.F.n.#.#.8.{ 2.{ 3.2.2.2.{ 3.{ 8.8.{ { } 3.3.3.3.| } } $.lXlXlXvX;XVXFXUX  d 5 1 - < 1 1 7 7 1 1 5 1 1 1 1 1 1 1 1 1 1 1 1 1 1 1 1 1 1 1 1 1 1 1 1 1 1 1 1 1 1 1 1 1 1 1 5 5 1 1 1 5 5 5 7 2 u +.@.p - 4 4 O ! q.q.2.",
"L.Q.C z b b b Z.y D y D a O - 1 e e [ :.] D o.e e 2 X , 3 3 5 < < ; ; , < X , X 3 w d d 6 p p p a a a a ^ f g g % & % h w g a t A.H.%.# @ 6 @ > @ 6 6 w 6 > % @ % @ w @ g b g % w w w w w w 6 % p ^ ( / s.s./ ( %.nXnXmXnXnXS.p E +.#.} 0.} g...$.g.y.E i 9 : 7 R ! Y 2 i ^ / / - < < q q T T / 9.2.} } #.+.o.5 + > 6 > > > @ @ % % % @ @ @ @ @ @ @ @ @ @ @ @ @ @ 6 6 w w w w w h w g 6 % r r 5 d g g w w d d d y.] g.c.d.v.M.| - 7 y.n.r.r.t.u 2 u { ~ { 9.y./ / / / ( ( ( ( ( d p R R i i i p p p 9 6 6 > 6 6 p 1 7 W Q ! ! W ! +.| | #.E i ! +.+.+.9.9.s.@.S.s.+.sXzXpXkX#X.X#XkX+X+X|.oX X=.*.=.=. X$.O.$.~ u #.j.j.h.c.eX}.OXVXVXBXVXBXBXVXVXVXVXhXD.H.G.D.M.C.C.l.M.l.l.M.n.9Xt.E +.E Y F.aXOX+XoXoXOXoXOXOX@XnXnXBXVXKXVXVXVXVXZXVXZXVXVXVXFXJXSX%.$.G.n.C.6XC.n.n.n.n.b.e.j.@.p X o     ;XZXSXA.O.$.] ^ b v c c v x z x x z c n N N n L.k k R.:XY.j l l j K.5X5XY.j k l Z Z j l <X2X:X-X:Xl l Z A B N N Z !.U.U.P.L.n A U.(.R.E.E.&X>X<XJ e s ~ ! i 7 , 5 5 5 5 1 4 4 4 5 2 T W ~ ~ ~ W E ~ R R R R R R R W ! ! Q ! ! r.y.| Y u u Y Y T 8 R R Y Y u i 2 ] G.G.y.+.+.Y u | 8.8.! W Q W ! W W ! W ! { 8.3.W W ! Q ! ! W W W E +.9.{ ! ! ! W W W ~ #.n.9XQ _ ) W Y | } | _ 3.) _ _ _ _ | 3.6.8X9X6X3.2.x.n.6Xp.7.i.w.5.5.2.+.O , ^ ] [ O.$.8 T Y a.9.) p.3.p.9.p.7.7.7.7.7.7.7.7.7.2.3.3.{ 2.2.2.3.3.2.3.3.{ r.F.n.+.{ 8.8.8.{ 3.3.{ | | { { { 8.#.{ } 2.{ | { ! e.9Xh...t <.@X@XVXGXBX  w o 5 1 1 p < 7 1 1 1 1 5 1 1 1 1 1 1 7 7 7 7 1 1 7 1 < 1 7 7 7 1 1 1 1 1 1 1 1 1 1 1 1 5 5 5 5 5 1 1 1 5 9 5 1 1 u ^ ^ u - < 6 X / 8.9.8.",
"L.Q.N c v b ' g r a f o.p X 5 < X 2 $.$.] O.o.X X X , < , , , , < < < 5 < : , ; > d d d 9 p d a f a a ] ^ ^ ( b g w * w w d y S l.oX]     . O O X , : ; : , < X 5 . .   & r r                       .   , 2 O   H bXmX;XmXvXH $ E ~ 0.2.i.c.C.M.j.j.t.R u 7 - : R ! Y : 8 ^ / ( - q q q 8 R R / 8.3.2.8.2.0.{ 2 O O - - - : - O X X X X X X X X X O O O X X X X - X X X     &                                   $ $ X...d.d.M.#.- u y.j.w.w.t.u 2 8 ! 8 R 2 X - X O . O         # O - 8 8 7 u u u u u < : : < < < : 8 ~ ! W ~ ~ ~ ~ ~ } 4.~ Y ~ r.#.9.9.R u X 2 2 e l.+X'.'.`.`.`.'.'.+XoXoXpXk.k.k.k.l.j.$.#.~ u t.j.$.:.&.-.1.A.nXSXVXKXKXVXSXVXSXSXzXl.j.G.k.k.k.k.k.k.k.k.N.h.c. .~ ~ s 2 $.oX+X+X+X+X+X+X+X+X+XnXVXBXVXVXVXZXVXAXZXVXZXZXZXZXVXZXmXD t D D [ [ [ F X.X.X.S ] a @.u - p 5 & mXJXVXA.D O.] @.b M c c c x z x x z n N m N m m l K./.<X~.k n B k I.<X<X^.j c v n c A l <X2X:X~.:Xl k l B C C N Z !.U.U.L.L.M c !.>X(.E.>X>X<X<Xh $ $ 8 R i 7 9 4 4 5 1 1 4 5 5 1 2 T W ~ ~ R W Y Y ~ R W R R R Y W Q Q Q Q +.t.a.+.E i u 8 8 i T ( R R Y T U 2 +.G.F.j.F.y.u 8 E 9.8.W W W W W ! W W W W { 3.3.W W ! ! ! ! W W R ! +.9.{ ! ! ! ) W ~ ~ r.G.n.~ W ! ) W | ~ | 3.Q 3.| _ _ _ _ | Y | +.a $ . y a s u a O.$.M.b.n.+.. % o.O.F [ ..u X O 2 O 8 ~ E - - ~ ! 6.7.7.7.7.6.7.3.3.3.2.| 3.3.{ 3.8.3.3.{ ! r.F.9Xt.8.3.3.3.8.3.| | } { { { Q { } { { { { 3.{ ~ i.sXuXg.t l.zX;XVXZXUX&   # X 9 < 1 < 7 7 1 1 1 1 1 1 1 1 7 7 7 9 9 7 7 7 1 < 1 7 < < 7 1 1 1 1 1 1 1 1 1 1 1 1 5 5 5 5 1 1 1 1 5 9 1 1 1 p ^ ^ i 2 < > X +.s.s.s.",
"L.I.L.C P x ' g 3 r 5 p 1 , < , < p $.] ] %.o.1 5 9 p 9 4 3 , , < 9 < 5 9 4 5 3 6 6 0 4 4 9 p r p r p p p p d d w w w w % %.<.,. X[.,.[ [ $.$.+.] +.T R R u R Y i a %.%.A.H.H.D.D.D.D.D.D.D.D.D.A.vXmXbXbXbXbXbX;XBXBXUXVXVXnXBXvX2 / E E +.] ] #.$.+.i 7 ^ R R / ` W Y R W ^ R : 0 8 q 8 R R W ! ! ! ! | q.8.! ! / Q Q W ~ | +.+.+.{ { { { | | Q { { | { { { | | E +.+.a H.bXbX;X@X@X@X@X@XH.J.vXbXbXbXbXbXbXbXbXbXzXoXyXX.5.} ~ E | ~ } e.r.R Y ! +.u jXvXvXbXbXbXbXbXbXbXbXbXbXZ.O.#.{ ! ! ! E { ! ! ! ! / E W R ~ ! 3.3.3.8.2.| } 2.} | ~ ~ W ~ ! E @.vXbXbXbXvXmXmXmXmXmXmXmXnXmXnXzXo.S.+.+.#.t.9.^ ^ R R 2 +.E >.vXvX%XmXbXhXvXvXvXvXvXvXvXbXvXoX$.:. Xk.k. X X X`. Xk.k.h.:.l.|.oX].>.oX+X+X[.[.+X[.[.[.+X$XnXVXVXVXZXZXAXZXAXZXAXAXZXZXZXAXCXZXmXmXmXmXmXmXmXmXbXbXvXvXvXvXnXH.2 @.%.o.@X@XvXnXnXOXe Z.b M n c c x z x w * n Z N C B N C m U.~.!.l C B B I.I.I.V z v b v x c n ^.:X!.Q.Q.Z C N C m m m m !.P.I.I.I.V c I./.T.R.R.~.~.;XJ.H.H.^ ^ T < p 5 1 5 1 1 1 1 1 5 < T W ~ ~ ~ R ~ ~ W W W W W ~ Y W Q Q ! ! { +.+.E R R ! ! W W R T 8 T R R R 8 E $.#.+.+.+.7 i E +.+.Q +.Q W ! ! ! Q Q { 8.8.8.W ! ! ! ! ! ! ! ! ! / +.Q 8.{ ! W ) ) ~ w.V.n.~ W W ! W 0.e.q.W ! 2.6.7._ _ { +.y vX;X;X;X;XUXBXBXmXnX;X$X@X%.y./ 1 3 d H s [ [ S G D.zXzXhX%.@XbXbXvXE 9.7.7.7.7.7.7.7.3.w.n.2.3.3.2.3.3.3.3.3.8.9.t.b.r.#.8.3.3.2.3.{ e.b.r.{ { r.r.0.q.0.} 2.3.3._ | e.0.e.] D.zX@XVXZXZX;XbXA.. 5 - 1 7 1 7 1 1 5 1 1 1 1 1 9 1 7 7 7 1 1 7 1 1 p i 7 1 1 1 1 1 1 1 1 1 1 1 1 1 1 1 1 1 1 1 5 5 5 1 1 7 7 7 5 i i R R p 4 > R ^ ^ R ",
"I.I.L.I.Q.x b w o < , , ; 4 o +   % d y f o.%.5 9 p p 7 , X X , 2 7 < 1 9 9 1 , 3 # X X X X X $ . . O X X . X # w g g % & %.+X`.`.`.,.<.l.l.l.>.] +.u Y ~ Y W ! E ] H.D.@X@X@X$X@X$X@X@X@X@X@X@X$XmXKXZXVXVXVXZXZXZXVXVXAXZXZXLXIX  5 r X X   .   e p - : / s.9.s.s.9./ ! R i 8 - 8 - 2 2 u u u u u Y Y | } | #.#.r.w.0.} ] } j.r.r.r.$.$.$.#.#.|  .#.} } } } | | ] O.] e @XJXKXnXbXvXvXvXvX;X;XVXVXVXVXZXZXZXZXKXSXmX@XaXs 0.n.a.s.E 2 | e.r.Q / +.W - bXKXVXZXZXZXZXZXZXZXZXVXKX@X$.g.0.9.r.8.q.r.q.q.8.#.+.! R R R u ~ E ! +.#.] ] ] ~ ! ! ! W u u   r nXJXKXZXZXZXVXVXZXVXZXVXVXVXJXvX  $ X O 2 8 T O - - : q u $ A.SXSXBXSXIXa 2 i 2 u s s p E O.X.~ ..|.|.k.k.k.k.k.k.k.h...X.l.kXkXkX+X+X+X+X+X+X+X+X[.+X].+XVXVXVXZXVXZXAXZXZXFXZXZXZXZXZXZXZXZXZXFXFXFXZXZXZXVXVXVXVXVXBXVXKXH.O @.jXjXo.$ Z.IXKX@X. ( b v n c c z * x g w c Z N N B N m l l l l m B n M A j j z z b b b x v z j j * j j c C N Z n N B L.!.P.P.L.L.V n L.U.U.Y.Y.^.P J.@XvXvX^ i u 2 5 5 5 7 7 1 1 1 1 9 < T W W ~ ~ R W W W W W W W ~ R ! / / Q ! ! Y 8 8 8 T / / / / / T 8 T ! W T 8 2 s u s E E 2 8 R ! Q { s.+.W W W W Q 8.8.9.9.8.W ! ! ! ! ! ! Q / ! ! ! ! 9.8.W ~ ) ) Y  .wXV.X.~ ! _ ~ 6XsX6X~ | 4.z.6.3.! / f & bX4X<XNXNXMXMXZXZXDX;XA.$X= . r 5 6 6 r e O.F ,.K $XmXnXvXH ;XAXCXmX= E +.E E W ~ Q 3.| b.9X2.3.3.| ! | 3.{ | { { | | ~ ~ 3.8.{ 3.{ 2.n.G.t.! { b.n.b.n.b.2.| Q 3.2.3.| | b.r.OXzX@XVXZXZXZXHXbX. p 5 5 1 < 9 1 1 1 1 1 1 1 1 7 1 1 7 7 1 1 7 < 7 R ^ i 7 7 1 1 1 1 1 1 1 1 1 5 1 1 1 1 1 1 5 5 5 5 1 1 7 1 7 ; O - R / ^ 6 > ; , , - ",
"Q.L.L.L.I.z x * o 1 1 2 < 6 O g x z v V b b Z.5 2 T / i 2 2 2 2 2 u u i 2 1 p a e e e e e e e e t e y p y y y f d & @ h & J $X+X'.'.+X+X].].A.A.A.H.o.o.+.Y R R ~ o.D.A.$X;X;X;X%X%X%X;X@X@X@X@X;XmXVXVXVXVXAXAXVXVXVXZXVXZXAXZXbX& J J Z.J J Z.Z.A.( < 8 T / Q 9./ / { ~ ! ] s e u e e e E s s s ] ] ] ....] :.:.$.] [ >.>.>.A.A.A.A.A.A.A.A.A.>.A.A.A.A.A.A.A.A.A.A.A.J ;XVXVXmX;XvXmXvX;X;X;XBXAXAXVXVXAXAXAXAXVXmXvXbXa { 9.Q / T : ~ 8.{ ! Q ) ) 8 vXnXmXZXAXAXAXAXAXVXAXVXVXA.[ f.8.9.r.9.8.{ | } | | $.O.o.%.%.o.%.%.%.A.>.>.%.%.A.+.u W W 8 S.H.J.BXZXBXVXVXVXVXVXVXBXVXVXAXAXVX;Xh J o.H.S.i @.< 7 7 7 2 ~ u D.mXnXmXnXnX+.W 9.s.y.+.+.y.S.n.8.#.0.j.j.n.n.n.n.M.M.n.n.0.X.V.pX+X#X[.+X+X+X+X].].|.|.[.+X$XnXVXZXZXVXVXZXZXUXBXVXBXBXBXBXVXBXVXVXBXBXBXBXBXBXBXBXnXnXnXnXnXIXH.T 9.0X0Xs.p A.VXBX@Xa Z.b v c c c z z x g g v V M M N m B m L.m m C L.L.C V z x x x c c c c v c c c c c c V C C N Z M m m U.U.U.L.L.m l I.U.U.Y.^.^.J.@X@XOXH.( ( R 5 5 5 5 4 4 < 5 5 1 9 8 T W W W R R W W W W R R R R R W W ! ! E / T i R R R W ! ! ! E i 7 T W W Y u i E ~ ~ ! +.i i R ! ~ { s.Q W W ! W Q Q 3.8.8.+.! ! ! ! ! ! ! ! Q Q ! W W 9.8.! W ) ) ~ w.}.c.~ Y ~ ~ ~ 7X6Xf. .| X...5.~ R o.I A ;X:X-X2XAXAXAXAXAXAX;XJ.@Xg g g w g w r r ;.[ =.*.+XvXmXmXI ^.4X3X;Xh J J J J A.H.@.~ | x.7X3.3.| | } } | { 2.{ } | | +.9.9.! { 3.{ } t.j.#.{ { r.e.r.e.r.} { 8.! | | | 3.b.#.oXvX@XVXZXAXZXFXvX  r 3 5 , 1 9 1 1 1 1 1 1 1 1 1 1 7 u u 7 1 7 7 7 p R i 7 7 7 1 1 1 1 1 1 1 1 1 1 1 1 1 1 5 5 9 5 5 1 1 1 7 9 6 ; : R +.E < ; 3 3 4 3 ",
"Q.L.I.I.Q.V ' b o X 1 2 < 6 @ J.~.!.~.~.P c Z.w 9 +.F.b.#.y.r.$.r.n.F.n.E ] j.D.OXOXOXOXaXaXOXOXOXOXOXdXaXOXdXhXH % Z.nXBXnXnXmXmXmXmXmXmXnXnXBXBXSXvXvXjX@.R Y u H.nXmXnXVXVXVXVXVXVXVXBXBXBXnXBXVXVXVXVXVXAXAXVXVXVXVXAXZXAXBXZXUXVXBXVXBXBXBXSXbXo., i R { { Y 8 Y ! #.G.sXiXiXiXOXdXaXjXaXaXaXfXaXOXaXaXaXzXzXaX<.l.xXnXmXmXmXmXmXmXmXmXnXnXnXBXSXSXVXVXSXIXIXBXBXVXBXBXZXVXVXmXnXVXVXBXBXVXVXAXVXVXVXAXAXAXAXVXVXBXIXo.E Y - 2 R i ! +.| ! ) ! 9.8 H.%.I BXAXAXAXAXAXVXVXVXVXA.:.f.~ ~ ! W W ~ ~ 2.r.j.OXfXnXIXSXBXSXSXVXSXSXSXVXSXSXhXu W ! 8 bXLXSXVXmXmX;X;X;X;X;X;X;XmXVXAXAXVXZXnXSXIXPXvX# @.7 7 R R Y y.$...O.F D a E E ! W +.+.u u i W Q Y Y Y ] ] | ! ~ ~ ~ ] | | 0.] XX+X+X#X+X#XcXzXlXaX+XpXpXpX+X].;X;XmXZXVXVXZXbXh h g h g g h g h h h h h h h h h h h h r y y r f R R ~ ~ ~ ! Y Z.BXnX;X@X@Xb v c c v c x b % % w x c M N n m m B B m B m B m V c v b x c c c c x c c c x x z V N B n C M N L.U.U.U.U.L.!.I.U.!.U.^.J.$XJ.@XD   . p / R < 4 5 5 4 4 4 1 5 5 9 < T W W W ~ R R R R R R W R R R i 8 8 8 2 u 8 : R / R Y Y Y R E E / W W R R R ! t.b.b.a.s.R R W +.W ! 9.Q W ! 9.Q ! ! ! { 8.8.! ! ! ! ! ! ! ! Q ! Q ! ! +.2.! ! _ _ ~ w.{.B.h.C.i.W Y | u ~ uXsX}.yXXX+.%.^.<X:X<X,X-XR.Y.l Z Z l A I b I P ^.P x ' g w g %.;.1.<.<.J h J.Q.:X2X1XNX<XAXAXAXAXVXKXhX/ 0.x.5.7.3.2.n.9Xn.| 0.9XsX9X+.{ t.9Xn.| { 3.{ | } #.#.t.b.#.| { { { e.n.a.{ | 3.2.3.q.~ D.vX$XVXZXZXVXZX;X  r # 5 < p < 1 1 1 1 1 1 1 7 7 7 9 i i 9 7 7 7 < 9 p 1 2 1 1 1 1 1 1 1 1 1 1 1 1 < < 1 5 p p 9 9 5 1 1 1 7 9 3 ; : 7 R u < 3 3 3 3 3 ",
"P Q.Q.Q.Q.P P b @ o 9 < O & & Q.!.U.U.!.I.c x & O +.n.6Xe.r.#.#...M.M.r.~ ~ j.G.oX+X+X+XOX+X+X+X+X+X+X+X+X+XOXgXf & Z.IXSXBXBXBXnXVXBXBXVXBXVXVXVXKXbXvXzX+.R Y i H.nXnXBXVXKXVXVXVXVXVXVXVXVXKXKXZXZXZXZXZXZXZXZXVXVXZXVXZXVXVXVXVXBXVXVXVXZXVXKXnXf 2 2 u { ! 8 : Y +.X.uXoX+X+X+X+X+X+X#X#X#X#XlX@XlXfXfX@XlXzXOX:.D.vXnXmXmXmXmXUXUXUXUXUXBXBXVXVXSXVXVXVXVXVXKXVXVXVXVXZXVXVXVXVXVXVXVXVXKXZXZXVXAXAXAXAXAXAXAXZXKXKX%.p E 2 8 i R / +.+.+./ / / +.^ $ Z.SXVXVXZXZXZXZXZXVXSXOX:.j.! +.Q W ! W ~ 8.#.l.zXlXmXSXVXZXVXZXKXVXVXZXVXKXLXvX1 / 9.X nXPXKXVXBXmX@X@X@X$X%X$X@XmXVXVXVXVXVXVXVXVXKXvX&     - Y W Y 9.r.....#.} E E E u ~ ~ ~ u 8 2 i u 2 2 u ~ ~ X.~ ~ ~ ~ ~ | ~ | S k.+X#X#X+X#XzXvXlX+X+X+X+X#X#X'.$X$XmXZXZXZXZXbX&                                       . a u u Y W ! W W W Q Y %.nXIXvX@X@Xg * x c v x x x % % g b c M V V C m B B m B B m N M c c v x c c c c c c c c x x z M N N B C M N L.!.P.U.!.!.U.U.!.!.^.^.$X+X+X+XD $ 5 R ^ i < 1 0 0 4 7 1 1 5 5 9 < R ! W W R R W R R R Y R W R E i 4 : < 2 2 2 q T E R Y 8 Y R ! W ! ! Y Y R Y ! b.b.e.n.r.~ E ! W ! { 8.Q W W ! Q ! W W Q 8.8.W ! ! ! ! ! ! ! W ! ! W Q 9.9.! ! _ _ Y e.XXC.k.N.c.Y _ 3._ | xXkX].<.A.f h I.:X-X,X>XE.R.R.k * j j j A * * C ^.P z z * & & f J J J I h * L.!.R.2X1X1X2X2X2X2X3XNXZX;Xe u | 6.7.7.| b.9Xb.}  .B.N.C.{ 9.e.C.n.~ { 3.3.3.3.! 0.r.$.] } 8.Q { e.C.n.8.! 2.| 3.3.~ D.@X$XVXZXZXZXZX;X  r , 1 < 1 1 1 1 1 1 1 1 1 7 2 7 R ^ R 9 < 1 7 1 1 1 1 1 5 5 1 1 1 1 1 1 1 1 1 1 1 1 5 5 p p p 9 7 1 7 1 5 5 5 : : 7 R i 4 6 3 3 3 3 ",
"V v V V v v ' g @ 6 9 ; w V A I.U.U.T./.I.Q.Q.P Z.S.r.5.| | | | | r.f.#.~ E $.:.k.k.>.l.l.k.#X#X#X+X+X#X+X+X+X@Xo.% f hXvXvXvXvXvXmXvXvXvXvXvXvXmXmX@XH.H.^ R 8 E y.dXhXvXbXbXbXbXbXbXbXbXbXbXbXbXbXbXbXbXbXbXbXbXbX;XbXZXZXbXbX;X;X;X;X;X;X;XbXbX;Xd ^ R E { ! Y Y R { ] pX+X+X+X+X+X+X+X[.+X+X+X#X<.l.l.XXXXoXoXl.k.l.H.@X@X;X@X@X;X;X;X;X;X;X;XvXvXvXbXbXbXbXbXvX;XmXmX;XmXmXmXvXvXvXmXbXvXbXmXbXUXVXVXAXAXAXZXZXBX;XbXf i R 7 u i u Y R Y Y T T T R ^ E %.vXvXbXbX;X;XbXbXbXvXD.>.$.u R Q ! W ~ ~ { | $.OX+X$XmXmXAXZXVX;XbX;X;X;X;XbXH.< / +.u hXbXbXbXmXvX$X$XzX$X%X%X;XvXmXbXmXmXmXmX;XVXVXBX;X;XH.s./ u Y 2.0...5.w.{ Y | r.:.h.j.j.| E +.y.y.r.$.r.j.h.h.h.h.g.g.g.h.h.XXl.+X+X+X#X+X#XlXzX@XOX+X].[.+X#X$XmXmXVXZXAXVXVXBX;X;XvXvXvXvXbX;X;XvX;XvXvXvXvX;X;X;XbXvX@.R W W ~ W W W W W ) ! @.H.@X@X$X+XA.A.Z.w x v x x w w g b c v c c n n N B m B B N C M c c v c v c c c c c c c c v n M C m M M M n m !.I.L.L.L.P.U.I.I.P J.+X[.].+XH $ i / @.T 2 < 4 4 < 7 1 1 5 5 < < T R R W R R W R R W ~ W W u R i 5 4 i R R R Y W ! ! R R W W ! W ! W W W ! R | r.w.0.r.9.! | Q ! W Q / ! W W Q Q Q ! ! ) 3.{ W ! ! ! ! ! ! W ! ! Q ! ! +.` ! W _ ! Y r.g.$.j.M.h.Y _ _ _ _ 6X[ $X;X;X^.^.~.Y.R.R.T.R.E.E.U.I.!.!.!.!.!.!.!.Q.I.N N Q.I.I.^.I ;X;X;XQ.I.T.R.E.,X,X,X,X,X1X1X1X2XNXUXvXvXy.| 2.7.4.g.r.q.4.5.pXpXoX| +.g.C.b.X.{ 3.3.7.7.Q g.oXG.$.} 2.Q { e.n.a.3.{ 2.3.3.3.Y OXbX;XVXZXVXZXFXvX  r , 1 < 1 1 1 1 1 1 1 1 1 1 8 7 0 i i < 1 9 5 5 5 1 5 1 1 1 1 1 1 1 1 1 1 1 1 1 1 1 1 5 5 9 9 9 7 1 1 1 5 5 5 7 8 T R 0 4 > 3 3 3 3 ",
"@ & @ @ @ @ O O o 6 % & b ^.!.U./.T.T.!.!.~.~.!.^.J.^ { ! ! ! ! Y E ~ ! E E | ] ~ X.~ E t S ].+X#X#X#X+X+X+X+XdX%.e $ ] s e $ . >.D.o.e 2 $ $ $ %.%.. O 2 - 8 T U q 2                                                 J.LXIXI             &       . O ^ / 9.{ Q / Q W { ] iX+X+X+X+X+X+X+X[.].|.+XoXX.s X.X.X...h. .0.+.2 O                   O   O O O O O O O X   . A.@X$X$X%X<.G F :.D.H     J.J.bXVXVXVXVXVXVXVX;Xh Z.O : 8 T T 9 1 7 7 7 7 8 : 8 8 u u $ .                 $ a j.+.X u ! { { W Y ~ Y ] l.<.<.@X@XmXVXmX= %.        # , - T / ! ] O.L 1.+X1.t G @XzX%XzX%X+X1.1.1.1.1.1.A.mXVXZXVXKXvXH.S.u Y 8.r.r.g.x.} s ..l.].+X+XoX:.[ l.oXoXoXoXoX+X|.|.oXoXoX|.|.].].+X+XkXkX#X#X+X+X+X+X+X#X+X].+XlX$XvXVXVXZXZXZXZXZXZXVXFXFXKXZXVXZXVXVXZXVXZXVXVXVXVXZXFXLXKXH.2 +.Q Q ! ! Q ! W W W u 1 = :.kX+X@XhXA.w g b v b w w x x x c c x z z n N m N N m N n c x x x x c c c c c c c c M M N N n z c c j l Q.!.L.k l I.I.I.A x A.+X[.].+XD   1 @.s.i 2 1 1 1 1 7 < < 4 5 1 2 u u u ~ W ~ W R R W W W ~ 8 8 < < 7 R / / ! ! Q / ! ! ! ! ! W W W ! Q Q / / ! +.} { +.+.#.#.Q W W W ! W W W ! ! ! ! ! ! W W ! ! ! ! ! W W W ~ R W W ~ W W W _ _ ! Y ! u s g.XXg.Y _ ) _ ~ Q . ;X2X>X:X:XU.k n j j P.E.&XE.(.(.(.(.R.>X(.I.l ).B k /.>X-XR.Y.:X,X>X(.R.E.W.E.W.E.E.E.*X,X,X,X=X,X3XMXVXA.R 3.3.3.| ~ r.n.h.aXlXOX! +.b.6Xc.} { | 3.3.3.~ j.sXiXg.| 3.Q { } } 8.! ! 3.3.2.3.e hXBXmXZXZXZXZXFX;X  r < 1 < 1 1 9 1 7 1 1 1 1 1 7 7 7 < 1 1 5 9 5 1 1 1 1 1 1 1 1 1 1 1 1 1 1 1 1 1 1 1 1 1 1 1 5 1 1 1 1 1 1 1 9 i i T R i , , 3 3 3 3 ",
"@ @ 3 ; 0 0 O 6 @ @ & * A Q.U.U.~.!.U.!.!.!.!.!.~.P d / / / / ! / / E / / / s.+.{ r.Q +.] X.+XkX+X+X+X+XpX+XoXaXo.p a y.$.$.O.] G.iXj.| } q.r.a.F.F.E i R 8 T T W Y / E D a a H a a a y a a a a a p r p a a r r p r $ J.IXUXZ.  g 3 d p p d i p p 5 u / / / W ! / W ! | s OX@X+X+X+X+X+X+X X X+X+XoX[ X.....4.5.w.w.i.a.E T d ( R R R R i T R ^ / / / / / / / / / R i H.zX@X@XlX+Xk.V.G.iXy.e . H.H.bXSXSXVXBXBXVXFX;X& ( 5 q T i i 9 < 1 7 7 7 0 2 7 u E E a a f d d d d d p p p y.9Xr.2 T / +.+.! Y W E | F.G.+X@X@XSXKXVXJ H.( d d d p p 9 8 s.y.s.D.>.kXkX,.G F %XzX%X%XzX$X+X[.'.`.`.`.A.VXVXAXVXKXH.o.y.i E +.r.#.r.y.+.s ] l.l.].].oX:...k.G.l.l.].].|.].].].l.l.k. X'.`.[.#X+X+XOXkX#X+X+X#X+X#X+X].<.@X@X;XVXZXZXBXKXKXVXVXVXVXBXBXBXnXBXBXBXVXBXBXBXBXBXnXBXBXIXIXH.u ! Q ! W W ! W W ! / ! E R l.lX#X+X$XA.% w b v x g g x v c c c c c c M M N B N N N n c c v x x c c c c c c c c V C N M M x x c z m Q.Q.L.l m Q.Q.Q.V b A.+X|.[.oXS e p ^ @.p < 9 1 1 < 4 9 9 4 4 4 2 u u u ~ W W W R R R ~ W R T q < 8 u ~ ! ! ! Q ! ! ! ! ! W W W ! ! W Q ! ! ! / +.} } +.+.8.2.Q W W W W W W W ) Q Q Q Q ! ! ! ! Q ! ! Q W W ! Q ! W ! W W ! W _ _ W W E u ~ n.G.g.8 ~ ~ Y u @.b ~.:X>X>X(.U.l C Z l U.E.&XE.E.(.R.(.R.(./.I.L.m l k R.*XE.P.R.(.>X>XR.W.E.E.E.E.R.E.&X>X,X,X,X,X-X1X2XAXI Z.+.3.6.2.~ $.M.h.pXaXoXE ! g.6Xx.| { { 2.} } | h.uXoXr.| 3.9.+.} } } | 3.3._ 3.{ u hXnXmXVXVXVXZXFX;X  p < 1 < 1 1 1 1 1 1 1 1 7 7 u 7 7 1 < 1 9 9 1 1 1 1 1 1 1 5 1 1 1 1 1 1 1 1 1 1 1 1 1 1 1 1 5 5 5 1 7 1 1 1 p i 7 i R i , 3 3 3 3 3 ",
"b Z.g o 6 6 @ ' ^.Q.Q.!.!./.T.P.L.L.!.!.L.k l !.Q.v o 7 8 8 7 2 < 2 - 2 7 8 u 8 8 Y 8 Q r.:.|.[.[.=.=.k.XX$.$ p 0 , u $...:.h.:.l.oX>.X.2.i.t.9.Y E Y T i : < 9 8 u $.$.l.D.l.l.XXXXD.l.D.l.l.l.D.D.D.j.l.l.n.D.D.D.%.%.f g A.@XZ.$ p / W / ! +.E i i i 7 u 2 i 8 : ~ j.O.mXSXnX+X+X+X+X|.:.-.].+X+Xk.M.f. .5.4.4.| ~ ! T 8 0 ( ^ R E R i i R R R R R R W W W R R Y 8 ! %.[ :.<.k.h.h.X.E p , O ( ^ Z.H.H.A.Z.J.mXSX;X  ( 0 < < 7 7 1 < 5 9 5 9 9 9 R i o.] o.%./ R 7 i ^ ^ R i u R E Y 2 i u 7 7 8 8 8 7 7 E ^ y f & nXBXBX%.y.E 1 p ( 0 0 0 : p 9 1 2 . OXpX+X+X+XlX%X$X%X%X%XlX#X`.`.`.'.A.VXVXAXAXZXA.1 ^ q 8 T R p p R i 1 2 p e s a E u u p E E s E E ] E E ] E ] s :.k.,.`.].O.t s l.+X[.[.+X+X+X+X+X+XmXVXVXVXVXbXI Z.Z.Z.A.@XOXA.>.A.D.A.H.D.A.%.%.A.H.H.%.%.%.%.S.E Y W W W R Y Y Y Y u u T R 7 E o.D +XlXA.r w g x z x x c c c c x c x z c c n N N N M M c x c c c c z z z c c z n V M c c c x z v n m L.L.m m m L.L.n b b %.[ =. X|.l.l.F.+./ T < 4 4 4 4 4 4 4 1 1 < < T R R W W W W W W R R W R T 8 T R W W ! ! W W W W W ! W W W W Q ! W ! ~ Y u i ! ! { 9.+.{ } { ! ) ! W W W ! Q ! ! ! ! ! ! ! ! ! ! ! Q W ! { t.9./ W W ! ! ! _ _ W W Q } | 0.} n.#.n.l.D.J.;X:X!.I.Q.l k U.T.(.>XE.&X&XE.W.W.T.K.K.L.l m m m /.(.R.,X,X-Xk L.L.L.L.K.K.T.(.(.P.K.U.>X:XK.l P.>XY.=X1X3X4XAXbXs 4.8X6.z.c.h.XXoXG.] ] g.V.x.| | r.n.e.r.#.h.M.M. .{ 8.8.{ w.M.b.b.n.q.| 3.9.! +.%.J @X@X;XVXZX;X  p < 1 < 1 1 1 1 1 1 1 u u p R R i 7 < 7 9 1 1 1 1 1 1 5 5 5 1 1 1 1 1 1 1 1 1 1 1 5 1 1 5 5 5 5 5 1 1 1 1 9 1 < : 8 R 0 : 3 3 3 3 3 ",
"V P b   & & * P /././.~.~./.~.L.k N Q.Q.n j k Q.Q.V   < T T 7 - < < : 7 i 8 u 8 8 8 : +.n.h.].+Xk.-...M.iXr.O 1 0 4 p $.:.l.uXoXoXOX>.s | a.a.9.~ ! ! R 7 : < i i u } [ >.oXoXoX|.XXXXXXoXXX|.|.l.N.N.l.M.l.N.C.l.l.D.o.    H.vXH.2 u 9.Q ! ! +.u 8 u 7 7 u : 8 0 2 E H.H.IXPXSX+X+X+XkX+X-.[ k.].+XXXuXn.0.e.r.b.r.~ R 8 8 8 E ! E ! W u 8 Y Y Y Y Y Y Y Y Y Y T W Y W E ] h.k.k.N.h.e 2 2 < ; < 8 - - 2 O   y nXBXhX  ( < 5 < 2 1 1 5 6 5 1 1 2 7 ^ E $.$.] o.@.^ u i ! / E T T u 8 R i p 1 2 7 7 < 9 < : 8 2 1 r   BXKXBXO.$.s 2 2 u < , , < , - 9 -   dXgXaXlXlXvXcXvX;X$X@XlX#X,.`.`.`.'.VXZXVXVXKXZ.X i 8 q < < , 2 < < < < 1 - < 1 9 2 7 7 i 7 8 i i i u 8 8 8 u 2 $.N.k.k.XXo.$ $ D.+X[.[.|.+XkXkX@X@XnXZXAXVXZX;X  < - X o.G.H.O.D $.j.j.j.n.$.E s | y.+.p e p u R Y ` ! ! W Y u u Y Y R Y U T 8 i r e OXhXH.r g g x b b x x x x c x x x z x z c V V V V V c x x x v x x x x x v c M V V v c b x x v V M N n M Z n Z Z V b b O.S -.=.k.|.yXG.E u 8 X - < < < < < < < < < 2 R E W ! W R W W W R R W R T 8 T ! ! ! Q ! ! ! ! ! ! ! ! W ! W W W ! ! ! Y 8 i ! ! { +.E ~ ~ 2.! 3.Q W W W ! W W W ~ ~ ~ ~ ! ! ! ! ! ! ~ E 8.0.0.! R ! W Y ~ Y ~ Y ~ 8.n.5.| 2 ..h.oXoXOX$X<X<XU.n C j j U.(.E.&XE.&X&X>X(.(./.l A V n n C m T.E.*X,X2X<Xj M N n n m k U.(./.k k U.<X<Xl j l (.Y.-X,X1X3XNX;X& s } 4.d.h.h.M.N.j.| | w.6Xc.| | b.9Xn.j.h.h.h.j.#.{ { ! | g.tXC.C.6Xe.| 3.9.` Y 2 $ +X$X;XVXZX;X  p < 1 2 1 1 1 1 1 9 i i p p ^ ^ i 7 < 9 9 < 1 1 1 1 5 5 5 5 5 1 1 1 1 1 1 1 1 1 1 1 1 5 5 5 5 5 5 1 1 1 7 7 1 - - 7 R 0 , , 3 3 3 3 ",
"I.Q.I.Z C Z l I.!.U.U.U.!.I.Q.B n C Q.Q.C m L.Q.Q.V @ 4 / R u 7 9 7 2 u R R E ] ] ] ~ #.h...,.l.M...h.h.n.s.2 i 0 6 u $.$.$.$.O.>.A.o.a E +.@.@.i Y R R T 7 7 i i i +.$.$.$.>.$.$.$.$.$.$.$.$.h.:.,.k.,.k.k.k.k.k.h.l.] $ e A.H.%.u Y Q Q W W ! ! R T u i i 7 i 9 1 p S.Z.vXbXvXOXOXoXl.l.h.=. X].|.O.$.+.E / E E ! u R Y 8 Y ! ~ ~ E E u u E E E E E ~ Y Y Y Y R R Y ! ! | M.h.h.k.h.u e 7 4 7 E R R T R R E %.vXvXH.X ( : p 1 1 7 1 1 5 1 1 1 7 7 R u +.} | ~ E p 7 u R W R T R R T T < 4 1 9 1 1 1 9 0 0 T T p d   BXVXmXO.l.D s s ] E p 1 7 p i i 9 2 H.H.OXOXOXzX%X%X;X@X@XlX#X,.[.`.`.'.mXmXVXVXSXS.- R T T 0 9 6 9 9 9 9 0 9 1 i 7 i 8 8 8 R T T Y T T T T R T R 8 r.M.h.h.l.@.2 e G.+X].[.+XoXoXoXD.Z.BXZXAXAXFXvX  R R 8 +.F.y.$.E #.+.#.#.r.} ~ ~ { r.+.! R / E W Y W W W ~ R R Y Y Y Y Y Y T 0 ( r r H.@XS.a f d g g g w g g g g g g g g g g b v b v b b g g b b b g g g g g b b b b v b x b g g b b b v b b v v Q.Q.b % e $.,.k.k. Xk.N.B... .#.+.o.1 5 5 4 1 1 1 1 1 < T T T W W R W E i u R W R i : T W W W ! ! ! ! ! ! Q ! ! ! Q ! W ! ! R W / R R ! ! 9.9.#.x.c.0.{ 3.! W W ~ ~ 9.0.0.#.#.#.r.9.! ! ! ! ! ~ ! r.j.j.+.! 9.Q E #.h.r.~ ~ 9.q...h.k.].+XoXd.n.J.:X>XY.k I.!.U.(.E.E.E.&XR.T./.~.!.!.m M C V C L.l W.E.*XR.:X~.n B C V C C m !././.m n I.:X~.Z j B ~.U.U.R.:X2X4X<X;XvXD.h.k.k.k.h.k.h.0.e.w.c.x.} | 0.n.r.r.0.h.M.C.#.! #.r.r.h.M.k.h.m.5.| 3.3._ r.h.;.lX$X;XVXZX;X  r 2 1 2 1 1 1 1 5 1 5 5 9 u p p u 2 7 i i 7 1 1 1 1 5 5 5 5 5 1 1 1 1 1 1 1 1 1 1 1 1 1 1 5 5 6 5 5 1 7 7 9 9 2 2 9 0 9 4 , 3 3 3 3 ",
"~.!.!.!.~.~.!.U.U.U.L.I.I.k n M n Z Q.I.L.Q.Q.Q.^.V @ 0 / / W E ^ p 2 i ! +.j.G.n.j.j.j.h.h.h...h...h.~ 8 R 2 9 0 5 u y.$.s .   y f f f p 2 X 2 1 2 8 T T R T Y u u +.+.s 2 2 e 2 2 2 2 2 2 u E ..:.k.k.k.,.k.k.=.k.M.E 2 X $ . u E / W ! ) Q Q W R R T E p 2 9 7 9 X ,   .     OXD.D . e :.k.k.l.:.$ X - - 2 - X 2 u E R R ~ ~ ! W { { E E +.+./ +.+.! R Y Y Y ~ Y U W Y Y h.M.k.k.h.a E p < q Y Y W R Y W R u e 2 i 2 / : 1 2 1 1 1 1 1 1 1 5 9 2 u 2 ! ] E 2 - 2 7 7 Y R R R U Y T T < 0 7 < < < < i R R R Y i p & BXVXBXD.oXj.>.$.j.j.+.i E R ^ T ( 9 1 . .     G F <.$X;X@XzX@X:. X,.'.<.$XL mXVXKXH.9 ^ 0 T < , 6 0 4 5 9 < 1 1 9 2 7 8 8 8 R Y Y Y Y Y T U R T T 8 | | X.] ] E 8 2 G.|.[.[.+X:.S ] t   bXZXAXAXZXvX  E Y Y Y E Y | ~ E 2 u u u Y ~ ! ! ~ ~ u 8 E E ! Y Y Y Y Y R ! W R Y Y R Y : - < X 1 . . . . $ O > + ; o ; o > > o > > > > + @ @ @ @ @ % % % w g w % % 3 3 # + o o @ & @ @ & @ @ @ @ @   @ @ * * J.^.Z.& = D.pX|.k.]. Xk.|.l.V.G.G.H.r r r r r r r r r 5 4 2 8 R ! R W R 7 : 7 R R 8 < T W ~ W ! / / ! W W W ! ! ! Q { ! Q ~ 8 8 / / / +.{ 9.+.#.V.6Xi.{ 3.! W Q ~ ~ n.n.n.n.n.C.n.n.W ! ! ! ! ~ | j.sXuX0.! 9.! | G.aXXX~ W 3.~ X.kXkX#XkX#X~ ! b I.T.T.k I.>X>X>XW.E.E.>XY.j j j j n m C C C ).).K.R.>XR.k j k N B n C M N n m L.L.n n k k A c n n L.L.l k K.:X,X4XAXVXlXV.|.|.|.k.k.k.c.n.5.5.4.| 2.| | X.}  .h.9X9X} ~ e.uXuXm...d.f.f.4.| 3._ ~ j.zXpXlX+XvXZXZX;X  r 1 1 2 1 1 < < < < < < < < 2 2 2 2 u R R 7 7 1 1 1 1 5 5 5 1 1 1 1 1 1 1 1 1 1 1 1 1 1 1 1 9 9 5 5 < 7 7 7 p , 2 < : < 4 ; 3 3 3 3 ",
"/.!.!.~.~.!.^.Q.I.I.I.I.L.n A M n B Q.L.L.L.Q.Q.^.Z.@ : / Q ~ R R 8 2 u E +.r.j.j.j.:.h.h.h.h.h...f.r.~ E R < 9 0 < u $.y.E 1 r o.f g d ( 0 4 5 i i T T Y Y Y Y u R +.9.! R R R R R R R R R ! 9.0.n.M.h.V.k.k.k.k.h.n.+.- 9 p p ^ / / / / / / / ! ! R i p i < 1 1 1 0 0 0 p f o.0XiX@.2 E j.M.k.G.y.p 8 9 9 0 9 9 u Y Y Y Y R R W ! / / E E / +./ / / E R Y Y Y Y Y Y R Y ~ c.k.k.k.M.E p p 2 8 R W W R W W R R +.+.W R R 7 2 7 1 1 1 5 5 5 5 5 1 9 7 u E +.E 2 8 8 8 8 T T Y T R Y Y T 7 7 7 1 1 8 8 8 T Y Y R R p   BXVXBX1.}.h.$.$.$.+.! E R Y R R R R R i p p 1 $.<.<.%X$X%XzXlX,. X X`.<.$X$XmXVXSXH.< / i 7 9 9 5 5 5 4 < < 1 5 5 < 2 7 8 i i Y Y T T T T T T T T i E +.| | +.^ i 2 G.|.[.+X+Xh.0.#.^   mXZXCXAXHXvX2 u Y 8 R +./ / +./ Y Y Y Y Y ! ! ! ! ! Y u R W W ~ Y R Y u R W R Y R T T 8 i - 8 8 8 8 8 2 X X O X X : : ; : ; ; X : 5 9 < 1 < < 1 , 4 4 5 < 9 d 6 # . . . . O . .   . . . . . . . .   #   &   & P ^.h     A.@X+X>.1.1.;.1.1.>.>.A.A.                    . O i T E W E E i : 0 ^ T 7 8 T W W W Q / / ! Q ! W W ! ! ! ~ ~ ~ ~ 2 u R ^ E +.+.+.s.| C.M.0.| 3.Q Y ~ ~ u r.n.j.h.j.j.j.j.E ! ! ! ~ E 9.j.iXiX+.! ` ! E l.oXV.~ W 3.| X.kX[..X#X$Xf w A U.T.U.k K.&X&XE.R.>X(.<X!.n M V M C m l L.L.L.).m /.<X/.L.l B B m m m N B B B B m k k j j n z c n C L.L.K.Y.>X,X,XAXVXhX>.[.[. X=.=.d.c.x.4.} } | 2.} } | w.w.M.9XC.$.s ..{.}.f.f.c.5.n.q.3.7.7._ h.+X].+X[.vXZXZX;X  r , 1 2 7 < 1 1 1 1 5 5 9 9 5 9 7 1 u R E i 7 1 1 1 1 1 1 1 1 1 1 1 1 1 1 1 1 1 1 5 1 1 1 1 1 5 5 9 7 2 7 7 p - , 4 ; ; > > 3 3 3 3 ",
"U.!.I.l V M A Z I.L.I.I.I.L.C ).L.L.!.I.I.Q.P j b w O : W Q ! ! +.R Y Y R ~ E ] s ] X...h.h.h.f.h.h.r.~ u i < 0 0 < s #.y.a 2 5 ( f g d d d p i i T T R Y Y Y Y Y Y R W R T T T T T Y Y Y T Y W E ] ~ ] j.M.l.k.k.k.n.+.- 4 0 9 7 u 0 0 i i i u R E i 8 1 1 < 5 1 1 4 0 0 1 1 u +.@.p X p s.$.] a E i i 9 < 4 < 7 i R R Y Y Y 8 8 T T T 8 8 u u u i i T R R R R Y Y R R Y ~ k.k.k.k.j.s u u 2 2 Y R R R R u 8 8 W W Y Y Y 8 2 1 1 1 5 5 5 5 5 5 5 5 7 7 i T p u T T T T R T T R Y Y T T 8 7 1 2 7 i i i T Y Y Y T R   nXVXmXD h.] Y s s s u i i Y R Y 8 8 8 2 7 R p >.l.].zX$X%XzX@X,. X=.-.&.+X$XmXVXVXJ., ^ 7 7 7 1 7 5 4 4 < 1 1 1 5 1 7 i i i i T T T T T T T U T i 7 R E R Y W R u 2 l.]. X,.l...4.9.^   bXFXVXJ.J.%.2 Y Y 8 Y R R Y R R Y R W W W ! W W ! ! Y u Y R Y Y Y T Y i R ! E T R 8 2 2 +.+.+.! +.+.+.r.t.j.y.F.y.p i i i p ^ R ( / / ^ ^ ^ / E ^ R R E E ^ / o.%.S.j.j.>.$.+.$.D.j.j.j.j.j.y.y.%.y.%.o.vXnXBXBXBXBXmXmXBXVXnXmXnXnXmXnXnXnXnXnXnXmXBXUXBXBXBXnXnXBXnXJ.# p 7 8 8 8 < < 4 0 ^ i 8 < T R W ! ! R 8 Y R ! W ~ Y ~ E s j.XXj.X.| ! i u R E Y E s j.c.0.| { ! ~ r.n.n.g.j.h.] ] h.n.j.! E ! ! Q 9.0.#.] +.! / 9.Q E l.|.|...w.x.w...kX#X.X#X$X^.;X/.T.U./.T./.&XE.W.T.U.K.L.Z c v M M n C L.L.L.L.).C L.I.L.m m m m m m m N B B N B m /./././.~.B n n C C m l P.:X-XY.I.J.J D <.[. X=.=.k.M.c.f.f.g. .4.4.2.2.x.f.w.r.r.C.k.k. X{.5.X.5.} 0.| | 3.3.~ :.aX+X#X$XvXVXVX;X  d # < < 1 1 1 1 1 1 1 5 9 5 6 5 7 1 7 u i 7 7 1 < < 1 1 1 1 1 1 1 1 1 1 1 1 1 1 5 5 1 1 1 1 7 9 1 5 < 8 R ^ p , , 4 3 4 3 3 3 3 3 3 ",
"!.!.j & g * & c L.L.L.L.L.I.Q.Q.L.L.Q.Q.L.I.P & @ 6 : < W Q 8.9.9.! R Y T Y Y u u u u | h.h.g.j.h.h.e.R - 2 2 - 0 2 s $.r.s $ 5 f f g 4 d d R T T T T R Y Y Y R T i T T T T T T T Y T T R Y u Y 8 8 8 Y j.n.k.:.k.k.M.+.X 4 5 < 2 < < < < < < 2 i E p 2 2 1 < 5 1 1 4 4 4 < 2 2 X - X O e @.s.E X 9 i R i 8 < 8 : 8 R Y Y R i 8 8 < 8 2 2 2 2 2 2 2 8 7 T R R R ~ R R R u s k.k.k.k.j.u 2 9 < - R R R R R 7 2 8 Y Y Y Y Y 8 2 1 1 1 1 5 4 4 1 5 5 < 1 7 < 2 7 T T R R T R R R R Y T T i 8 7 1 1 8 T R T T R R T T ^   BXVXmXy y.u 2 2 2 2 2 q 8 T T u 2 < 1 : 9 E ] n.D.+XvX%X%XzX$X,. X=.X.&.$X$XmXVXVXJ.X ^ 2 9 7 7 5 5 4 4 4 7 < 5 5 1 9 T R T T T T T T T T T T T T U T T U U Y T u e l.[.`.-.k...4.9.^   bXDXBXh # 8 8 W 8 Y Y Y Y Y Y Y Y Y W Q ! ! W W W ! Y u Y Y Y Y Y T T Y R ! W T R 0 8 8 9.+.Q Y s s s +.g.M.c.V.j.u u u u R ! W Q ! ~ E R R R u ~ E R ~ Y ~ ~ } M.M.k.k.k.:...h.|.N.N.N.l.l.l.l.l.l.>.O.vXSXVXVXVXVXVXZXVXVXVXVXZXVXVXZXZXVXVXZXZXZXZXZXZXVXZXVXVXSXKX@X  < < < 0 7 < 0 ; ; < 9 7 7 R / W ! ! R 8 8 R ! ! R R R R e D.aXG.$.$.E . u u T 8 2 e j.M.r.{ 9.Q Y r.C.M.c.M.r.~ ~ g.9Xn.~ ! ! ! { 9.9.! u i E / / ! s j.|. X:.h.c.h.,.kXkX#X#X$X;X<XE.T.P.(.>X&XE.E.E.T.~.k j c c c n c n C L.L.L.L.L.I.l l m m B B N B n m m N N N M m /.(.R.(./.K.k n C V C l L.:X:XK.* * @ $ F ].|.k.=.k.M.k.k.M.h.} 0.2.2.2.n.x. .X.X.C.|.{. XeXz._ | { 3.| | _ _ Y h.aX+X+X$X;XVXFX;X  d # < 1 < 1 1 1 1 1 1 1 9 5 6 5 5 7 8 8 7 1 1 < < < < 1 1 < 1 1 1 1 1 1 5 5 1 1 5 1 1 1 5 5 7 5 1 5 < 7 ^ @.p , , , o 3 3 3 ; ; o o ",
"!.~.c * w @ & V Q.L.L.L.L.L.L.I.I.I.I.L.L.Q.J.@ o 9 < < R ! ! ! ! R T R T T Y Y R R u } g.h.#.$.$.$.y.E - i ^ ^ p 2 s $.g.E 2 r ( f g 6 ( i i i T T T T T T Y Y T T T T T T R R T R T T R R T T R Y Y ! y.$.j.k.k.k.l.O.X 4 5 < < 5 5 5 4 5 4 < i R p r r 5 4 4 9 1 4 9 9 7 1 1 5 5 5 5 p ^ +.p : 9 i u u u i u 8 T T Y Y Y i 7 < < 7 7 u u u u u u 8 i R R R Y R R T R Y s k.k.=.k.n.u - 9 < - R R R R R 7 2 u T R Y R T 7 < 1 1 1 1 5 4 1 1 5 9 < < 7 7 2 < i T Y T T T T T T T T T i 7 7 7 < 2 T R T 8 T T i i R   BXKXUX1 s.T 8 8 0 0 0 U U T T i < 9 5 : p | } y.$.l.lX$X%XzX$X,. X=.-.&.@X$XmXVXVXJ.X ( < 9 7 < < 5 5 9 4 7 7 9 1 < 8 T T T T T T T T T T T T T T T T T U U R T Y e XX|.`.=.k.4.5.r.^   bXDXVXf < R R W Y Y Y R R Y Y Y Y Y W Q ! ! ! W ~ E Y Y Y Y Y Y Y T T Y R ! R i p 1 < 8 ! i S.iXH.D.D.D.l.M.d.d.d.X.] ] | 8.8.! { 9.{ j.S.%.>.%.>.D.>.$...:.:.:.|.{. X X Xk.k. X|. X X X X X].].].k.].<.zXnXmXmXBXmXmXBXmXnXBXbXbXbXbXbXbXbXbXbXmXmXbXbXbX;XVXVXBXmXIXJ.$ d 4 : < q 4 p 9 p p p 0 < i R R R R R R T W ! ! T T R Y u j.G.j.] O.$.E / i R 7 2 e j.M.#.{ 9.Q ~ 0.M.h.h.M.r.] ~ r.n.t.| { { Q { 9.9.| E R / / ! { s l.|. X=.=.,. X`.[.[.[.#X$X~.E.E.W.P.(.E.E.E.E./.U.!.M c M M l L.L.L.m B L.L.L.L.L.L.m m B N N N N C C n n n m N Z /.W.W.&X(.K.K.L.N M N m L.!.~.L.c v ' Z.A.+XoX-.-.k.k.k.d.k.h.X.2.2.{ } c.c.0.....B.{. X X{.5.~ 3.3.{ | | | x.x.l.+X+XlX@X;XVXBX@X  r , < 1 < 1 1 1 1 1 1 1 7 5 6 5 5 7 8 7 i 7 1 5 5 5 5 5 9 1 1 1 1 1 1 5 5 5 1 1 1 1 1 1 1 5 1 1 5 9 < 8 R ^ T 2 , 3 ; 3 3 , < 5 4 , ",
"!.~.v & w ' ' ).Q.L.I.I.L.L.L.L.I.P A A Z L.P @ 4 < : < Y Y u Y Y Y T R T T T Y Y Y 8 } g.#.s u u e r 2   a H.H.a 2 s $.j.! 0 d f g f d ( i 8 8 T T T T T T Y Y T T T R R Y T Y T T Y T T T T T T R U U Y u ..k.k.k.l.+.X 5 4 < < 5 5 1 4 5 4 < T R R p ( p 5 9 0 9 < 7 7 8 7 7 9 0 5 < < < 2 2 9 1 2 2 8 R E R R R R R 8 8 7 7 < 8 7 7 T R R R R R R R R R R Y R R U R Y Y h.k.k.M.F.i 2 9 < 2 R R R R R 7 2 8 R R Y R T 8 < 1 1 1 5 5 5 1 1 5 5 5 1 9 7 < 7 i R Y T T T T 7 7 7 7 7 7 < < 9 1 2 T R 8 q q < 2 0 R O BXFXUXO / R T Y Y T T R R R R i 2 7 < - u ] ] s $ S <.1.$XzX$X,. Xk.-.-.OX$XmXVXVXJ.O ^ 2 7 7 7 1 5 5 1 7 7 1 5 5 < 7 i T T T T T T T T T T T T T T U U T T R U Y e V.|. X=.m...4.#.^   bXFXVXo.7 W T Y R U R ! ! W W W W ~ Q Q ! Q Q ~ Y R T T Y Y T T Y T T Y R ! R 1 5 , 4 9 5 . @XSXVXBXVXmX$XkX|.k.{.l.l.D.F.F.t.{ r.F.D.vXmXvXbXvXbXvXvX@X$X@X#X#X#X#X#X#XpXpX+XkXkXkXkXkXkXkXkXkXkXkXlX+X@X$X$X$X$X$X$X+XA.>.J             &     & &   &   & $XvX$X@XvXH   p < R R R T p 1 ( ( d 0 9 9 0 0 8 T R ! ! Q Q W U U 8 8 - E y.E X $ y.iXy.T E i 1 u j.g.| Y W W Y #.C.M.h.M.r.~ ~ ! Q ! 8.9.r.9.8.9.r.r.9.9.+./ +.} s V.|.[.#X#X#X#X+X*.&.1.+XJ.R.E.E.T.P.E.E.E.E.(.U.j V c v V B K./.(./.L.L.).L.L.).).B N B N n N B N n N n B B B n m /.W.W.>X,XY.I.U.B B C m m l m m m C Q.Q.J.$XD.[ [ =.N.k.k.m.v.} 2.2.2.| x.c.h.h.h.B.N. X X|.5.! 9.7.3.} h.h.uXpXpX#X+XmXnXBXVXBXJ.  r , < 5 5 < 1 1 1 1 1 1 7 5 5 5 1 7 7 T R i 1 2 < < , 4 5 < 5 1 1 1 1 1 5 5 1 1 5 1 1 1 1 5 < 1 5 5 1 < 8 7 0 - , 3 ; 3 , : i i i i ",
"/.!.c & * ' Q.C Q.L.I.Q.L.L.L.L.Q.P x z C Q.' @ 4 < < < i Y 8 T Y Y R R T T T R T Y 8 { g. .u u p r d r # f >.j.a e s $.t.! 0 d f g f d / i 8 7 T T T T T T T T Y T T Y Y Y Y R T T R R T T T U T R T T Y u #.C.k.k.M.+.X 5 4 < < < < < < 4 1 2 R R p E ( d 4 9 9 7 < < 7 7 7 7 < 9 9 0 0 7 1 i 9 2 2 2 7 Y R Y R T T T 7 2 1 9 < < 8 8 R R R R R R R W R R R Y Y Y U R Y Y c.k.M.h.b.Y 2 4 < < R W R T T 0 8 8 T T T Y Y 8 < 5 1 1 5 5 5 1 1 1 < 5 9 1 < 2 9 i T Y R T i i i < 7 < 4 < 1 5 9 5 < i T 8 < < : - 0 ^ . BXFXUX  ^ Y Y Y Y Y T R R T i 7 < 7 < 2 7 +.+.i X D l.1.lXzX#X,. Xk...:.fX@XmXVXVXH.X R : 7 < < 1 < 5 1 1 1 1 5 5 1 7 i T T T T T T T T T T T Y T T T U T U R 8 i e C.|. X-.m.5.4.#.E   bXFXVXf 8 R U U T U R / ! W ! ! W W Q ! ! Q Q W Y T T T T T T T T T T Y R ! T 1 < 6 4 6 6   @XVXBXBXVXmX$X#X X=.{.k.l.l.j.F.r.] $.j.>.vXnXvXmXvXvXvXvX@X$X#X#X#X#X#XkX#XkXkX+XkXkXkXkXkXkX#X#XkXkXkXkX#X#X#X#XkX#XlXkXkXoXXXj.$ 6                     .   $ +XzX$XA.A.h   3 O < < 7 1 e 2 r < 0 4 0 9 9 i T i R ! ! ! ! R 0 8 8 8 7 +.@.^ 2 2 h.uXF.i R i < u j.g.} Y ~ W Y  .m.k.f.n.e.! ~ W ~ ~ r.r.r.r.9.9.s.s.s.t.9./ { | E C.|. X#X#X#X#X+X&.[ A.@X^.R.E.(.T.U.(.E.E.E.>X!.j M M c n m k T.E.Y.k k l l K.m B C N N B B B N N N B N N k l j j R.Y.W.*X*XK.K.k m L.N N Z m m B B L.!.I.P J.A.;.[ :.m.N.k.{.v.2.2.2.8.} c.f.h.c.c.tXwX{. X X..~ | ~ | r.G.oXsXaXaX+X+XnXVXVXBXSXZ.. r 2 < < 9 < 1 1 1 1 1 1 9 5 1 5 9 7 9 T R 7 2 2 2 1 < < 5 < 5 1 1 1 1 1 1 1 1 1 5 5 1 1 1 1 1 1 4 6 < < 8 8 7 - ; 3 ; , < : i p i 9 ",
"U.!.I.b g w w v Q.C V M V C C M c v x z V C ' @ , 2 5 7 Y R T R R Y R R T Y R R R R u | g.0.Y R p p d d f ^ o.o.p 4 p +.$.s 1 r g g d 6 d 9 1 9 u u 0 0 T T R T T T T T R Y T R T T T R T T T T 8 Y Y R Y u $.l.k.k.M.} - 4 0 4 4 4 5 1 1 5 7 8 T R p p f p 1 1 < < 1 1 1 9 9 9 9 0 9 0 0 < 2 1 7 2 u u 9 9 7 7 7 7 0 0 7 < 9 9 < 7 8 8 R R R R R R R R Y Y Y Y Y T R R Y Y b.c.f.| +.7 < 9 1 2 Y W T 7 0 T T T 8 7 Y R Y 8 7 5 5 5 5 5 4 5 5 5 < 5 5 < 2 2 1 7 8 8 T T 0 0 i 7 9 9 4 5 1 5 9 5 4 9 7 i T 0 < : 8 i O BXFXUX  ( R Y Y ~ Y Y R T 7 2 7 0 0 0 8 7 i ^ 0 - ] ].`.#XlX+X-. X..s ] gX@XmXVXVXH.i +.< 7 < < 1 4 4 1 1 1 < 4 5 < 7 i R T T T T T T T T R R Y T T T T T T W T R u G.|. X-.k.5.5.9.^   bXDXVXf 8 W R Y T 8 T R T Y R T R R W W ~ W W ~ R T T T T T T T T T Y Y ~ ! R 7 5 < < 4 p X A.zX@X@XzXlX]. X X=. X Xl.:.} r.0.} g.l.:.+XOX+X+X+X+X+X+X].].[.[.[.].[.].-.k.N.].|.k.].].{.|.].].+X#X#X#X#XkX#XkX#X#X#X#XkX].|.j.$   bXmXUXmXUXUXUXUXmXmXbX@XoXfX+X%XVXZXBXBXbXf ^ E 1 a j.S.o.X 4 3 6 4 0 0 0 8 i R E i i p 0 0 0 9 2 u 1 ^ y.#.N.}.b.i E 7 2 u h.j.+.Y ! 9.| r.M.N.4.r.9.Q ! W W Q 9.9.8.9.9.9.9.+.! +.! W W W E j.{.,.[.[.[.[.+X,.[ A.;XU.T.T.T.T.U.T.R.R.T./.!.A M M n L.!.P.*X=X=X-X*X-X-X-XL.C C N N N N N n n N m N m k ~.:X-X=X=X=X1X1X=X>X:Xk m N N Z Z B B N B L.K.P J.A.<.:.,. Xk.k. Xh.| 2.3.2.} m.d.d.c.z.w.4.c. X|.k.:.k.:.g.| E o.@.o.O.>.A.nXVXBXA.@X%.f a X 1 < 5 5 5 1 1 1 1 1 5 5 1 1 5 7 7 0 0 7 2 u ^ +.p 1 9 9 1 1 1 1 1 1 1 1 1 1 1 5 1 1 1 1 1 1 4 5 < < T R i < 4 5 , 5 0 0 5 4 4 , ",
"T.~.I.V v * & b Q.V v j z V C z z x x x V Q.' @ 4 < < 2 u R Y Y R Y Y Y Y Y Y Y T R u | e.2.Y T T d d g ( d p u , : 9 / +.u 2 6 g ( d O ; 5 9 9 1 1 < < 8 T T T T T T Y R Y T T R i i T T Y R Y Y R Y T Y u $.k.k.k.M.} - 5 0 4 < < 1 1 1 5 1 2 i R p p f p 1 1 < 7 7 1 1 7 9 9 7 7 4 4 4 9 9 7 7 8 i i 9 9 < 1 1 1 9 1 1 5 9 < < 7 8 8 R R R R R R R R R R T T Y Y Y R Y ~ n.n.} u Y 8 9 0 , - R E p : < T R R : 2 8 R Y 8 1 < 5 5 5 4 5 5 1 5 5 5 5 1 1 < < 2 8 7 T i 8 2 7 < 7 1 4 1 < 1 1 < 1 < 2 u R T < - 0 R X IXKXnX. ^ Y Y Y Y Y Y T i 2 - 7 R T T 8 8 - < 4 - ] oX].#XlX+X-.k.X.$ e @X@X;XmXVXH.p @.2 7 < < 5 < < < < 7 1 < < < 7 i T T T T T T T T T T T T T T T T 0 T / R E s XX|. X-.k.....#.E O nXJXSX@.8 Y Y T T T R T U R R T T T R W Y Y Y Y Y R T T T T T T T T Y Y ~ ! R 9 9 5 9 < 0 X p o.O.:.;.k.,. X X{.|.XXXX$.~ | 9.} g.XXk.,.&.&.;.,.k.h.:.k.|.{.l.|.k.}...s X.M.N.k.[ :.:.h.h.:.,.oXkXkX#X#X#X#XkX#XkX#X#XkX].XXG.1   nXSXKXZXZXFXKXKXVXSXBXbXfXl.1.mXKXZXZXDXBXJ ^ ^ 2 u G.iX%.  3 o X 4 p p 4 7 i E E 1 X ; ; , 4 : 2 1 O E G.h.h.h.r.i ^ 7 2 u y.j.| u ! r.0.f.N.N.X.~ ~ Q ! Y Y W 9.#.#.} } 9.9./ Y R Y W W ~ Y ] X.S  X`. X`.].&.O.Z.~.U.T.T.T.T.T.U.U.T.U.U.I.A M N k L.!.U.,X,X=X=X=X=X=X=Xl m m N Z N M N m C m n B m j R.,X=X1X1X1X1X1X1X1X<Xk m B C N n N N B B L.l P ^.J.A.+X].l.k.k. Xh.X.} | | | k.k.k.k.M.~ e .. X|.k.oXl.l.G.] X O X . $ H J nXVXmX& = o.S.o.X 1 2 < 5 5 5 1 1 1 1 5 5 1 1 1 0 < < 7 7 2 a y.F.^ 2 2 9 1 1 1 1 1 1 1 1 1 1 5 5 1 1 1 1 1 1 5 5 < < R / T 1 5 4 , 5 i p 6 3 ; ; ",
"/.!.L.I.I.* * c J.' v c N C C z w g b * V C ' @ 6 < 2 2 i R Y Y u E s E u R Y R T T i ! 9.{ Y T T d d g g d p p p 5 5 ^ ^ p r 6 d d d w d 4 9 7 7 7 9 7 7 7 i i T Y T T T Y T R T T T T T T T T T U U T Y 8 #.C.k.k.N.O.X 4 5 5 5 1 4 1 , 1 < < i R p a ^ p < 1 9 < 7 7 7 7 0 9 7 7 9 0 9 < 7 7 8 8 u i u < < 9 7 9 5 5 5 4 5 1 1 7 2 8 Y R R R R T T R R T T Y Y Y Y Y Y ! s.a.+.W R 7 9 4 < 2 R R R 7 2 i R T 2 1 i R T 8 < 1 < < 4 4 5 5 1 1 5 4 4 5 9 u 0 8 < 9 p u 9 7 7 7 7 8 0 0 < < 9 9 9 < 2 0 T i 7 - 0 i 5 nXSXbX2 R T T T T T T T T 7 8 8 T T T T 0 : 0 U O O.XX<.#XzX#X-.{.0.X o.bXnX;X$XVXH.u / 7 7 < < < < 2 7 0 0 7 7 7 7 u i T T Y R R R T T T T T T T T T T T R E ^ p e D.[.`.=.=.=.:.g.s 1 vXSXnX@.q R U T T T T R R T T R R T / / E Y Y R Y T T T T T T T T Y Y Y Y ! R 1 6 5 4 5 1 5 ^ @.>.l.XXM.$.j.j.j.D.G.e.e.{ 9.9.E r.N.k. X Xl.k.].h.j.n.j.C.j.n.j.j.C.......M.B.h.:.j.>.$.j.l.,.+XkX+X#X#XkX#X#XkX#X#X#XlXXXuXF.1   bXnXnXnXnXnXmXbXbXbXvXS.$.D.D.hXBXmXZXZXBXr ^ ( - u l.oXo.. # r 6 9 p r 6 0 p p d r 5 r 5 5 5 5 p 7 X E h.:.:.n.r.E R i 2 i t.y.| ~ ~ 2. .f.m.m.} } | | { W ~ | r.$.$...r.} 9.8.W W ! ) W R u #.h.-. X X X X,.;.I Q.U.R.U.I.U.T.T.T.T.T.T.!.I.n M c n L.T.P.<X2X4X,X1X=X=X,Xl C m N M n B N N n m N N N j /.,X5X2X2X1X1X1X=X1X<Xj L.N B N Z N m B B B Z L.^.^.Z.A.l.G.h.,.,.k.-.-.[ ..:.-.=.=.k.k.X...:.].].>.j.y.H.F.] s E 1 . H D.>.vXIXvX= >.%.a ^ 2 2 2 < < 5 5 5 1 1 1 5 5 1 1 7 7 9 9 9 1 2 p o.%.^ 1 1 5 < 1 5 5 1 1 1 1 < 5 5 5 1 1 5 < < 5 5 5 < < R ^ T < 4 4 ; 4 p p 6 5 4 , ",
"U.U.!./.~.Q.Q.P * x c M m N V w @ > > @ c P ' @ 4 < 2 2 i R Y Y u s.F.y.u T Y Y T T T R ! R Y T T d w g g 6 5 6 d d 0 d d 0 d d d d g g ( 6 7 < 7 1 5 4 7 7 9 i T R Y T T Y T T T T T T T T T T T T R R Y 2 #.V.k.k.M.O.- 0 1 2 9 1 9 5 9 0 1 2 i R i p ^ p 2 1 1 1 7 7 8 0 9 < 7 9 0 9 0 7 7 9 8 8 u Y i 7 1 5 4 7 5 5 4 4 5 1 < 1 < 8 R R R R T 9 q 8 0 T T R R R Y Y Y Y W W ~ R T 7 < 9 < < 7 7 9 < 2 i R R 2 1 i R T 7 < 5 1 < 4 4 5 1 1 1 5 5 4 5 i i T 8 < 5 5 9 p i i T R T T i 7 < 7 9 1 , < 0 T i 7 2 7 ( 2 9 - p q R T T T T T T T T T T T R Y R R T 2 9 U O o.D.].#XlX+X-.{.2.X Z.BXKXbX;XSXOXa @.- 7 8 8 4 1 1 i R T T i i i Y R R R R R R T T T T T T T T T T T T U i i 2 $ l.[. X X X X{.C.] 2 i < R 8 8 R T T T T T T T T T T T i E / E Y Y Y Y T T T T T Y Y T Y Y Y ~ ! T < , 4 4 4 4 : : X . +.r.~ X X X . X 8 2 ! { Q Y 2 $.l. X X,.k.k.N...| | ~ ~ u u u u Y X.w...h.k.h.[ :.e . s :.:.:.-.l.+X#X#X#X#XkXkXkXkXpX] s E 9 d   O               O - X 2 $.j.o.  & mXZXBXr ( p - r l.l.o.O 1 d ( f f f ( ( ^ f ( f d f f f f f ( 9 X o.l.k.X.] E i ^ T < u s.r.0.} } 0. .5.m.M.h.g.g.g.b.0.{ 0.G.C.l.l.M.0.9.8.s.9.9.9.` R u r.k.=.k.=.=. X+X$X^.~.T.T.L.k K.U.T.T.T.T.T.!.I.A M M n L.T.P.AXZXCXMXMX2X1X,Xl m m N C M N N N B m N M C j :X1X1XMXMX3X3X3X1X3X,Xl !.L.B N n B N B B m l L.!.^.x h a t t :.]. X[.[.].|. Xk.k.=.k. Xk.k.k.].l.s . 2 O $ E F.y.2 . >.hX+X+X$X@X+XlXo.2 p - 2 2 < 5 5 5 5 1 1 1 1 5 5 1 1 7 9 5 5 5 2 e u p 1 - < 7 < 1 4 5 5 1 1 1 1 5 5 5 5 5 5 5 < 5 < 1 2 8 T / R < 4 3 ; ; 3 , < < , , ",
"K.K.U./.U.U.!.m j z n C C C J.g o ; , + b J.Z.+ < 1 2 2 i R Y R 8 y.G.j.u Y R Y Y R R T T Y T R R d d g g 6 6 3 d d 0 0 0 0 ( d d w g b ( 6 1 7 1 1 5 5 < 7 7 7 T T T R T T T T T T T T T T T T T T U 8 u e $.C.N.N.N.$.X : 2 2 O O X - : 9 4 < i R i p ^ p 1 1 9 9 9 1 < 1 < < < 9 < < < 9 1 9 < 2 8 i 7 7 5 5 7 7 4 5 4 4 5 5 < 7 < 8 T R R R T 0 q q 8 T T T R R R R Y Y R Y Y R R 7 < 4 1 < 2 : q 7 7 i R T 2 1 i R T 7 < 5 5 5 < < 5 5 1 1 5 5 5 1 u Y T 8 < < < 1 i R T R R T R i 9 1 7 9 7 < 7 T T i 7 : 7 T T ( i R T T T T T T T T T T R R R R Y R R T 8 < 0 X ] XXoXOXvXaX,.{.} . Z.SXKX;X;XKXH.p @.7 8 8 8 < < 2 u R T T R T T T T T R R R R T T T T T T T T T T T T T i 0 2 $ l.+X XN.yXyXsX9X! R 7 9 T R R Y U T T T T T T T R T T T ^ @./ R T T Y T Y T T T T T T T T R R E R 5 6 4 4 4 0 0 0 < X @.y.| u 8 u 2 u R u { r.9.u 2 $.].`. Xk.l.l.G.$. .} ~ | Y i R ! u | G.h.h.:...X.:.e . E j.j.h.$.>.lX#X#XkXkX#X#X#XkXkX..E @.( ( ( d p p ( p p d d R u u u e.0X@..   BXFXBX& ( p X r <.l.] . 1 p ^ f f a d d p f f d r y y y a p ^ 9 O o.l.-.S u | 8 E 8 2 u #.#. .} 0.0.4.f.B.N.........r.} |  .C.k.l.l.M. .9.9.#.#.3.9.` Y 8 w.m.=.=.=.=.].J.^./.T.W.T.I.A L./.T.T.T.T.T.!.Q.c M M j Z U.K.AXZXCXCXCX2X1X5Xk j m n N n N n M N N N M C j <X2X4XCXCXNX4X3X2X3X2Xk U.K.m Z N N N N m m m L.!.Q.A g r = $ &.k. X|.+X|.eX X=.=.=.`.=.=.`.,.k.l.] X 1 X $ ] qXF.< O %.@X+X+X+X+X$X@X%.X 9 2 < < 1 5 5 5 5 1 1 1 9 9 5 1 1 1 1 1 5 1 1 1 2 2 2 2 7 8 7 7 1 < 5 5 5 5 5 5 4 4 5 5 5 5 4 4 < 5 < 8 Y W T < 3 3 o 3 , , < < 4 < ",
"/.U.T.R.T.U.!.!.Q.Q.N M M x ' g 3 5 1 ; w b g 3 < 1 , < i R T T u ! #.+.u R R Y R R R R R R R R i 5 6 g g d 6 6 d d p p d d d d d w g b b 3 5 p 1 < 5 5 < < 7 7 0 i T T T Y T T T T T T T T T T T T 7 E $.$.$.] X.k.|.$.O 5 +.$.$.$.y.^ 5 0 4 < R E i a ^ p 1 1 < 9 1 4 5 9 1 p 0 0 0 0 < p 9 5 9 7 i R 7 < 9 < 7 7 4 4 4 4 5 5 1 9 7 7 R E R i i T T T R R i 8 T Y Y Y R R R Y R R R 8 < 9 0 i 7 8 7 i i T R T 2 1 i R T 7 < 5 5 5 1 < 5 5 1 1 1 5 1 < u Y T 8 1 5 < 1 0 i 0 0 7 7 9 9 7 7 0 T i i i 0 7 7 7 2 i R R 8 T T T R T T T T T T T T Y T T T T Y Y T T T 0 X D XXl.:.%.O.=.N.} . J IXKX;X;XFXH.p @.7 u u 8 0 7 7 i T T T T T i T T T T R R T T T T T T T T T T T T T T i p < $ l.+X,.] #.| r.9.Y T R R i 0 8 U Y T T T T T T R T T i u R / E i 8 T R T T T T T T T T T 0 i i u i 1 9 5 4 ; ; 4 4 5 < E E R R R 8 - 8 R Y ! +.8.! s :.|.,.k.].l.] ] $.} { E ! u 2 8 Y Y E | ] $.h.k.k.l.] u +.o.E E s o.fX#X+X#XkX#XkX#XpXlX] e p 9 < 0 < < i R 7 < 9 < T 8 Y Y ~ y./ 5   BXVXBX  o.d O r <.l.] 2 1 p p p a a f d p f f f o.J J J H f ^ 1 O ] k.,.:.j.a.Y +.u 2 u 0.#.} 2.0.0.} 5.h.h.N.{.k.h.j.g.#.f.M.k.k.N.M.} #.8.} } 3.9.` Y u x.d.=.=.=.=.1.I ~.T.W.W.T.L.c L./.T.T.T.T.T.!.Q.c M v j ^.AX<XCXZXZXCXCXNX3X3X~.~.Q.n B N C N B N B B N C j <XNXNXCXCXCXNXNXNXNX2XY./.I.m B N N B B N N m Z Z Z c b Z.>.,. X`.k...:.k.{. X=.=.=.k.`.,.`.=.,.l.E - u %.>.] +./ 7 X >.@X+X#X#X#X$X$X%.- 9 < < < 1 < 5 5 1 1 1 1 9 9 5 5 1 1 1 1 1 1 1 1 1 7 i R R T T i 5 1 4 4 5 1 5 5 4 5 5 5 1 1 5 5 < p R R W ! R , 3 3 % 3 4 < 1 9 0 9 ",
"/./.T.P.T.T.T.T.U.!.I.V v & & @   % # , O O o o < 1 , < T R T T Y Y u Y u i u u Y Y R R R R R i 7 : 3 d g g d g 6 r r 5 p d d d d w g ' b 6 5 1 1 5 5 5 1 < 7 7 7 7 i T T T T T T T T T T T T T R i u ] oXOX>.  e j.l.O.. r D.G.l.G.F.E : 4 q : T R p a ^ p < 1 < 1 1 0 < 1 2 2 0 4 7 0 2 p 5 < X 2 8 T 0 < 5 < 5 4 4 4 5 5 9 4 < 0 i R R R 7 : 8 T R R ! W u 2 7 Y Y Y R Y R Y R R R 8 < i T R 8 8 0 T R R R R 2 1 i R Y 7 < 5 5 1 1 1 5 5 1 1 9 9 9 7 u R T 7 9 6 1 < 7 7 < < < < < 1 7 7 i R R T T 0 7 1 1 2 8 R W 8 R Y Y Y T T T T T T Y Y R T R Y T R R T R R 0 O D oXl.s   t ,.].] . Z.SXHXbX;XVXH.p @.2 Y Y U U i i T T T T T T T T T R T T T T T T T T T T T T T T T T i i p , . D.+X<.. 2 2 2 8 Y U U 0 8 T T R R 8 T T T T T T i u u u u i u 8 8 T R T T T T T T T T 8 2 8 2 2 2 - 2 9 7 7 7 9 4 1 1 - - 8 R ^ 7 : 7 R T / +.+.! E $.|.l.l.XX>.. X +.r.9.W W 8 : 8 R T 8 2 u j.M.k.k.N.:.] E - 2 q X ] dX#X#XkXkX+X+XkXkXgXD O - 4 4 < : < T R 7 < 7 T T Y Y Y u 8 2 1   BXKXBX  ^ p O r j.l.+.7 p R d 0 r r d d d f f o.%.%.%.%.J f o.p X ] :.=.h.G.F.7 E u X 2 #.e.5.q.9.9.3.4.w...|.oX|.k.k.h.h.h.-.-.k.m.C.4.8.9.3.2.2.9.Q Y 8 4.d.=.=.=.=.;.Z.^.R.W.W.T.L.n L.!.T.T.T.T.T.!.Q.c M c * ;XDXZXZXCXCXCXMXMXMXMX1X2X/.k m m n n N n m m M Z j <XZXCXZXZXZXCXCXCXCXNX:X<XU.l Z m N N N M N N n j A c v Z.$X#X[.=...s S [ k. Xk.k.k.k.,.,.=. X XXXE O e iXlXo.X 2 < X %.lX#X'.#X#X#X@Xo.O 9 < < < 5 < 1 1 1 1 1 1 9 9 5 5 1 1 1 1 1 5 1 1 1 8 i / ! W W i 7 1 5 4 1 1 1 1 1 5 5 1 1 7 2 2 2 T / ! ! ! R < 3 3 # , , 2 7 i i 7 ",
"/././.T.T.R.R.T.U.U.L.n v * & * * g   5 6 > 4 4 < 1 , < T R T R T Y Y Y ~ E R ~ E u i R R T T T i < 6 g g g w r d f p 1 5 d d d d d b b g 6 6 1 1 1 5 5 4 7 1 7 2 8 i T T T T T T T T T T T T T T T e s k.oX%.  e D.l.[   r >.:.h.l.C.a - 0 9 q T u u a ^ p < 1 7 7 < 9 , p s u < 0 8 8 2 9 , p s u 7 T 0 < 9 < 5 4 4 4 5 5 9 4 < 9 i p p i 0 7 8 T R R W R 7 2 7 R R R R R R Y R R R 8 < i i 0 7 7 0 i i T R T 2 1 i R T 7 < 5 5 1 1 1 1 5 5 5 5 9 4 1 9 i i 7 4 5 1 1 9 9 7 7 < 1 1 7 u i i R R R R 8 < 1 1 2 R 8 U U R T R R T T T T T T Y Y Y T T Y T R R T U R 0 O D oXoXs . y l.l.] . Z.nXBXmXmXVXH.a +.2 u Y U U T T T T T T T T T T R R T T T T T T T T T T T T T T T T T T 0 , X S.oXD.2 T / T U W R R 8 T T T Y U 8 R T T T T i i R E ^ R i i 8 8 T R T T T T T T T T 0 2 7 i u u u i 8 7 7 7 0 7 1 9 < 7 0 R ( 0 < 7 R T ! +.+.! E $.l.l.l.n.y.2 2 s.s.s./ / 0 q 8 R T R Y E j.j.h.N.k.:.$.o.2 i U - o.lXlX#XoXoXkX+X+XaXdXo.2 < 4 4 < < 7 i T 7 8 7 T 8 U U 8 Y Y i 1 # BXJXnX= H e X p h.h.+.7 p p 0 p a a p d d f r o.%.o.J J H a ^ 1 O ] k.,.:.l.F.u u ^ s E | 2.2.5.2.9.2.0.g...|.|.{.k.:.:.:.-.-.=.k.h.m.4.3.9.3.3.3.2.| ~ Y ..k.=.=.=.=.-.A.^.~.T.T.(.L.n L.!.T.T.T.T.T.!.I.A A Z j ;XZXZXCXCXCXCXMXCXMXNX=X1X~.j m m n n C N m m N N j <XZXZXZXZXCXCXZXCXCXMX:X<XU.k Z N N N N M C C M z c V c Z.$X#X'.*.h.| | ..c.k.h.h.h.h.:.k.k.k.,.C.R X ] G.OX] X 1 0 O A.OX$X#X#X#X#X#Xo.X i 1 1 < 1 < 1 1 1 1 1 1 9 9 5 5 1 1 1 1 5 5 1 1 7 8 i ! W ~ W i 1 < 4 4 5 5 1 1 5 5 5 1 7 i 8 8 8 T ! ! W W R < 3 3 o < 1 7 u i i 7 ",
"I.L.U.T.T.T.T.T./.!.L.k I.I.Q.~.~.^.@ 6 6 ; 4 , , < , < T R T R R R Y E s.s.+.r.+.u 8 T R T T R i , 3 d g w # . %.Z.%.p 5 d d d d w g b g 6 9 7 1 1 5 5 < 7 1 1 8 7 T T T T T T T T T T T T T T U R u D ].|.%.& r D.l.O.. e >.:.:.k.n.E 8 R T T 0 1 1 a ^ p < 1 < < 2 1 2 >.D.j.2 T 0 0 9 p 2 @.D.j.E T T < 5 5 5 4 9 4 5 5 4 4 < < 1 1 < 7 T R T R T R W R 7 2 8 R R R R T R T R R R 7 < 7 < < i i i 0 < i R T < 1 i R T 7 < 5 5 1 1 1 7 4 5 5 < 5 1 1 < 9 9 < 4 4 < 9 i i 9 7 1 7 1 7 i i T R R R R 7 < 1 1 2 7 T / R U T R 8 T T T T T T T T T T T T T T R T T R 9 . D oXoXs X a l.l.E O , ( & @XmXVXH.a +.u u Y T U u i T T T Y T T T T T T T T T T T T T T T T T T T T T T T i 4 < X +.+.+.i 8 T T U Y T U T T i T R T T T T T T T T T / s.y./ R R R R R R T T T T T T T T T 8 i E E ! E / ! ! E R T 9 1 4 < < < 7 < < < < R U Y Y Y Y 8 R u s u Y E 8 7 R R R T E 0 < 8 T i T i 2 2 2 ~ h.:.h.h.$.2 7 0 - o.lXlX<.& = <.XX[ D O.e - 1 0 4 5 5 7 7 7 0 0 7 i 8 R R Y Y T 8 : # ;XbXvX@XxXiX2 R g.$.E : < 1 - a D.D.+.^ ^ a p %.>.O.O.O.J a o.u $ $.}.N.:.$.+.2 $ H.dXiX$.#.} 2.} } }  .g.5.k.k.m.k.k.+XkXkX#XkX|.k.M. .{ 3.3.3.2.4.5.c.h.N.=.=.=._._.=.<.Z.V I.T./.L.l L.!.T.T.T.T.T.!.I.k l /./.AXCXCXMXCXMXNXNXCXCXMX=X1X~.j C m m m N N m B B C j <XZXCXCXCXCXCXZXCXZXCXNXMX~.k m C B C m m N N M c z M c Z.$X#X[.,.g.{ 9.` 9.Q W W W W ~ h.h...X.e.R 8 u u u 2 2 0 0 : r y t @XfX+X#XlXO.2 u < 9 1 < < 1 1 1 1 1 1 9 9 5 1 1 1 1 5 5 5 5 1 7 8 T ! ~ Y W u < < 4 4 5 5 1 < 4 5 4 1 i W ! / W ! / Q ) Q R < 3 3 , 9 T R T R i 2 ",
"n l U./.T./.(.(./.~.L.k L.I.U.!.~.^.& 3 6 : 5 , < 4 ; < T R T Y T 8 - u s.t.9.y.r.u - i R R R T 0 : ; d d r , . %.S.S.p 1 d d d d 6 g b ( 6 5 8 < 1 5 4 < 7 1 1 8 7 T R T T T T T T T T T T T T R U 2 a oXpX>.  t H.D.O.. . $.$.[ -.h.~ 2 i i T 4 2 2 a f r 2 7 < 7 7 1 $ j.oXl.O ( 7 q 7 9 X y.oXl.Y 8 T 9 5 5 4 9 9 4 5 5 4 4 < < 1 1 < 1 0 R R R u Y E R 7 2 7 R R T R R R R R R R 7 2 1 q < i i p < 2 i E R < 1 i R T 7 < 5 1 1 < < 4 5 5 5 5 5 5 5 4 5 5 4 5 < < 9 p p 9 < < < 2 8 T T T R T R R 7 < 1 1 - i T T R T R T R T T T T T T T T T T R R R R R Y T R < . D oXoXs X E G.G.+.- 9 d   ;XVXVXA.a +.8 8 T U 8 2 2 8 T Y Y T T T T T T T T T T T T T T T T T T T T T T T 0 9 9 - p 2 8 T T T T Y R R T T T i R T 8 R 0 T T R T 7 i / y.S.^ i R W W R Y T T T T T T T T T 2 u ! ! ! ! / W E R R R i 1 < 5 1 1 < < < 1 7 R Y R Y Y T 8 T u u i Y T T E i R R i R 7 q 8 i R i R i 2 - ] G.M.k.k.:.. - 2 X O.lXzXD.$ e D.>.$.o.o.i < 1 < < < 5 < 2 2 i T 7 Y Y Y Y Y Y U T 0   &   t @XzXG.: R g.0.E - - - X s l.l.] R E s e F O.F F F D t s $ . ] |.]...] ] 2   D.dXoXs X.X.X.X.X.X...h.f.:.-.d.-.-.[.kX#X#XkX|.:.k...| { 3.! X.X...N.k.k.=.=._._._._.:.g A L.T./.L.l L.!.T.T.T.T.T.!.I.k k :X:X2XMXCXMXCXMXMXNXCXCXCX1X2X:Xj m j j j j j j k m N j <XCXMXMXMXCXCXCXZXZXCXMXCX~.j N C B B N m m C V c z M c I $X'.K G a 2 2 : - - X - X X $ ] ....X.#.2 X X - 2 7 q q q < i o.t fXlX#X#X#XD   $ X 5 < < 1 1 1 1 1 1 1 7 7 1 1 1 5 5 5 5 5 5 < 2 2 i ! W ! W i < < 4 < < < 7 < 4 4 4 7 R / ! / / / / Q Q ` R < 3 3 ; 9 R ! R R i 2 ",
"v n L.I.U.U.!.I.P Z ~.!.I.U.I.U.!.!.& 6 : < < 4 , , ; 4 T Y Y R u +.y.$.~ | +.9.! u 7 i R T 7 8 0 0 9 p d 9 < 1 ^ o.^ p p d d d d 6 g b b 6 < 7 < 1 < 9 < 7 2 2 7 8 R 8 u T Y R R T T T T T T T T T 0 R j.l.l.[ >.[ [ $.j.%.s ] ] l.M.| ] / : 0 0 4 , a a a 1 < 1 2 7 7 $ j.].:.X i 0 8 2 u X $.].l.u u T : 9 9 0 < 4 0 6 5 5 4 < 9 p p < < 8 R Y Y R T i i i i T R T 8 i i i i T E R 0 < 4 < < 9 7 9 1 < i E R < 1 i R R 8 2 1 1 9 1 9 1 5 5 5 5 5 5 5 9 5 5 5 5 5 < 1 9 9 1 1 < i i 0 T R R R R T T T T u 1 2 9 9 i i i i T T T T T T T T T T T R T 8 8 R R T T R 5   D G.oXs O ^ j.r.R 8 8 (   vXVXVXA.a +.: 8 T Y Y $.$.] R W Y T R T T T T T T 8 T i 8 R T R R T T T T T T T i i q q T W R T R T T U T R 8 i 7 i i T T T i R T T T 8 i E / / ^ R R R R R T T T T T Y Y Y T T i u E ! ! ~ W R 0 i i i 9 1 4 5 4 5 1 1 < < < T Y R Y Y T T T T T T R T T R T T T T T T T T T T Y T T u u E r...j.N.:.$.+.E . F lXvXA.  p j.D.o.e E 7 : 1 9 5 < < 7 i T T T T Y Y T Y Y Y T U : O J J ;.+X#X:.: ! 0...} +.+.+.] ..k.k.X.u +.y.;.1.:.:.,.,.;.[ :.:.;.;. X X&.X. .] [ l.oX<.,.l.k.,.:.k.:.h.h.h.].+X].`.].+X#X#X[.+X Xk.k.h.4.5.q.0.....-.=.=.=._._._._.=.=.>.J.!.T.T.T.L.A L.~.T.T.T.T.I.I.P A k :X-X1XMXCXCXCXCXCXMXMXCXCX~.<XI.l j ~./.<XAXAX~.l I.B j :X2X1X3XNXNXCXCXZXZXCXMXCX~.j N C B N B B N N M n n N j ^.mXvX;X;XvXvXvXvXbXbX;XvXvX;X;X@XzXlXS O.>.D.S.1 7 T T 8 8 8 u E D fXfX#X#X#X<.D.S.  1 , , < 1 1 1 1 1 1 1 1 1 1 1 4 4 4 5 1 1 7 i R R T R R R T i i 7 2 i i T 7 1 9 4 2 Y W W R i R R Y ! / R , 3 6 , < R R T 1 5 < ",
"V c N L.L.I.!.Z * * Q.!.U.T.U.U.U.!.& 6 < < < , , < > 4 T T T u s F.iXj.u e u Y W Y T p d ( 0 8 R T i p p p 1 1 X X X , 4 0 d d d 6 g b b 6 1 8 < 9 9 7 2 7 1 1 2 2 2 8 8 R T Y R R T T T T T T U R R 8 2 2 $.oXXX=   o.iXG.s . [ l.{...r.+.- : 4 > # f f p - < 9 9 8 2 2 D.XXh.. 7 8 T T p X $.+X,.e 8 i < 9 < 9 4 4 4 < < 1 1 u 1 2 u < 0 T R Y T T i 7 7 i i T R T 8 7 7 < 2 T R R 0 < 5 5 5 5 1 5 1 < i R R < 1 7 R R 8 2 2 2 1 : 0 4 9 5 5 5 5 1 1 5 5 5 5 < 5 < < 1 1 < 7 7 T R T T R T T Y T T T T i 7 < 1 < < < < 7 T T T T T T T T T T T T 8 8 8 i R T R R 1   o.OXiXE - < u u 8 8 R / X hXBXVXA.e E 2 T R Y ~ l.N.$.E ! R T T T T R R T T T R T T R 8 Y R i i T T T R i 7 7 2 8 R W W U T Y Y T T R 8 2 7 i R R T T T T T T T i i 7 : 2 8 i T Y Y Y Y T T T T T Y Y T R R u E ! ! Y R 7 < 7 7 7 9 < 4 5 4 4 5 1 < < < R Y Y Y R R U U T T T T T U T T T T T T T T T T Y T T T T 8 8 u 2 $.XXh.j.n.+.  O.lXvXH.  p S.H.+.O : 1 < : : < < < 7 i T T Y Y Y Y T Y Y Y T U q O H J L +X#X:.2 ! ..:...#.j.j.j.h. X XX.u +.oX`. X[. X X X]. X|.|.[.]..X`.&.[ :.:.:.:.1.:.].+X|.].].].,.]. Xk.kXkX#X[.#X#X#X#X,.,.,.=.k.k.d.c.h.k.h.:.k.k. X=._._._._.=.=.A.J.!.T.T.T.L.l L.!.T.T.T.U.l Z V A k :X-X1XMXCXCXCXCXCXMXNXMXAXj j B k l <X<X2XMXCX<XY.!.m k Y.-X-X3X3XNXCXCXCXCXCXMXCX~.j N C N N B N B C N Z N C j ;XVXVXVXVXZXZXKXZXVXZXVXVXVXVXmXmXnXvXD O.+XaXOXp T R E R 8 : i ! a fXlX#X#X#X+XfXOX$ p 6 < 5 5 1 1 1 1 1 1 1 1 1 1 < < < < 2 7 i ^ / T 8 q 8 q T R ^ i 2 R / ! Y 9 0 5 < i R T < - 2 - 2 R E R , 3 3 4 1 E E 7 , , , ",
"' x C L.L.I.!.Z * z Q.!.U.T.U.U.T.!.& 6 4 , < < 4 4 > 4 T R Y u u j.F.$.s s s Y Y Y R i d d 9 7 T Y T i i 0 9 9 9 1 5 6 w w d d d w g b b 6 9 7 9 1 9 1 < p X 1 - u - 7 i T 8 T R R T T T T T T T T T T 8 2 :.pX+X$   o.iXj.s $ [ l.N...$.#.X 4 > > 3 f ^ p < 9 < 4 < 2 2 S.l.j.s a u 8 T i - $.].<.t e i - 9 9 4 4 4 1 1 5 9 1 2 p E ^ 2 < 0 T T T i 0 7 7 T R T R T i u 7 < < i ( R 9 < 4 4 4 4 < 5 5 < i R T < 1 7 R R u 2 p u u 2 9 4 9 1 < < 5 1 1 1 < 4 5 5 5 1 < 1 1 7 7 7 T T T T Y T T T T T T T T 7 7 7 7 1 < 7 7 T R T T T T T T T T T T i 8 8 u i R R T 7 $ o.H.H.^ : < 8 Y T T T T X hXVXVXA.a +.- - u Y ~ k.k...~ ! R T T T T T T T T T Y Y Y R 8 E +.o.i i T U T T E T : q W W R U Y T Y T T R 0 2 7 i R T Y Y R R R R T i T i 8 8 i R R T Y T R T T T T T T T T R E R | | ! R R 8 7 7 1 < 5 < 4 4 4 < 5 < < < < R Y Y Y R R 8 R u Y u u T T T T T T T T T T T T T Y T T R T T T u a.G.j.j.j.$.$ ;.lXvXOX  p j.D.@.X < 4 4 < 7 7 7 7 7 i T Y Y Y Y T T Y Y Y U U < X o.J F +X+X:.2 ! h.h...#.h.h.h.:.k.k.X.2 S <._.`.`._._..X X X X X`.`..X X&.[ -.-.-.&.&.*.'.].].`.*.'.`.`.,.*.#X#X[..X.X#X#X+Xk.k.k.k.=.-.-.-.-.-.-.:.=.h.h.k.=._._.=.=.,.A.J.!.U.T.T.I.n L.!.T.T.T.U.l m V c Z :XR.2XCXCXMXMXMXMXNX3X3X2Xl m B m l :X>X1XNXMX5XY.~.k m ~./.:X2X2X3XMXMXMXCXMXNXCX~.j B C m m N N N B N N B L.j ~.ZXVXAXVXVXBXnXVXVXZXBXVXmXmXmXmXmXvXy y ].+XXXe u u R T 8 : R ! E aXlX#X#X#X#XkXoX. 1 < , < 5 5 5 1 1 1 1 1 1 1 5 < 5 9 7 8 7 8 R / T 8 0 U q R R ^ T 8 R W W Y 7 0 4 : i E ^ 9 ; 4 1 7 E / p , 3 3 4 1 R R 5 , , # ",
"* * n B m I.!.V * z Q.!.U.T.U.U.U.Q.& 6 4 , , , < < ; < T R Y Y Y | E ] j.G.+.u Y Y R 9 6 p 0 9 T Y T i i 9 9 9 6 5 9 6 w g ( ( d 6 g b g 6 6 < 9 < 1 1 7 1 X o.S.y.2 u 8 8 8 T R R T T T T T T R T 0 R R u ..|.D.= # d o.s l.D.:. Xk.-.h.$.X 6 > 6 # 1 e e < 4 < < < < - i e ] oXD.! 8 8 8 X $.].+Xl.G.s.< 0 9 < 4 9 4 9 9 < 2 X O.G.D.2 - i E T 0 0 0 < 7 T R T T T T T i 9 7 T ( R 9 < 5 4 4 < < 4 4 1 i R T < 1 T R Y u 2 +.$.$.u 9 4 7 < 1 < 5 5 1 1 1 5 4 5 9 5 1 1 1 7 i 7 T T T T T T T T T T T T T T i i i i i i T T R T T T T T T T T T T T T i 8 8 7 T i a e p p E 2 - 8 T Y T 8 u R O @XAXmX$XH.H.O 1 R i ~ k.k...~ ! Y T R R R T T T R Y u Y Y T 8 $.D.y.s 7 T T T E +./ 8 8 R Y W U T T Y T T R T R p 7 8 8 Y Y Y Y R R i 8 8 i R R T T T T T R R T T T T T T T T i E R E ~ E Y E i i i 5 < 5 5 5 4 < < 5 1 1 < < R R Y Y R Y Y +.F.t.! Y R T T T T T T T T T T T Y Y T U U T T T U E Y s E s y.$.<.zXmX@X  e >.$.f X 5 < < 0 T i i i i i T T Y T T T T T Y Y U 0 < - %.J ;.+XfX:.2 | N. Xh.......X.-.k. Xh.$.,. X`..X.X X.X.X.X.X.X.X.X`.`.`.`.].].`.`.].].`.,.,.,.*.*.#XcX#X#X#X#X%X#X.X.X.X`.`.-.-.k. X X`. X X X X X Xh.X.X.:.=.=.=.=.=.,.>.A.P P L.L.C n L.T.T.T.T.!.L.Z V z c Z k :XCXMX4X4X2X2X1X=X,X<Xk C L.m l R.5X1XNXNX2X4X<Xk l Z l l K.K.~.<X4X3XNX3X<X4X!.j m C m N Z N m N N N N C j ;XZXUX;XmXmX$XA.mXVXmX;XvX$X1.'.'.D.H.$ $ ,.[.l.e Y Y R i 2 2 R E E aXlX#X#X#X#X#XoX  1 5 4 1 5 5 5 5 1 1 1 1 1 1 5 5 p R R Y R T E / T 8 0 T 8 R E E Y 8 R ! W Y 7 p 4 , p p p , ; 0 i i E / p , 6 6 > : i 1 5 3 3 3 ",
"@ * c n N Q.^.C & j Q.~.!.!.~.~.~.^.@ o > 3 , X , < ; < 7 T T Y Y Y 8 ~ G.iX+.2 R T i 1 4 6 5 0 R R T i p 9 4 4 5 4 6 w w g Z.( d d g b g 6 5 < 1 7 9 1 < 2 X H.dXS.X X - 2 8 T T T R R T T R T T T T Y 8 2 h.sXOXe .   . & >.oX X Xk.k.G.S.- > > 6 O . $ 2 - < < < 9 U 8 i 2 %.OXXXo.2 8 T 2 j.].[.|.aXj.X : < 4 9 4 4 4 < < 2 $ O.oX>.$ X i R T 7 < 4 7 7 U T T T T T T i 7 < i ( R 7 < 5 5 4 < < 5 5 < i R T 2 7 i R R u 2 s.N.h.u 1 < < 1 1 < 5 5 7 7 9 9 1 < 5 1 < 7 7 7 i T R R T R T T T T T T T T T T T T R R R R T T T T T T T T T T T T T T T T 8 : 8 0 u +.O.a O - - : q U U u u T E . ;XAXAX;XzXqXO 7 i 8 ~ G.N...e E u T R R R R T R R i Y Y Y Y 8 $.l.:.s e i T T / +.R u 8 8 2 e u Y T T T T R T ^ i < : 8 T Y Y Y Y R T 8 2 8 T T T T T T T T T T T T T T T T T T R u s u u u R i i p 1 < 5 1 1 4 < 4 4 1 1 < 8 R R R Y R Y Y 0.0Xn.E 8 Y T T T T T T T T T T T T R R T T U 8 8 T T 8 u u 2 t.iXD.vXmX+X  e o.] e . $ X < 9 T R T i i T T T T Y T T i T Y Y U 0 9 X H J >.fXlX>.- | {.|.h. . ...X.h. X XN.l.`. X_. X[. X X X X.X.X.X.X_._._.].#X+X[.].[.+X].,.,.:.&.*.cXcXkX#X#X#X#X.X.X.X`.*.=.-.-.=. X_.`. X`._._.`. Xh.X.X.h.k._.=.=.=.=.=.,.>.Z.v N C n L.T.T.T.T.U.m Z n z v n j ;XCXMX1X1X1X1X1X,X,X:Xl n m m K.:X>X3XMXNX3X3X<Xj m m m l l l ~.<X,X2X3X1X1X2X~.k m B M C M M N B B B C C j ;XDXFXBXnXvX'.L mXVXBX@XlX].F &.;.:.$.- X ,.+X}.s ! R T 8 2 X - u s oXlXkX#X#X#XkXoX. 1 5 1 < 5 1 5 5 5 1 1 1 1 1 < 1 p E ! E / / / / Y : 2 2 2 s ] | i q R / W T 8 0 5 - r u r X - 0 T T W E p , 6 3 > - 9 2         ",
"M c V c M P Q.C A V P Q.Q.Q.Q.Q.Q.P @ > > 0 6 3 < 4 9 9 7 i T R R ~ R ! t.y./ i R T i 5 6 6 6 p i i i p d 0 4 5 5 < 5 d w d g ( p 6 g b g 6 0 1 < 9 7 < 7 1 X @.%.>.%.y.^ 2 u R T T R R T R R Y T T Y Y Y u #.n.j.e X d $.F l.]. X Xl.:.O.o.X 6 > 3 2 a ] s - 5 < < q 8 8 T - o.oXoX+.- 8 0 - $.[.`.`.oXj.X 0 0 9 4 4 4 0 < u E S ,.].,.S o.^ 2 T 9 5 9 0 i T U T T Y T T i < < 0 R i 7 1 5 1 < < < 5 1 < i R T < 7 8 R E i 2 $. Xk.e 2 < < 7 1 4 4 4 < 9 0 0 7 5 5 1 < 0 i i T T i 0 T R R T T T T T T T R T R T T T T T T T T T T T T T T T T T T T T T 7 8 i 8 7 $.D.%.- 1 0 U U U T R Y Y T X ;XAXAX$X%.S.- 2 Y T ! g.$.....9.u T R 7 0 0 0 0 0 u E { ~ T 8 $.<.:.X.] Y 8 i ! +.R u u S.j.r.8 R T T T T R T 7 9 < < T R T Y R i 7 i T i 7 i T R R R T T T T T T T T T T T T T R u ! +.+.i Y u u u 1 < 5 1 1 < < 4 4 < < 4 8 R R T T R Y Y | t.r.E Y R T Y T T T T T T T T T T T R R R R T T T T T R R u +.$.>.zXvX$X= a o.a ] %.%.u 7 0 T T T Y T T T T T T T T i T Y Y U 0 q X o.%.;.D.OXS.u | N. X..} 4.4.| f.k.k.h.h.=..X X X,.k. X.X.X.X.X.X'.[.#X#X'.,.,.'.].<.:.:.:.:.:.,.1.#X#X#X+X+X#X#X[..X.X`.=.k.=.-.k. X X X X`._._.`. Xh.X.] h. X_.=._.=.=.=.=.k.>.x n V N L.T.T.T.T.U.m Z M z v M z ~.AX2X:X-X-X-X-X-XR./.m N N m l U.Y.<XMXNX1X,X<Xk Z N n N L.L.U.~.R.:X:X:X:X:X!.m B B C C N N N B B N N N A ^.bXbXbXvXzX+X1.vXnXmX$XlX].&.:.,.:.h.! s ,.[.C.u u Y E p +.o.$.h.:.OXkX#X#X#X#XkXoX. 1 < , , 1 1 5 5 5 5 5 1 5 5 < < u E E R T R R R E E E ] ] [ $.r.E 8 T 0 T R T R < X ^ %.$.u 7 R R R W ! p , 4 3 ; , p p o.o.o.O.",
"Q.I.P z x x c A Q.P * & @ & & & & @ O 9 4 d 6 , : 7 p i 7 7 T R T R R u u u u i R T p 5 3 6 6 d 0 1 1 p d 6 6 5 1 < < 5 4 ; ; 4 5 3 w g g 6 d p 1 1 < < 7 i - 1 . t iXjXy.- i R T T R R Y Y R Y R Y 8 Y R 8 8 - 2 X X s.oXk.l.k. X].].] $ , O 6 > , e j.D.o.X 1 7 7 8 8 8 R : o.oX|.O.X 0 0 : j.].`.'.+Xh.X 7 q < 5 5 9 8 2 E j.l.[.[.[.+XOX%.- 9 4 4 0 i i T T T T Y Y R T 7 < 7 0 7 < < 1 1 1 < < 5 < < i R R 2 1 7 R R u X >. Xk.e , 9 9 < 9 5 4 4 < 0 T T 7 4 5 1 9 T R T T T 8 8 7 R R T R T T T T T T T R T T T T T T T R T T T T T T T T R T T T R T T R 9 2 :.XXy.X 1 i R T U U u u T ^ O @XVXBXJ X p : : T U U 8 2 ..uXn.i T R 2 < 4 < 4 2 2 | r.| R u :.l.<.k.n.o.8 T E +.E 2 2 iXzXG.2 T T T T R T i - 1 < < U R T T R 8 : 2 i R i T T T Y Y T T T R T T T T T T T T T R Y #.n.t.E Y u 8 7 4 4 9 1 5 5 < 4 4 4 < 1 7 R Y R T R Y T R 8 u u R T Y Y T T T T T T T T T R T T T T T T i T U U U T 8 u . O.zXmX@X%.H.%.s >.aXdX] u T R Y Y Y Y T T U U T Y T i T Y Y U 0 q - %.>.s $ $ e E | -.=...| 4.| }  ...X.} ] [  X X-.X.-.`..X X X.X X`.[.cXcX1.t F ,.l.[ S S s s [ k.&.&.&.K &.&.,.`.`.'.[.`.=.`._._.`. X`.`.`.`.`._._. Xh.X.] h._._.=.k.,.,.=.=.:.o.* j V N L./.T.T.T.U.L.N M z c M j I./.U.k k k k k k k l n N C N m m k :XCXMX5X-X/.k L.N n n n n l k j j j j j k n n C C C N B B N N m m N M n z @ . e t [ :.1.@XvX;X'.+X<.[ [ [ [ ..r...`.[.l.$ - a y.$.aXaXkXkX+XkXkX#XkX#X#XkXoX. 1 < < 1 1 1 5 5 5 5 5 5 5 5 5 < u E E i 8 8 2 8 | e.M.M.].]. XN.] i R : 8 W +.+.2 2 $.iXG.] ~ ! W W W W p , 3 3 , 1 p a l.D.D.oX",
"Q.Q.P z z z z n I.P * & @ @ @ * @ @ @ @ & * @   O , i i 1 2 7 R p i R u Y Y R T R R R 5 3 6 w d 4 < 3 d g w 3 5 1 7 1 < 5 5 5 1 8 : d ( g 9 p i 1 < < 0 q 8 7 1 e e G.G.O.. u u T T T T Y Y R R T T Y Y R U R R R p - +.V.k.l.l.l.l.D.o.O 0 6 > 3 X e >.D.D   . 2 8 8 8 8 T - o.oX].] . 2 - O >.].].].oX$.O i 9 < 1 4 9 2 - ~ G.l.].].[.oXG.o.O - , < 9 p i T T T T T T T T 8 q 8 8 8 8 7 1 < 5 < < < 2 2 i R R < 7 u R R u X D.oXl.u < 9 4 < 9 4 4 < < 0 R T 7 1 < < 8 R R T T T 7 2 7 R R T T T T T T T T T T T T T T T T T T T T T T T T T T T T T T R R T R q 2 :.|.$.X 1 T Y T U T Y u T ( X ;XVXVXZ.< R q 8 U R R T 2 ..XXn.u p R : : < : 4 2 2 } h.| u 8 j.l.k.j.F.+.8 T / +.E 2 $ G.fXl.- T R U T T T 7 2 9 < : 7 T T T R i < 2 i T T T T T T T T T T i T T T T T T T T T R u +.t.#.u R i < < 4 4 6 < 5 5 < 4 1 < < < 7 R R R T T R T T i T T R Y T R T T T T T T T T T T T T T T i T T T 8 T U T U Y 2 o.zXvX@XS.H.@.e ;.+XoXa u T Y Y Y Y Y T T U U U T T T T U Y U 0 8 - O.j.o.$ X E +.X.-.-.....4.| | | X.X.} | [ ]. X-.&.-.`.`._..X.X.X`.'.kXkX<.F &.k.].&.S S S S [ l.=.=.=.,.k.,.,.,.,.[.[.`.`.`. X X X X X`.].'.`.`.`. Xk.X.X.h.=._.=.,.<.A.A.A.A.Z.* z V N L.T.T.T.T.U.L.C M z z M j Q././.L.L.).).).).B B B B n C B C j :XFXNX<X:X/.K.B N m n M M C N B ).B ).B B C B C m m N B B N m Z N N V V ' ( @.n.h.M.XX<.lXvXzX,.l.,.&.:.[ ......X.`.[.l.. O E j.[ +X[.+XkX#X#X#X#X#X#X#XkXoX. 1 < , 5 1 1 1 5 5 5 5 5 < 6 6 1 i E E T q T 0 7 | g.:.=.`.,. Xk.] u R q : ~ ! ! 2 X $.oXV.X.Y W ! ! W W i , 3 3 , < p u >.l.l.D.",
"g * v C N C L.C L.Q.C V V ' J.w * v Q.Q.!.!.Q.c b o.1 u E ^ a ^ p o.%.+.u Y Y Y Y Y T 9 3 w w w r 0 d d g w 3 5 5 1 1 1 5 5 1 < / / ( p p @.@.^ - 9 0 0 0 8 7 u 1 e D.XX<.l.G.s 7 T R T R Y U R T R Y Y T U W W E u X $.V.l.] s E ^ ^ p , 4 6 > 4 X 5 ^ a O.+XD.1 U U R Y R : o.].`.:.k.<.<.OXo.s s l.D.O.X 7 < : 9 4 1 < 2 i E E a a a a 2 $.D.j.u - 9 7 7 7 7 2 7 9 : i 8 W W W ~ R i R i 4 , 5 2 u R E R R T 8 7 8 E R u u p o.a 7 9 8 < 9 < 4 6 1 9 7 7 1 1 < 0 T U T R T 2 0 9 < 0 R R T T T T T T R R R R T T T R T T T T T T T T T T T T T R T R R T R R 0 2 :.].$.. 1 0 Y U R U Y Y T ( O @XVXVXZ.< T : : U Y U R q $.XXj.~ E R : < R ^ T u $ $.<.].E Y ! R E E ^ T 8 8 / / W 2 $ D.+Xl.2 R U 8 8 8 i 0 7 q R T T : 7 0 < 9 < < i T T T T T T T T T T T T T T T T T R T 0 7 - +.y.$.e p 7 < < 4 6 4 4 6 1 1 < < 1 < < 9 R R R T T T T T T R T T R R i Y T U T U T R T T T T Y T T i T T T T Y T U R 8 2 s D.OX>.X / 0 X F +XoXs u R T Y Y Y T T T T U Y Y 8 T T R U T u < O $.>.+.2 X @.:.k. X X XN.V.l.k.k.k.k.v.d.,.#X.X.X#X#X&.[ =. X_._._.`.[.+X;.[ [ <.`. X[.[.+X+X<.,.,.=.=.=.=.,.k.-.=.,.,.-.-.-.,.*.,.*.&.+X+X'.K -.-.:.$.S S :.k.=.=.1.J.P Q.P P ' w z C B L.T.T.T.T.U.L.C M z z M n B ).L.L.L.).L.L.L.L.L.L.L.B N B N m I.^.~.I.K.L.m B m n m N n m m B N N C B B B N m m N m N N N N n c c c v b d E r.c...:.:.+X%X@X:.h.$.s ] +.~ $.].`.[.[.l.O 1 < r = +X+X[.#X#XkXkX#X#X#X#XkXoX. 1 4 4 < 1 1 1 1 5 5 5 5 1 < 6 < u E W T 8 0 p 2 +.g.-.k. X`.`.|.X.E R R R W ! ! 7 O O.oXoXS ~ ! W ! W Q T 2 , 3 + 3 < 2 e e e 2 ",
"% & v C L.L.L.L.L.L.L.).L.C C x * V ~.~.!.U.!.Z b g 2 R a f a a y o.%.+.Y R R R R R T 9 3 > w w p p d g g w 3 5 5 1 1 1 5 5 1 8 / ! R 8 e o.O.o.  X X X - - - X - e oX+X<.,.}.E i R T 8 T R T T u 8 - 8 8 T R W ^ u X %.G.D.a X X O . O X - : 6 4 1 3 4 X %.#X+X$ : 2 q U R q +.l.`.l.].[.[.+XO.  $ >.OXo.X 7 2 - 1 < 5 9 : 2 8 2 X - X , . $.oXG.s X 1 < < < < 7 2 , , - - Y ~ Y Y Y Y E 7 < 5 < - u E ~ R R R q 7 u R R u - 2   $ - : < < 1 < 5 5 1 < < < < < q 0 T T R R T 8 7 1 < 8 T R T T T T U U T T T T T T T R T T T T T T T T T T T T T T Y T T T T 7 : - :.oX>.. 2 U R Y R T Y Y T R ; @XVXVXZ.4 R q : 0 T U R q $.|.l.e 2 i : : e u 0 - X >.kX+Xs 2 2 - 2 - 8 8 8 Y / / R - X iXzXD.. u 8 8 8 8 8 q q q i 2 2 O q : < 9 < < i R T T T T T T T T T T T T T T T T R T 0 7 - o.y.s.2 X 2 < < , 4 3 4 5 5 4 < < 1 < < 9 R R R T T T T T T T i T Y u u u i T R T T T T T T T T T i i T T U T 8 u 8 T U 7 u $.l.O.2 ^ 0 X F +X|.s 8 T U U U U U q : 8 Y u 2 8 8 U T U Y i 8 - $.:.o.$ X %.O.O.<.<.1.1.A.>.,.,.=.k.m.N.].#X#X#X#X+XF S -. X_. X_.`.].l.F S S ,.`.[.#X#X#X#X`.&.*.=.-.=.=.-.[ [ &.&.,.&.[ &.1.;.;.F K #X#X<.F F [ &.O.s S :.k.=._.1.P L.P.L.I.C w w V B L./.T.T.T.U.L.C V c z M A m L.L.L.L.m n j j j j j k m m C B N n j j m l m m C N n N c M Z n n N N m m m m m N m N N N N N N n c c x v b d E w.c...:.;.oX@X+X:.h.X.. . e 2 #.+X`.'.kXOXO - < O $ OX+X#XkX#XkXkXkX#X#X#XkXoX. 1 , ; < 1 1 1 1 5 5 5 5 1 < 6 < u E ! T 9 < 0 2 / n.k. X X X X{.X.~ ! W W ! ! ! < X :.+XoXs u ~ W Q ~ ~ R , , 4 3 3 ; X X o X X ",
"w @ v C N B C L.L.L.L.L.L.m C M j V Q.Q.I.!.U.L.^.b , p a a a a a o.o.+.Y R T 8 T R R 9 3 6 w g 0 0 d d g w 3 5 9 5 1 1 5 < < 1 R R R u s :.<.:.G D D D D o.o.p - i H.j.:.k.M.s i T R R R T T Y u $.r.y.8 U T E i 0 X ( %.%.f p p u s ] O.E : 0 < 1 < 9 X $.|.`.[ $.o.2 8 R T / n.j.n.>.<.'.'.&.[ O.O.S.^ - 2 p E p - < 9 < u p i 2 < 4 6 . O.oXl.e 1 4 4 4 4 5 < 9 2 E +.+.! s  .r.0.Y R 0 < 1 7 u R ~ ~ ~ R R 2 7 u T R i 2 ^ O.%.p < 0 4 < < 5 1 7 < 8 7 0 8 8 T Y Y Y Y Y 8 8 8 8 0 T T T T T T T T T T T T T T T T T T T T T T T T T T T T T R R R R T R T d , j.oXj.O 1 T R Y U U Y Y T R X H.mXmX%.9 R q : U T Y R : ..].k.[ $.o.X 1 O.>.@.7 7 s.l.:.O...] +.o.8 8 8 U 8 W / E u 2 H.OXD.] r.R 2 8 8 8 8 < u $.$.[ ] @.u 1 5 < < i T T T Y Y T T T T T T T T T T T T T T 0 2 X o.y.$.1 < p R p 9 5 9 4 4 4 5 5 5 5 < 1 7 R R T T T T T T T T T Y R +.+.E u T U T T T R T T T T T i i T T U E E ~ 8 U U 8 R t.>.] 2 R U - F +X}.~ 8 R U U T 8 E #.#.~ 8 E ] O.E 8 Y U T 8 q - $.;.$.e e Z.P P ~.~.Y.^.;XA.&.=.=.,.h.O.<.#X#X#X#X#X1.=.`. X_._. Xl.>.>.O.[ &.,.`.'.[.'.[.[.'.`.,.=.=.=.,.&.'.+X'.*.<.&.[ ;.'.[.`.1.<.+X+X<.:.=.*.,.:.S S :.k.=._.<.P L.P.P.L.C w g V m L.!.U.T.T.U.L.C V z c M n n L.L.L.C ^.bXbX;X;X:XY.U.L.m m m Z C m m Z m B m B m n n M V M n n C m L.I.I.L.m Z Z N V n n M N n c c x v b ( ~ 5.c...:...V.aXOX:...:.l.D.E 8 +.+X+X<.D.S.2 X ^ @.%.A.D.+XkX#X#X#X#X#X#X#XkXoX$ 1 < , 5 1 1 1 < 5 5 5 5 1 < 9 < u ! ! T 7 0 p T ! r...N. X X X].] ~ E T Y W { ! 1 O O.+X+X-...} ~ ~ ~ ! R , , 3 # , , , 3 3 , ; ",
"w @ x C M n M C ).).L.L.L.L.).L.C V * * j I.I.!.~.P   1 ^ ] a a a E E E u i 8 : 8 T R p 4 6 w w 0 6 d g g w 3 < 9 4 1 1 < < < 1 p u R E ] l.+X+X<.].D.D.D.D.D.o.- 7 s = :.oXC.s Y R T T T U R Y $ XXjXiX- 7 : : 5 9 O o . . X ; 1 a ] :.N.>.2 < 0 4 2 p X %.]. X|.pXD.X 2 R / R u u u e S ,.+X].+XoX$   < - $ j.j.$.2 < < - 7 R ^ 7 < 4 3 . ] XXD.$ 2 < 9 4 5 4 ; 5 . $.aXoX] e h.}.V.~ Y i < 2 / y.+.u ~ ! ! E 8 8 7 i i 8 - y.OXD.a O 4 4 < 1 < < 0 7 i R E Y Y R Y ~ Y W R Y R Y T U T T T T i i T T T T T T T T T T T T T T T T T T T T T T T T T R T 7 : 4 4   >.OXy.O 7 7 Y ~ T R Y Y Y R O S.%X@X^ 8 R : : 0 Y Y R : ..].k.+XzXD.$ e D.OXS.7 T i = t G.oXD.oXD.u 8 8 8 8 / / i 2 - - . a jXsX+.- 8 8 8 8 2 u D.oX+X+XOXa 2 5 < 2 7 T Y Y Y T T T T T T T T T T i T T T T T 2 X o.y.o.- X E E E u 2 1 < < 4 0 5 4 5 1 < 7 R R T T T T T T T R Y 8 E F.F.] 2 Y U R T U 8 8 T T T T T T T T i s.j.$.u U U U 8 +.+.s O q q X S +X}.Y 8 U U U T 8 | uXsX$.2 / G.D.$.u Y U R U 8 2 [ &.:.a y Z.^.Y.R.R.W.-X:XJ.L ,.`.`.[ = G #X#X#X#X#X[.#X[.[..X`.|.$.  $ $.l.:.,.=.*.*.*.*.K `.#X[.=.*.,.*.&.#XcX#X&.,.&.F ;.#X%X[.`.].G t F ]. X`.].l.[ S :.=.=._.<.P L.P.P.L.C * g V Z L.U.U.U.U.U.L.C V * z c n m L.L.I.l ^.JXLXHXDXZX<X:XU.l L.L.l B m N N N B B L.m m N M c n V N m l I././.I.l m N N n j A M V M c c c v b d ~ 5.m.d.h.M.X.e s ..:.<.aXjXs - +.OXD.s . - - X y.jXH..   >.+X#X#X#X#X#X#X#XkX+X  2 < , 5 1 1 1 1 5 5 5 5 7 7 9 1 i ! ! R i R p p i 8 2 h. Xk. X].s 2 2 q : Y Q ! 2 . O.oX+X|.pXf.Y W ~ ~ i - o , o , , , 3 3 3 3 ",
"6 @ x C N N M C Q.Q.Q.L.L.L.Q.L.Q.P * * j I.L./.~.P & e a o.@./ / o./ ^ i i 4 - 7 i p p 4 3 w d 0 4 d g g g 4 1 < < 1 1 9 5 4 1 p i W E +.D.oXoX<.D.D.D.D.D.H.+.2 1 e $ :.+Xl.s 2 Y U R R T u $ $ ,.+XoX. p 0 4 ; 5 , 4 # , , , p ^ a [ ,.[ . O 6 > 1 9 X S.oX]. X[.:.$ $ u E e 2 2 8 2 S :.|.].aXOX&   $ $ & [ l.[ X 9 0 q 7 R 7 - - X X X O.uXG.= $ X - 7 < 1 0 5 . H.jXD.t = :.{.G.E T 0 - - s.s.+.s u s Y u 2 7 0 T T < - %.H.D.^ : 0 0 4 9 9 < 1 X e e e 2 $ 2 2 u 8 R T T Y Y Y Y T T T T T T U T T T T T T T T T T T T T T T i T T T T T T 8 T R ^ 9 - < $ . >.OXy.X < p s Y 8 Y Y Y U R : S.$X$XE 8 R : : 0 Y U U : ..].].oXgXj.. e D.D.S.2 T T u s G.j.1.+X>.2 - < < 2 E E u 8 T 7 $ %.iXpX] - 9 0 q < 2 s l.].'.+XoXe - 1 1 1 u T Y T T T T T T T T T T T T T T T T T 7 2 2 ] y.+.1 - s ] E 2 - < 9 < 1 5 4 4 5 1 < 7 R R R T T T T T T T i u ] G.n.~ 2 u 8 R T T R R T T T T T T T T 2 $.j.D X - - - 8 R E T - 4 0 - S +X}.~ 8 U U U U 2 X.].+X[ $ R G.G.+.u Y U T 8 8 O F K K t a J.^.U./.R.E.*XR.Y.I A.1.,.X.e F kX#X#X#X#X[.#X[.`.`.'.+X;.  $ O.l.:. X,.,.,.=.=.*.[.kXkX=.&.*.&.K #XcX#X*.<.&.S *.#X%X+X'.+XF G [ ].`.,.].l.F S ;.,._.`.<.P L.P.P.P.B z x ' V L.U.U.U.U.U.Z P V z v V n l L.l l j ^.FXHXFXZXCX<X:XY.k k k k l k N N N m L.l k j j n n m m k k j k T.R.K.k l m B n A n M V n c x c v b d ~ 5.c.h.h.M. .R E :.,.'.kXzX] 2 E sXdXE 8 7 u . $.G.D.$   %.@X#X#X#X#X#X#X#X#XoX& e 1 - 1 1 1 1 1 1 1 1 1 1 1 9 1 i ! W W 7 u s ^ p 2 u G.n.M.l.<.D e u - : R / / 1 . $.oX+X|.aXn.~ ~ ~ E i : 3 5 4 4 , ; ; ; 3 6 ",
"6 @ x V M M c c c c Q.L.L.L.Q.m n v v ' n I.K.~.~.Q.Z.Z.s e p p p a p R 7 0 4 : < 9 7 1 , + g g d 0 d d g g 6 9 i i i i i 0 5 5 p i R R E +.O.o.a ] D a D o.^ p e o.G.l.oX+X|.:.j.s.U U U 8 $.XX].[.+XoX. < > > 3 4 , , 4 5 4 ; < p $ :.].,.[ S.6 @ < 9 - f D S `.[.].:.>.l.l.l.l.C.G.j.k.:.l.$.D H ;.D.D.<.<.+X#X:.X 9 0 q 8 i p ^ $.+.p 1 E $.:.j.D.+.X u 7 < 4 ; X o.%.O.:.:.;.k.l.s u ^ / / R 2 ] j.h.$.e.+.u p 0 9 0 0 - ^ %.%.p 2 9 4 4 5 1 < 1 $ o.j.h.j.l.l.C.j.u 7 0 U 8 Y Y Y Y T T T T T U U i i T T T T T T T T T T T T i T T T T T T U T T p 2 , f %.%.o.O.^ X X %.G.b.Y W Y Y T T - S.%X#X] 8 R q : i Y Y U : ..].,.[ O.o., 1 %.>.%.$ 7 / s.| +.s ;.+X>.$ - 9 < 2 +.+.E 2 < 1 - a oXoX] 2 7 9 9 9 X s +X[.'.[.+Xe 2 7 7 7 i T T Y T T T T T T T T T T T i T T T T E +.+.] | E u 2 ] $.+.u 2 p ^ R 1 1 < 4 5 < q 7 R R R T T T T T T T T i E ] ] j.j.y.7 T U 8 T i T T T T T T T Y 2 j.+X<.O.y.>.S.y.7 7 0 < q 0 - S +XXXs 2 Y U T R - X.|.|.:.E / ] o.E i E R E T 7 $ +X#X+X;.O.A.J.P U.Y.W.E.E.R.~.$X<.k.-.[ -.[.`.#X#X[._.,.&.F K [.#X+XD.D.O.X.[ ,.,.:.&.&.,.=.`.'.'.*.*.`.#X'.[.#X[.,.`.&.[ &.[.'.'.[.+XK ;.;.].,.&.[ [ S G <.'._. X<.P L.P.P.P.B x x b c Z !.U.U.U.I.n c b z x M n L.!.U.:X<XAXDXDXFXZXCX3X3X<XR.:X(.:X~.k B B N L.U.U.~././.L.L.L.L.I.<X<X<X,X,XR.U.U.m m N n c c c c x x v ' b d ~ 5.k.:.h.h.E 2 u h.,.&.,.G.~ 8 E y.y.8 q q 7 X $.V.G.$   >.lX#X#X#X#X].'.+X#X+XG O.p X 1 < < 1 < 1 1 1 1 1 < 1 2 7 i i T u a H.iX@.2 i ! | ] D S >.j.+.X - 7 i i < X $.oXoX[ ..} ~ R ~ / i - o # X ; , 3 > > 4 6 ",
"@ @ x V M N z * & * P Q.Q.!.Q.A * * J.Q.C I.I.~.~.^.J.H.a $ 2 X 2 e e u 2 < < ; ; < : < # % g Z.d 6 6 g g d p i R R R R T 0 5 < i i R R i T u 2 - - - - X X - - $ D aXaX+X].|.].G.$.8 T R - $.lX#X[.[.].$ X > 6 6 4 4 ; ; 3 6 6 > 4   >.[._.`.oXo.O < 2 X O O $ +X+X].+X+X+X[.[.+X+X+X+X'.&.$.a . = +X#X#X+X#X[.+X>.. 1 4 q 7 E 2 $.V.h.s 2 X $ $ D.jXD.O 7 9 9 9 5 o .   = oX].].].C.s u ! +.@.i X ] aXoX:.$.| E ^ 7 : : < X 1 1 1 O X , , 5 1 < 1 1 $ >.oXoXpX+XpXpXG.2 X : : 8 U T U U U U Y U U 8 8 u i U 8 T T U U T T U U T T i i T T T T T T U 2 X . $ a OXOXe 2 1 X   A.iXc.8 Y U U R R - j.%X#X] 8 R q : i Y U U q $.|.:.s r p O X o.$.H . X E +.i 2 O :.oX>.X : 0 : 2 +.#.~ - : : - ] pXoXs . X X - - X u XX+X+X+XoXs 2 0 i i T T T T U T 0 0 T T T T T T i T T T T T / y.t.| ~ E E p O.j.y.u 2 p ^ R 2 1 < < 5 < < 7 R R T T T T T T T T T u u - 2 F.jXG.2 0 T T T T T T T T T T T i 2 k.[.'.<.D.<.+XD.X : : - : 2 X S oXV.s 2 U U U q X s ].+X:.R / O   2 u E Y R i 2 . OXzX#X1.;.O.%.J b A Y.E.E.E.:X;X1. X=.,.`.`.*.[.#X#X`.'.:.S G #X#X[.#XlX[ t [ k.,.-.X.[ k.,.-.-.&.*.*.'.#X#X*.*.*.&.,.&.-.&.&.K '.#X#X*.].].<.1.G G S t G <.[. X.X'.J.L.P.P.P.B x x x z m !.U.U.U.L.j w x g z M k I./.Y.2XMXCXCXZXZXZXCXMXCX2X>X,X>X<X/.j L.B m K.U.U.:X,X<XK.K.K.l I.AXCX3X1X,X-X(.~.l m n n c c x x x c v ' b d ~ ..k.=.h.C.E - 2 h.:.&.:.r.8 < < X X : q q 7 $ O.XXl.$   >.gX+X$X#X+X:.&.+X#X+X;.D.o.X 1 1 < < < 1 1 1 1 1 1 1 2 2 2 : 7 u u iXzXS.X i 2 q 2 X . j.iXj.. X X X < : X $.pXoXt $ u Y ! ~ ~ i X . X . X ; > 3 , 3 4 ",
"x w v V M N c z * & ' V C Q.Q.z @ g J.P C I.I.~.~.J.J %.] D O.o.o.O.o.] e 1 , ; > 4 - < # # g b d 6 6 d g d p T i T T R T 0 5 < d p ( R T ^ R T T R T R R 0 T E a O.G.l.l.l.].k.l.$.2 0 ^ e [ [..X'..X[.t y r X 3 3 4 6 4 3 3 > 6 9 O S.oX`.`.].a O p < 6 6 6 # D.+X<.+X].'.`.[.[.[.[.#X[.;.>.] r t +X[..X.X.X'.+X<.e E i < < p $ O.|.k.] ] o.D S oXl.j.  2 - 9 < < 4 4 e e l.<.<.:.j.] s Y Y ( p X S +XoX:.] +.u E 2 2 < < < u p ^ o.%.E u 1 1 < 7 2 O $.l.k.l.|.l.G.D.s a p 2 0 R R Y U U U U U Y T R E E R T T U T T T i U U T T T T T T T T U T U u a a y o.j.G.u p 9 5   >.oXh.8 W R Y T Y 2 j.#X#X] 8 R q : i Y U T : $.V.h.] a d O o %.j.o.X - / ! Y < - :.oX>.X : 0 < 2 h.:.X.E @.u O ] oX].D t a a E p 7 p j.D.].+XD.u 2 0 i i T T T T U T i i T T T T i T T T T U T T E s.9.E ~ E T 2 ..j.$.e X i ^ E 2 2 2 < 5 4 < 9 R R T T T T T T T R U 8 R u 2 a.G.y.- T R U T T T T T T T T T u t ].[.'.,.:.1.+XD.$ u E u E E s F +X|.X.s R U 8 ! ] [ ,.oX..2 8 o.D o.$.$.] E R 9 O G.kX'.1.'.1.;.>.A.I ~.(.E.R.;X$X1. X-.=.=.*.*.].[.[.1.<.$.t t OX#X'.'.[.F s F ,.k...X.[ k.k.=.=.*.*.`.'.#X#X`.-.=.,.`.,.,.,.,.*.[.#X+X*.,.1.<.>.F F [ D G ,..X_. X'.J.L.L.P.L.B x b b z N !.!.!.!.I.z x x x z V k L./.K.,X3XNXMXCXZXCXCXMXMX2X5X,X,X2X:Xj m N m L./.R.,X2X2X:X:X:X:X;XMXMX3X,X,XR./.U.l Z Z M v c x x x c v V b a s ..k.h.h.l.E 2 2 h.k.:.$.y.R 7 p y.y.T q q 2 $ :.oXl.t = %.dX+X$X@X@Xl.,.+X#X+X[ >.D X 1 < < < < < 1 1 1 5 1 1 1 1 1 < T E e H.OXS.O R p 0 0 1 . >.OXl.t a p p p 0 X $.pX+X[ $.} R W ~ ! E 1 e p r r 4 , 4 3 ; 3 ",
"Q.P M z c C P ' ' J.h & x P P b g g x j I.Q.Q.j * &   . OXlXaXfXaXOXaXiXo.o.p X 3 4 - p p d g ( d 4 6 6 % r @.@.0 : 7 R T 0 4 6 ( @.( d p R R R 7 8 0 U T 7 - s.G.>.. X $ 2 $ $.l.$.X u y.j.=.[..X.X.X[.+XzX%.  2 4 0 4 4 4 X 5 6 3 3 p e F `.|.a 3 4 6 6 4 o 6 , $ 2 ] o.s X.X.X.G `.#X[.S X.$.>.>.]..X.X#X#X`._.'.].G.+.- 5 5 . O.].`. X|.|.|. X X[.,.l.D.f X 5 9 4 , $ e D.D.H   e F.9X] X 9 0 O D +XoXO.  u u u u 7 < 4 : 7 E ] aXlXoXS +.u 2 q 8 0 2 X X $ X . $ . OXiXH.e +.s.s./ U Y Y Y u +.~ j.G.G.R U T T R T T T T T T Y T T T U U T R R Y E D.OXoXD.$ E i < 0 , $ >.XXc.8 W U U R R - j.kX#X] 8 R 8 q T U U T 2 ..V.M.s +.p O 1 +.j.o.- : ^ / R 0 X $.oX>.X < 0 2 e oX].l.oXiXa O +.oX[.+X+X+XaXdXS.7 R 2 . F G.G.E T T T U T T T T T T i i T T T 0 T 8 U T T U U U T Y Y u 8 q 8 - ] >.$.e 2 p p E $.j.@.X 6 < 4 < R R T T T T T T T T T T R Y 8 8 X 2 i i T R U T T 8 R T Y 8 / F.l.<.].`.S S '.+X+X[ s l.G.XXoX+X].[.[.,.oXF.8 2 G.oX].'.+X[ - ~ XX].l.].|.:.$.+.: 8 u $ ;.%X%X[.<.+XA.I ~.:XR.Y.I 1.`.=.=.=.=.=.:.&.K K &.>.] . e $ & G #X#X&.[ &.,.k.....X...[ -.&.`.#XkX'.K *.=.=.=.*.*.[.#X+X*.*.[.#X[.*.,.&.$ t <.].O.D G ,._._._.1.Z.P I.L.L.Z z b b x c C L.K.L.Z z x x x x v N m K.j -X1X4XNXCXCXCXCXCXMXMXNXNXNXCXAXj C C j Q.ZXNXNXMXCXCXZXZXZXZXMXMX2XK.Y.K.l m m V c z x x z z x x z * b H.l.-.=.h.h.n.] 2 2 >.j.] X u 2 X o.jXzX/ - 9 < $ $.+X|.oXgX>.&   @XhXOXl.,.+X#X+XF D.a X 1 < < 5 < 1 1 1 1 < 1 1 7 1 < : 8 2 X y y e X 1 4 0 4 : - a y [ +XiX$.p ( < X j.pX+XpXsX9X8 W ~ ~ $.%.%.%.S.%.. , 4 , , 3 ",
"P P v * x ' ' ' Z.J.r   g J.Z.g 6 r g * P ^.Q.z b g , $ D.fXOXOXaXOXiXOXO.o.p X 6 4 O p r d g ( d 4 6 6 % r ^ ^ p 1 u i 0 0 6 > b b b w d d ^ p 5 9 0 0 T i - %.D.j.2 u i i e >.G.r.- p y.j.l.+X#X+X+X+XaXaX[ & $ X 4 > , 6 4 < $ $ O X $ o.oX+Xs . X ; X p a . O X $ E +.~ Q 2.} S .X#X[.G S ] [ >.+X#X#X#X#X'._._.=.k.E X 6 6 . %.oX]. X].]. X[. X X`.].<.t . - - 0 9 X e H.OXo.. a H.G.] . X 4 . o.OXdX$.O 2 e u 2 - < 0 4 1 i S +X#X`.t +.u : 0 8 q 8 7 7 1 i 9 5 $ G.l.:.= e s 0.+.8 Y Y Y 8 ~ e >.l.l.i T T T 8 q 2 2 - - Y T U 8 U T U T - - 2 s :.].].l.u / U : : X   [ |.h.8 T U U T Y 2 j.kX#X] i R q q R T 8 2 X X.|.h.s a a X O ] $.a $ . u u 2 X . >.OXH.2 X - X $ OX+X<.;.>.s X o.|. X`.<.`.].oX$.8 R i 2 $.G.G.~ T T T T T T T R T T T T T T T T U U U U U U U U Y R W 8 8 q U - ] :.] $ O u u E $.j.o.X < < < 8 R R T T T T T T R R U U U U U Y R 2 - 2 8 U T T T 8 T T Y 8 +.G.>.].+Xl.] ] D.+X+XF t :.'.`.`.[.'.[.[.`.G.n.u 2 l.].'.].lX$.X s ,.`.,.,. X[ ] E - 8 u 2 ;.%X#X'.,.+XA.A.^.:X;XI L *.=._._.`.k.-.,.:.,.:.:.>.D $ X X $ F +X[.&.&.&.:.:.[ X.X.[ S -.*.'.+X#X[.*.*.*.=.*.*.1.+X#X#X<.,.+X#X+X,.`.&.= t :.k.O.s G ,.`._._.,.A.I P I.I.Z x b x x c C m m L.N z x x x z v n n L.k :X1X2XMXMXMXCXMXMXNXMXMXMXMXCXUXj C B j ^.ZXMXNXNXNXCXCXCXZXCXMXMXNXY.T.L.m B V V c x x x x x x x z z b A.<.-.k.k.h.j.a . . [ l.o.X - 2 $ D oXiXE - 2 2 . [ |.[.|.oX:.    @XzX+X<.k.#X#X+X[ D.E - 1 5 4 4 < < 1 1 9 1 9 4 1 1 9 9 9 7 1 a a r X 1 : 4 4 > : p e [ oXoXO.u / 1 O :.+X[.|.pXM.8 W ~ ~ +.o.%.%.%.%., , , ; ; 3 ",
"I I b * g I b Z.Z.A.r . f Z.%.g f f a % J Z.Z.@ w 6 , - @.>.>.>.$.$.$.$.a E r X 3 3 X 5 5 r d d w ; 3 r 6 p ^ R d 0 p 5 4 ( d w b b x g g d d d f ( d 5 i i - O.j.:.2 i 0 i u y.j.+.- 9 ( ^ o.$.$.O.O.O.O.O.>.D.S.e , 6 > 6 3 O a $.$.E 1 ^ %.o.:.D.S.$   $.pX|.l.k.-.k.M.~ ~ 3.} S '.#X[.K &.,.&.;.;.J A.$X$X1.'.`.*.,.a X 9 6 o f o.o.D D D o.H H D ;.].].:.>.y.7 < < - 2 o.Z.d . p @.$.>.$.>.p X a %.S.f X p y.F.E - 1 < < < u e +X#X'.t o.p 2 0 0 8 R R i 7 7 < < $ oX|.[.,.l.:.M.r.2 T T U T R 2 g.pXV.Y T T u u $.D.>.<.l.~ 8 8 U U R 8 Y n.M.h.k.'.].].:.2 R U q ^ %.O.<.|.h.8 T T U T R - j.kX+X] R R q q 8 q R y.$.,.].<.:.O.o.$ $ >.<.l.:.;.k.l.<.<.D.$.o.+.E E $.n.j.O.O.[ <.l.S 2 +.].'.,.,.,.].].[ X 0 7 2 ] l.n.s T T U U T R T U U 0 U T T U T U T U U U U U R U R R R 8 q q U - ] >.j.o.+.+.] #.] $.o.X 1 < < 8 R T T T T T T T U U U T W W W W u +.t.n./ 8 T T i 8 T U Y 8 E +.] :.>.$.p u $.l.].].'.#X#X#X[.[.[.[.+X:.r.s.Y 2 l.oX<.S j.E - E +X#X[.`.].[ [ +.+.+./ e :.kX#X'.&.:.;.;.A.$X$X1._._._.=.-.&.-.S [ [ :.[ D F ;.O.y.^ 2 o.+X[.`.'.,.,.<.[ S ..h.:.;.,.,.,.,.,.=.*. X[.`.&.*.,.1.1.1.;.,.'.,.*.,.&.S [ :.k.:.t t <.`._.=.,.1.I P P P V z x x z c C m m L.Z c c x z z V M N B j -X,X,X2X3X3X3X2X1X,XNXCXMXNXCX<Xj ).B k ^.NXNX4X4X2XMXMXCXCXCX<X<X>XP.U.L.m N M M c x x z z z x c x * Z.D.].,.,.h...:.k.<.<.+XpXj.$ e %.:.&. Xl.p - u $.] :. X,.k.l.:.<.D.@X@X+X:.:.+X+X+Xs +.p - 1 4 < < 1 1 1 1 1 1 7 4 1 1 1 4 4 < 1 o.o.o.a ^ i < < < ; 0 e F |.+X[ e E 7 . :.+X[.[.eXM.8 R ~ E E u y y p a X 3 4 3 3 3 ",
"I I g & r H H H A.A.r   e f o.f H a a t H Z.%.# 3 4 9 : u 2 2 2 - 2 2 e 2 a 1 , o 3 X 5 1 1 , 4 6 X 6 d d d d p d d d 6 4 ( ( g b b b b g d d d Z.Z.d < i i - O.l.j.2 i 0 0 2 $.r.] - : ; - X X X X O . . & ;.zXdXe . 1 X X O O y D.l.] 2 1 .   :.kXG..   $.pX+X[.[.`. XN.s u / | S [.#X[.K &.&.:.O.r & h J.J.I A.A.L ;.e O < X : X   . .         .   t ,.`.`.].H.2 2 7 < X O   X   X $ $ ] l.XXa O $ $ , O O R F.G.E   X X 2 7 1 e +X%X].= f , , : X O % 6 p 7 0 : - $ D.].[.#XpX:.:.] $ 7 7 U T u 2 h.pXN.u 8 u 2 e l.aX].<.XX+.q 8 R U U 2 s l.k.k. X`.`.'.:.X 0 8 - ] G.l.,.|...2 8 8 8 U Y - j.lX#X] R R q 8 q - E oXoX[.[.'.].OX$.  $ D.oX].].].|.+X+X+X+X] . 2 +...:.oXG.= $ t oXiXS $ $.oX[.]. X].[.[.&.X 8 2 2 S :.j.s R T 0 8 U T T U U U U U U U U U U U U T U U T 8 u i T < q q 0 - ] ;.:.j.F.j.#.j.~ ] a X : : 2 8 T T T T T T T T T Y U Y Y ~ ~ ~ 2 $.uXiX| - i 8 0 T T U R 8 u $ e F $.o.: - ] [ &.#X%X#X#X#X'.*.[.[.[.X.u R 8 2 l.aXD.$ - 8 : a #X#X[.,.,.X.S ] j.$.E e &.#X#X`.F &.&.*.;.1.1.*._._._.=.*.-.[ t S [ :.[ = = G >.D.E O o.+X'.'.`.`.,.,.F S [ k.].,.<.1.K [ -.=.,.[.[.'.&.&.F G G G F F F &.*.].,.F [ ,.k.O.= = <.]. X=.,.1.1.I I P V z x x x c C C B L.N c c x x * V v M N j R.>X-X,X1X1X1X,X-X-X4XMXNXNXCX<Xj m n j ^.MXMX4X,X1X3XNXNXMXNX~.Y.U.P.P.L.m Z M C c x x w * z x x x * Z.@X+X,.:.[ S S <.#X+X+XaX>.  $ D.XX&.-.-.e X s oXl.,.-.[ -.;.|.+X+X<.<.l.:.l.].+Xl.$ u 1 2 < , , 2 1 1 1 1 1 < < < 1 2 2 - - < 7 o.O.+.+.+.p 2 < < < 9 2 F ].+XF $ p < X :.+X[.[.pXM.: R ~ ! E X       X O 6 3 ; , , ",
"F ;.D = a O.F F ;.O.t $ y f o.f f f D D D J H $ e 2 : < R T T T R R T T T R 1 ; > > O 1 r i , 4 3 o 6 d d d p 0 w w w 3 4 ( ( g g g g g g d d d @.( d 5 i u - $.l.>.$ p 0 0 1 +.$.E 2 1 : : < < 2 7 < 1 a e :.kXXXt e a y p 5 O H l.O.S o.^ . . k. X:.t t O.D.+X`..X_.`.1.D d f ] S [.#X[.K *.&.[ %.' c m !.!.I.I.P I J.H e E 2 - 2 e e t t e e r r $ S `.`.`.,.>.$ 2 7 2 < r r = = e = $ F '.<.y $ e X 1 1 1 ^ G.j.] t t t a 2 2 e +X$XA.h I w @ % x x A b Z.$ u 2 X 2 D.l.D.+Xl.<.<.[ t s s s s s e -.].k.s s s s s j.OXl.D.OX! : U Y : ~ s S k.,._._.*.`.[.,.X 0 p e D <.,.&.,.-.s s E E E Y - j.#X#X[ ] ! - q q : a l.=.`.[.].1.G.y.- 9 y.G.D.oXXXD.D.D.D.G.o.e s :.&.&.,.:.e u a j.l.&.S ;.].].k.:.,.[.[.;.D ] ] D [ <.l.s R R R i 8 U T T T T U U U U U U U U U R T U R Y s E o.2 : : < O [ 1.:.$.y.j.$.r.| +.E - : < 7 u T T T T T T T U 8 T Y u u | X.u u | h.l.] 2 R 0 i T T U T 8 i a t S :.+.- X O.<.1.#X#X[..X#X.X_.'..X+XX.u W W ~ l.oXD.e 2 8 8 u +X#X[.=.k.-.X.[ <.1.[ t *.#X#X`.K &.=.=.=.,.,.*._._._.=.-.:.$.s t O.<.[ G G 1.'.l.y $ >.+X*.[.'.`.*.,.&.S &.`.`.,.,.*.&.&.-.-.*.[.[.'.&.&.&.K F K &.K K *.*.,.&.S [ =.,.[ t G O.<.,.,.,.1.1.I I J.' w x x x c V M B L.m c c x x z ' V V C k /.:X:X,X2X2X2X,X>XR.,XNX3XNXNX<XI.^.I.Z ~.2XNX1X=X1X2X2XNXCXCX:XU./.P.L.B Z M M V c x x z z z x x x * Z.OX+X<.,.-.S S ,.+X+X].aXy.. . j.D.;.`.oXE - e XXk.=.&.-.].].,.].+X<.l.oXl.l.].+XD.$ 2 1 1 - r r e e e e u 1 < 0 4 - e a p e 2 u o.] ] ] o.e 2 < < < 4 X [ |.].[ s ^ , . :.+X.X[.pXM.- R E +.E X X , < 5 3 o 3 4 4 3 ",
",.].;.F $.>.:.&.F ;.<.H.>.$ $ r e r a D D D H a %.a - < T R R U T T R T R R < X 3 # X p ^ ^ < , 6 o ; 3 4 5 < ; w w w 6 4 p d 0 0 d d w d ( @.d 6 d d p i 7 - +.l.>.. < : 2 - ^ ] s e p p p d d 0 0 9 R F.j.].+X+X].].oXoXG.o.  $ e = D D.y.O . -. X].+XoXF & & *.'.`.`.1.A.^.J.%.&.[.#X[.*.`.,.S %.Q.!.!.T.T.T.U.!.;X;XA.>.D.s X o.j.>.:.k.l.D.l.D.:.<.[.'.'.'.A.$ 1 2 - ^ S.H.l.k.l.l.<.].+X'.>.%.%.1 9 5 X - ^ e >.aX+XOXlX>.. e @X@X@XJ.^.v & b ;X:X:X;X;X. 1 1 1 X a e e e t <.+X].,.l.l.{.N. X,.[.[. Xk.l.k.|.l.$.] D s u Y 8 R Y 2 G.fX+X`.`. X X`.#XkXoX. p %.>.<.].+X].*.k.k.l.G.G.n.i 2 D.#X#X+XaXF.2 0 9 - u ]. X X[.].= t r.F.S.2 e 2 e e = e e e e %.D.:.k.`.`.].].l.iXy.s t oXpX].,.k...S -. X[.`.D.oXoXXX+X+XD.s - - - 2 8 T U U U U U U U U U U R T 8 T 8 8 ! +.j.oXOXa 2 < 9 $ ].lXaXD e u u u Y E E 7 9 R E E T Y T T T T T T T R u u ] uXXX] X | N.oX] X 7 T T 8 U U U q @.dXXXk.l.y.X . D.lX#X#X#X[.K _.`.*.`..XpX..Y e.n.l.S e u u R T 7 a #X#X[.,. Xk.,.].#X#X].;.'.#X#X'.K &.*.-.*.`.`.*.*.=._.=.F S | ] S ].#X].'.+X%XzXzXF $ e t = [.#X[.*.`.`.`.`.`.=.=.`.,.=.,.,.=.=.*.*.*.&.;.+XkX#XkX#X#X#X#X`.`.,.=.*.*.,.,.l.D.H t D :.,.1.1.J I J.I g x c x x v c N B m c c g w w v c M M A L.K.l K.K.K.Y.P.K.K.R.,X-X5X,X2XAXCXZXAXAX2X,X-X-X*X-X-X,XNXNXY.l K.K.L.m M c z z z z x x v v x x x * Z.@X+X'.'.<.[ F '.+X+XD ] p $ $ ] ] [ +XxXs.O t XX X X X XkXzX#X,.l.S t S ] [ :.+Xl.. 2 1 e $ %.>.:.>.>.>.y.@.- 0 4 X a H.H.%.X p y.$.$.$.O.e 2 4 q < 4 X [ [.[.,.D.S.,   :.+X[.[.yXj.O u i ] p X 5 4 X , , o , , , , ",
"+X+X>.O.O.>.,.&.t G <.OX>.    . X r D D D D H H o.e O - u i R T T T R T R R 1 , , # X p @.^ X o , o ; , < < 2 : w g d 6 9 i i i p p d d d Z.Z.( 6 0 d i i i 2 o.D.>.O X X 2 X r a a r f p p p p p p 0 u 9X}.|.[.].[.[. X[.+XD   .   . o.G.$.O   -.[.`.,.+X[     ].].'.1.L I ^.P J F '.#X[.`.].,.D J Q.!.T.T.T.T.T.T.:X;X$X'.D.e   o.l.,.`.].|.+X].].+X+X'.1.L 1.H   $     f D.>.k. X`.].<.<.'.A.J J o.O : 9 5 6 5   D.zX#X#XlX;.  = $X$X;XP Q.j * A /.R.R.:X;X& # 2 1 2 8 2 8 u s oX+X[.`.`.`.`. X X`. X_._. X X`.[. XX.s s 2 - - : : - . k.+X'.K *.`.`.`.#X#X].  $ O.;.,.'.].1.&.,.].+X|.oXF.u - j.#X#X+XkXG.X - < O $ =. X X X>.$ $ #.0XF.X O X X X X X X X   O.l.;.,.[.[.[.].].OXO.$   <.#X`.=.k.| s .. X[.[.+X+X+X+X+X+XD.p O O X 2 7 T Y U U U U U T T U 8 q 8 : q : 2 E ] :.].l.t   $ $   ].kX+XS . - - 2 R ! W 8 q T i u Y Y T T T U T U U 7 2 $ ] oXoX[ $ | |.].D $ 8 8 T U U T U : $.zX+X,.:.$..   <.#X#X#X#X[.K ,.].`.'.#XoXX.s ..l.].S   X : 8 : O = #X#X[.*._.`.'.[.#X#X[.,.`.#X#X`.S [ *.-.-.=._.*._.=.,.,.F t t t = 1.+X'.[.#X#X#XzXL $ . . & '.#X#X*.,.'.[.`.*.&.*.*.*.*.,.=.-.*.&.&.&.&.,.#X%X#X#X#X#X#X#X_.=.`. X`.*.`.].+XD.D $ t :.,.,.1.1.Z.Z.I z x c x x v z n B N c b g w w b M N V n n A Z L.L.L.U.I.L.K.R.>X*X*X-X,XNXMXNXMXNX,X=X*X*X*X*X*X,XNXZX~.L.L.m N n M v z g g g x v v v x x x * Z.hX#X].].<.[ S `.+X].$ X 2 u e e e D +XzX%.X t XX X[.`.`.#XkX#XG O.s s ~ X.X.:.<.:.  $ .     >.<.:.:.:.>.D.y.- 0 4 , o.OXOXj.X p y.j.$.$.%.u < 4 q < 4 . [ |.[.<.D.H.#   :.oX X[.+Xj.  1 u ] E . O O O O o # . . . . ",
">.>.H y H %.>.F ,.*.,.<.>.O.%.a   p ^ H y y a a a a e r r 1 9 9 7 7 0 < 7 9 < , # o O r f p X 5 , , , 5 0 0 8 4 d g d 4 < T T R p p p 0 6 d ( d 0 0 0 9 u R 7 / @.@.O 1 p ^ f ^ f f p f a a p r p p u 8 t.h.:.;.;.].[.`.[.[.:.>.%.a r o.$.o.X . :. X`.`. X:.O.O.;.;.>.A.I P !.Z I ;.'.[.'.*.`.&.D J I.P.P.U.U.U.U.Y.;X;X'.'.].= . a O.&.`.`.,.;.&.[ ;.1.<.'.J.;X;XJ.J.J   r >.O.,.`.`.<.A.A.;X^.^.;XJ.6 4 9 < < p   %.>.1.1.<.J >.%.@XJ.^.I.!.L.Z I.(.E.W.R.~.* %.p 5 9 T 8 i R u j.:.,.<.,.`. X_. X_..X.X.X.X X.X_. X-.,.j.#.t.t.b.r.g.[ +X+X'.[.[. X*.*.#XkX+XF o.>.1.].#X#X,.*.-.-.;.[ :.y.u - H.#X#X[.kXl.. X @.S.:.|..X X[.].;.:.$.$.j...>.@.@.$.$.$.$.+.] :.].=.`.`.*.;.:.:.$.] l.:.+X[.`.-.k...~ ..N.,.,.,.,.,.,.,.<.F.s p o.@.+.R 8 U T T U U T R W R T Y +.#.r.#.| :.&.,.[.+X1.;.>.$.D '.#X#Xl.>.@.u < T R T : : ^ @.+.Y Y T T U T T T 8 R +.>.k.].l.&.$.r.$...>.D.y.i U U U U U : o.G.<.,.k.j.D D '.#X#X[.[.].*.=.;.*.`.[.|.X.s ..k.].:.O.j.@.r.t.j.:.#X#X[.*.=._.`.`.[.`.`.*.'.#X#X=.F &.[.+X`.*._.`.[.=.K &.1.<.].`.,.].'.'.'.'.'.[.#X1.D.D.D.1.#X#X[.K K *. X,.*.*.[.[.[.[.[.`.*.&.`.,.=.&.*.1.'.'.'.[..X#X#X_.*.,.=.=.*.,.&.F O.y e y [ &.;.1.%.Z.Z.b z c v c x b z M C m c b w w w v M n M M M M M C B L.U.L.Z l Y.R.T.R.Y.-X3X1X4X2X2X-XR.W.W.W.W.W.R.:X<XI.L.L.m N M M M z w x x x v v x g g g @ ( OX+X'.+X].&.K ,.'.+X] $.$.] ] E s O.+XOX^ O t XX X.X`.'.kX#X#X].gXO.| r.r...].+X+X[ >.>.>.>.].].;.F D D $.] - 0 4 - a >.>.a 2 i +.+.o.o.o.e 1 4 : 4 4 X [ |.[.&.$.>.X   >.oX,.].oX>.  r ] $.%.. X ^ S.^ #   o.%.%.o.",
"$ $ .         H ].,.`. X,.l.D.D   r f o.r   . f f e p a e 2 , X - - - ; ; ; # o + + + . O O ; > ; ; ; p R R R R d d d 4 7 T T p 1 2 1 5 6 3 d 0 0 9 q : 8 ! E 8 X - , O o.>.O.y a f f f a a a f p 1 2 2 8 2 - $ . D.+X[.[.].].oXG.a e 1 O O 4 . :.].`.'. X X].OXe   x ^.I.I.U.Y.;X;X1.K K ,. X[ G g C I.P.I.P A b I '.[.'.#XoX. 1 1 .   l.aX]     $   J ;X;XR.-X-X:X;XZ.. 1 $   >.<.A.A.I I.R.R.:X<X;X@ g 0 ; 1 < 1 O   .     >.lXzX    c Q.U././.R.E.E.W.-X~.P ^.g X 4 8 2 u p i X   $ Z.A.k. X X X_.[..X.X.X.X.X.X X X X X[.|.|.|.].].[.+X#X+X#XcX[.G *.#X#X#X'.].<.1.'.kXkX`.*.;.2 X 8 - - u - D.%X#X#XkXl.. . H.OX|.kX.X.X.X.X[.pX:.$ e XXoX].oX|.|.+X+X]. X[.[. X X|.S . . X   O.kX#X[.[.`.,.l...e ....X.X...[ S S s e s +.] $.k.j./ 8 T U 8 8 U T W ! Y u e C.|. X X X X`.[.#X#X#X#X#X+X].[.#X#X#XlXH.. 7 8 q q 8 X @.y.n.u Y T R T U T Y 8 s G.+X].`.,.l.V.C.~ . G.aXOX2 8 U U U U 8 : -   <.].].l.:.[.#X#XG K &.[ -.[ [ *.[.|.S t -. X].+X+X'.].<.].].[.#X#X[.-.,.=.,.-.[ -.*.*._.#X#X,.G F %XcX].&.*..XcX[.t G +X#X.X#X#X'.K 1.].].'.K G #X%X%X#X#X#X%X#XG S ,.].`.K K '.#X#X[.#X'.K &.`.[.`.*.1.G = = F G [.#X#X_.*.=._.=.-.;.S $ $ a a a t $ D A.Z.I P V z c x x x v z n C m c v g % w v M M M n n V n N m L.Q.I.m n m L.L.P.K.R.1X=X=X,X>Xk K.K.K.K.K.K.K.K.K.K.L.B m C n M M z * x b v z b g   o 3 4 2 = & +X$X].&.K *.<.,.l.l.>.:.:.S o.p   O X - e l. X X[.`.`.*.+XcXzX>.[ h.M.h.+X#X#X+X#X#X+X+X[.+X>.  . O - O < 4 4 < - X X - 9 q : : - - X X O - 5 > 0 X ] oX XS e a 5 $ O.:.= l.OX>.  r :.j.>.  $ S.dXH.    >.D.oXD.",
"f f r o # 6 . D ].`.`.`.,.k.k.D $ a p ( r o 3 f f p p p 5 1 , X o o o o o o o o 3 . . o o o o o 4 ; - 9 T Y Y i p d p < < i i p e e e u p 5 p 0 0 0 0 : 8 / ! 8 i 0 ,   y O.O.y y f a a f f a a a r u i R R R d f H.oX].+X].l.D.>.D a p : 0 6   :.[.`.`.`.`.=.,.t & c Q.I.U.U.Y.~.;XA.;.&.1.,.&.G J P P I.^.J.J L 1.'..X.X[.<.= = $ e y j.l.O.e e = & Z.;X^.-XE.-X~.;XI   2 ,   Z.A.J.P K.U.E.E.E.>X~.& d p 1 1 < 5 6 w r 1 $ o.hXlXa 6 c Q.U.T.T.T.R.W.R.R.~.I.I.* * w < 2 u p i d g h I A.D.]. X`.=. X_. X.X.X.X_._. X`.`._.`.`.=.`.'.`.'.#X#X#X#X[.K 1.#X#X[.&.1.1.*.`.#X#X,.&.&.s Y E u i R - j.%X#X[.kXH.$ . D.].`.[.[..X.X.X.X[.;.e e  X X`.[.[..X.X'.=.-._. X X`.].[ S u 5 . O.+X'.`.[.].,.;.:.X.X.[ :...$.#.| #.0.! | } ] [ :.j.E : 8 Y s s s s ] | s t S -.=._._._._.*.[.#X.X'.`.[.,.'.+X#X[.[.+X:.$ u 2 : q i X >.>.:.s E T 8 T T U U u u h.l.,.,.l.k.l.j.! 2 XX+Xl.s 8 U Y U U U U R 2 j.].,.k.=.'.#X[.K 1.:.[ :.-.=.=.[.].X.S -.k.`.,.].'.'.`.'.'.'.#X#X[._.,.=.`.=.-.k.,.&.`.#X#X1.G K #X#X[.*._..X#X'.G K #X#X.X.X#X'.`.'.:.;.,.*.K [.#X#X#X#X#X#X[.G K =.=.`.*.&.[.[.#X#X#X[.&.&.`.`.=.1.1.F G G ;.K [.#X#X*.*.=.=.=.-.;.[ t t D ] F D D %.Z.I I J.I x b b b x v c n C N c x g w w b v M M n n n M M N L.Q.L.N n L.I.Q.U.P.R.,X=X=X,X>Xl L.L.L.L.L.L.L.!.U.L.L.C n M n M M z z x x v x x g 6 1 X O e F G +X+X].K *.&.[ &.:.:.&.&.:.S o.f < 5 9 2 u N. X X[. X[.'.#XlXfX:.S -.,.:.+X[.[.`.'.[.].+X[.+XO.. 1 , 9 0 4 0 0 9 7 7 9 0 0 q q 8 0 < u o.+.u O ; 4 . [ |.|.X.s ( 1 . o.:.F l.oX$.  r >.l.y.. $ S.G.>..   >.l.oX<.",
"p a 1 . r >.O.<.`.`.`.`.`. X].:.>.%.$ $ # O # , X 2 < , # o , , , , ; ; ; o ; + 3 + o , # X # # , , , p R i u u f o.^ 1 8 R i u G.].l.G.F.E u 1 7 1 4 1 9 / / 2 r r 3 . a %.H y f f f f f f y y p p p E ( ( R T p ^ s s s r p e F :.l.E X 6 >   :.[.[.`.`.`.`.].+XA.J.^.Y.U.U.T.R.~.J.$X].1.*.`.[.].J y Z.$X'.1.*.*.*.K `.#X[.,.].<.D.>.D G >.>.A.Z.Z.Z.I I R.E.-X~.;XI   f J.J.^.^.~.U.U.U.U.T.T./.^.w ( p 1 6 @.b ' Z.( 3 # r D y e 6 b Q.U.P.K.K.P.K.P.U.U.U.(.U.!.Q.g # r a g ^.~.U.~.;XA.'.`._.-.`. X X_..X.X_._..X.X.X.X[.'.K '.kX#X#X#X#X`.*.'.#X#X#X#X[.X.:.+X+X[.kXkX`.K '.+XkXoXl.C.$.2 j.zX#XK :.%.X . >.].`.[..X.X.X.X.X.X X=.-.[..X.X.X.X.X.X.X`.=._._._.`.`.'.+XoX= . :.kX[.[.+X].t t +XzX#X#XkX<.] +.W W ! ~ ! | ~ E #.y.p - +.iX+X+X#X#XkXkX#X#X[.'.`..X.X`. X*.`.#X#X`.,.<.= $ ;.<.*.'.[.].k.G.p 1 < 1 $ +X#X+XpXaX#.8 U T U U U 8 r.h...X.] } 0.+.Y X l.aXl.2 R U U U U U T / u C.].k.,.&.'.#X#X#X#X'.G &.,.'.=.`.`.*.*.,.k.l.t t t ].+X,.&.,.[..X.X'.'.'.[.,.S X.X.S &.,.`.`.'.'.`.`.1.*.*.`.`.'.[.#X].1.'.#X#X[.#X+Xt & L $X[.#X#X#X#X#X#X#X#X[.#X'.K ,.+XkX].F K &.&.;.&.-.-.*.`.[.#X#X#X#X#X#X#X#X#X*.*.=.=.,.,.].].,.<.,.,.,.k.<.O.y f J.J.Z.h g g g x v c c M n c v g w w b V M M M M c c c n m N N c c C I.L.U.K.T.&X*X*X*X/.k B N m m m m L.!.I.m n M M M x z c c v b b x x b g . 2 %.>.O.:.K ,.,.,.K ;.S t S [ -.-.-...s o.f X # 4 $ t ]. X`. X`. X[.;.= t >.<.,. X[.,.[ *.=.,.S $ = <.|.].>.D.a 2 1 < < < 5 1 9 9 0 9 8 8 7 1 X s G.oXl.o.y.p   S ].|.X.a ( , O :.|.].[.pX>.. # e e r o O r e D A.H.%.s a e ",
"p a e . e j.:.,.`.`.`.'. X].].].OX>.. . . O .   O X X X o X X , ; ; > ; ; o o o O o o X . . $ X O . . $ 2 1 2 $ a o.f 2 7 T i s l. X X].l.t $ $ X , X X 7 E s 2   $     a %.H y f f f f f a y t y r p p p p R R i 2 X X O O X   G '.oXD . o o   :. X X`.].].k.].+X@XJ.I.P.U.T.T.R.:X^.$X+X1.K '.[.`.G t 1.+X[.`.`._.*.*.'.+X[.[.[.+XOXD.G = 1.].A.Z.I P h A ~.<X:X:X;XI   g J.Q.I.U.U.U.U.P.P.P.P.P.P @ d ,   * x z x P b @ % 6 % % 1 3 Z.^.!.L.l m m l K.U.U./.T.T./.!.x . e y h ^./.R.(.~.J.A.L L F ,.`..X_..X X_.`.[..X.X[.[.*.G K #X#X#X#X#XK K `.kX#X#X#X[.e S ].+X'.#X#X*.G 1.#XkX[.,.k.X.e j.zX#XK [ ] X $ [ =._.[..X.X.X.X.X.X.X X X[. X X[..X.X.X.X X X X=.*.*.*.`.#X+X& & [ +X+X].'.,.& & +XzX#X#X#X&.e s 2 - 2 - u u s s ] ] 2 . S +X'.#X#X#X#X#X.X#X#X`._. X`. X.X_..XkXkX'.l.D.$   O.<.1.'..X.X XXXe X X = & ].#X#X[.+XX.X 2 8 U T U Y t.r.] s s ~ s s u $ l.lXl.$ 8 : - - - - 8 ~ s k.k.,.,.*.'.#X#X#X#X,.G K ,.[.=.=.=._.`.,.,.l.= & & +X+XK F K '.[.[.[.'.[.[.*.G S S t S K *.`.#X#X*.K *.*.*.&.K '.#X#X1.t K #X#X#X#X+X=   >.zX%X%X#X#X#X#X#X#X#X#X#X*.G K +XkX`.G G G G &.&.-.=.*._.#X#X#X#X#X#X#X#X#X#X`.=.=.-.,.,.].].].'.,.,.=.,.,.D $ r A.OXZ.f f f g b v v M V v v b g * w b v v M n n v c c n n n n c c C Q.L.P.P.T.>X&X*X>X/.l N B N N m m L.Q.Q.m n M V V x z z v v b b x x g r   . H.OX:.;.&.1.1.<.;.>.[ s S :.:.:.:.:.] o.f . O X . e ]. X X X`.`.].>.$ e j.].,._.`.F t [ k.oXo.  $ D.l.].oXOXs X 2 7 1 < 5 1 1 1 1 7 7 < 7 2 X a aXoXoXO.%.e . S +X|.X.p ( ,   :.|. X`.|.:.    .     + . # . t D.jX%.X 2 2 ",
"r a p $ t >.,.=.`.`.,.<.,.&.;.;.O.O.e r r e p r p 1 X , 9 5 , o # + ; o ; ; ; o + > o 5 r e r r a o.o.y e p a a a o.a 1 9 T p E k. X`.`.k.S t o.o.%.r $ a %.$.O.$.%.e e a o.H D a a a a y y y D D D D a y a E ^ ^ p p ^ p p a t &. X Xt $ p d e l.[.].;.:.j.>.>.>.Z.P I.U.U.U.U.T.~.J.A.<.'.`..X.X#X,.L <.].`.`..X_.*.=.`.[.`.].].l.l.>.:.F ,.,.>.I I.U.Y.Y.~.~.^.J.J.Z.h b P I.I.I.U.U.U.U.I.I.U.U.P * g g h A I.I.K.I.P A n c v ' g % Z.Z.V n c c n n m m L.L.I.I.I.P g y s D h Q.U.T.T.T.~.^.^.^.J.A.1.,.*.=.=.=.,.`.`.`.,.,.'.'.+X$X[.#X#X#X'.'.[.#X#X'.[.`.&.;.#X#X.X#X#X'.K `.#X#X'.=. X,.:.].+X'.'.+X>.s S -.=._..X.X_..X X&.,.,.k.].k.<.<.#X.X.X.X`.&.&.'.[.`.'.'..X#X#XK ;.,.'.'.[.#X'.1.1.#X#X#X#X#X[.;.l.<.<.<.<.<.[ [ [ :.h...[ ;.,.K #X#X#X#X#X#X[..X X X.X X X X*.[.[.+X<.;.>.>.>.>.<.,.[..X.X.X Xe . a A.1.#X#X.X`.'.&.[ +.R 8 T U U 9.! | $.........:.F '.#X].[ ....[ O.:.>.:.[ [ k.=.`.[.`.[.#X#X[.[.[.`.`.`.[.`.=.=._._.=.-.<.F D F #X#X'.[.'.,.<.<.,.<.<.,.,.,.,.-.[ -.`.`.`.`.'.*.*.*.*.,.&.*.'.#X#X'.1.'.#X#X'.'.<.D t A.OX].].].[.+X[.[.'.'.#X#X'._.'.#X#X'.K &.&.F &.&.-.=.-._..X#X#X#X#X#X#X#X[.#X`.=.=.=.,.,.`.`.`.`.*.*.*.*.:.O.y f o.J D D H f r g b b b x x b b x g g g z v v c n c c M M M M M M M N L.L.I.I.U.U.U.T./.!.l N M M n V n Z I.L.N M M c v c x c v b g w g g w f o.D O.O.>.+X+X;.D H H o.D y D [ O.[ [ O.a f d < 1 p u E n.M.:.:.:.k.+X;.t S :.,.`.'. X<.;.1.[ j.o.X p @.$.$.>.>.] ] E 7 7 < 9 4 < < 1 < 7 8 7 5 , r %.>.>.o.@.9 $ y oXoX[ r ( r . :.].[.`.|.:.  $ O.>.o.$   %.l.,. Xk.;.= s S ",
"p a f r y <.,.`.`.`.`.,.&.G t G G D y H H H H o.o.e   X p d 5 X ; o > o ; ; o o 3 X O p o.o.H a >.D.D.H e y a a D H a 2 < u p s ,.`.`.,.,.[ O.D.iXH.y   D OXoXoXOXoXD y a a y t a a a a a a H %.;.;.>.O.H a a a ^ ^ o.%.o.%.>.k.`.[.].S $ p %.%.].|.,.=   $ $ $     * I.I.U.Y.I.I.Q.I J ;.#X#X#X#X#X#X#X+XK K #X#X'._.=.*.*.,.<.l.S $ e :.,.`.`.<.I I.T././.P h h h h I P P I.I.I.I.I.I.I.I.I.L.L.U.P & h P P I.:X(.U.Y.U.I.!.Q.Q.^.g & w @ * * z z c j j j j j j j * h g D [ O.J P I.P.U.P.R./.R.:X;XJ.J ;.F S S S X.[ -.-.[ S ,.+X].L G [.#X#X#X#X#X#X#X'.*.,.+X'.#X#X#X#X#X.X#X#X%X%X'.K =.[.#X[.*.K #XcX+X,.,.`. X_..X.X`.[.k.e t S -...t = &.#X#X.X.X*.t = '.#X#X#X#X#X#X#X#XkX[.K *.+X#X#X#X#X#X#X#X#X#X#X#X#X#X#X#X#X#X<.&.=. X Xk.].,.&.G #X%X#X#X#X`.G -._. X X_.`.`._.*.[ O.t   t @X+X].*.*.[..X.X.X].e   o.zXlX#X#X#X_.`.'.+XiX] 8 R 8 8 u 2 O.oX|.,. X X].,.[.#X+X,.l.].<.].kXzX#X&.*.`.`.[.#X#X#X#X#X*.K '.#X[.`.[.-.-.=._._.=.-.,.<.1.1.#X#X#X#X#X= t S S S G t K kX[. X=.`.#X.X*.K 1.].+X[.'.`.&.K '.#X#X#X#X#X#X#X1.G G D D D = = = t G K K K K K #X#X#X#X#X#X#X#X[.#X'.*.,.*.-.*.&._.#X#X#X#X#X#X#X'.K *.K &.=.=.-.-.*.*.*.,.*.&.&.&.&.[ D f r = e a D y e g Z.b g @ h b b b b b w * x v v n c c c n n n n n M n n n I.I.L.k k k k l A M M M V M n n N N n M c z x v v v v b g   O +   y @XD.&   O.lX@Xt     $ . $ = t D F F D o.2 X o % 6 @.S.o.^ u e $ t l.+X>.= t :.].`._.`.`.+X<.& $ r % 5   . $ . $ D $.E 2 8 < < < < < < 9 9 < < 0 , X 2 $ $   . o . a OXOXS . # .   >.+X'.'.+X:.  $ D.aXH.    A.+X`.`.].k.[ j.l.",
"r r y y y <.,.'.`._.`.`.;.S y y D D y D D H D D H e $ $ r p 5 o ; ; ; > o o o o X X . r D a y t F >.A.D e y a y D D y $ $ s s t `._._.=._.K &.;.+Xl.t & D oXk.,.].<.y a ^ f f a a a a a a a H %.O.O.%.%.H y y D D D D D D [ ;.<.'.<.oXO.. $ H F ].].,.t $ $ e s $ & h J.P P J.P P J.A.F K #X#X#X#X#X+X#X#X*.K .X[.`._.`.=.-.,.,.<.S = t ,.'.=.,.1.I P ~./.:XP h J r w ' Q.I.U.I.I.P P I.I.I.P P Q.Q.P * * V I.U.R.E.T.P.P.P.P.P.P.L.* * % . w g x z c c x x g g g g g y D D F H h P I.P.U.P.T.E.(./.:X^.%.:.;.;.&.F [ ..&.&.[ [ ].[.`.*.K #X#X#X#X#X#X#X#X'.1.].$X$X$X#X#X#X#X.X.X.X#X#X`.-.*. X#X[.*.*.#X#X[.&._._._._.[.[.'.+Xl.D s X.-.[ t = &..X.X.X#X,.t e +X#X#X#X[..X#X#X#X#X'.&.*.[.kX#X#X#X#X[.#X%X#X#X#X#X#X#X#X#X#X'.F -. X_.=. X`.-.K [.kX#X#X#X XS -._.=.*.`.`.*.`.k.;.$.y & D gX+X`.*.*.[.[..X.X|.e   o.lX#X#X#X#X`.`.`.].:.t $ X 8 8 2 . D '._.*.*.,.`.].[.+X+X,.,.1.*.`.#XkX#XK *.,.*.'.#X#X#X#X#X,.K ].#X[.`.`.&.*.=.*.=.=.&.&.;.K K [.#X#X#X$Xy H F [ F S G &.#X[.`.*._..X.X*.K *.'.+X[.'.*.K G *.#X#X#X#X#X#X#X`.F F ;.O.G = G G G G K K K K K #X#X#X#X#X#X#X+X[.[.`.*.*.*.K &.K *.[.#X#X#X#X#X#X+X*.*.`._.*.,.=.=.`.=.,.<.;.&.*.-.-.&.O.%.r r f o.H a r f J %.f r f J b b b b w * x v v M n n M M n n n M c M n n Q.Q.L.n n m n M M M M n M M M N N m N V M z z c v x b b w + , 5 $ y H.D.$ & %.@XOXy . # . 2 u a a D H o.o.%.e   @ @ * * b I h h % & t <.].<.= = :.<.,.`. X=.].A.$ @ @ &   . $ .   $ ] S.y.2 7 7 8 8 7 8 9 7 7 < 9 0 4 < 1 , # . . .   f H.OXO.$ # 3 $ S.OX+X+XOXA.. $ :.].>.  & >.].`.:.D.>.O.%.O.",
"H f H D D ,.*.*.=.=.=.,.[ G y a y D D D y D y D D y a a 2 , 4 ; ; > > ; # # X X 5 f f f D D D G G F J t e H O.O.F O.o.y a >.l.<.`.`.`.`.[.`.`.].].+X,.&.<.].,.'.].<.= 2 5 , e r r y y a r e r a y y y y y y O.<.<.:.:.:.<.:.1.].O.t y e   f H.<.'.'.].<.D.D.l.j.D.D.A.$XA.$X$X$X$X$X].`._..X'..X#X#X1.F ,.+X'.'.'.`.=. X=.-.`.,.].:.l.:.,.,.=.*.1.1.I P Y.^.I = p r % v L.K.P.L.c * x P P Z b b b c P P P I.L.P.R.E.E.R.R.U.P.P.P.P.L.^.' 3 3 d w w c x x b J H o.H O.O.F O.;.J h P L.P.U.P.T.E.T.K.P I y O.>.OX;.D y D D G S S [ K *.#X[.[.'.`.K K *.K K ;.F G G t L L 1.[..X#X#X.X.X.X X`.`.&.*.=.-.=..X#X[.*._._. X`.`.,.F t y O.O.;.,.,.OX+X[..X.X.X[.&.t a F F K '.`..X#X#X`.'.,.=.=.`.`.=.*.*.'.*.`.#X#X`.K `.#X#X'.`.[.*.&.=. X`. X[.`.&.X.=._._.K _.=.-.-.=.*.].cX#X*.&.&.S ] O.>.O.;.G ,.`.`..X[..X[.oXe   a l.:.,.=.1.K *.,.`.].].oXXX$.j.j.[ <.[.`..X#X[.].[.*.K 1.+X#X#X#X[.'.'.[.[.[.[.*.`.#X+X`.*.=.=.&.].#X[.,.`.[.[.[.=.*.,.=.&.#X#X[.#X[.'.*.A.Z.Z.>.;.;.:.&.,.#X.X=.*._.[.[.'.'.`.1.K K *.*.].#X[.#X#X'.'.`.`.`.,.*.,.+X+X+X+X+X#X[.+X#X#X.X#X[.#X#X'.'.'.'..X'.`.`.=.*.`.[.'.[.'.'.#X#X#X#X#XK K ,.1.1.#X#X'.F &.=.`.*.1.,.&.&.-.-.=.-.:.%.1 # 6 f r s r d r $ f H H g h g b g w * g b c c n n M M n c n n c M V n N m N n N M M M M n V N N M M M N N M M c x z x b x g g r O 5 , X e o.H $   a %.>.H S.Z.X 2 a o.f e e e a ^ # o Z.^.~.~.~.:X;X^.;X@X+X+X+X].:.:.F = G ].`.=.1.A.J.^.J.J.J.H.+XOXiXD.o.p u 7 7 7 < < 2 : < < 2 7 i 4 : < 9 O %.OXH.o.  e r s e O # 3   a f D D o.f   $ k.].>.& $ O.].,.$ e e 2 e 2 ",
"D D G G F *.,.=.=.=.,.l.>.y y H D D D D D D D D D D H ^ X X > ; ; 3 X o X . .   # f o.a D D D D y t t y t D O.F F F F G F <.+X].`.'. X X X].[.].].].].].].].'.'. X<.$   #   . r r e a a 2 $ r r r e t t e y >.oXl.k.,.,.,.,.=.,.O.  O X X p D.].].[.[.].].]. X].].].].].+X$X+X+X$X$X[.[..X.X'.#X#X#XK = <.#X[.`.`.`.k.].k.k.].]. X].oX].`._.,.,.,.;.1.A.J.^.g $ r r @ V Z L.L.I.v * w V P P h h h * A I.I.L.P.U.E.E.E.(.(.U.P.P.P.P.U.!.J.& 6 < 3 % b g J H D S G F ;.;.[ [ F F h P P.P.P.P./.(.~.A h H t y @X@XI h h r = y t S F F '.#X#X[.'.].F F F F F [ [ ] 2 $ = & F #X#X#XcX#X#X#X.X#X[.&.F ,.k.,.#X%X#X-._.=.`.`.=.:.=     [ [ &.`._.#X#X[..X.X_.`.&.e s s e G '.`.#X#X#XK &.=. X`.=.=.&.S S ;.1.1.#XkX'.1.&.#XkX`.K -.-.&.-.`..X`.'.`.&.-.-.-.&.K K &.-.-.=.K +XvX%X1.K [ t G ;.:.:.$   :.].].[.[. X|.oX= & t l.,.=.*.-.-.&.].[.[.[.[.[.,.k.k.,.`.'..X.X#X[.[.[.F & t #X#X#X#X#X*.*.`.#X[.`.=.`.#X#X_.*.=.=.&.`.#X#X_.*.'.#X#X*.&.=.,.*.#X#X#X#X#X`.K ;.Z.J.A.>.;.'.1.`.#X'.*.*._.#X#X.X#X#X1.K *.K &.#XkX#X#X#X'.*.&.&.&.&.K *..X#X#X#X#X#X#X#X#X#X#X#X#X#X#X_.K K *.*.K K *.&.*.'.#X#X#X#X#X#X#X#X#X#XK G &.,.*.#X#X'.G F &.,.1.K &.[ &.-.-.=.-.:.O.$ . $ e s e r d %   f %.H % & w b b w w g b v c M n n M M n n c c M M n m N N N N m N n n M n N M n C M M M M V V v v b ' g @ % # 3 4 < 1 e r r $ $ e e = o.S.%.$ X ^ Z.%.$ 2 p e p 5 & b <X/.R.W.E.-X-X:X$X$X+X[.+X<.l.F = G '.`.1.L I ^.^.I.^.J.$X+X+X+XOXy . X 1 9 < 9 9 : ; o : X 9 p < X - r   >.aXOXO.  # O O O , X o     X .   O O O $ l.pXD.    A.pXk.. . o o o o ",
"L F F F &.&.*.*.*.,.O.D D a y y D D D D D D D D D D D o.2 X > ; ; ; o 3 r r r e r f H a D D D D D D D y e D >.;.;.;.;.1.1.1.1.,.:.:.:.:.:.:.,.,.,.:.,.<.,.1.1.'.].<.= e p r r f a y a a p r a a r H $.O.a a O.:.;.,.,.=.=.=.=.l.O.X ; 3 X p D.].,.&.&.<.`.`.`.`.,.1.,.1.1.].[.[.'.+X'.*._.'.'.'.[.+X&.F ].].'.'.<.:.;.:.:.;.:.;.;.:.:.:.,.`.,.&.k.-.&.1.A.$XJ # p r % I P V V ' g w g b b I f y g b Z I.L.P.P.U.T.W.W.W.T.P.P.P.P.P.P.L.V & 9 9 5 r f f D F [ &.K G F F [ F F F h P P.P.P.I.U.^.J.J H o.S a J.^.I I I P J.Z.r y F F 1.#X#X'.L >.o.O.o.o.D o.o.] e 2 a = L #X#X'.'.'.'.'.`.`.<.&.[ -.:.&.].+X X&.&.&.:.-.-.-.s s e <.:.*._._.[.#X#X[.[.`.`.*.S ] ] s S ,.*.'.#X#XK &.&.,.=.=.=.-.X.X...;.1.+X+X].&.&.+X#X`.*.k.-.-.=._._._.`.1.&.&.-.-.-.[ F &.=.=.*.&.].%X%X<.F :.[ F 1.,.:.e $ ;.,.,.`.`.`. X].S G F ,.=.=.=.*.=.,.,.;.,.[.[.`.=.,.&.&.`.[.[.'.'.[.[.[.`.K 1.#X#X#X#X#X*.*.`..X[._.*.`.+X#X,.&.,.,.&.`.#X.X_.*.'.'.'.`.`.,.*.*.+X#X[.#X#X'.1.<.Z.Z.>.;.&.,.*.`.[.'.*.=.`.[.'.'.`.[.,.&.*.`.`.'.#X[.#X#X1.1.:.-.-.'.'.'..X.X.X.X#X#X#X#X#X#X#X#X#X#X#X'.'.`.'.[.'.`.'.*.*.`.'.'..X.X.X#X#X#X#X[.`.1.,.`.`.#X#X[.1.<.`.'.`.'.].;.:.-.-.-.&.&.:.D a D ] O.a p d 3 X ( o.( g w w b b w w g b x c c n M M c c c c c M M n n n n n N n n n n n M n N n M n M v x x x b b g g g g f p O , , X 2 p a 1 # r p e D %.f . , f %.@.1 2 r p d 6   x ~.Y.W.E.E.E.W.R.^.$X1.<.>.O.%.H S F '.A.A.J.P I.I.I.~.^.I >.1.1.D.t . 3 5 9 1 9 5 ; > 3 3 ; 9 0 4 ; , r . O.].].D   6 > 4 ; o   6 r 6 o # X , , 3 # O.>.%..   %.G.$.. 3 > > > > ",
",.<.<.,.,.=.=.=.-.:.t   $ a H y D y D y y y y y D D a f $ O o o o o X r f H H D y H D y D D y D D D o.a e D <.<.].].].+X+XF = G t t t t t G G G G G ;.<.;.G G 1.|.l.y a o.f H D D D D a a a a D y ;.D.>.a r D t G ;.,.*.=.=.=.,.O.. X , O r D.oXt & = :.,.,.`.,.G t t t t G &.,.+X+X1.G G '.'.`.`.].,.,.;.t G G F s e e e 2 = 2 2 e e t &.`.*.&.:.X.X.[ F >.y $ i 1 $ Z.Z.J h g d % % r r f y f Z.J.I.L.L.L.K.K.K.P.P.P.P.P.P.P.P.P.P.U.C @ 6 9 , r o.H [ &.&.:.].&.[ F [ [ F F g P P.P.I.P j & h r y ] %.J P P I.!.U./.:X^.h y F F 1.#XlXL   $ $ 2 2 $ $ e e e r t A.<.'.#X+XK = G t G = e t t t t s s F F [ G F G G S X.d.] ] F +XkX[..X_.`._.=.-.*.*.*.=.,.l.] y S &.G K G G F D S [ [ -.=.-.X.X.-.X.S [ [ X.[ &.'.[.'.[..X*.K _._._._.`.=.K &.&.[ [ X.X.X.-.-.-.&.F G F F F -.=.,.`.'.<.e $ G F S &.&.-.-.&.].+X'.`.,.`.,.`.[.'.F = G ].[.`.*.&.G G *.[.[.`.K '..X#X#X#X#X#X#X#X#X#X*.*. X#X[._.=.,.].[.,.-.,.:.&.'.#X.X_.*.*.K *.[.[.[.'.`.'.`.'.[.#X[.'.'.t a D S S -.-.*.[.[.,.,.=.&.K K *.*.&.&.'.#X#XK K *.#X+XF S X.-.&.[.#X#X#X#X#X#X#X#X#X#X#X#X#X#X#X#X#X#X#X#X#X#X#X#X#X`.*.*.`.*.*.*.`.#X#X`.K _.#X#X#X#X#X#X#X#X#X#X#X#X#X#X#X`.&.=.=.k.,.=.,.,.<.k.k.l.] u d ; X , O o g g w x g w w g x x x z c v v x z c V v M M M M n n M M M M n n M M n M M M v v b w % @ % w % % r o.%.f . 5 5 , 1 p p # , , X   r f a $ < , O X 2 1 6 % + 6 + x Z k T.E.W.E.E.R.~.;X& f $ . . r a J J.I ^.:X~.K.l U.~.Q.h y t t D $ X : - : X - X O X + O O ; > > + O #   O.+X+XO.  3 o O X o 3 A.H.f   % + , , #   $ $   % .     X X 3 , , ; , ",
"=.,.,.,.:.&.-.-.:.:.e . 2 a H D D D D D D D D y D D a a $ X # o o o O e f H D D D D D y D D y D H D H H y D >.1.'.].].+X+XO.G S D y y y y D D D y D >.D.:.G G <.l.<.D H H D D D a D D D D D a D G ;.<.;.y e y t G ;.,.,.=.=.=.,.F & . $   s D.oXt & t <.].,.`.,.G t t t t G -.,.+X+X,.G F <.].].'.[.,.l.;.G F [ D s e e e e e e e e e t ;.,.*.-.:.X.~ | h.l.y $ 7 1 $ %.A.>.y a r e e t a D r f Z.J.I.I.I.I.I.I.I.I.P.P.P.I.I.I.I.I.!.Q.' & O X . $ a t F K &.&.=.K F F F [ &.[ J I I.I.I.J.g y y t t [ ;.J P L.U.U.U.T.(.!.* G G &.,.#XzX%.. 3 1 2 1 e e 2 e e y G A.+X+X#X+X1.t D t y y t s s t t s D D F O.F J J J H S X.y y L <.[..X`._.`._._.-.=.*.-.=.*.:.S S G &.&.*.&.O.%.J J J H H J F [ S S G S [ [ F F G *._.`.`..X-.*.=.=.=.=.,.,.1.J J J %.D ] O.;.&.&.:.<.;.;.:.:.:.].].,.[.<.e $ [ [ [ -.-.-.=.-.`.[.`.*.=.*.K `.[.[.F = G oX[.'.*.&.F G *.[.[.`.*.`.[.#X#X#X#X#X#X#X#X#X`.`. X[.[.,.,.,.,.'.:.-.:.:.&.'.#X.X'.`.*.K *.[.+X[.[.'.`.`.'.#X#X#X#X].t D S S S ,.=.*.`.`.`.].,.&.&.&.=.*.-.[ '.#X[.K K `.$X+X&.S X.=.K [.#X#X#X#X#X#X#X#X#X#X%X#X#X%X#X#X%X#X#X#X#X#X#X#X#X*.*.*.*.*.*.*.`.#X#X`.K `.#X#X#X#X#X#X#X#X#X#X#X#X#X#X#X'.G &.&.-.*.*.*.*.&.-.=.k.] 1 p 4 9 < : p ' b x x g w w g g b c c v v v b x x b v v M M M v v v v v V v v v v v v V v v b g w 6 3 , r 3 # r o.%.y   . X X 1 p p 2 4 4 # . a f r $ . 2 X 2 e $ & & * @ @ b P l T.(.(.(.E.R.:X:X* I b @ w g f Z.J.Z Y./.~.K.K.U./.~.A g a 2 s 2 1 1 ; , : X X $ . . # # O X o o O 1   F +X+XD   , X X .   r H.H.J .         .         . 6 6 , 5 > X # # # # ",
"_.=.,.,.,.&.&.&.&.;.] o.o.p e y D y y y D D D D y D a D y a r . o o . e a D D D D D D D D D a H a = e f a D F G ,.`.,.[ [ :.:.:.D y y y a a a a D D D H D D D O.O.O.y H D D D D D D y y D D a D t ;.,.:.;.O.;.1.&.,.,.*.*.*.=.,.<.F ;.O.= D l.k.;.F &.,.,.=._.,.:.:.:.:.1.,.k.k.S [ ;.:.O.F F ;.'.,.G G ;.;.:.;.:.$.D o.O.O.;.:.>.>.O.:.+X#X`.=.c.X.~ {  .$.p 9 i i $ D O.H $ $ p f ] :.M.:.= r f g x b b J.J.I V Z Z Z Z P P I b b b I J e D >.;.;.1.L '.#X[.1.`.].+X+X,.1.,.1.1.A.;XJ.I A.;.*.*.&.-.&.;.J P U.U.U.T.T.(.U.h G [ <.;.O.>.y . r %.o.o.O.O.D H o.%.o.a e D 1.1.1.].>.t D O.:.&.&.:.O.:.:.S t D J h J.;X^.J J J.;X$X$X'.'._._._._._._._.=._._.*.=.,.*.&.&.S [ F y J.I.!.~.~.~.:X;X= S +XkX[.,.*.].#X[.#X#X[._.`.-.=.-.X.X.X.X.[ J I ^.:X;XI J J.J.A.J y S X.S [ >.X.t S S [ O.D D [ [ S -.X.-.=.-.`.[.`.`.'.&.t *..X[.1.F ;.l.,.=.&.*.`.'.'..X.X_.*.,.`.`.`.'.`.`.=.`.'.'.*.,.*.&.,.:.,.-.[ &.X.[ [ F F 1.'.'.[.+X'.K &.`.`.,.,.*.*.*.,.`.`.'.+X'.:.:.[ S S l.[.'..X'..X#X.X#X#X`.&.,.-.S *.#X#X`.`.,.G L :.-.,.,.K '.#X.X'.'.'.`._.#X#X#X#X#X#X#X#X#X#X'.'.'.[.'.[.#X#X'.#X'.*.`.'.'.[.#X#X.X.X#X#X#X[.*.`.'.'.'.'.'.'.`.'.#X#X[.[.+X*.K '.#X#X_.=.'. X|.o.- 0 q 2 T ( ( d 6 w % w 6 6 6 w w x b x w w g w w g g g w w w w w w w w w w w w w w w w w w g w d d p a a p p a f H y a f f d p e e # O , < $ a f f a o.] D D D f I ^.J.b g g P Z I.U.U.U.U.T.(./.l Q.'   w ( r b Q.I.I.U.U.U.T.R.R.R.P J.Z.= r r p 9 O : X X e f H a ^ a X X o o # o.O.;.<.<.y . o.>.H.o.. $ y t J O.>.:.<.:.>.>.>.D.%.  . 6 # 3 o 6 o o o o ",
"`.,.,.,.:.*.&.&.S [ $.y.%.e $ a H D D D y D D D D D D o.o.%.f . o # . e f D D D D D D D D y D H r   . a H a D t ;.,.;.t t ;.l.:.D y y y D a a a D y D y y D D D G D y H D D D D D D D y y D a D t 1.`.,.].D.'.'.`.,.,.,.,.,.,.,.1.'.+X;.= F ].<.,.<.<.,.,.,.`.`.,.,.k.k.,.`. X-.t s :.G.>.G t ;.].<.G t O.<.<.:.:.;.D F :.<.<.:.;.;.;.,.+X#X[.k.m.~ u Y e e 2 i 7 u 2 a D D $ . y O.:.k.|.:.$ $ $   % h = O.D.Z.g x v V I I I J = = = = t t S <.<.1.;.K [.%X#X*.*.].kX#X*.K 1.,.;.$X;X$XL 1.=.*.*._.`.`.,.A.^.U.U.U.T.R.(.U.h G &.].O.t t e $ r %.O.O.;.O.D D D D.%.$   = O.&.`.#X<.= t [ <.,.*.,.,.,.:.s t D %.h ;X:X~.b h Q.<X;X$X[.[.'._..X X`.,.=.=.=._.=.,.,.,.,.&.S F D h P I.T.E.E.E.(.~.h G +X#X#X`.*.'.#X.X#X#X[.=._.=.,.[ s a D D o.J Z ~.>X/.A b P I.J.g r a a = H A.J & = y t S ] [ [ [ X.-.[ -.=.-.`.[.`.[.+X;.t ;.[.[.`.;.:.;.&.&.&.*.+X#X#X#X.X`.-.=.-.&.,.'.`.K K K K &.*.`.*.F &.&.:.[ G G S s S t t F ;.1.#XkX].F K *.,.=.*.*.*.*.&.*.*.,.[.].].].[ t G <.+X+X[..X#X#X#X#X#X`.K :.F G *.#X#X'.#X].t D ,.k.,.*.&.[.#X.X_.*.1.K K #X%X#X#X#X#X#X#X#X#X`.&.*.*.K '.#X#X#XcX[.`.'.+X[.#X#X#X#X#X#X#X#X`.G K *.,.,.*.*.&.K *.#X#X#X#X#XK G '.cXcX`.*.].].oX] X 7 : : R / R - - 6 + # o ; 3 + @ g b g @ + w d w w w o @           . o @ + @ . . o o @ @ % 6 6 p f a f a a f a r y y H o.o.@.f X . $ X < o . p a a o.O.[ [ [ O.J I ;X;Xb f J Z.V Z L.l K.K.U././.I.^.J.  % r $ h I.I.U.P.P.R.(.R.R.R.P J.Z.$ r 3 r 1 X o X . e H H D o.^ X , o # $ >.<.:.<.>.y   D +XOXo.  O $   O.OX+X].+X+X+X+XoXOXS.  3 4 O + o o # # # # ",
"1.1.1.:.:.1.&.;.-.:.] a ^ r # f a a H H D D D D H D t a f f r . o # O e H D D D D y D D D D D f d   . f J D D G ;.<.:.t t ;.].:.G y D D D D y D y D D D a D a D D D y H D D D D D D O.[ G y D a y O.;.;.;.;.1.`.].;.;.:.:.:.:.;.;.<.<.O.t F :.:.:.:.:.,.,.,.:.:.;.,.,.,.*.,.].:.t t [ :.O.t t :.`.,.G y O.>.&.,.:.;.F [ 1.,.:.F [ <.].].+X+XoXh.c.} X...[ $.u 2 u p e a D D = = D ;.&.*.,.[ = e y y D L F *.'.1.J I ' g J Z.J J D G D F F G G <.'.*.*.K [.#X+X'.[.[.#X+X*.*.,.1.;.+X+XA.F :.1.;.;.*.*.&.;.Z.Q.U.U.U.U.T.T.I.h S &.].;.= t D D D ;.F F &.&.F F F :.;.t t G F K *.[.:.t S [ ,.*.&.;.*.*.*.S S G J h ~.R.R.P P U.(.;XI '.].,.:.<.1.A.A.A.1.&.:.:.:.;.:.:.[ S D J h P U.T.E.E.E.E.R.A J '.$X[.`.K [.#X.X.X#X.X-.=.=.*.O.g g h H o.g l T.R.R.V I I.I.!.A h g b x P Q.P h I g e s F F S X.F &.[ &.=.-.'.[.'.`.].;.t ;.+X[.,.&.&.-.*.1.&.1.'.].].+X[.,.*.=.=.=.,.,.`.`.`.`.*.1._.'.`.*.`.*.`.,.*.1.[ S F G S [ &.;.+X#X].&.&.,.,.,.=.=.,.`.=.,.,.,.<.<.'.,.&.F F <.[.'.'.`.#X#X#X#X#X[.1.1.K K '.+X'.'.[.<.s D :.,.:.&.F +X#X#X'.[.'.*.*.#X#X#X#X#X#X%X#X#X#X`.*.,.'.`.[.#X#X'.'.'.'.'.'.1.'.#X#X#X#X#X#X#X[.*.*.*.,.=.*.*.`.*.`.#X#X#X#X#X`.`.].+X+X'.K ].].+XO.X 0 8 q T W T 8 2 1 < 0 < < 4 4 > w ( ( 6 5 p p p p p r y y y t t y H r . # p p 7 i i 5 # r d r d f f f a a f f r y a f f f ( d $ $ r 5 5 , # f a a o.F F [ F X.D Z.J.J.g a ^ Z.I P Z L.L.L.I.!.~.Q.J.Z.$ e e e g I.I.U.P.P.T.T.T.R.~.I J.Z.$ r 2 1 r 2 1 1 $ e D D D H a . o o O . O.:.;.o.o.o.= F ].<.D   6 a $ [ <.].O.>.>.>.>.>.S.@.O , , , # o # # # + + ",
"S D D H D D D D D.D.y . $ $ . $ . = y H y y y y f r . .   . o o + # . 2 D D y D D D y D D D D f f $ $ f H y D G :.l.:.t G ;.<.:.G y G D D D y y D y y y a a y D D F y H D D D D S [ <.<.F t D a y y S S G G &.].,.G t t t t D S G t t G t D S S S t t S S S s t [ &.&.[ K ,.].:.t y D [ F D D ;.].,.D y a y t &.:.;.;.1.;.;.O.t t <.kX+X:.:...s ~ M.|.].[.oX] E ^ a s ] o.>.%.>.<.'.,.&.&.[ t t D.+X<.'.`._.`.1.J J g & = H D F [ ;.<.<.<.,.1.#X#X[.'.*.*.K *.#X#X`.=._.*.*.&.t t G t D t S t G G G G S G h I.U.P.U.U.Y.U.^.J ,.=. X&.t S <.].l.'.,.`.`.`.`.,.,.`.`.,.XX<.1.*.`.`.`.;.l.l.,.,.,.,.,.1.'.<.l.1.J h ~.E.E.~.!.E.E.~.h t t = e t & b J.^.J = D F G t t t t y %.A.P I.U.T.E.W.E.E.R.;X;X$X'.'.`.&.'.#X.X#X#X.XK *.&.1.A.J.^.^.J.J.b K.R.R.R.I.^./././.L.P P Q.I./.:X:X:X;XI h H S S S S t S t S &.-.K &.G G G G t G ,.*.&.-.*.*.:.&.;.&.F G F 1.,.&.*.*.=.=.S t K #X#X#X#X#X#X#X#X#X#X#X#X#X#X#X].:.1.;.S [ [ G &.*.&.F &.&.-.=.=.=.=.=.-.=.,.G = = <.<.<.'.1.'.<.1.G G ,.*.*.*.*.[.#X#X#X#X<.G G *.].:.S S ;.`.&.S t <.+X'.#X#X#X`.*.*.K K #X#X#X#X#X#X#X'.*.`.#X#X#X#X#XG G `.#X#X&.t K #X#X_.K *.*.K `.[.[.*.*.*.*.*.+X#X#X#X#X#X#X#X#X#X&.& = G G ,.`.oX] . 7 < 8 8 8 8 8 8 p @./ 9 < 0 4 > > 6 6 , < < - < p p $.j.D.D.D.D.OXOXf X 1 @.o.! +.+.1 X r f d f f f f a f f r r r r r $ . . o   2 f o.^ p < p $ e o.F F F S ..O.f & % r u e r % ' C m m m m Z n * & y H %.o.J I Q.I.P.U.P.P.P.P.Y.I.I A.%.$ a $ $ r o.o.o.f H H D D H f . X o o . %.>.F     S.D.].'.].F   6 %.O.<.<.l.=             O X 4 X , o # # o o o o ",
"] D J g h h h h $XJ.=   $   . .   & H J y a H f H r # X , , o + o o . e H y D D y D y y D a H H f     f H H G G ;.<.;.t G ;.,.,.G y y t t t y D a y D y a D y G G t t G G G t t t [ ,.,.G t G y y y D D D t ;.].:.G G G t y D y t t t t t t t s y a a s s D y y [ &.[ ;.F ,.k.:.= t t D D t D O.oX<.D y H a y O.<.<.:.:.:.>.O.t t +XlXaXuXj.#.s s k.[.`. X`.S e e e e t S [ :.;.&.,.,.K &.S t t :.`.,.*._._.`.*.;.>.f   = y D F ;.&.`.*.`.`.*.[.#X[.*.`.*.*.K #X#X[.*._.*.*.K S F S D a D t t = = = G G y g I.U.P.P.I.P J.A.1._._.`.*.= = :.].<.`._._._._._._._._._._.`.`.*.*.=.`.,.`.`.,.,.,.,.`.'.<.<.<.>.J h j ~.E.E././.R.R.~.h y t s e r * k I.Q.I & y h = y D t S y Z.P I.U.P.T.(.E.E.E.R.:X;X$XL &.&.G [.#X#X#XcX[.F ;.J I J.I.U.U.T.I.j l T.R.T.U.U.T.E.R.P.K.I.I.P.R.E.E.(.~.j & & t [ S S t t = G &.&.K &.K t t G t G &.K &.&.-.&.&.&.&.[ G = G &.&.*.*.&.=.*.G = G [..X#X#X.X.X#X#X#X#X.X#X#X#X#X[.,.<.[ G F F [ =.*.&.*.&.&.*.=.*.&.-.-.-.-.*.S t t k.<.1.L L L A.>.D S &.,._.`.=.[.#X#X#X#X].G G K _.K t t G &.G = & 1.'.'..X#X#X`.`.K K '.lX#X#X#X#X#X#X_.K _.#X#X#X#X#XK G '.#X#X;.t 1.#XkX`.*.=.*.*..X#X#X*.K &.S [ +XkX#X#X#X#X#X#X#XkX1.= t G t &.,.,.s . . X X : 7 7 < < p o.o.p , 4 4 4 4 ; - - X 2 - - u a $.G.OX+XoX+XOXdXo.. 1 +.+.+.+.+.X X r a a a f f f f f f y y y y d r , 3 6 X $ a o.a 1 5 1   $ D [ G F G F O.a . 5 r $ e = $ J ' V Z Z Z V I h r y O.D D H I P I.I.I.I.I.I.I.J.J.A.D.%.e p 1 X r f D D D D D D D H a .     . . %.>.H     >.|.`.'.l.F   r O.O.<.D.H.a . # 1 # # , # # # # , , # # # # # # ",
"D f Z.J.P ^.^.^.;X;XJ a o.f o.o.%.J y y a a a $ r 3 o o ; X o + + o . $ H D D D y D D D D a r r f %.%.o.y H D t :.l.;.t G ;.<.<.G D O.O.O.D y y D y D D D y t O.<.1.;.1.1.1.;.;.1.,.,.`.<.>.;.G D y a y D t ;.l.<.&.;.[ y y a t D O.:.;.;.;.O.O.D y a a y D a y O.[ [ ;.F ,.].<.K ;.:.>.;.F F [ O.F y y f a y o.F [ F [ ] ] O.O.[ $.>.>.$.| g.:.:.k.`._.`.`.:.O.:.>.;.1.<.:.[ S :.'.`.&.;.;.:.,.,.`.`._._._.`.*.G D Z.Z.Z.J G S ;.F ,.`.`._.*.#X#X.X*.`.'.[.'.'.[.'._.`.*.,.:.:.:.S D a a D A.A.A.J O.%.J I Q.U.P.L.P I 1.*._._._._.,.&.;.;.F &.,.`._._._._._._._._._.`.=.-.-.,.`.*.-.*.=.*.*.`.'.1.J Z.Z.Z.I Q.I.U.R.R.I.K.T.(.~.h J H H J Z.Z K.U.I.I.I J.^.;XI H H O.y Z.^.I.U.P.T.T.W.E.E.R.P $X'.1.,.,.*.[.#X#XK `.,.;.A.Z.P I.U.T.T.T.R.U.U.R.R.T.T.R.R.E.E.T.U.U.U.P.E.E.E.E.>X/.~.^.J [ ..s D <.<.<.].[.&.&.<.+X+X<.F ;.,.*.,.,.,.,.`.,.<.<.:.;.:.<.,.,.*.`.[.[.'.'.'.#X.X#X#X.X#X#X.X#X#X`.`.`.'.'.*.F [ &.;.[ S [ ,.=.*.,.1.*.,.=.&.*.=.=.=.=.,.[ S S ;.;.A.;X;XI J.A.A.>.,.,.*.*.*.[.#X.X'.[.+X1.1.[.#X[.+X+X#X#X#X+X+X#X#X.X#X#X[.*.*.'.[.].1.1.#X#X#X#X#X.X.X.X#X#X#X'.'.1.*.,.].[.1.F 1.,.,.1.=.*.=.*._.`. X&.&.[ S S ;.1._.#X#X'.'.'.`.[.].,.'.'.].].`.].:.$.>.$.y./ 2 q 4 1 a ] E 1 , 4 < , 5 < < R E ! E R ^ ^ E o.] [ [ [ O.%.r X 1 p u u i i E a a a a r r y y y a a y y y r p 5 ; ; 3 X $ a a a , 5 ^ o.H O.] [ G F 1.D.%.  5 1 . H <.<.A.Z.Z.' I b I I & y a s t %.A.I J.J.P A A I I I A.J O.:.H $ e , X 1 D D D G D D D D H H r f r .   %.>.D     ,. X,.<.XXH   e O.O.O.a ^ 1 X , # X # 3 # # # # , # # # # # # # ",
"D g P Q.U././.R.R.;XI J >.>.A.A.A.%.. $ a a f . O . X ; : X o > . o . $ D G G t D y a a H a .   a D.D.o.y D y t ;.<.O.t t ;.<.:.t t O.>.:.D t y D y y y a t t >.+X].].'.'.'.'.'.'.`.,.,.<.l.:.G t y y y D G [ ,.,.,.<.O.y y y t O.<.<.,.,.,.,.l.[ S a a t y s s O.[ [ &.F *.,.1.1.<.<.].,.*.[ S t y y y y y y y y s t s s e ] y.%.p X $ e e :.|.k.,.*.,.*.,.,.,.,.`.,.`.+X].F G F >.<.L L F =.`.*.*.*.=._._._.&.= = I ^.J.J y G G G <.`.`.K K .X#X#XK '.[.#X[.`.*.*.*.`.K *.,.<.l.S D D y J @X@X@X1.%.A.I b Q.I.I.P I 1.,.=.`.`.`.`.,.].].[ = G ,.,.,._._._._.`._._.=.=.*.&.-.,.`.*.K K &.K *.'.].A.b V V c I.!.U.U.U.I.& * U.:X;XI A.A.Z.I Q.I.P.U.P.U.I.~.:X:XP h J %.J J.^.I.U.P.T.P.P.R.:X~.J ;.*.`.`.`.1.+X#X#XK K ;.>.Z.J.L.P.P.T.T.T.T.T.W.T.T.T.R.E.E.E.E.E./.U.P.P.E.E.E.E.E.E.>X:XJ y D t F #X#X#X[.[.*.K `.#X#X'.&.<.`.=.`.`.,.,.`.,.`.,.<.<.,.,.,.=.*.'.#X#X#X#X#X#X#X#X#X#X#X#X#X#X.X*.K K K K G t S :.:.&.S S ,.;.,.,.,.,.,.*.K &.=.`.=.=.,.&.S F J J ^.:X/.Y.Y.Q.J.OX<.,.1.1.K .X#X'.K G K ;.'.#X#X#X#X#X#X#X#X#X%X#X#X#X#X#X[.K *.#XkX'.t G +X#X#X#X#X#X#X#X#X#X[.K K 1.,.&.1.,.,.1.K G G F =.-.-.&.[ [ -.S [ X.X.s t = G #X#X_.*.*.K K  X[.[.[.#X.X*._.`.]. X].XXO.2 i p O a $.o.e , < - - < < 7 / ! E R i E s $ $ . . . . . O o o 3 - X - - 2 a a a a f p r y y y a a y a f p p 1 - ; , X 2 a o.f X $ a %.O.O.] O.D O.>.D.S.O 6 < . o.[. X,.[ ;.J J I Z.Z.& r y r h Z.J.J.A.A.J $ = %.>.O.L G t t e   # # , r D D D G G D D D a H H o.y     %.>.H     :.].].].D.H   e >.D.H   $ X # , o o , # # # + + + > # # # # # # ",
"I b I.U.U.T.W.W.R.:XI J >.D J O.>.%.$ $ f a f $ O o o ; : : ; > o 6 r r D G F O.O.y a a a f y r %.>.%.D r y D G ;.<.;.G D :.j.>.D S O.>.:.D y D y y D D D y t O.:.:.:.1.:.:.:.1.;.1.1.*.:.<.:.G t F F F F F ;.,.&.,.<.[ t y D t F :.:.:.&.,.-.:.[ t a D t D D S [ ] [ 1.1.A.A.I I A.1.=.=.&.K S S y t e y a s S D D D D s u o.@.@.^ p u ] X.:.k.,.=.,.`.,.,.,.=.=._.=.,.'.<.;.J A.J.J.I A.A.`.`.'.$X'.1._._.`.1.D h P Q.P x G S F ;.<.K 1.'.`..X#X#XK 1.'.+X[.'.`.'.'.[.&.*.1.<.:.F F D = H A.$XA.%.%.%.J b ^.^.P I A.;.*.=.,.,.,.,.,.,.:.;.F F ,.1.,.`.`.`.`.`.`.,.,.,.=.=.,.,.:.1.&.&.*.*.*.'.'.A.b V V n L.U.U.U.!.Q.% * !./.^.I I J J b I.P.P.P.K.U.U.T.W.R.Y.I I J J A.J.J.I.I.U.U.U.~.;X$X1._._._.`.*.1.+X#X[.*.;.:.%.b P U.P.L.I.!.T.T.W.W.W.T.T.E.E.R.R.R.Y.Y.Y.U.P.E.E.E.E.E.E.>X~.J D F D &.].[.[.[.].;.K ,.+X+X<.;.;.1.*.1.,.,.`.].,.,.:.:.:.:.:.,.,.*.'.#X+X+X[.[.#X#X#X#X#X#X#X#X#X#X`.`.`.`.1.;.F [ :.:.;.[ [ ,.,.,.;.*.,.,.=.&.&.=.`.=.*.=.&.S H Z.P Y.(.E.T.R.~.J.$X1.K ;.'.`.'.#X+X`.*.1.;.,.+X+X#X#X[.#X#X#X[.#X[.[.[.[.+X'.*.`.[.#X'.K K +X#X#X#X#X#X#X#X[.#X[.K *.<.'.:.1.1.*.,.&.F F &.k.=.-.-.-.-.-.X.-...[ D I I 1.#XkX`.*.,.`.*.'.[.'..X.X.X*._._._._.,.l.] 2 p p $ t ] o.1 X 2 p p 2 : 7 / E E ] ] $.$.D D D a t s s a 6 o 4 p p u i E E o.^ a f f r a a y a a a p p p r 5 , , < X $ p ^ f 1 1 o.O.] F O.F t O.>.H.%.O 0 5 . D  X_.*.-.*.&.1.J J b h h h b x b Z.Z.A.<.[ = t <.:.;.1.F F ] y . # # # e D D G D D D D G y D a H r . $ f o.f o   :.oXl.;.A.H $ r %.S.f   X # , , o , 3 o # # + > > + # # # # # # ",
"I.I.U.U.T.R.W.W.R.:XI %.O.$   . $ e . $ 5 5 r o o + ; ; ; ; ; X $ a o.f D G <.OXD.y f r   e o.S.a . . $ . e >.:.:.<.;.t t D D D y t y H D t t y y D O.>.O.D t D t y y G S G G G G G G G &.k.:.t G ;.:.:.>.>.>.>.,. Xk.[ t y y t G F G G t G S S S s s y t F :.:.S G F A.A.;X:XR.:X;X$X1.`.*.*.,.k.,.[ S ;.:.,.:.<.>.>.>.a e e 1 1 p 1 p D.l.<.,.`.`.`.`.`.`.`.=.*.=.,.[ t D A.I ^.;X~.Y.;X;X1.1.;X;X$X1.'.`.`.<.A.J.~.~.^.I G &.:.<.S = 1.#X#X#X#X].t G K &.*.[.[..X[.[.K G G G G <.+X>..       $ y a y y J @X@X'.1.;.G t S S S t t S t t O.D.A.G G F ,.,.,.,.&.&.&.[ [ ;.,.,.&.G *.`. X[.'.`.[.].>.g v x j n Z L.l A b % & P ~.^.h r r y h I.P.P.I.K.!.R.W.E.E.R.:X;XI L ;.L 1.A.J.P P P J.A.<.`._._._.1.S G F &.&.*.`.;.y h P L.K.* w x A P.T.W.W.T.T.W.R.Y.P I x h c I.U.E.E.E.E.E.E.E.:XI A.<.].:.G G G G G D G G F D D D D D D G G G :.<.F G G s y D S D O.-.*.,.*.1.1.1.[.[..X#X#X#X#X#X#X#X[.#X#X.X#X[.[.[.`.*.*.&.&.,.,.&.G F &.&.*.&.&.=.`._.*.=.&.S J ^.Y.T.E.E.E.>X~.P J.1.K 1.#X#X[.K '.#X#X,.G G F G F ;.*..X#X'.K K K K &.*.*.*.&.&.*.&.,.+X].&.G K *.`.*.`.*.G F K F &.&.&.S t t =._.=._.,.,.`.=.=.=.=.=.=.K &.F O.J ;X<X;XL L G S F :.1.&.F G ].[..X*._._.*.*.&.;.D t ] D.dX>.. p < 2 E S.y.R 2 u ] X.$.D.l.|.+X+X+XOXl.;.:.l.j.p . r y.j.r.0.j.$.j.] 1 1 r 1 r a y a a p p p r 5 5 < < < - X 1 # # . $ a o.F F F O.O.o.$ $ 5 5 d p $ [ [._.-.K `.'.+X1.t b ^.~.~.~.^.x h D 1.,.[ = S :.;.;.,.*.:.>.H . , , , r D D D D D D D y D y a H H f f $   # O   %.oXO.  . .   $ r r r # , # o o o , 3 o o o o o o o o + o o o o ",
"U.I.U.U.T.R.W.W.R.:XI %.O..   O X $ # , 5 5 5 o > o o ; o o o X $ y o.D D G <.@XOXy r e   $ o.>.d   # $   r >.:.,.,.[ t = t t t t t t t t t y t y D O.D.%.D y D y a y D D y t G D D t G :.l.>.t t ;.<.<.>.>.>.;.:.k.k.[ S D D y s y = y h y t S X.s S t t D O.;.G t F A.J.:X*XE.&X:X$X1.,.*.K ,.`.=.S S -.,.,.,.,.:.:.>.y &   . X 2 X 2 >.l.<.].,.'.`.,.<.,.,.,.,.,.k.[ t J J.P ^.~.R.R.R.^.A.A.;X;X@XA.'.'.'.].A.J.;X<X;XI G *.,.:.G & 1.#X#X#XkX+Xt G &.&.K #X.X.X[.+X&.O.F G G +XfX:.  $ % % $ o.o.D G F +X$X`.K K G t S t D G t S t t O.D.D.G t F <.,.<.<.,.&.:.[ [ ,.].].;.S :.]. X X X[.].+X>.g b b x P P P V b b , % Q.;XJ.x h r r % Q.I.L.I.P ~.:XE.&XE.-X:X;XA.L &.-.=.:.A.A.A.A.A.1._._._._.`.,.S s S F F ,.+X;.y g J.Q.N w f ( w L./.T.W.T.T.R.:X^.I A.J g I Q.U.(.(.(.E.E.E.:X:X$X$X].+X<.t t D y a D D y t t y a a a y y t G ;.<.F = t t t t e t [ :.,.,.1.1.;.1.$X$X#X#X#X#X#X#X#X#X#X#X#X#X#X#X#X+X].,.,.*.&.*.=.[ t G &.;.&.&.&.*.`._.*.=.&.S J ^.Y.T.E.E.>X>XR.I.J.L F *.#X#X[.1.1.#X#X;.G G G G F 1.1.#X#X#X*.*.,.=.,.,.&.&.*.*.*.K ,.#X+X;.F &.`.'.,.].,.F G &.;.:.&.:.[ t t =._.=._.=.=.=.-.-.-.-.-.-.K K G J h Y.:X~.A J G S F ,.,.[ t G [..X.X*.`. X`.=.&.;.D y O.aXzX>.      . e $.y.u 2 u E S :.D.].+X#X#XkX+X<.&.:.:.$.e   p S.j.r.0.f.0.e.E 2 2 1 1 p f f a a p p p i 1 4 4 5 < - X , . $ . $ p o.D F G G D O.e , X X . $ . G `._.-.K *.'.+X1.h j ~.R.R./.~.x % y &.|.F $ G ;.;.;.;.;.:.l.o.  # # . 2 D D D D D D D D D D D H o.o.o.$ . 3 + o %.H.%.  $ # o # X . o o , o o # # o + 3 o o o o o o o + o o o o ",
"U.P.P.P.U.T.T.R.R.:XI J O.D o.^ - , , , < 5 4 o o o o o X . , r e a D D D G ;.>.>.e # f o.o.O.$.r o 6 3 . % o.D :.,.;.&.&.&.&.;.;.;.o.t D O.;.F G G F O.D y y H a D y y D y D O.O.F y D [ [ O.y t ;.,.:.D a f a D $.:.[ s D S S S H f J.^.J.y F ] S S S t S S X.S G K A.P ~.E.W.W.:X$X1.`.-.K =._.=.&.&.=.,.=.,.,.*.&.;.;.[ O.;.O.O.$.O.>.O.O.O.F ,.k.:.[ [ O.F [ =.k.[ G F A.I P Y.T.R.R.~.^.;X^.J.$X1.<.,.].<.L J J.J.J.J G ;.,.*.&.G <.[.[.'.'.<.F F &.&.K +X#X'.`.].L J D t t ].#X:.. r 3 + 3 %.o.D G G +X.X.X'.+X1.1.;.F F [ F [ [ F F F F F F &.1.;.F F ;.<.<.F S [ :.:.;.[ ;.,.,.=.,.,.[ >.o.g g g w g b g Z.I I d r I I P P P b f r Q.I.I.P P ^.^.~.R.~.^.J.$X1.&.-. X`.&.&.1.$X$X1.*.=._._._._.,.S ] ] [ [ [ ;.F y f Z.V c % p p 6 n !.U.T.T.U.T.~.^.I J.f h b Q.P.T.T.T.U.U.Q.^.J.Z.L *.`.<.t a f a y H O.H D H f f f a D F [ &.:.,.&.&.1.;.;.;.&.&.,.;.&.&.F F D J @X$X'.[.[.`.*.`.'.'.'.'.'.'.'.'.<.<.&.F ,.[.`. X[.:.G G <.+X<.G F *.`.=.*.=.&.S J J.P U.R.T.E.E.E.R.~.A.L 1.[.[.[.`.`.#X#X1.F &.F F [ &.K [.#X+X&.,.=.-.=.,.*.`.+X'.&.G &.,.,.&.&.&.,.`.*.;.:.S S [ &.&.[ &.F F F =.=.=.*.*.[.[.[.*.K _._.`.*.;.A.^.Y.E.E.R.Y.;XI L -.=.,.;.S K +X[.`.F ;.;.;.&.;.<.D t o.O.O.>.<.D.<.l.:.:...u 2 u o.a ] O.O.l.].l.l.l.:.;.;.[ O.e . i ^ E } h...4.r.} E ^ a r p p p p p p p p 1 < < 4 4 < : ; , X a %.$.O.] [ :.].:.S O.X . f %.O.O.O.1.`._.&.S *.'.$XJ.^.U.E.E.R.Y.^.P Z.Z.] j.f & H +X+X1.F ;.F O.f O , p p a D D D D D D D D y D e e a f H $ # 3 + O r f r o 3 # o + # o + o o o + 3 3 + > 3 + + o o o o o o o o o o ",
"I.I.U.U.P.U.U.U.:X;XJ t [ :.$.a O ; o o # X # o o o > o O . r o.a D y D F t G t r .   o.H.>.D ] r . . o % # a y :.,.,.,.`.`.,.`.].l.O.t S >.l.;.G D G t y y y y D D s y a y D >.D.O.y y D s D D D ;.<.;.$     . $ D :.D t D D D a H h ^.<X~.h J D D D S D D S S F G &.A.P R.E.E.E.-XJ.1.1.-.K _._._.=.,.,.,.,.,.,.,.G G ,.'.<.<.<.,.l.O.t = t = t :.].[ t t t = G ;.,.[ G J A.^.I.K.P.R.R./.;X;XJ.I A.;.1.&.:.;.G = y = = y G [ ,.*.'.<.,.,.*.G t &.<.].,.,.K +X#X_.K 1.F O.D t = <.+X,.& r 3 + 3 o.o.F G G #X#X.X#X#X+X+X+X1.1.1.<.1.:.<.D = t O.;.;.1.;.G t F ].l.D t G S G F F F &.-.-.;.F = $ $ % % 3 6 % o   Z.Z.Z.o.a r h A Q.!.P g h P I.P J.J.I I P ^.;XI L &.&.=.=. X=.&.F ;.$X$XK K =.`._.`.`.,.X.[ [ [ [ t t t y r % w b r p r # x I.I.P.P.P.L.I.P P J.g h b Q.K.P.P.K.I.P h h h = = K 1.<.G y f f a O.>.F t t y a a y t ;.l.,.,.`.,.'.`.,.'.].].,.,.,.F G G G = g ;X;X$X'.1.G t G ;.F F F K K F F F F = = 1.#X[.[.+X<.G G +XzX].= t =.`.=.*.=.&.S [ A.I I.U.P.E.&XE.(.:XI L K &.K *.*.`.#X#X'.K ,.;.:.&.&.K #X#X#X&.*.=.=.,.=.*.'.#X#XF = &.,.,.[ F &.,._.-.&.[ S X.[ &.&.&.&.&.1.1.=._._.*.*.#XkXkX*.K [.#X#X1.;.J.~.T.E.E.E.R.:X;XA.,.-.&.;.&.&.[.#X1.= t t t S :.>.[ t D = & <.zX#X#XkX].S S e 2 u o.a t = & t t = = t t D S G F $ . X O O ] h.:.h.h.$.$.$.a e e $ X $ $ X # $ X X $ , , , ; ; #   a D.D.O.t F aXkX<.G $.e . o.oXoXoX].'.`._.&.G &.1.A.J./.R.W.E.R.K.I.I.^.J.% r w   J hXzX>.G F t a p   # f f a D D D D D D D D D D     a f f $ . o > o X     + o 3 + + o o > + + 3 + + 3 + o o + + + o o o o o o o o o ",
"P I.I.U.P.U.U.Y.;X;XO.S [ [ [ a O > o O 6 # # # o ; o X o . e o.a D D D S S D o.a $   f S.O.D s t = e $   r f y :.,.,.,.,.`.=.`.=.,.[ t S ;.:.O.D G D D y y a y D t S D y y D O.;.F D D D a a f y ;.<.;.t = = y = D >.D D a a y r h j Y.(.R.l A I h J t F y D D D D J A.I./.E.E.E.R.^.I ;.F &.*._._.=.=.=.=.=.,.k.-.F F &.,.,.1.1.,.1.&.F G G G G :.l.&.S t F G G 1.,.F G J J.I.I.U.U.T.R.~.;X;X$XA.1.;.1.:.D.>.S G D G G G G G ,.*.&.<.&.'.*.&.F ;.<.:.,.:.&.+X+X'.;.;.O.;.H t t '.#X,.& $ , O $ H o.H y D +X#X#X#X#X'.<.<.1.1.1.1.1.>.>.J y y >.;.;.;.;.G t O.].<.F G F F [ F [ ;.-.=.=.=.;.G y y y r r r 6 w 3 o.%.J D D y h x L.L.l x h P I.P J.A.A.A.A.A.@X1.*.*.=.=.=.,.k.&.F 1.+X+X`.`.=.].`.`.`.*.&.K [ [ [ t D s s ^ r b b r f e 3 b Q.L.U.U.U.I.I.I.P P A h b I.L.P.P.I.P J.J H H D G K '.:.G y a a D O.O.F G G D D D D D F O.:.,.,.,.<.<.,.,.,.`.,.,.:.F S S D y J ;X@XA.'.'.F F [ :.*.&.&.&.&.&.;.;.O.G = 1.[.+X[.#X<.t G +X#X+X= t ,.`.,.*.=.&.S [ :.J I.T.T.W.E.E.R.~.A.;.*.,.&.,.`.`.+X#X`.K *.&.&.-.&.K #X#X+X*.*.*.=.=.*.*.'.#X#X&.G [ ,.,.&.[ K `.`.*.&.&.S S F *.K *.K K K K *.=.*.*.*.#X#X[.*.*.[.+X+X<.<.J.~.R.E.E.:X:X;XJ.A.,.-.-.&.&.:.].+X1.y t H F F <.<.[ t G G G 1.+X[.'.[.,.G S s e s s ] s e y O.O.D D D F F F F D t e 5 - X ] h.k.=.:.&.[ [ S t s s e t t e y e t t y . 5 O 6   r   G ].,.&.t &.+X#X,.&.[ $   ] l.`.`.`.`.`.`.&.F &.<.A.^.~.T.E.W.R.U.U.U.U.I.A b z * J @XzXD.O.%.a @.d   $ a y y D D D D D S D D D H $ . p ( f , # o > o # # o o o ; + o o o + > o o + + + o o o # # # o o o o o o o o o ",
"I V I.U.P.U.U.I.h I D S F [ [ e O 3 # . f f f o # 3 > > o . e o.a D D D D D D a a $   a %.D D S O.>.H.H   % f y O.&.&.,.,.`.`.`.`.`.[ t t ] O.D D D D D a a D D D D <.l.O.y G ;.:.[ D D D D H H D ;.:.,.:.<.>.>.A.t t D D ] O.y J.^.~.R.E.E.R.:X;X^.J.y D D D D D D D I P U.T.W.W.R./.;X;XA.K *.=._.=.=.=._.=.=. X,.:.,.,.,.1.&.&.&.;.:.:.<.<.<.&.k.].;.t G +X+X+X#XkX<.y b Q.I.U./.R.~.:XP J L 1.;.L G F F H D t t F ;.;.&.&.].#X#XF G F <.&.&.:.;.[ [ [ [ G &.F F F [ S D y e t ].#X<.t %.^ . $ H D D D D ;.F *.+X'.L F F G G G G G G D y y y D G F ;.;.F F 1.].].<.<.'.].].<.:.,.;.-.=.,.:.G J J O.O.o.^ f f a O.O.F O.:.;.%.b P L.l * h P P b J G ;.1.1.L 1.=.=.=.=.=.-.-.:.F G ;.#X[.`.`.,.S F *.`.`.`.*.,.].<.S ] o.o.@.r g g r p e , w x j L.I.I.Z n Z I.P A h b Q.I.L.L.Z A J D y D D t &.<.:.D y D D a D D F O.;.;.;.;.1.>.F G G G F F F F &.&.&.&.&.&.:.;.;.O.F t h J J J 1.1.F S [ :.&.&.&.&.&.;.&.;.[ F G +X#X#XF = 1.+X'.+X+X].= S F &.&.*.,.&.[ &.,.J Q.U.T.T.T.Y.I.J.A.;.=.,.*.[.#X[.1.1.[.#X#X&.&.-.-.K =.`.,.&.*.*.*.*.*.*.*.'.].G t [ ,.,.[ F &.,.=.-.K &.F [ [ &.&.`.[.[.[..X_._._.=.*.`.`.*.=.*.&.G G D F J A K.T.R.I.j h h e F &.*.&.:.&.S G G t t O.>.O.D G F O.:.;.O.;.;.K =.].[.,.l.l.oXl.D a a e e >.l.>.l.l.:.;.;.;.:.O.H.%..   %.oX,.[.].[.].].].].l.D.D.].].+X+XD.D.D.H.$ # # #   H.D.<. X'.,.1.;.F F ;.+XoXf . >.+X[.[.+X'.`.`.,.:.:.F y I Z K.W.E.E.W.R.E.>X(.~.~.^.P I J D D D H . # w d f H D D D D D D G t S a D f $   # 6 6 # # o ; o # # o o # , o o o o o ; o o + + + o o o o o o o o o o o o o o o ",
"Z.b P I.I.Y.Q.P & G G S D o.%.a O o $   r o.%.# o X X ; X X e a D D D D D D D o.f # . e t = e = [ <.D.a   $ f y O.[ &.<.,.`.`.=.=.,.[ t t t y y y D y y a y y D t D <.l.F t G ;.;.F t y y y D y G ;.:.=.*.,.,.l.>.& & t S S [ = I.:XR.E.W.E.E.E.R.Y.^.g H ] D D D D H I Z U.T.T.E.W.E.:X;XA.;.`._.`.`.,.`. X_._.=.,.,.,.,.,.,.&.&.&.&.:.,.,.,.&.,.,.,.&.= t +X#X[.#XkX].y x Q.U.T./.:X;X;X$X1.&.;.1.;.G S D D D t = F :.,.*.,.+XlXzXG = G ;.=.=.-.[ F F F F G G S F [ O.D ] a y D +X+X<.D %.a   $ H y D D G F G K ].<.F F y t y y y y y y y y a t t D ;.:.;.;.<.'.'.'.'.`.`.'.*.,.<.:.;.,.,.&.F F F F F D D y D D F G F &.;.;.%.Z.J.Q.n h h Z.Z.J G G :.'.*.*.*.-.=.=.=.=.-.X.X.S G &.#X+X`.].].S [ <.'.].'.,.,.,.;.t S D o.o.= h f r p 1 2 # @ * P Q.I.P v C Q.P b h J P P P Q.P b J y D D a t ;.<.>.D a a f y y y H >.<.,.:.<.>.>.G t t t y D t G [ [ &.[ [ ;.-.:.:.;.[ G t = y O.<.:.S G G &.&.&.&.&.&.&.&.&.&.F G +XkX+XG & F #X#X+X#X+Xt y F [ &.&.,.:.;.:.1.J P U.U.U.I.P I 1.=.=.=.=.*.#X%X$XK K [.cX#X=.-.=.=.-.*.&.=.=.=.,.,.,.,.=.,.,.<.F G [ <.<.;.[ &.,.=.&.K [ S D [ &.&.[.[.+X#X[._.=.=.=.*.`.`. X X X&.= t [ O.J g Z T.(.L.* & e = D :.<.,.k.:.t = y t t :.D.%.= = O.>.<.<.;.;.G G l.|.].`.'.`.].+XS t a = t >.<.<.].+X:.:.:.[ O.:.D.>.    >.aX+X[..X.X`.].].+X+XoX+X+X[.+X+X+X+XOXH.    $     D.D.].`.].:.+X+X;.= ;.lXjXH   ;.kX+X#X#X+X,.,.,.,.+XF t H g A R.&XE.E.E.E.E.R.~.~.I.P I = = D D a     r %.o.H D D D D D D D D D D o.f # . o O o o # o o o o # o # # , o o + o o ; o o o o o o o o o o o o o o o o o o o o ",
"f h I J.P P J.A.>.L &.O.o.y f p O 5 f a y r r . o , 0 9 o X r a s D D a D a y r r 3 $ a o.o.O.O.&.<.>.t   % f y o.D F <.,.`._.=.=.,.;.O.O.D y H D H D a H a y F O.&.,.,.F G F ;.:.&.F F O.O.O.y t ;.,.=.=.,.;.O.O.F [ [ &.:.:.J Y.R.W.E.E.E.E.E.R.I.J.J H [ y D D D H I Z U.U.U.T.W.E.E.:XI ;.=._.,.*.&.,.`._._.=.=.,.,.=.,.,.[ &.&.&.;.;.&.;.,.=.=.,.1.G F <.`.'.[.#X].J J P Z ^.^.J.J.$X'.1.=.1.<.;.G F F G F ;.&.1.&.&.&.&.F >.D.;.O.;.:.=.-.=.&.F [ ;.,.,.F S [ O.O.s y p p y >.>.%.H o.p $ $ y e y D G ;.<.>.;.;.;.O.O.[ O.F F [ O.O.H a a O.O.O.F F F F ;.'.'.'.'.`.'.'.*.&.;.[ [ &.[ F ;.1.;.F [ [ [ O.O.F &.&.&.&.&.;.;.%.J b b h y %.O.;.F [ -.&.&.*.=.-.=.=.=.=.=.-.-.&.*.1.+X+X1.;.>.y D O.O.O.;.;.,.,.,.F [ O.:.;.D J J p s e e r r r Z.J.I I I ' ' I Z.%.%.A.Z.I J.Z.g f y D D y y F ;.O.D a a a a y y D O.O.[ [ O.;.;.&.&.[ [ O.D y D O.:.&.&.[ :.-.-.:.&.[ &.O.G t [ ;.&.[ &.&.,.;.&.&.&.&.&.=.,.:.S G <.#X+X;.O.<.].,.'.].<.t t [ &.&.&.,.&.D F <.>.J.P Q.Q.J.A.1._.=._.=.=.*.'.[.[.1.*.'.#X[.`.-.-.=.=.-.-.*.*.=.&.&.&.:.,.;.;.;.F S F &.;.O.[ [ :.*.*.,.:.S D F &.&.:.&.,.[.[.=.=.*.=.,.&.[ -.k. X[ = S ;.O.O.J P T.(.I.b o.] ] O.O.[ [ &.O.D a a t t [ >.O.y a J O.O.O.O.O.o.o.>.:.,.,.`.`.=.`.F [ O.y F 1.1.1.O.O.D D O.D o.D O.o.H H O.%.>.`..X[.[.[.,.<.;.O.;.'.[.'.F ;.O.%.%.t D o.H D O.:.<.].].[ >.O.O.F O.>.>.f   O.+X'.`.].<.,.,.,.:.1.G t O.%.I Y.R.W.W.W.W.R.R.:X;XP I A.D D o.a f e = r a r y y a y y y y y D D y a p # o 3 + o o # # o ; o o o # # , o o + o o ; o o o o o o o o o o o o o o o o o o o o ",
"$   f Z.J J J O.+X,.<.D.>.$ $ X O r %.%.y . # o O p ( ^ X   e H D D a a o.f $   $ r r o.>.>.>.<.:.].D.y   r f f y = G <.,.`._._.=.`.k.D.D.F t D F F y t a y y ;.].`.'.[.].<.`.`.`.,.,.<.<.<.:.G D ;.&.,.].+XF & G l.+X,.,.`.=.1.^.:XE.&XE.E.E.E.~.A h y S S t D D D H I I I.U.Y.K.Y.R.:X;XI 1.=._.=.F G ;.,.`._.`. X X`.,.,.;.S S t t t t G F ,.*.=.`.`.<.<.,.*.*.=._._.,.<.;.J 1.1.L K 1.*.*.=.*.`.,.;.:.[ G F ].'.`.K &.&.;.G & = 1.+X,.,.`.,.,.;.G G :.+XoX&.F O.$.] .   O o       . X , O X . .   y O.O.<.+X%.& = F ;.<.,.,.<.,.k.].l.O.D D >.<.O.t t t t O.].'.'.[.[.[.[.1.G D S y D G F +X].,.;.;.:.,.,.,.1.1.,.1.1.;.&.;.F y f f y y ;.;.&.&.&.F G G &.-.*.=.=.-.=.`.`. X'.+X[.'.<.F s a   O 2 $ $ e s O.:.<.;.,.,.,.,.:.<.:.a y t y D O.[ :.O.J t t = = y ;.,.,.1.;.;.;.H t y t y D a y y H D y y a y D D D y D D y a D F F <.].].<.<.%.D D :.:.;.:.:.:.:.:.;.1.1.<.,.G G F S F ;.<.:.:.1.&.&.&.&.;.`.[.<.F F '.[..X'.[.'.G G K F D t a [ :.&.&.:.S = = ;.&.F H J J L K _._._._.*.,.-.=.*.1.*.*.*.*.=.*.-.-.=.,.=.,.*.&.=.F t G ,.,.&.F F F S S S F D S F K K _.].'.F F [ :.[ t & t G G &.=.,.`.].S & = |.XXO.= t ;.O.O.J P /.(.^.Z.>.:.h.O.t e t t t y y y y y t t t y y t e y t t s D r $ & F `.'.`.`.'.].l.:.;.,.,.l.O.$       X . . .   y OXOXy     oX].`.,.;.= = .     O.oX%.&         D <.>.OXOXD & S oX+X=   & A.D.t   . .   t F G t G S S S S S F s t F ;.J I P I.I.P.P.K.I.I I A.J O.G o.p . r f ( r     .   $ o.H D D D H a r . $ o o 3 > + + o o o > + + o o o ; o + + + + ; o o o o o o o o o o o o o o o o o o o o ",
"1 X a y.O.F F ;.'.`.'.+X%.  . , O e o.o.e   # 3 O 5 ^ f , $ e D D D D o.f f r . $ a a H O.O.>.D.:.l.l.y   % f y y y D <.,.`._._._.`.,.<.>.F t F F F G y a t t ;.`.`.,.,.<.<.`.`.,.,.,.,.,.<.:.G G O.;.,.<.+XO.= S <.<.,.=.`.`.1.^.:X/.>XE.E.E.*X;Xh J O.F F t a ] D H %.I P Q.I.Q.Q.:X:X;XA.1.=.`.,.F G ;.'.`.`.`.,.:.,.k.,.;.S t G G G G G F &.&.=.`.,.,.<.,.,.,.,.,.=.`.,.&.&.,.,.,.,.,.,.,.,.*.*.:.:.:.O.G F `.`.*.K ;.[ O.O.y t D.+X,.,.,.,.,.,.&.&.<.+XoXO.D O.:.O.e e % O 3 # X ; 1 5 > > 3 X . f >.O.>.G.H.. = >.:.1.,.=.=.=.=.k.,.F G G :.<.O.t y a y O.+X+X+X+X+X+X+X>.G D D a D y D +X+X:.O.;.>.>.1.1.;.:.:.;.;.:.;.;.;.D D a H D O.;.&.&.O.F t F :.&.=.*.=.,.`.,.,.,.'.+X].'.A.O.D f # % p p p a a :.:.<.;.<.,.,.,.:.:.[ y y t y D F [ [ [ O.G G D D G :.k.,.&.*.*.&.[ s S S D D D a y D D y D D D D a D D a a a f a J F 1.].].,.<.%.D D ;.:.;.:.:.:.;.;.;.1.:.<.1.G t F &.1.;.>.:.,.;.;.*.*.&.;.'.[.,.F L '.'..X'.<.<.G F 1.;.[ t y O.:.O.[ ;.D = e :.,.&.[ [ ;.&.*.`.`.`.`.,.'._.`.`.`.`.`.`.`.`.=.=.=.;.,.;.:.*.:.,.F t F <.<.[ S D F F F D ] ] D F 1.*.`.+X].S [ [ :.O.t $ F :.K *.,.,.,.l.D $ e D.G.%.e t :.:.O.J Z.~./.J.;.1.=.:.:.s t D t y y a y y y D G t G y t y y s s S S a y = F <.'.,.].,.].<.:.<.<.&.l.%.. . # $       #   t +X+XG     OX+X].|.l.S D f o   $.OX%.    2 $ & [ :.:.l.+X[ & [ OXA.e & $ H.H.f . 3 6 . D <.<.D D O.O.O.O.O.] D t J >.>.Z.Z.J.Q.Q.I.Q.J.A.D.>.%.>.O.%.f . , f o.r . # 3 o d o.H f f f o.f r   X # o o o ; 3 o o o > + + o o ; o o o + + + > o o o o o o o o o o o o o o o o o o o o ",
"3 O p o.y D y O.'.'.`.l.%.  5 4 . e o.O.a . ; X o , 2 r f f a D D y H a $ $ a f y H a D D G O.$.F D H y e a o.a O.O.O.;.&.=.=.=.,.,.&.S F :.:.,.,.,.1.>.O.y t ;.,.,.F G F G F ;.,.,.,.,.=.,.;.t t O.,.;.t y a r D :.,.;.F [ &.F J P I./.E.E.E.-XJ.y F ].`.K e a D D F O.J J.^.Q.b h J.;X$X1.1.=.k.,.[ S ;.'.`.`.,.:.S D :.:.;.[ ;.<.[.[.'.+X].1.:.,.`.&.F F ;.:.[ F F F G G D D G G F F D D F S G D S D D D t F '.`.,.;.:.t s y y t <.<.;.G F D D [ :.:.D t y = $ D O.:.O.%.^ X ; 3 4 4 ; : ; o ; ; O 3 e $ r p d O $ o.F D &.&.=.=._._.,.=.&.1.:.<.O.t a f y D D D y D D D D y a ] o.] o.D D :.:.G y D H D D D D D a a D D D D o.y D y a y D D D D D D y O.:.;.F S F :.:.F G y G F F H J D y y r y o.o.o.] S ;.;.;.G D D D D S ] D y y s y y y t t y D y y y D D F ] D D F ;.:.O.s D D D a y y D D a a D D a D a a f f f H H D O.O.;.<.;.G G D H H ;.;.[ D D D D ] D F [ ;.:.t G <.+X+XF G F F F ,.].:.G G 1.l.:.S G ;.<.1.O.H H a G F :.[ t y o.O.D D D D a D :.:.&.F [ [ F F F F F F F =.=.=._._._._._.`.`.=.-.-.S D D D D :.:.[ G D :.<.[ t t D F F ] o.F G ;.+X[..X#X].S S S D ] D t >.+X[.`.`.=.S O.D a o.y a r $ = O.;.F [ J I A.1.&.*.&.&.:.[ O.O.O.O.O.O.o.y y ;.<.:.=.,.:.,.:.:.:.:.,.:.<.<.:.F [ D F F [ F &.,.:.t a f X r A.l.k.D.H.f   = +X+X'.+XD.$ = F +X].F O.o..   O.l.%.  . %.D.;.<.:.;.= G ;.l.>.t $ o.A.%.e a 1 X 3 +   F +X>.e $ 2 X X $ $ e f y e e e # % w * * * * 6 r e # # 2 $ r % . $ 3 r 5 X o o O # 1 2 # 1 3 r 6 # o 3 3 ; ; o ; 3 o o o ; o o o o ; o o o # # o ; o o o o o o o o o o + o + o o o o o o o ",
"    e p y y y ;.[.[.`.].%.  #     e H o.p O ; 3 ; X   $ f o.H y D a o.f     r f a D y D D D o.o.D e a ^ f a y t ;.:.O.F G ;.k.`.,.,.&.t G <.].,.,.,.,.<.;.t t ;.l.:.D y y t G <.,.,.,.,.,.,.:.t t O.<.;.= $ r r t l.].;.= t F F D J h ;X:X-X-X<XJ.G = `.[.&.= a o.F F O.J A.J.J.= = J A.1.1.,.=.,.,.[ S ;.,.`.`.`.;.= t [ &.&.&.K '.#X[..X[.].&.1.,.,.&.t t [ :.O.= t t t t y t t G t t t t t t t t t t t S = G ,.`.,.:.<.e e t y t >.<.&.= G t t S <.:.e   . .   a >.>.;.D.o.  $ O O O O O o o : > + + O O o   @ > . a o.S [ G *._._.=.=.=.=.,.,.,.F = t y e y y a y a y y a y y D ] S D D S [ [ G t y y y a a y y y y t t t t y t S t y t y t t t t y y D ;.:.o.e D <.<.F a a a y y a y y a a H a O.O.[ S t ;.;.O.t t t t t t t y y a t t y y y y t y y a t a t t t t t t [ ,.[ t D D D a y D y y y y a y y a a a a a a y y D O.O.[ :.;.t = D F F ;.;.F G t y t S t G G F ;.t = 1.#X+XG t G t G ,.+X&.= = [ <.;.t = G ;.G = $ e a D ;.<.D t t t t t t t D F D 1.1.&.F F F F G D G D S S =._._._._._._.`. X`.=.,.[ t G t t S :.:.[ t G ;.<.[ = t D F D o.o.F G K #X#X.X#X'.t = t = = = $ O.+X+X'.].:.G t y a D       $ = O.:.&.-.K L L *.=.`.*.&.&.F O.O.F ;.&.O.O.t t &.,.=.=.=.=.=.,.,.,.,.,.`.=.].:.t t t t s t G [ >.:.= $ $ . t l.].,.l.D.f   = OX+X].OXOX  . O.fX+X;.>.o.    >.G.>.    %.H.<.<.l.<.  t OXhXD.&   >.H.H.. 2 , ; 3 o   O.oXH.r . o X o o . # o.H r O 2 , ; + X . X X O O . o . o O . . % $ . O , o X 3 # o . . . o . o # o 3 o X o 3 , ; , o o o o o o o o o o o # # # o o o o o o o o o o o o + + o o + o o o o o ",
"y f r r r H G ;.+X].1.:.O.= e y y y a o.e X ; o X , X . f H a a a a f f .   a a a D D D D D D o.H e p p r y O.F 1.,.:.;.:.:.:.:.,.<.1.&.&.,.,.,.`.,.*.:.O.t D O.>.:.D y y y D O.;.;.:.:.;.:.O.D G F ;.O.e = H o.S :.:.[ [ [ D [ J J J J.;X;X;X;XA.L K #X#XD.  r f $ J +X<.<.D.D.F &.<.<.<.1.;.;.,.=.&.&.,.,.`.,.'.1.G F 1.,.,.*.*.'.[.'..X[.'.`.`.'.'.`.,.,.:.:.&.[ &.[ F F [ [ [ [ [ [ [ [ F F F F F F F F F F `.*.'.].].[ [ [ F F >.:.;.&.&.&.F &.,.,.[ [ O.e e a O.O.;.:.F t y y y a D a # X o ; O o , , o > > + o f D F :.-.=._._._._._._._.=.,.&.[ [ O.O.D y a r a p p r f D F ;.[ [ [ F ;.;.[ [ [ D D H a y O.O.F F F F F F [ [ [ [ [ [ [ [ [ [ [ O.O.[ >.H y D O.>.H y a y y a D D y y D D y O.;.[ [ [ ;.;.;.F [ &.[ [ [ [ [ [ F [ [ [ [ O.S y y y t [ O.;.;.&.K &.&.-.,.&.[ ;.G t D y t D O.o.y y a y y a a D O.[ [ [ F ;.&.&.:.;.[ F [ ;.&.&.&.&.F [ [ [ [ F F 1.,.1.1.K '.+X'.K K &.&.K `.'.,.&.&.;.1.;.F F 1.[.`.*.1.O.e ] O.O.O.O.;.;.:.;.t t F ;.&.[.[.1.G K '.].,.&.&.&.&.&.=._._._._._._._._.`.=.=.&.F F F G [ :.<.F t D O.>.O.t t H O.D D D F [ K #X#X.X#X[.`.1.'.1.<.1.1.'.+X#X;.F ;.1.L ;.<.1.;.>.o.  = ;.&.&.&.&.1.1.*.*.*.&.*.;.&.;.[ D ;.[ ;.F [ F &.*.=.=.=.=.=.=.,.,.,.`.`.=.,.:.[ [ ;.O.;.F &.[ O.O.a r a D F ;.F ;.:.l.y   r H.D.D.D.H.. , o.G.G.>.o.o.. e %.H.%.. O ( S.%.%.>.o.$ r Z.>.D y D o.S.%., 4 , ; ; X # f S.Z.r X 3 3 o X O 6 d d 6 # # o , ; , , # , # o # + . + % # o X # o # o o o o o # # # o + + o 3 + # # # # # # # # o o o o o o o o o o o o o o o o o o o o o o o o o o o o o o o o o o o o ",
"O.%.e   . a D ;.<.<.G y D y H O.H O.H o.r O O X ; ; o X ^ o.a r a e $ r $ . y D D G D D D D D ] t   X . . a D.+X,.,.,.<.l.[ G G <.'.<.,.,.<.,.,.=.,.,.,.;.t t y t S y a H y t G D t t t t S D y t t D D t y O.O.[ F S D <.<.S t y = = J J J J J 1.L *.#XlX+X  % .   L +X[.'.].'.*.,.,.,.1.G = ;.`. X`.,.'.<.'.'.,.'.<.<.].'.`.,.1.'.[.[.[.[..X'.[.'.'.[.#X+X`.*.,.,.,.,.,.,.,.,.,.,.,.,.,.,.,.,.,.,.,.,.,.:.,.,.=.*.].+X+X+Xl.l.,.;.;.F [ &.:.,.,.,.,.`.:.l.l.D a a y D [ ;.;.;.>.>.>.>.>.A.p   o , , o o , 3 o > o . f y F ,.=._._._._._._._._.`.,.,.,.,.<.<.:.e a $   . o $ a G F <.<.,.<.,.[.].`.].l.:.O.H t t O.l.,.,.,.,.`.<.,.,.=.=.=.,.,.=.,.,.,.<.;.S y y y y y y y y y y y D D D D D D D D ;.<.,.,.,.<.<.<.,.,.,.,.,.k.<.<.<.<.<.k.k.k.].F t y D G [ :.:.,.=.=.,.,.`.`.,.,.,.F t D S t ;.<.:.D y D a y y D O.<.,.,.,.,.,.,.,.,.:.&.*.,.,.,.,.,.,.,.,.,.:.,.:.,.].+X+X+X'.'.+X[.`.`.].'.'.+X#X[.].'.<.1.1.;.&.'.#X+X[.#XD.= t y t F >.,.,.<.:.t y O.<.`.[.#X`.F &.+X#X[.,.`.`.`.`. X X_._._._._._._.`.=.,.*.;.:.,.:.:.<.,.F t t y D t = t F O.D t y F ;.,.#X#X#X#X#X#X#X#X#X#X#X#X#X#X+XF t D <.].].+X+X#XlXA.. t >.;.&.&.K :.,.*.*.*.*.*.,.1.<.O.t F O.;.;.<.,.,.,.`.`.`.`.,.,.,.,.,.`.`.=.,.:.;.:.<.<.<.<.>.[ D a y t D.+XD.F = F <.>.a     $         4 - - e 2 X X 1 f p $   O X X X         O     . . y A.A.e   O O , o o 3 , X O O X O o # X o 3 o O . O O o # # o , ; , , # # o o o + % o o , , , , , 3 + # # X X . # o # 3 o o O # # # # # # # # o o o o o o o o o o o o o o o o o o o o o o o o o o o o o o o o o o o o ",
"J O.e   $ o.D :.+XD.D y H f f o.O.O.y f r X O ; X X X , ^ ^ f p a e . . .   = G G G G G G D D D t $ r .   y D.,.*.*.*.,.,.K G G ,.].<.,.<.,.,.,.,.`.,.:.&.G G G G G G G G G G D G G G G G G G G D G G G G G G G F S G F <.:.S t D t t L 1.1.1.<.&.*.*.#X%X<.  &   & F +X+X[.+X X&.=.,.,.,.G G =.`._.`.].].1.,.].<.].<.<.'.`.'.,.'.].+X+X+X].].].+X+X'.[.#X[.,.*.1.,.,.,.*.*.*.=.=.=.=.=.=.=.*.*.*.=.=.,.,.,.,.=.*.*.`.+X+X<.<.l.<.1.&.G &.,.'.,.1.1.,.,.,.].<.t D H y D ;.;.;.;.O.O.%.%.%.%.r   .   O # X o o . O . . a t F ,.=.=._._._._._._.=.,.,.,.].`.,.,.;.e a $   # .   a G F :.*.&.*.*.,.=.=.,.,.&.F S = t [ <.,.=.=.=.`.=.*.*.=.=.=.=.=.=.*.=.=.,.&.S G t y G G t G D G D D D D D G G G D G ;.:.:.,.:.1.:.:.,.,.=.=.=.=.`.=.,.,.,.,.,.,.,.G t t S G [ :.;.*.,.,.,.,.,.,.,.,.,.S t S S t &.:.;.G S S S S G G F ;.*.=.,.,.,.,.=.=.=.*.=.=.=.=.,.,.,.,.,.,.,.,.,.,.'.].].+X+X].].].<.'.].<.].+X+X+X+X].<.>.>.<.1.+X+X+X#X#X>.= t t t o.<.,.<.].:.t t O.<.,.[.[.,.G K [.#X[._._.`.`.`.`._._._._._._._._.`.=.=.=.,.,.:.:.<.:.>.O.D t t G G G G F O.D t y O.>.<.+X#X+X#X#X#X$X$X$X+X#X$X+X#X#X[ t D <.+X'.].+X+XOXS.. a >.O.;.;.;.1.1.,.,.=.=.=.,.1.<.;.D o.O.O.;.l.<.'.'.'.,.,.,.,.1.,.,.,.<.,.,.:.:.,.<.<.D.>.A.>.o.a a a y O.>.>.F t O.D.H.y $ 3 5 $ 1 r 1 < , 1 p p u i p d ( r X X , 3 # # # # # 3 3 , #   a H.H.p   X 4 o o o X o 3 3 o X o 6 3 X 3 3 X # o o o # 3 # o o X o o X X X . . O $ . . X X o o o o o . . $ .   $ . O # # , 3 # # # # # # # # o o o o o o o o o o o o o o o o o o o o o o o o o o o o o o o o o o o o ",
"D H e $ $ r = D %.O.e $ r $ e y o.a $ 2 1 < , 5 0 3 , o r 1 e e $ %.%.%.%.O.>.<.<.<.<.:.;.;.:.:.>.>.A.r   D l.&.`.`.`.`.<.,.,.,.,.,.&.F [ F G &.,.,.F F [ ;.:.:.:.:.:.;.;.1.:.<.<.>.;.:.;.;.1.1.:.>.;.1.:.;.;.1.&.:.<.;.F F ;.l.O.y G O.1.&.*.*.*.&.K '.+X;.= H J H J 1.1.,.[.`.*.*.,.*.*.*.,.,.`.=.,.l.O.= = [ ;.[ F F 1.`.,.&.;.F G F F F F F F F G ;.].'.`.'.<.K F ;.1.*.*.=.=.=.*.*.*.*.*.*.*.*.*.*.=.=.*.*.=.*.,.'.].G G O.,.1.;.K ,.+X+X&.G &.,.,.,.<.:.G y y t D O.;.[ O.%.y e r e e H %.f . # f ( d 3 . 5 f r H y F ,.*.=.=._._._._.=.,.G S [ ,.,.,.,.;.D o.a f f 1 . %.;.;.,.,.,.,.*.*.=.=.=.=.*.;.:.;.&.,.,.=.=._._.`.`.=.=.=.=.=.=.=.=.*.=.-.*.&.&.;.F t D ;.;.;.;.;.;.;.;.;.;.;.;.;.;.&.:.:.&.=.;.[ G F &.=.=.=.=._._._._.=._._.=.=.,.&.&.&.[ [ &.&.&.G F F [ [ *.,.=.=.=.-.[ -.&.[ -.,.,.&.&.;.;.;.:.;.;.,.*.*.,.,.=.=.=.=.=.=.=.*.=.,.,.=.*.*.*.*.*.=.=.*.&.F F F F F G F F F F F F F F F F F G F G F F F ;.F L ;.O.>.D.D y D D G &.,.:.t t D F F `.`.*.&.*.].[.'.=._._._._._._._._._.*.*.=.*.*.*.&.&.,.:.F G F F O.D y D [ [ [ ;.O.;.:.[ t y D D F L K K K K F F ;.L F K F K ,.'.F s D F L F F F [ >.H   e r = y O.F F F &.<.=.*.,.,.G S D a a = = G O.F &.&.[ G D F D D D D D F F G D D F D t t y p s s r r r = y O.D D H D y f r . # , , X ; X X X 1 p p 7 < < ; , , , 3 # . # # # # 3 , o o 6 # 2 r r 2 r r O o 3 6 3 o o # # 6 # o o o # 3 o 3 3 , , # o # # 4 , o o X , d f 3 . , f ( 6 O 6 + o # $ $ a o.o.y.y.^ 1 1 X X o # # + + # # # # o o o o o o o o o o o o o o o o o o o o o o o o o o o o o o o o o o o o ",
"o.o.r X . .   r %.o.#   .   . y o.a   X < < 5 p d 6 ; O X . . .   O.D.>.:.:.<.<.].+X+X<.1.;.;.;.>.D.A.e   D XX:.].[.].].].].<.<.].].O.D D D S F l.>.D t F :.<.,.<.,.,.,.,.`.,.,.,.,.,.<.<.1.,.,.<.<.<.1.,.,.,.<.,.<.<.F = t ;.l.O.t t [ ;.&.=.=.,.;.;.<.<.;.F O.;.;.O.L F 1.,.*.*.*.,.<.,.<.k.`. X`.].+XO.  $ O.>.O.G G *.].:.F :.S = = e t y D D t t ;.+X+X[.+X].G = ;.<.1.,.,.,.,.,.,.,.,.,.,.,.,.,.,.,.,.,.,.=.=.=.,.,.t t D ,.,.<.1.+XkXkX;.= F ,.`.`.k.:.D D D y D O.:.$.$.y.e   .     a A.o.    f o.( 3   d o.f H t F 1.1.=.=._._._._.=.,.t t F ,.`.,.`.,.[ O.o.%.f $ $ >.l.:.l.k.k.k.*.=.=.=.=.=.*.,.,.,.,.=.=.=.=.=.=.=.=.*.*.*.*.=.=.,.=.=.,.*.&.&.;.>.O.t D :.<.1.,.<.,.:.:.,.,.:.,.:.,.,.,.,.*.,.:.[ t G *.,.=._._._._._._._._._._._._.=.:.:.:.,.&.G [ G t y t S *.=.=.=.=.=.,.k.k.k.=.=.=.=.,.,.,.,.,.,.,.`.,.,.,.=.,.,.,.,.=.,.,.,.,.<.,.,.,.,.,.,.,.,.,.:.F G y y D y y D G G G G t G G t t t t t t t e t t = = = G <.l.S t y t = &.,.:.t y a y t 1.`.<.<.<.<.,.*._._._._._.`._.`.`.`.*.&.1.;.:.1.1.:.<.<.F t y y D y t F :.<.<.>.:.;.:.O.D D H y y t t t t G y y t t t t = F <.D.D a y y t t G G t y e   $     r H D D t F <.,.,.,.&.t t y f f     t O.] O.O.O.t y y y t y t t t y y a y a p $     O O X 2 $ $   $ y D y a e . $ $   X X 4 : > > > : 1 i u 1 < 4 ; , ; X o + # # o o o X X # 3 o 3 # # X # d d X o X X o , 3 o o o X o 3 # o o 3 o o , , o X # , 4 , O X X r o.Z.3   3 %.Z.r O + 3 o X   . a >.%.H.H.o.e 1 # # 6 # + + + + # # # o o o o o o o o o o o o o o o o o o o o o o o o o o o o o o o o o o o o ",
"y f r # , 5 # p o.( 6 o 6 3 $ y H a $ # < , , 5 p 4 X O r r r e = O.O.F [ ;.<.<.1.<.<.1.;.;.;.;.O.O.%.e . a l.:.:.<.<.<.<.>.1.:.:.>.O.y a o.] [ >.$.] D o.>.>.:.:.;.,.=.*.`.,.,.,.,.&.;.:.;.1.<.;.:.,.*.,.`.:.;.,.<.<.:.F F ,.<.O.t t O.:.;.=.,.;.:.:.F G D F F F ;.O.t t :.'.=.*.,.:.:.>.:.:.:.:.:.:.>.o.$ 2 o.%.O.O.[ *.,.;.[ :.D t y y y a H D y t ;.].<.<.].,.G F ;.;.;.;.&.&.&.&.&.&.;.;.;.;.;.;.;.;.&.;.&.:.,.,.,.:.S y D <.:.;.F <.OX@XO.t [ ,.,.,.,.:.D a a a f o.o.O.o.@.p X 6 r e y o.H = e r r d 6 . r f d H a F >.;.=.=.=._._.=.=.,.G t [ k.,.,.,.&.D H a f p 1 1 o.%.O.:.$.$.[ [ `.,.=._.=.=.,.,.=.,.=.=._.`.,.&.&.&.=.=.=.,.,.&.&.:.;.:.;.[ ;.O.;.F t G :.<.;.&.&.;.&.;.,.=.*.=.=.=.*.*.=.*.:.:.F t G :.,.=._.=._._._.=.=._.=.=.=.=.=.&.:.&.;.[ F F %.I g t S -.-.-.-.-.&.-.[ [ -.-.-.-.-.-.&.&.&.&.&.;.;.;.:.,.,.&.F &.,.;.&.&.&.;.;.O.[ ;.&.&.:.,.*.,.:.[ S D a a a y D F F F F F F F F [ F D D ] ] ] D t y O.F F ,.<.F D D D G &.<.:.t y a a G 1.`.1.;.1.1.1.,.=._._._._._._._. X,.&.&.;.O.;.;.;.;.;.;.F D D D D D y D O.;.O.O.;.;.;.O.D a D y D y D D D D y r H H D D y H A.>.H D D D D D G G D D a e r .   e J H H y F :.;.:.<.;.S O.H a f $   r %.a D o.o.a p f f a D D a a f a a p f d 5 O , r r p a a H H y y H H a y a y s p r O , ; > ; ; - 1 i p 9 9 5 X ; 4 3 o o o o # 3 3 , ; 3 3 o o o 3 , # 5 5 o 5 3 o o o o o # # 3 3 3 o o o # 3 , , , o # , , o ; O , , # r f r o # f f 6 o 3 . . 5 e e H %.] %.%.^ r 5 o X o + + + + + + # # o o o o o o o o o o o o o o o o o o o o o o o o o o o o o o o o o o o o ",
"  . # X o 4 X X   O O O r f a a a a X , o X X # , # O # f f f a y H D D D t y t t t t t t t t G G G H $   # s e t t t t t t G D s D e . $ a D D S D y y y y t t t t &.,.=.,.,.,.].[ = e t e F :.,.=.,.=.,.,.F = G D F ;.,.,.,.<.;.t s O.:.;.*.=.:.:.O.&   t O.;.<.D.%.    ;.l.<.,.<.D = e e = e e e e e 5 X o , . y :.:.:.,.&.[ ;.[ D H a a a a a D t G G t G G S ;.>.F t G D t y y D D D S S G t G G S S S S S :.,.:.,.:.S D D D y $   = H J = G O.,.,.:.&.O.r f p 6 # . O . X < X O p o.f y y D a o.r . . . o O o . a y y D G :.=.=.=.=.=.,.:.G t F <.,.,.<.O.  $   . X ; O O         .   $ O.,.=.,.,.,.,.,.=.=.=.=.,.,.:.F G F <.,.,.k.:.S t S t G t t D y D D t F >.>.F G G S G F :.:.;.,.,.=.=.=.,.:.,.>.[ t G :.,.=._._._._.=.=.=.=.=.=.=.=.*.&.&.S G S D f J.^.Z.y t y y s y s s s s u s r r t t S S S S G G G t G O.:.;.G G F :.;.S G S F D t t D D S &.:.&.:.:.F S D D D D y D >.<.<.<.<.<.<.<.+X].].l.:.<.<.O.S F D.<.<.,.].,.:.:.>.;.:.<.:.t a a a D 1.`.F = t t t G ,.,._._._._._._.,.;.S G G G G G G G S G y y a D D D y y D S S D t G G G t y y D y y D a a a # . r f a a r $ .   a a a a D D D D D D D f H $ $ r H y D t y G G &.<.<.O.>.a . ,   O + r $ X . X X X r f a a a a a p $ X , , 3 X O p %.o.O.O.O.D.OX>.t G D D O.H.D.oXiXj.. 2 , , , 0 < 9 p p 1 < < < - O ; 3 ; ; 3 o X o 4 , X o 3 > o o # # # , , O o # 3 # o o # , # X X o # o o o o o o X X # # o 3 o r p $ . . $ .       $ o o o X p o.a a a $   . . . o o 3 3 # # + + + + # # o o o o o o o o o o o o o o o o o o o o o o o o o o o o o o o o o o o o ",
"X X 4 o o o o o + 3 3 . 5 f D D D a X # X X X .   . . $ f f a D H H D D D y H D D D D D H H D D D D f $ . r f a y a a a y y D D D o.e   $ a D s t s y y a a y y t S ,.`.,.,.:.,.l.[ e a f r F :.,.*.=.*.,.<.[ = t F S K `.`.,.,.[ = t [ &.;.*.=.&.:.%.$ $ a o.>.>.D.%.  . H.oXl.l.l.o.y f p e p p p r p 5 X X X   a <.:.;.,.:.:.:.O.O.H a a a y y D y D D D H D F <.l.O.D y a H a a a D y y t t t t G G G G S S l.,.:.,.;.t D ] ] o.r . f o.O.D = F <.k.&.S D e r $ $ #     . . O X . r f a D D D D o.r   o o + 3 o . f o.H D G :.,.,.,.=.,.,.<.y t O.l.<.<.l.O.  6 3 3 > 4 X 3 # % 3 o 6 X e >.<.,.,.,.,.,.,.,.,.,.,.:.<.<.O.t F <.<.:.l.>.D D y y D D a D y a D y D >.D.F t D G t [ <.<.:.:.:.,.:.:.<.:.:.>.O.t D >.<.=.,.=.=.=.=.,.,.,.,.,.,.,.,.;.:.F F D y g P Q.V y t h * * * % $ u e % @ @ @ r y a s a a D D D a D %.>.>.D G O.<.>.D G D O.o.y y a D F :.<.;.:.:.F S D y y D y F >.<.<.<.,.,.1.<.<.<.<.<.:.<.l.O.= F +X<.'.'.].,.<.:.:.:.:.<.:.t a a y D 1.'.[ t D D t [ l.].`.`.,.`.`.,.l.:.D G D D D D G D D D D D D D D D D D o.o.D D D D D D D D D y y D a y a a # . d o.a a f e $   y f H a y D G D D G D H o.$   r H a D y D D t ;.<.D.>.A.f   # o # o 9 5 5 , 3 5 O p ^ f a a f f ( , X , > > ; # $ O.F G G F D.oX;.D D D H O.l.l.j.iXS.. , , , , - X 2 p p 5 < 1 X - , X X ; , o 3 3 o o , , ; X > > 3 ; o o o , # # # o o # # o o o # 3 3 # o # # # , # . . X X o # O 5 d # . .   o #     # # o # . r o.f f o.r   . . # , o # o # # + + + + # # o o o o o o o o o o o o o o o o o o o o o o o o o o o o o o o o o o o o ",
"4 4 , X , 5 r , # # o O 5 a y y D y # X , . X f a r X $ y a t t t D D y D D D D D D D D a a D D G D H $   r f y a y a D a D D D D a a y y >.>.;.:.:.:.>.%.t a o.o.D <.].:.G F <.l.o.$ 3 6 . y <.,.*.,.*.1.,.[ t S l.,.,.`.`.,.,.:.;.;.,.:.,.=.=.-.[ %.. X r r r a f p . X ^ %.O.O.O.y $ 5 5 5 p 0 p p 1 p ^ ^ p $ D :.:.F F [ [ [ F F D a a D D D D y y y y y y D O.O.D y a D a a a H y y F :.;.;.;.;.;.;.;.;.;.[ G &.,.:.:.>.] a o.r   y H S :.:.1.,.,.*.&.;.;.;.O.F H D a a a a a a a y D D D y D H r . # + + + . # r r r H D O.S [ :.,.&.D O.y y D O.O.[ O.H . + o o > ; ; , # # o 3 ; X 2 >.,.,.,.:.F G F [ [ [ [ [ [ F D D D F [ F F F D y y a y a H D y D y y D O.O.D y D y D D H F F F F F F F F F D D H y D O.S &.,.&.*.,.&.F F [ [ F F [ [ F [ D ] a a h P Q.P h h ^.~.~.~.;XI & % ^.~.!.P J.r a a t D s D D D a H O.F D D D O.O.D y D D D a p a D D [ F &.,.,.[ t y D D D D G F F F F F F F F F F F F F F J D D D F O.F [ [ &.:.;.F G F [ D y a y y G 1.<.[ t y D y D O.O.[ F [ ,.k.&.[ [ D D D D D D D D D D D D D D D t y H p e a D D y y y y y D D y y a y H a $ , r e u e $ 1 r a $ $ e H D D D t D D D H H $   r H a D D D D S F O.O.y f r # # o o X 3 , ; , , , # r p r r r r r r , X 4 > o #   e >.;.;.<.<.].oXO.. r r r r a a ] @.f X o 6 , # ^ o.a 2 r i u 1 i u r p 5 , , 3 , o o X o # o o 3 o o # o o o + o o o o o o o o o o o o o o o o # # . r f d # # o X o 3 # r f f r   # f f 6 . % o # r p r r 5 5 r f 1 O # 3 o # # # o o o o o o o o o o o o o o o o o o o o o o o o o o o o o o o o o o o o o o o o o o ",
"5 5 < , 5 p p r X # o o r a a a H a # . # X # f o.p $ $ r a y y e D D D H y y y D D D D a a H H D H f #   r f a a y a D a D D D D D D D H D.D.<.<.<.>.>.>.t D O.O.[ k.,.[ t S :.l.D     .   y <.,.=.,.,.<.<.;.G F l.,.=._.`.,.`.,.,.,.`.=.=.=.,.,.>.H.X O X         X O X p a t = y $ . ; 4 6 9 5 5 1 1 a o.o.E e O.<.>.G t a a D D D H a a y y D D D D y y y a t t t t y y y y y y D G G [ ,.<.<.<.<.<.<.<.<.>.G G &.,.,.<.D.>.a o.1   r D S l.].].`.`.,.,.<.>.<.1.;.O.F D D H H D D D D D y y y a f e   . . O # X O X . 2 f H y t F <.<.F t t D y y G G t D e O 3 > + > o ; < X X X > ; X e l.l.,.<.:.F y y y y y y D D y y t y D G t y D y a D y a o.O.H y y a y a D a a a y D D D D D D G G G y y D y y y y y y y t F ,.*.:.,.F G t G G G G G G t s t D y r g J.Q.P h b :X(.E.E.<XP & * /././.I.Q.* h h = = D D y a y y G G y y D G y t t t t y r r a a y D G [ :.<.[ t D D y D G G G G t t t t y y y t t t t G y y y y y G t t G ;.<.O.S t t D D t a a a D <.l.O.y a a a D y y s S F >.l.O.D D y a D D D H H D D H H D a D s D o.f $ . r H a y y D a D D D D a H y a a $ . 1 1 1 X . e f o.r . $ f H a D D D H D o.H $   r o.D H a a D D D y t   $ . O o ; , o , X O X o < X 5 r 6 5 5 # # ; ; X # O . $ . e <.D.<.`.,.].].O.  $ .     O . O O O O o O O $ O.$.s   $ 1 p p i p p p 5 , X . # o o o # # # # 3 o o 3 3 + o o o o o o o o o o o o o o o o o o o # . f @.( # O 3 X X O O 5 f ^ d . r o.o.r O O # o . . . O # 6 ^ o.p . # , X o o o o o o o o o o o o o o o o o o o o o o o o o o o o o o o o o o o o o o o o o o o o o ",
", < , # , r r r o # o o 6 p a p a p , X , # , f ^ p # 2 d f p a r a f f f y H D y D H a y a f f f a p 5 , r a a y a a a D D D D y y D D D >.>.;.>.:.:.>.:.S D D [ [ k.,.&.G F :.:.[ e e e = F ,.<.,.&.&.,.,.F F F <.`. X`.`.,.,. Xk.=.=.*.=.=.,.;.D %.# X 3 e e r r r e e p y t t a e $ 2 , < 5 5 r e e a o.o.a y o.;.O.D y a a D y a f f a a H a D D D y y D F D y y D F F F F F F F F G &.,.<.,.:.;.:.:.>.>.>.G G &.<.<.O.%.o.r p r $ y D S :.<.<.1.:.;.:.>.O.J O.O.F D D D D D D D D D D y y y a f r $ e e 5 , X o # # r ( f D D [ >.>.[ y a D D y D G D D y O 3 3 > > o o 5 5 1 X ; ; X e >.>.;.:.O.D D D a a y y D D D D y D D D y y D y a D a a H H a D a a r y D a D H D D D D D D D D D D D D D a y y y f a D t F ,.;.;.;.F G D D D D D D D D D D o.a y g Q.I.Z A A R.E.E.E.(.K.j k /.(.T.U.U.l A A I I J D D D H f D y D D D y y D D D a a y y a D D D G F ;.;.F y D D D D D D D D D D a D D D D D D D a a a a a D D y D y G O.>.O.G D D D H r a y y y %.>.o.a a a a a f a a a o.>.>.o.a f f a a H H a a a a a f a a H D D a f , . r H D D y a D a D a H a a a f a $ X 5 p p 2 X r f f 6 . , f f a p p f f f f f 1 X r f a a y y D D D H y   $ # o 3 , , # # X # 5 , , # 5 r 6 5 6 , , > 3 X 2 r e e e y O.O.:.,.,.'.<.F   $ 3 3 5 , < 4 X 3 6 # r s e ;.:.[ e p r 0 9 5 p p r e r e X o o o # # # # # # o o , + + + + o o o o o o o o o o o o o o o o o # . r f f # o o X o # 3 r f ( r X r f f r # # 3 # o o o o + 6 f f r . # 3 o # o o + + o o o o o o o o o o o o o o o o o o o o o o o o o o o o o o o o o o o o o o o o ",
", # # X X # # # # # o X # , 2 2 2 , o X , X X , X X X X , # X # X X . . . . t D D D a r $ $ # X , X # 5 r r 2 $ a a a a D D D D D D D G G D F D y G D D O.$.>.[ S S ,.,.,.;.,.,.k.<.>.>.<.:.<.].,.F t G ,.].:.1.1.`.`.`.`.,.&.[ &.,.=.=.=.,.,.<.D   $ X X p o.D %.%.o.o.D D D D H o.H ^ ^ 5 1 p r a p e y y y y y y y y y a a a a e X X . $ r H a D D D y D O.>.O.D D O.<.:.1.1.1.:.1.1.1.1.,.<.G G G G G G D y D t O.<.[ $   . # # d f f D S F G G G G t D y = = t D D y D D y y y G D y y y y a a H a a f f ^ r # o # . o #   a y D G D D y y y y y D D D D p O ; 3 + + o # r ^ p , : ; X $ D D D D D D D H H D D D D D D D D a D D D D H a f a H a e . e o.o.r . e H H a D D D D D D D D D D D D D H a y a a y y y t t G t G y y y y y y y y D a t a a H e $ % P I.I.I.I.(.E.E.E.>X(.!.T.(.E.E.E.(.T.~.!.^.^.g y y D a a D D D D D D a a a a D D y t a D D D D D D D D a D a a y D D D y D D D D D D D D D D D D a a D D D D a y G G G G t y y a p $ $ . . . . . O . X # # # . X X . . $ X . . # $   = f f e $ 2 $ $ $ $ $ a o.e . , , X e a D D y y a a D D a $ $ y o.a $ . 2 1 9 , X X $ . X O # # $ X $ X X X . X # O O , # $ $ $ e a H D o.a . # + > > o , o X # r f r 5 X 5 5 5 5 5 1 2 0 3 . a >.>.>.>.o.= $ F <.,.`.'.>.e a ^ ^ f # , o , , . . %.H.:.,.<.:.>.>.r X X - , 2 X e f f r O o X # # X # o o # # o o O X 3 o o o o o o o o o o o o o o o o # # O # # # O + o o o o O O O O X O X . O o o o o # + 3 % # o # X 2 X O o 3 o + o o + o o o # # o o o o o o o o o o o o o o o o o o o o o o o o o o o o o o o o o o o o ",
", , # X X # # o o 3 o o o X X X X # , ; 3 ; . X # 4 3 # # X X 3 ; , # # . $ a o.o.o.f r o X o X o O O 5 p 1 X . f f f a D D a D D D D D H D H o.o.o.o.a O.>.:.F S G ,.,.,.1.,.=.=.,.:.,.<.,.,.,.<.[ t D <.l.>.<.<.].`._.,.].:.:.>.l.k.k.,.k.:.H.o.  . # O r H D O.O.O.H F D D D G D a ^ ^ e 2 r p a a y y y y y a a y t y a a a a 1 X O . . e H a D D D y D O.>.O.D D ;.<.<.1.<.<.,.<.<.<.<.<.<.D D y y y D D y a y O.D.%.$ $ 5 # . a o.a D D D D D D D a D a $ . r D D D D D y D a D y a a a y D y D a D H D H r X O 3 > 3 3 O a D D y G D D D y D a a H H f p X , 3 o + o X p o.a , , , # $ a D D y D y a a a a a a y y y a a a y a y a H f f f o.o.2   r %.%.r O 1 o.o.a f H H H D H H H f f H D H H a a a f f f H a a a y a a a a a a a a o.] D a a a o.s 3 @ C P.P.P.P.R.E.E.E.E.E.(.E.E.E.E.E.R.R././.~.^.b y D D D D D D D D a a H H H H o.o.y t a D D D D D t y a H o.H D D o.] D D D y D D D D y y y a a a y y y y y D y D D D G D D D D H f X o o o # # # 3 3 o o o . 3 ; 3 , o X X X # 6 # . 6 ( f 1 $ 1 5 , 3 # 5 f ^ e O X o X r o.y D D y a a a D a . . f o.a $ . X 2 2 X O O $ . X X X . O O # X , , ; o , , ; 3 O . X . 2 f H f o.a . o . o o > + o o # r f r 5 # , 5 5 5 5 2 , , $   t >.>.1.>.%.$ $ O.<.,.,.].;.t y a a a X 3 o o $ . $ D >.O.<.<.>.l.S.e X 3 X ; X X e ^ o.d O o o # # . # o o , , X X X O X o o o o o o o o o o o o o o o o o 3 o # O X O , ; ; > 3 o # % + o , 3 # o # 3 # o o o # # o o o O X o o 3 3 o o o o o o o o # # o o o o o o o o o o o o o o o o o o o o o o o o o o o o o o o o o o o o ",
", , , # # # , o o + o + o o ; 4 5 1 , ; , , , , ; , ; o ; o o ; 3 , X e p r r e r r r 5 , , 4 4 6 > ; 5 p 5 p p r r r a D a a a y y D D H r r r d r a e o.>.:.;.[ &.`.,.*.&.=.=.=.=.,.,.,.,.,.:.:.[ y D D D F O.[ <.`.`. Xl.] ] o.$.[ ;.>.>.a o.r $ 6 , X r a D F F F D D D D D D o.a r r p a a r r r r y y y a a a y y a a a a o.a p d d p a H a a D D y y D H o.D y F O.[ F F F F F [ [ [ [ O.D a a a a D D D D D H O.o.$ # # # $ y D a D D D D D D a a ] ^ $ $ p H D D D D a D D D D a a y y D y D y D D y f r . O > o o o . a D D D D y y y y H y e r r p r , , 3 o + # . p a a 2 , , X $ H H D D D D D D D a a a a a a D D D a D a H f r r r p p 5 X r E p 5 ; 5 p p p a a a a a p p p a a a a a a a a a a p p p p p p p p a a p p p p p p s s s a p ^ u , w Q.P.P.P.P.T.T.W.E.E.W.E.W.W.E.W.E.R.U.K.I.P P g a D D D D D D D H a e r p p p o.D y t a H D D D D a a a r r r e y D D D D D y D D D D D D D D a a D D D y y D y y D D D D y y a a f $ o + + > 3 + > > > + % 3 3 > ; > , , , o o o . o % r r 5 # , , 3 4 o , r r 5 , < , ; r p e a D a D D a a f r p f r r p r a p s a a a a ^ 5 # , d f r # , ; , , , # + o o 3 # % o , r r r f p # + + > > 3 o o o X , 1 , r 5 5 5 5 r 5 1 1 , a y y O.F O.>.%.= = O.<.;.;.;.O.t y a a a O 4 + O r $.$.F D D D D D O.o.1 X 3 X , # X # r p 5 X 4 , 5 , . # o o 3 o o 5 p 5 X o o o o o o o o o o o o o o o o o 3 o # o , X , ; ; + + o o o o o X X o o o X X , , # # # # , # # # # + + + o o o o o o o o # # o o o o o o o o o o o o o o o o o o o o o o o o o o o o o o o o o o o o ",
"; ; , ; ; ; , , ; , # , # o , 5 5 < : ; X X o o X o ; ; , , , o 3 X . e H f r   . O O O X X o o > o X 1 e 1 p f # . = a a y D a H D D a a $ . O O   .   a >.,.,.:.:.`.`.,.&.,.,.,.,.`.,.,.,.,.,.:.[ y y $   = e t <.`.`.k.:.e . . = e S >.O.. O . O , X X p a D D F D D D D D H H H e . $ r f a e s r y y y s a y s r r a a y y a y a f f a D D D y a a y y y D y t t y D D y S y y y y y y y y D a a a a D D y y D y D H $ , + o $ a D a D a D D y y D y D a $ $ r a a y D y y y y a a y D D D D D D y D D a H r . # 3 o + X O a D D D D G D D y H e .   O X O , ; 3 X + # . a a a , < , X $ D D D D D D D D D y a a a a y y D D y D a H a $ . O O X - - - - O : : - - - 2 2 2 2 2 2 2 2 1 1 1 1 1 1 1 1 2 1 7 9 7 1 7 u u u 7 u u u i i i u u u i u i i E 7 , @ P L.P.U.P.U.P.T.E.E.E.E.E.E.E.E.E./.Z * &     y y D D y D D y y D e   .     X r r e = y D D D D a a a r   . .   e y y t t y y D y y y y y y y a y a D D y y y D D a D D D D D D H f $ o > + ; o o X X o o X # , ; : ; , , X X , o o o O . . . X X ; , , o X # . . X ; ; X X   $ a H a D D a a a a ^ r   $ f H D D D o.O.o.o.o.e . # o.o.6 . o O O X o o # # o o X o X X o X $ 2 2 O # o 3 o ; ; ; , X X X X r r 5 1 1 r 5 + , $ f H D D D [ $.o.$ e o.:.O.D a y y a a D a . 6 3   a G.oXO.y y   $ e s a $ O O X X o X O O X X ; 5 5 5 5 X # o X ; X ; d ^ p , # o o o o o o o o o o o o o o o o 3 X o X 3 o ; ; ; ; 3 3 + o o 3 o X + 3 # # , # o # o o o o o # # # # o o # # # # # o o o o o o o o o o o o o o o o o o o o o o o o o o o o o o o o o o o o o o o o o ",
"; , , , , ; ; , ; , , , # X ; 5 r 1 2 1 , # # o , , o o o X X # # # $ e H H r $ e # 2 5 5 5 , # o o X 1 r e p p , . e H D y D a D y D D H $ $ , 5 6 %   D l.,.&.:.;.,.,.,.;.>.<.,.,.].<.,.:.:.<.:.[ D a $ $ a y D <.,.=.k.l.y 2 a H D o.>.o.$ p r X , X X p H D o.o.H o.O.D D o.%.o.r $ e a f y y y a a a s a D ] a t e y a y D G G D D D D D S D y y D D D D D y D D D D D D D D D D D D D D D a a D D a D D D D D y H o.$ # 3 3 . a ] t D H y a y D D y a f $ $ y H a a D D y D D D D D D D D D D D y D D y H y $ # o X 3 ; O a H a y D D D y a o.r # o 3 4 3 , o # O # # . a f f # , 3 , $ a D D D D H a a a f f H H a y y y D y y y f f 1 X 1 < < < 8 7 8 8 8 7 i i u u u u u i i i i p i u i i i i i i i Y i i T R T i T T i T T T T T R R Y E E E R E u 5 6 ' Q.I.U.P.U.P.T.(.(.E.E.E.E.E.E.R.~.P * h y y D D D G G D D D D ] r $ r e e H o.F y t D F D D D D a f r O # 6 . f O.O.F D F F D D D D D D D a D a a D D D a D y y D a a a f a f H f $ X o X X X 2 , # 2 2 # # X ; ; ; , , , 2 X X # # # # # $ X X < < X X # # # # X , 1 , , 1 $ f f a a a a a a a f r . e ^ a a D D D H H a f e . $ f f # . , r r r 3 # # # X 3 o 3 + o o # 5 r r o # o , o ; ; , , o , , , d p 5 1 r r 5 % # $ a H H D D ] >.o.2 e o.%.O.f f y D H D D a   3 %   p >.$.D D y $ r a a f 2 $ , 3 # $ 2 , o ; ; , 5 5 r 1 $ # . X , X X p ( p X o o o o ; ; ; o o o o o o # # # O o X + o 3 o o ; ; o X + + + + X 3 + o o o # # # # o o o o + o # o o # o o o # # # # o o o o o o o o o o o o o o o o o o o o o o o o o o o o o o o o o o o o o o o o o ",
"; o ; ; ; ; ; ; o , o o # , o o . # a ^ r   # ( f p O o # O r ^ f f a f a D H D D H o.H o.@.X # o o X X X X 5 3 6 , r f D y D D D D D H H a a H f %.r   a <.:.*.:.:.,.<.] . e a = [ +X].D & = [ $.] a a a D D y G <.,.,.,.k.] r O.D.H.H   y H.H.A.e r # . r o.a $   r o.H e   X #   f o.H a D D D D D H y . $ H O.] ] O.O.;.>.<.1.1.>.;.>.<.;.t G ;.;.;.:.;.:.%.%.a y D y D D D D D D D D D a a D D D D y D a a a H $   . # , , , . a D D D y y y D o.%.a . $ o.H D a a y D D G y a a a D D D D D a a y D D D D H H f # O , X ; # . e D D y D a $ $ # 3 o o # # # # f o.f p a r . # 3 3 3 X $ a D D D H $ $ $ , 2 $ e H a y y y D y y a f f 2 X u / / ! ! ! Q W s.s.s.+.+.s.+.0.9.+.9.s.@.+.+.+.+.#.+.#.+.+.+.+.9.+.+.+.9.9.9.+.+.+.{ +./ +.+.{ { 9.9.+.+./ / / ^ 6 & V !.P.P.P.U.K.K.T.(.R.U.P.U.U.I.J.A.A.D.<.,.,.:.:.:.,.1.:.k.l.O.D %.>.<.+X#X#X].,.<.<.<.].D.>.  3 , 3 , 3   %.+X].'.'.[.#X@XO.D D D D D a D a a y y D y a D y D D H a . # X # # X , , , , ^ o.H H a H o.f O , ; O p @.S.a   $ H H f a f a f a f f 1   , o.f a a a a f f f f $ . $ $ X , # $ f d X X # $ 2 X X $ $ X # , $ f %.f . $ r p r o.H J o.H $ o , # O d ( r # , , # # # o o # o X o , # o , ; ; ; o 3 r r r , r f a D H D D D y e r # $ f %.o.$ . r H y y H y . $ r r f o.o.D D D a o.a $ e r 2 a o.H o.o.f X o X d f r f a a f 2 O 5 ^ ^ 5 1 1 X , > > ; 3 6 4 X # o + + . . r o.f . o 3 3 3 + o o # o o o o o 3 o o o o o o o # o o o o o o o o o o o o o o o # # # o o o o o o # # o o o o o o o o o o o o o o o o o o o o o o o o o o o o o o o o o o ",
"o o o o o o o o o , o o o o o # . $ a a $   6 f ^ d o o # . p o.H H f H H H H D D D D D H f X # o o X X X , 9 6 , . e a D y D D D D H H H o.o.H f f %   a D.k.l.l.<.<.<.o.X p ( $ $.iXOXH   e $.] D y f a a a y D D.].,.,.<.D y O.>.A.a   y H.H.>.= r $ O p o.o.X X a o.o.r   X .   r a D D D D y D D H r   . D O.] F [ O.;.<.<.<.<.<.<.<.<.;.G D ;.;.;.:.;.:.O.O.D D D D D D D a a D D D D D D a D D D D D H H H o.r X o # , , # $ a D D D D D D D o.%.y . $ a D D y a D D D G a a a y D D D D D D D D D D D D D H H $ . , X X 3 . e a a a D f $ # # 3 o X # # $ $ r f a a f r o o + + # . $ f D D H f $ .   O . . 2 f a f f a D a H f o.^ 1 X 7 E ! ~ ! ~ ! ~ 8.9.y.y.y.y.0.e.q.0.r.r.r.r.r.r.r.r.r.r.r.r.r.r.0.0.9.0.r.r.r.9.8.0.+.s.+.s.s.9.9.0.9.{ { { Q / +.p @ ' ^.I.U.I.I.Z L.~././.U.I.I.I.J.Z.%.1.1.;.,.:.:.:.:.:.1.1.`.,.[ G F 1.1.+X#X#X'.,.`.,.`.,.+XA.  3 o ; o #   %.@X+X[.[.+X#XlXO.a H o.%.o.D a H H D D D D D y y D D H a . o   O . O O O O . a D D D D D H a   O X O r o.%.a   $ f H H f H a H f f f r . , f f D D a a f f ^ f 2 . . . . # X . p r . . O O O , X o , o # o O o.%.f $ X r f f H H H H H $ X X . . d ( d , , # # # o o o # # # # . . O X ; > ; o , 6 1 5 $ y H a D D D D o.a r r # # f %.o.# $ r H H f o.y . . d f f f f H D a a f p 2 5 6 , a H D a f f X 4 , ( ^ f f f a ^ r   p @.@.p < , X O O X X , 1 1 X o X + + . . r ^ f # . o o + o o o # o o o o ; 3 o o o o o o o o o o o o o o o o o o o o o o o o o o o o o o o o # # o o o o o o o o o o o o o o o o o o o o o o o o o o o o o o o o o o ",
"o o o o o o o o # # o o o X o 3 $ e a D $ . 3 r r 6 o + , . 5 p r r r r r r a D D D D D H ^ X o X o o # # , 5 # r r y D D D D H r r r r r a r r r r % . r o.] D H D O.%.f X 0 0 1 o.>.%.f . e O.$.a r f p r r r r o.O.;.l.<.D t F O.%.D = y %.%.%.y a . X 5 r r , 5 r a f 5 X 5 p e y D D D D S D D y r a y t o.O.O.O.F [ F O.O.L O.O.O.O.O.H y y O.O.O.O.O.O.O.O.D D D y D a a a a D D D D D D a D D D D y e r r p 5 X 3 3 , , $ $ a D D D D D y G D D y = e D D D D D D D D D D D D D D D D D D D D D D D D D D H f 1 . , o o o . 2 a y y a a X # # o , X X 1 a r r e 2 r r 5 # o + o o . 2 o.D D D D y r r r r r f o.r r p r r p p r p p 1 2 R +.+.| | | { { { +.+.E E / { +.{ Q { { { { { { { { { { { { { { { { { { +.{ { { | { Q +.E ! / ! / 9.8.Q Q { ! W ! 7 ; g V M V V v b v P Q.P V V V v b Z.O.O.;.&.&.&.&.;.*.&.&.*.`.,.;.[ 1.,.1.'.+X[.'.,.,.,.,.&.:.%.  3 ; > 3 3   f >.%.;.;.>.A.A.H a f f f y r p p r a H D D y D D D D H a . . r r r r r r r r a D D D D D H a r p 5 . r o.%.a   # d r p p p r r r r r 1 X , p r r r r r r r r p 2 . 2 r r r p r o.a e r p r p 1 X X # o o X O d f r # # 5 p p a r a H f e r , . o 5 p 5 # # # 3 # o o o o # # # 1 r r , X ; , X 5 p r r e y D D D D D D o.p 1 6 # O r d p o # r r r r y r r r r r r r r r r r r r 5 # 3 , $ p f a y y r . # o p p r r r r r , X 5 R d 5 , < p r r p p u p u 2 1 # o # o # 5 d 6 . o + o # + # o o o + + o o 3 o o o o o o o o o o o o o o o o o o o o o o o o o o o o o o o o # # o o o o o o o o o o o o o o o o o o o o o o o o o o o o o o o o o o ",
"o o o o o o o o # # o # , o 3 6 p p ] o.e . o . o + o > , X X X . . . .   . r H H D D D o.o.$ X o o o o o . X   H H J H H H H a .       . . $ . O o . O O . .   . . y H r O , X   . . $ X . e ] %.e . .     . . O .   D oXl.D t y y D y y D o.o.D y p   O o . . X X .   . O O p %.a H D F D F D o.a $   a %.o.o.D O.O.F D t t t G y y y y y D D y H D D D y y a D D D D D D D H f H H H D D D D D D D H a e $ X X ; X X o ; # X $ $ a D D y H D D D D D D a H H D H D D a y y D D D D D D D H H D D D D D D D D H o.H 1 . # o o o . r f f f f f $ # # o 3 # . r %.o.r . . $ X . # o + + # X 1 o.D D D D f H H f f f o.f     O O   O O . X - 7 i ! 9.9.2.2.2.8.q.| +.E - X u E ~ W W W ! ! ~ W ! ! ! ! ! ! ! ! ! W ! ! ! ! ~ ~ W ~ ~ Y ! i i i u u E W ~ ! W Y u R 7 7 , @ @ @ @ + @     @ & @ @ @   . y D D D S D F F &.&.&.&.&.,.,.<.<.<.'.1.1.&.*.;.1.:.,.:.F s a   3 ; ; > > O .             $     .       . . O   r o.H H D D D D D o.a .   f o.H H o.o.H H a a a D D D H f f o.r   e %.%.f   O X   . . . O X . X o X X - < o o o . X X X X X . . 1 f f f f a o.H a ^ ^ ^ o.p X O # # o o o     . . O X X X X X r a H f H d . o o X X O X # # + o # # X X X   2 o.@.5 X ; , X r f f f y a D D D D D D D e . # o o O . # o o X . .   . 1 f o.$ . . $ X X o # # # # X , o X r %.H a r r X # o X X X # # . o X , X X - - X 5 @.o.o.o.o.E E p e p < X o o X X X X . + % X . X # + . o + + 3 o + o o o o o o o o o o o o o o o o o o o o o o o o o o o o o o o o # # o o o o o o o o o o o o o o o o o o o o o o o o o o o o o o o o o o ",
"o o o o o o o o # # o # , o 3 6 p r ] o.e . # + + 3 > > , ; ; X # # , , X X f o.a D D a a f $ X # , o o o X $ . y D H y y H H a # $ $ $ $ . . # 3 + 3 3 o o , , , $ a D e . X O . X   . o   e O.$.t $ $ $ $ X O 6 o . a A.>.D y D y a D o.o.D H o.o.^ , 6 6 o X # $ $ # 6 X . p o.D D D D y D H f f 1 . r o.%.o.o.O.o.D D D D D D y y y y y a H o.H a a D D D D D D D D D H a a a f y H D y D D D D a H f r . X X ; ; o # 3 2 $ $ $ a H H a f f f f a a f f f f f D a a a D y D y y D D a a f f f f f f f f f H f f f 3 . # o o o o 6 f f f f f # # # X # # . r o.o.r . # # # X , o + + + o 2 a f f f a H H H f H f f f X # 3 X , , X 2 1 2 8 u E { 2.| 3.2.} 8.{ +.E 2 - T W W W W W ! ! W ! ! Q ! Q Q Q Q Q Q ! ! ! ! ! ~ W { | ! ~ ! i i i 0 R / / ! { { ~ u Y 8 T 9 4 0 0 p 0 i 9 9 5 6 9 i 0 1 i E o.o.o.D ] [ O.:.;.;.;.1.].'.].].<.].<.<.<.<.<.<.<.<.<.O.D f . 6 > ; ; X + # # # 3 # + 6 X # # $ $ . . $ 3 X O p f a a H a a a a f a $   a D D D D D D D f f H H H H f f f ( r . r o.%.f   . # . X $ $ . o o o o + # o X o o o o o o o o # # # r f f a a a a a a f f f f r X . # # # # # # . # r 6 , 4 5 X X p f ^ f f r . o o o # o o # o # o # # o # 3 $ r o.( 6 X o , o r f a f y a D D G D D D a e . X o # X X # o o 3 , , # X r ( @.# # X X # o o 3 o o o o , o X r ^ f a r r # , o o o # # # o X , X X - 2 2 X 1 a o.o.^ f a a p e p , X ; > > o o o o o X . . $ X 3 O o + o 3 o # o o o o o o o o o o o o o o o o o o o o o o o o o o o o o o o o # # o o o o o o o o o o o o o o o o o o o o o o o o o o o o o o o o o o ",
"o o o o o o o o # # o o o X o 3 X 1 ] o.e . $ % o o o ; , , 3 > 3 , o 3 o X 3 1 e a f r $ 1 $ # # , X , 4 r a a a H y $ $ y D a $ # r ^ f 1 X 3 > o o + o o 6 3 # X D H a a ^ f f d # # d y D >.l.O.D o.o.o.a X 3 3 o # e $ t y a a a y a r . $ $ , , O o o o # f f f o.^ 1 . r H D D D y $ e $ 2 5 # . # % # e e e = = y D D D D D D D D a a o.a e . e H D D a D D D D H a $ $ $ $ $ y H y D D D D a f f r X o , ; 3 o , r a a a a H H a . $ $ # $ $ $ $ 3 6 % $ $ $ e a H D D D D D a e $ 1 2 1 e 5 1 1 2 2 e 1 3 3 # o # # # o . # , 2 # , , # X # X # . . r H o.e . # # # # , o + + o o X 5 2 2 $ $ f f a e r $ $ r r f p O 3 ; X p ^ E +.+.{ 8.0.2.2.} ~ ! Y u E R R W ! W W W ! Q Q Q ) ) W W W W W W W W ! Q ! Q ! W ! 9.q.2.! ! u 8 i 0 8 i u Y Q { | { +.T T T 0 0 0 R U R R R R R R R R E R 1 2 2 e $ a D D D G G G G G G G D S G G G G G G G G D F D o.a . # ; , 3 ; o + 3 % + + + ; # f o.o.H f H o.( , O 3 r $ $ $ $ # e 2 $ r r y a D D D D D D D e $ $ $ $ $ $ , , 5 # O , 2 1 # . 5 f f ^ f f 5 # + + + 3 3 # o 3 3 3 > > > + + o o O X , 1 $ $ $ $ # $ , , 2 , 3 . . # # # # o # . # d d 3 o , , X , 2 1 # r # X + + o 3 , o , # # o o # # 5 d ^ r e , # o + X . # # $ # $ a H D D D D H H a r p o , , , o o o o X , , X # 5 3 r d r # # 3 > > + o 3 ; > ; X 3 5 # 1 # 3 X o o 3 , 3 # # # # p p ^ / ^ ^ o.p e r r r r 1 1 1 , , X ; > o o > 3 3 # # r f f f ^ 6 O o + o + o # o o o o o o o o o o o o o o o o o o o o o o o o o o o o o o o o # # o o o o o o o o o o o o o o o o o o o o o o o o o o o o o o o o o o ",
"o o o o o o o o o , o o o o o # O 5 o.o.e . . . X X o , , , > o 3 , o 3 ; X o O $ f f e . # . # o o o 4 5 p o.o.o.o.a . . r D H . . r o.^ 1 . o + + X , , o , X # $ H D H H f f o.r   . f H O.<.<.[ F O.O.o.a . o 3 3 o O . a ^ a a D D o.a . X # X # . .   . . f f a H H $ . $ f H a H a . . . X o o + + o O $ . . . $ r f a a a D a f H a a o.o.e   r o.f a D o.H f f H a $ . $ . . y H a D D D H f f f 6 o > ; X # . # f H H a a a H a   $ X     . . O O X o . .   $ a f f a D D H y $   . . . . . . . . . . . . . o o o o # 3 o o o . . X . # . # # # X   r o.o.e . o O o # # o # o o o X # < ; X X ^ o.a 2 e $   5 f @.d X , , O p / E +.9.9.9.0.8.8.{ ~ E u 8 Y W R W W R W W Q { 3.) ) ) W W W W W W W W W W W W W ~ ! q.i.2.! Q u 7 7 7 i i 7 i ! { | { +.8 8 8 8 8 7 T R ( ^ R E E R E E / ( 5 X 3 6 $ H D D D D D D D y y D D D D D D D D y y y y D D D y   # o X , ; o o o o o # , X   f %.o.H f f H f . . .         O O . O O 5 ^ o.H H D D D D D H # . . .   . . # o X o , , O ; X . 1 f o.^ f f 3 o o o o + + o o o o o o o o o o 3 + o o # # # # . . X # o o # o # o # # o # 3 o # . 3 f f 3 . X . . .   .   # o > > o o o o # 3 o 3 o o # o 5 f f r .   o + o o O $ $   . . r f a a H f H H f f ^ # o o , X o ; 3 ; 3 , X o # . r f r # # , o o # o , o o ; o # X . # X , o , , o X # X # # X d ( ^ ^ ^ ^ o.p X , , , , X X X O ; X X o X O O .       r o.f f ^ r O o o o + o # o o o o o o o o o o o o o o o o o o o o o o o o o o o o o o o o # # o o o o o o o o o o o o o o o o o o o o o o o o o o o o o o o o o o ",
"o o o o o o o o o , o o # , o o O 3 a a r e r r 1 $ , , o # 3 o o , ; > ; o 4 # # f f 5 O , o o o # o , 1 r a a p ( d . $ r H a r r a f f 2 X % o 3 o , o X , X X X a r r a r p a r . $ r r D <.,.[ F D D o.a   , o > 3 , X d p p a y y o.a . , , O 5 r r r p p f a a D H y e a r r r f f $ % 6 o ; 3 3 + o # # # 3 1 3 f f f a a a a a f a a f ^ #   r ^ a a o.a a r r f d # # % # . f o.y y y r y r p d 6 X > 3 o 3 X # a H D D D D H a . # 3 r e r r , o ; 3 o , # e a f a a a a f d # o 5 p r r r r r r r r 5 # o # + o o o o o o # # # # # # O , 5 3 # . r f o.r # 3 o # # o o o X o 3 o o X 3 , X p p a p f r X 5 d ( r X , 9 2 R ! Y | { { { { ! { ! E E R 8 Y R Y W W R Y Y W ! ! ! ! W ! W ! ! W W W W ! ! W W W ~ ! p.w.2.| { Y Y T i 7 9 8 i / +.! { { ~ R W R T R i T R R T R E R R R R p 0 3 3 6 3 H H D D D D D D a a f a a a a D D D y D D y D D D D e r 5 o , , , o # % # X , 2 . f f r a a f f a 1 f r   # 6 d 6 > 6 6 X 5 f p a D a a y a y a , X , r 1 , X # 3 X ; , , X 4 X X # f f r r f $ # # # + o o o o # # # # o o o o + + + + o + + # # o + + o + # o o o 3 # X o 4 o # o # d f # . # e r r r r # ; o + o > 3 ; o o o o # # , # O , f f r r 6 3 o X 3 # % 6 3 3 . r f a y f y a f p p p . , # < # 3 , 4 3 3 3 o # + o r p r 1 , # X # # o , o ; 3 # # # # 3 # , o ; o , o 4 # # # X d p p E E a ^ d < 4 4 4 4 + + > > 3 o o 3 r r r r r e e a o.y r ^ r X ; o X # o # o o o o o o o o o o o o o o o o o o o o o o o o o o o o o o o o # # o o o o o o o o o o o o o o o o o o o o o o o o o o o o o o o o o o ",
"o o o o o o o o o o o o o o o o o #   . r o.f f ^ p # X o # # # ; ; ; ; ; ; o # X X X X o o o o o X X X X X . .   O o X . p H a H o.r     # # # o o o , o X # o , X # . . O O .   $ d f X   e :.&.F D O.H o.y   # # > ; ; ; ; X . .   y o.f X , 3 o $ H D D o.o.X   e o.o.a o.o.  . .   $ f H r X o ; 3 # # # # O r ( f .   .     . O O O O X O O O o o   . r a r O . . $   # 3 o o # p a e e r .     o O ; X 3 , o , X , f H y D D a f r   . f ^ f f o.r O ; , O r o.p $   . . . X O o O . f o.o.H H f f f f ^ p O X o o 3 X , o o o o o o + o o X r ^ f , O #   . p ( p X O # X o ; ; ; , , o o o , , O   1 o.@.p 1 5 X X X - 1 R E R ~ Y ~ Y ~ Y Y u 8 8 8 8 8 8 R R Y ~ ! W : X u R Y Y Y ~ Q ! W W W W W W W W W W ! ~ ! q.u.3.| | { +.E 8 u i 8 u ! { | | { { Q Q +./ R 8 i 8 7 7 8 2 1 1 7 7 1 , , o # $ a D D D D D D a O X O $ $ a H y D D D D y y D D D D f o.r O , o # o o + # X $ r 4 O O O . O       f %.r   $ f o.( X o 6 o O .   a o.a .     . O o X r ^ ^ 1 . # + o # X o 4 ; X X # O . . O X # # # # o o o o o o o o o o o o o o + + o o o o o o o o o o o o o o o o o ; ; ; ; o o o X O . X $ H f f f f 3 O 3 + > ; ; ; ; o o o o o o o o # #   $ f f 6 . o 3 . p @.f # . X . . . . . . O . . # o # # # # o ; ; ; ; ; o o o # . . # f f r . X # # # o o o o o o # o , , ; ; o , # # # # # , , , - - X X X X : : : : ; > > + o 3 # . r o.o.o.o.o.H H D H f . . # # ; ; o # # # o o o o o o o o o o o o o o o o o o o o o o o o o o o o o o o o o o o o o o o o o o o o o o o o o o o o o o o o o o o o o o o o o o o o ",
"o o o o o o o o o o o o o o o o o # . $ r f f f a r # o # # o o o # ; o ; o o o o o o o o o o o o o o ; ; X X O . . O . X r f f f o.r $ . # o o # o o o o o , , , o 3 , ; o X < , 1 r p $ . t :.,.[ D O.H o.r . # # ; > ; ; ; o # # $ a ^ f o + o X $ H D a D a $ X r a H a o.f . % % o 3 f f r X ; > , , # # X X 6 f f 3 . # # # # X , , X , , , O X 3 # 1 p d p o # # % . 3 o + o # p a r a a 1 # # 6 X , X O X X X O , f H f a f a f p . . f f f f ^ r O , , O p o.r $       o X O 3 # $ r H D y a a f f f o.p O o o o 3 X ; o o o o + + + + o # r f d 3 o # # # r f r # o # o o o X o ; ; o + o o , X X p @.@.p 9 9 4 , , , < R E E W W W ~ W ~ Y Y Y u 8 8 T 8 T Y Y W E ^ 7 : i R R E W W ! ! ! Q W W W W W W W W ! ~ ! q.w.2.| | { +.! 8 u i u Y ! { | | | | ! ! Q ! Y u i i u u u u 7 i 7 7 7 < , - X . D D D D D D D D X , , 5 $ f H D D G D D y D D D D D D H r . # o # # o + + X # r X ; 3 o X o # X # ^ o.r . $ f ^ d X X 3 o o # . f o.f # o + , o o X r ^ ^ r X # + o # # # X X , . X O # 3 3 3 o o o o o o o o o o o o o o o o o o o o o o o o o o o o o o o o o o o o o o ; ; ; 3 + o o o o # $ f f f f f 6 o 6 ; ; o ; o ; o o o o o o o o o # . 3 d d 3 o o # X r f p , # # # # # o o o o # # o o # + # # o o o o ; ; o o o # # . , f f r # # # # # # o o + o o o ; , , , , ; , # + # + ; ; , X - 2 - - 2 : - : : - X X o o + O # . e a H D a D y H H H f $ . # , ; ; o o # # o o o o o o o o o o o o o o o o o o o o o o o o o o o o o o o o o o o o o o o o o o o o o o o o o o o o o o o o o o o o o o o o o o o o ",
"o o o o o o o o o o o o o o o o o # o # 3 6 5 r r , o > 3 + o o o # o # o o o o o o ; o o o o o + # ; ; ; ; o X f f f f a r 5 r 5 r 6 o # + o o , o o o > 3 o # # , 4 3 3 ; ; p ^ p , 5 p a ] :.;.[ F H e r 3 O # # o ; ; o o o 3 # . 1 e 5 o + + o $ H D D D a r p a e r e r e X + + o # r e 2 X o , , , # # # X # r r #   # f f r o # # X r f f , o + , # , 5 5 ; # o # o 3 X > o o 5 e e p a # . o + O p a a a f p X X r 5 1 1 r 3 r 6 O O 6 r e 1 r 3 X 3 ; o , e $ a f H o.d 5 ; 4 o   e H y = e e 2 1 1 r 5 X o o o 3 o o ; ; ; o + + + o o o , r 5 # o # % # 3 r , X o X o o o o o ; ; o o . o # X . # 5 5 , ; 3 ; ; ; ; 2 R R Y ~ ~ ~ Y ~ ~ ~ ~ W W W W ! R ! ! / E 7 9 4 ; 6 6 5 9 < 8 ! W ! Q W W W W W W W W W ~ ~ 2.2.| | { { +.! R E W ~ W Q { ! | | 3.2.2.2.} { { ! ! ! ! ! E E E ! E E E E E p p ] D D D D D D a . o # 3 $ f H D D D y y D D D D G D D H r O # o , # + + + o , p X p f r X # < # # 6 r 3 o o 6 r 5 . # # . + # . 2 r 6 o o > > o X o # r r $ X o o o o # # O O p f p , # 3 3 + O o o o o o o o o + + o o o o o o # # # # o # o # # # # # # # # # # # # # # o o o + + + o o ; o # 6 r e e e # X 3 ; o o o o o o o o o o o o o o o # # 5 6 # o o X X , 5 , o # + o # + o + o o # # o o # # # # o o o o ; o ; o o # # X # r r # o o # # o o + o + + o 3 3 4 < < < , ; > > > > > > ; - 9 d R R R R R R E / ^ 1 2 , # X f a y D D D D D D H a r r # # # ; ; ; o o # # o o o o o o o o o o o o o o o o o o o o o o o o o o o o o o o o o o o o o o o o o o o o o o o o o o o o o o o o o o o o o o o o o o o o ",
"o o o o o o o o o o o o o o o o # # # o # . O X , o o > > > o o # # # # # # o o o o ; ; ; ; ; o o o o o ; ; o X f f f o.o.r . O . # o o + + o # o o + + > o O # X # # , , X , d ^ r O O a ] [ >.;.[ O.H $ O o o o o o o o o # + o o O # . # o o 3 o $ a D D a H H o.f . $ X . X # , + o . . . . o # , , ; ; o # . # . . .   $ H %.r . . . . r o.f 2 X X X X O # ; o o X . o # o ; o o # # r f o.3 . o # . f o.o.o.%.f X X # O O . O O X o o X # . . . # o o 3 o # .   $ H H a r ^ 5 O X .   y %.f $ $ X X X X X , X o o o + o o ; ; ; ; o + + o o X . X X o o + + o X # X X o X o o o o , 3 > o o o o # # # o o o o ; > ; , 4 < 8 R Y Y Y Y Y Y Y Y ~ W W W ! ! W W ! +.+.R - X o o > > 3 3 ; < +./ / Q ! ! ! Q Q ! W W W W W 3.{ { { { { +.+.Q Q Q Q ! Q ! ! | { 2.q.4.q.q.0.q.{ { ! Q Q Q ! ! E ~ ~ E ! E E E o.o.D D D D D a X # , $ e f H a D D a a a H D D D D D H r O # o o # > + o o < p $ a o.p X X , , o o . o o O .   . . # # o o o # O # o X + > ; o 3 # o . X o # 3 + o o # , . X f o.f 2 X o + 3 3 o o o o o # o o + + o o o o # # # # # # # # # # # # # # o # # # # # # # # # o o o o + + > > + o O X $ $ # o o 3 o o o o o o o o o o o o o o + + # o o # o # , o X . X X o o o o o o o o o o o o o o o # # o o o ; > ; o ; ; o o , X . X o o o o o # o o o o + o 3 3 4 4 5 < < < ; > > > > > > ; O p ^ ^ ^ ^ / E E E y.@.2 . $ . . f o.a D D D o.H H H r . . X , ; ; > > o o o o o o o o o o o o o o o o o o o o o o o o o o o o o o o o o o o o o o o o o o o o o o o o o o o o o o o o o o o o o o o o o o o o o o o o ",
"o o o o o o o o o o o o o o o o o o o # # o X # ; o > > > o o # o o o o # # # # o o ; ; ; ; o o o o o o o o o . f f a a a r X o o o o > > o o o o o + + + o O 3 e e e r 1 O X r a p # # a D F :.O.[ ] a $ o + o o o o o o + # # o + o 3 O # # o o o # o.o.H f H y D a . 3 3 # r , < , o # # , 5 o # # # o o o o o + o . 1 e = y y r $ e $ $ t a a e $ e e 1 X # ; o X 3 5 5 o o 3 o # o # 5 p f 3 # + , . y D y y H p O X , o 3 # , ; o , 3 , , # # o # # 3 3 o o % # $ f H a y o.r . # r r r f d # o , o 3 3 , ; o + o o + o o o o ; ; ; ; ; ; # o X O X o 3 + + o o # X o o o o o o o o o X X ; ; o o o o , 3 # , 3 o X ; 3 , 8 E ! ~ ~ ~ W W ~ ~ W W W ! W W W ~ W ! / R 7 p ; > > + 3 3 ; 4 ^ R / / ! W W W W W W W ! W ! ! ! Q Q Q ! Q Q Q W W W ! ! ! | 3.| 2.2.}  . .} 4.} | ! ! ! ! ! ~ | ! ! ! Q E i p ^ o.f a a H o.f   O 5 r r r f a a a f a a a y H D D D H r . # o o , ; o ; o , p X r f r o o 3 3 + # o # o X 2 # , X # # o o X # # # # # , , # , o 3 3 o o + 3 + o + o o 3 o X p f a 1 # # o o o o o o o o o o o o ; ; ; ; ; o o o o o o o o o o o o o o + o o o o o # # # # # # o o o # + + + ; ; 3 # o # o + > o # # # o o o o o o o o o o o o o o o # # 3 3 , # X o o o o , o o o o o o o o o o o # # # # # o ; > ; o ; ; ; o 3 # o o o o + + o o o o o o o o o ; , 4 < < < , ; > > ; > ; ; , X p ^ E E E E R E / @.^ 2 $ 1 2 2 a f a a a a a f f f r X X # o ; ; ; o o o o o o o o o o o o o o o o o o o o o o o o o o o o o o o o o o o o o o o o o o o o o o o o o o o o o o o o o o o o o o o o o o o o o o o o o ",
"o o o o o o o o o o o o o o o o ; o o # # # , # > > > > o o # # o o o # # # # # o o ; ; ; o o o o o o o # o o o O X . . $ # # 3 3 o + 3 + o o o o o + o o o # r H H f ^ p $ . # $ , O . r y t G D y D f $ X + o o o o o o + # # # + o # O # o + o # , f f e   . y D a O # + . , 5 p 5 o # # , , o # # o o o + + + % o # f o.D D a D H o.H a a D D y a a f f , X 3 ; X d ( f # o # o 3 o O # # # # . # # . a H D a H a X X , . # , , ; ; ; , , o 3 3 o o , 3 3 o > + o . f o.y $ r $ . r @.o.r . # O > 3 o > > 3 o o + + o o o o o o ; ; ; ; ; ; o o # o o 3 + o + , , # o o o o o o o o o X X O ; > 3 ; o ; ; ; , 3 3 ; : ; 3 < u / 9.8.8.8.9.9.9.9.9.9.9.8.+.+.! W W W W W R ( 4 4 3 ; , , o , : : R / ! ! ~ W W W W W ! W ~ ~ Y Y ~ ~ ~ ~ W W W W W ! ! ! 3.8.2.4.4.4.4.4.4.4.w.q.0.0.r.q.q.q.0.3.8.3.+.W 2 2 1 e e 2 $ p H a X # f o.f .   . . . X . $ $ $ r D D D D r O + o o , ; ; ; ; , 5 # # # # o 3 3 o o # # # o 1 f o.p o X o o 3 o + o o o o o o o # o o > ; + > o o X , , o , # O # . X . X , # 3 3 o o o o o o o o o ; ; ; ; ; o o o o o o o o o o o o o o + o o o o o o # o o o o o o # # o o o ; 3 3 # o o o o o o # # # o o o o o o o o o o o o + + # # o ; > + # o # + o o # # o o # # o o o o o o # # # # o o ; ; ; ; ; ; o o o o , # # + + o o o o o + o o o X o ; , , , ; o ; > ; , , # , # O X 2 2 2 2 2 X - 2 - 2 a ^ a ^ f p e e r r X       . X O o 3 o ; o o o o o + o o o o o o o o o o o o o o o o o o o o o o o o o o o o o o o o o o o o o o o o o o o o o o o o o o o o o o o o o o o o o o o o o o o o o ",
"o o o o o o o o o o o o o o o o ; o o o # # # o + + + o o # # # o o o o # # # # ; ; ; ; o o o o , ; o o + + o o , , # o o o o o # X o 3 o o + o o o % o # # $ r H f f ^ r o o . o # O o a D y y y y y a $ # 3 3 # # o o ; ; ; # , # O # o # . + + o 1 ^ ^ p X , f f f O O o O O 9 d 9 X . $ X O o o o o o o # , o + . $ f o.H H D H H o.o.H H D D a H a f f 5 # , ; . p f f # # o X 3 3 o 3 o # # # o o . a a D a f p , , , o # X X o ; X X o X o o o o o o o ; ; o o , o.o.y         5 ^ o.r O X o 3 , + 3 o , o o o + + o o o o o ; , , ; o o o o # o o + o o o o ; o o o X o o o o o o X o , O O X - - - X X X - - X - - - - i { +.8.9.8.9.9.9.+.+.+.+.+.+.9.! ~ W R Y R R R X X X X - - ; X : - R / / / ! ! ! ! ! ! ! W W W Y Y Y R R ~ W ! Q ! ! ! ! ! { 8.2.q.w.0.q.q.q.q.q.0.0.r.r.r.q.q.r.9.9.9.9.W 2 < 9 i i e e a o.f O . a o.f $ # 3 > ; 3 o , # X f D D D D r O + o o # o o ; o o 3 ; X O . o , 3 X o # # o X # a o.p o X o o 3 3 o o o o o o o , , , # o # > > , , o # , o o # . o O # o o o X o o ; o o o # # # # o o o o o o o o o o o o o o o o o o o # o o o o o o o o o o o o o o o o # # o o 3 + o o # # % # # # o o o o o o # # # # o o o o ; o # o o o o o o o # # o o # o o o o o o o o o o o # # # # o o ; ; ; , # o o o o o # o o # o o o o o o o o o o o o o o o o o o + # # # # # # # + # o # , # , ; : X O 2 ^ o.f f o.a p p p p 5 X 4 + o o o o ; o o o o # o o o o o o o o o o o o o o o o o o o o o o o o o o o o o o o o o o o o o o o o o o o o o o o o o o o o o o o o o o o o o o o o o o o o o o o o ",
"o o o o o o o o o o o o o o o o o o # o o # # o o o o o # # # # # # # # # # o o o o o o o o o o o o o o + o o o ; ; # # o o + o , X ; 3 o o 3 o o . % o # #   3 e $ 1 r # . % + X o o # r a a y f r e r . # 3 X o # o o ; ; ; , # # X r p r X o + o X p p 1 O 3 3 1 r O # d f ( O 4 4 O 2 a p r o o o o o o # , o + o $ 3 r r e e r e r r r a a a D o.y e r # # , , . 5 r r $ # 3 o 3 > + + o o # # # # X r r e r r 5 o X , o # # o 4 5 # o # # o o + + # # o , 4 o # # # $ r a r f f r p d 5 o # # # . + 3 o # o # o o , o o o o o o , , ; o o + > , o o o > > o o o o > > o o o o o o o o < i R R R R R R R R R R R R R R T R u ! ! W W W ! ! ~ ~ R R R R R R ! ~ R Y 8 W / E E E E E R R ^ p 9 2 R E i Y Y W Y R R Y Y R W ! ! ! ! ! ! ! ! Q ! W ! Q ! W Q { | } 2.{ | ! ! { | | ! | Q ! ! ! Q ~ ! ! ! R - 1 < < < 1 < e p r . . r p r $ , o 3 ; ; o 3 X . f H D a D r O + o o # o o + o o o ; ; , # o o 3 ; 3 # o # # # e r 6 X , , X ; , o # # + + o o o # # X o , , o X # # o # o X # # 3 o + o # , o , , ; ; o o # # # # o o o o o o o o o o o o o o o o o o o o # # o o o o o o o o o o > ; o o # # # # o o o o o o o o # # o o o o o o # # # # o o o o > # o o o # # + # o # o o o # o o o # # # + + o o o # # # # o o o ; ; , o o o o + + o o o o , 3 o o o o o o o o , , ; ; ; + + + + # # # # # # # + o # 3 3 # 6 d d , X , 1 r r r r 2 i 5 2 < , ; o + o > ; o o , o o # # o o o o o o o o o o o o o o o o o o o o o o o o o o o o o o o o o o o o o o o o o o o o o o o o o o o o o o o o o o o o o o o o o o o o o o o o ",
"o o o o o o o o o o o o o o o o o o o o o o o o o + o X # # # X X X . . o + 3 o o # # # # o ; ; o o o o o o o ; o o o o o o o o o o o o o o o # o o o o o # # # . . o o o o + o % # . # a f a a ^ r O O # , o o + o o + o o ; o # # X p f p X # o o o o o o o o . O o . X a %.o.O X X O e ^ ^ p o o ; ; ; ; ; ; o o o o o o X . . . . .   . r o.a H H y     X o o X # X O o o # o o # + + + o # . # # # # O O . O o o o , , , o X # r d , . X X o o o o o o o o o o # # . . r o.f f o.f .   , o # # # # # , , , o o o o o o o o o o # o o o o o 3 o o o X ; , X o o o o o o o o o + + o ; - 1 ^ / Q / / / / / / / / / / / / / ! ! ! W R W W W W R 8 7 7 7 7 8 : ! Q ! u 8 E / ! / Q ! ! ! ! ! ^ 7 7 7 7 7 7 7 8 8 8 8 8 8 q 7 / / / Q / / ! ! ! ! ! ! ! ! Q W ~ ~ 8.9.! ~ ~ ~ Y R R E W ~ ~ ~ ~ ~ W ~ R W R 2 : : : < 5 5 X O O .         . X O o , ; X # O X f H a H ^ r O o + 3 o X o # # o o > ; # # # # # # , , o o o o . . # o o o o o o o o o o o o o o o # # . X # X . # # o + + o o , # o o o o o o o o o o o o o o o o o o o o o o o o o o o o o o o o o o o o o o o o o o o o o o o o o o o o # # o o o o o o o o o o o o o o o o o o o o o o o o o o o o o o o o o # # # # o o o o o o o o o o o o o o o o o o o o o o o o o o o o o o o ; o ; ; ; o o o o o o o o o o o o o o o o o + o o o o # 3 3 3 o X , , , 4 p d 1 X X X O o O # # # , ; ; ; ; o + + # o o o o o o o o o o o o o o o o o o o o o o o o o o o o o o o o o o o o o o o o o o o o o o o o o o o o o o o o o o o o o o o o o o o o o o o o o o o o o o o o ",
"o o o o o o o o o o o o o o o o o o o o o o o o o + + o o . # 5 2 2 1 , o o o o o # # # # o ; ; o o o o o o o o o o o o o o ; ; o o o o o o # # # # o o o o o o o o o o o o o + # # . $ r f a f d 5 X X o o o o + + + + o o o o + o O r a p X o o o o o o o o o + + % # X r f a . # o O $ p p 1 o o ; > ; ; ; ; 3 , , # o o o o + + 3 3 , # r a e H H y e e 5 5 6 o o o o o o # o o # # + + o # # # , # # , , 6 ; 3 > o ; , o X X # 5 5 , 5 6 X o o o o o o o o # # # # X $ 5 a a a f r # o 3 > + # # # # # # , o o o o o o o o o o # # o o o o + o > 3 ; o , , o o o o o o o o o + o o , - < R ! W W ! W E W W W W W W R W W W R ! ! W W ! ! ! R u T i 0 T i 8 W ! W Y 8 R ! W ! ! ! ! ! ! W W u i i i i i T i T T T T T 7 0 ( / / / / / / / / E ^ / W ! Q ! W W 8.9.Q W W W W R i T W ! W W W W W ! W E T 2 , : ; , 4 4 ; X o r % 1 1 1 r r 3 O o , ; , o # p f a f f r X o o + + 3 o o o o o o o # # # # , # , , o o o o o o o o o o o o o o o o o o o o o o # . # , # $ # X # # 3 + o # , o o o o o o o o o o o o o o o o o o o o o o o o o o o o o o o o o o o o o o o o o o o o o o o o o o o o o o o o o o o o o o o o o o o o o o o o o o o o o o o o o o o o o o o # # o o o o o o ; ; o o o o o o o o o o o o o o o o o o o o o o o o o o ; o ; o ; o o o o o o o o o o o o o o o o o o o # o o o + o o , 1 1 2 - < p p 1 1 5 , o + + o # o o ; ; ; ; # # o o o o o o o o o o o o o o o o o o o o o o o o o o o o o o o o o o o o o o o o o o o o o o o o o o o o o o o o o o o o o o o o o o o o o o o o o o o o o o o o o o ",
"o o o o o o o o o o o o o o o o o o o # o o o o o o o # . . 6 ^ a f f p # O o 3 o o o # o o ; ; o o o o o o o o o o o o ; ; ; ; o o o o o o o o o o o o o o o o o o o o + + + % o + o . # # $ # 5 , o o o o o o o o + + o o o o + o . r f f $ o o o o o # # o o o o # X $ e a p O + 3 o X , 2 # o o > + o o # # 3 3 , , , # # # o o ; 3 3 o X $   a H a a H f ^ f o o 3 # o o # # # # # + o o o r r r # o # # # o , # o # # X X o X X X r ( f 6 o o > > o o o o # o o o # # # 3 . X # # o o > > + # # # # # # # o o o o o o o o o o o o o o ; ; ; X ; 4 ; X X X o o o o o o o o o o X o ; X , p T Y Y Y 8 : 2 7 8 8 8 8 8 8 8 8 Y W ! W W W W ! R i R 0 7 i T T Y T T u 8 Y E R ! ! W ! E ~ R R R R R R W ! ! ! W W W W R 8 < i 8 8 2 2 : < < X X < 2 8 R ~ ~ W W W ! R R W W W T 2 q T ! W W W W W ! E E i : < , ; ; 3 , o , 1 f f f f f f f d . X , o o o X 3 O . O # o o # X X o 3 3 3 3 3 3 o o o # # # , , # # o o o o o o o o o o o o o o o o o o o o o o % . r f f f ^ d O X o # , , , o o o o o o o o o o o o o o o o o o o o o o o o o o o o o o o o o o o o o o o o o o o o o o o o o o o o o o o o o o o o o o o o o o o o o o o o o o o o o o o o o o o o o o o o o o o o o o o o o ; ; ; ; ; ; ; ; ; o ; ; ; ; ; ; , # # # # # # # # # o o o o o o o o o o o o o o o o o o o o o o o o # # o o X ; X 4 p p 1 X 4 d p p p p , o + + o o o o ; ; ; ; o o o o o o o o o o o o o o o o o o o o o o o o o o o o o o o o o o o o o o o o o o o o o o o o o o o o o o o o o o o o o o o o o o o o o o o o o o o o o o o o o o o o ",
"o o o o o o o o o o o o o o o o o o # # o o o o o o o # . X r ( f f ^ p , X o 3 o o o o o o ; , # # # # # # # o o o o o ; ; ; ; o o o o o o o o o o o o o o o o o o o o + + + + o + # o o . . # o # , # o o o o o o + + o o o o + + # p f f # o o + # # # # # # # # # # $ r f f O o + o X X o o o o + + o o # # # # # # # # # # # o o o > 3 o . . f o.f H H f ^ f o o 3 o # o o # , , # + o o o d d r # . # # X X , o X , , o # o o X . r ( ( 5 o o ; > o o o o # o o o o # # X . # # . # + + o + # # # # # # # o o o o o o o o o o o o o o ; ; ; o ; , X X , X o o o o o o o o o o X o ; X , p T R R i 2 X - 2 4 9 8 8 8 8 8 8 Y W ! ! ! W W ! R i p 9 : 0 p i T Y Y u u Y R Y ! ! ! ! ~ Y Y Y R Y Y R ~ ! ! ! ! ! Q ! R 8 8 8 2 2 2 2 : 3 4 ; , 5 < 7 E ! W Q Q W R R R ! / / R 2 : R ! W W ! ! W E ^ ^ i , 4 4 , o ; ; o , , f f f f f f f d . X ; o X > o o o X O O O X X O X O X o o o o o o o o # # # , , # # # # # # # # o o o o o o o o o o o o o o o o # . r ^ f ^ ^ f . X X X o , , o o o o o o o o o o o o o o o o o o o o o o o o o o o o o o o o o o o o o o o o o o o o o o o o o o o o o o o o o o o o o o o o o o o o o o o o o o o o o o o o o o o o o o o o o o o o o o o o o ; ; ; ; ; ; ; ; o o o o o o ; o # # # # # # # # # # o o o o o o o o o o o o o o o o o o o o o o o o # # # X ; , X 4 p p 1 - < p p E ^ p , X # o o o o o ; ; ; ; o o o o o o o o o o o o o o o o o o o o o o o o o o o o o o o o o o o o o o o o o o o o o o o o o o o o o o o o o o o o o o o o o o o o o o o o o o o o o o o o o o o o ",
"o o o o o o o o o o o o o o o o # # o o o o o o . 3 r r . . # r 5 5 r , o o ; ; ; , # o # # # # # ; ; ; ; ; ; ; o o o o o o o o o o o o o o o o o o o o o o o o o o o o o o o o + + + o # # # % o o # # o o o o o o o o o o o o o # o 5 r r X o # + # # # # # # , o # o X 1 r r X o + + o o o + o o o + o o # # o o o o o o o # , , , > > > 3 # # r p r r a a f r o o o o , # o # , 3 # + + o o 3 6 5 X X r r r r r , X # # ; , o # # . # r r # o o ; > o o # # o # o o o + o . # 3 # o 3 3 ; 3 o o o o o o o o o o o o o o o o ; ; ; ; ; ; ; ; o ; ; X , i p 1 # o o o o o o o o , < < , X ; 5 i i u u p p i 1 0 i T T R W R u T R R R W ! ! / R 9 0 > : 4 0 5 R W R R R ~ ~ ~ W W W ! W ~ W W W ~ ~ Y W ! ! ! ! ! ! Q W ~ R R Y i R p 1 < 6 6 3 0 < 7 ! ! ~ ! Q Y Y T T R T i p : < R / W W ! R i i i i 9 - , 3 ; ; o o o # , p r r r r r r r X X 3 o o 3 3 # o 5 p p p p p p ^ 9 , , , o o 3 o # # # # # # # o o # # # # # # o o o o o o o o o o o o o o o o o o 3 r r 1 1 2 r r 1 X o # o # o o o o o o o o o o o o o o o o o o o o o o o o o o o o o o o o o o o o o o o o o o o o o o o o o o o o o o o o o o o o o o o o o o o o o o o o o o o o o o o o o o o o o o o o o o o o o o o o o o o o o o o o o o o o o o + o o o o o o o o o o o o o # # # # o o o o o o o o o o o o o o o o o , o o ; o , 9 9 p R p p 7 u p i p a p , X 3 # o o o o o o o o o o o o o o o o o o o o o o o o o o o o o o o o o o o o o o o o o o o o o o o o o o o o o o o o o o o o o o o o o o o o o o o o o o o o o o o o o o o o o o o o o o o o ",
"o o o o o o o o o o o o o o o o # # o o o o o o . r ( f 3 . . . . O X X X , 3 ; ; , # o o o # # o ; ; ; ; ; ; ; o o o o o o o o o o o o o o o o o o o o o o o o o o o o o o o o + + o o o o o . # # o o o # o o o o o o o o o o o # X , X # X o + # # # # # + # # o o o X X X O o + + + , # + + o o o o o o # # # # + + + + > + o , , > > > > + o O . O   . O   # o o o X 3 o o , # # # + + o o o # # X # r p r f f r X o o X 3 o o # o o o # # o o > > o o # # o # # o o + + o o o o o o # , 3 o o o o o o o o o o o o o o o o ; ; ; ; ; ; ; ; o , , o 5 f ^ p # o o o o o o X - < 5 5 < X X , 7 7 2 u ^ / ^ X < 0 i T ! ! Y 8 8 8 8 Y W ! W / R : ; ; X : ; O R W ! ! ! ! W W W W W ! ! ! ! ! Q Q W W W Q Q ! ! W W ! ! Q ! ! E E +.+.u < 4 4 ; 9 9 i / +.Q 8.Q Y T T T T < : , O , R / / ! / u 2 2 < 1 < X X ; o o o o o # # . . . .   . . . o o > o o o X o O p @.@.^ / ^ / @.p , X ; ; , , o # # # # # o o o o # # # # # # o o o o o o o o o o o o o o o o + + # X X $ X 1 o.( p # o o o + o o o o o o o o o o o o o o o o o o o o o o o o o o o o o o o o o o o o o o o o o o o o o o o o o o o o o o o o o o o o o o o o o o o o o o o o o o o o o o o o o o o o o o o o o o o o o o o o o o o o o o # o + o o + + + + + o o o o o o o o o o o o # # # # o o o o o o o o o o o o o o o o # # o o ; o < p E E E E E E E E R a a p , X , o o o o o o o o o o o o o o o o o o o o o o o o o o o o o o o o o o o o o o o o o o o o o o o o o o o o o o o o o o o o o o o o o o o o o o o o o o o o o o o o o o o o o o o o o o o o o ",
"o o o o o o o o o o o o o o o o # # o o o o o o O r f d 3 # # o o o # , , , 3 ; ; , ; o o + o o o o o o o o o o o o o o o o o o ; ; o o o o o o o o o o o o # # o o # # # # o o # o o # + + + + + o o o o o o o o o o o o o o o o 3 X # X o o 3 o o o o o o o o , # 3 6 3 # # X + + > > o o o + o o o o o o # # # # 3 + + + + # # , 3 3 > > > > 6 , o o # 3 3 > o o , o o , X , o o # # > + + o # # # X X 5 r r p f r X o o o > o o o # o o # % o o o o o o # # # # o o ; ; o + 4 3 # # o o # o o o o o o o o o o o o o o o o o o o o o o o o o o , , , 1 p f p o o o o o o o o ; , 5 5 , X X ; i i 7 T ^ / R - 8 R R R ! ! R Y R u 8 R Q ! W / T - : 4 < 1 2 - T R W W ! ! W W ! Q ! ~ W ! ! W W W W W W W W W Q W W W W W W ~ 8 Y { Q Y u 9 - - p R R ! Q ! Q 9.Y T R R R 9 < ; X < p ^ ^ ^ ^ u 1 1 < 4 4 ; ; o o o # o o o , + + + + o # + # o + + o # X O 5 X u / ^ ! ! ! / E u - X , < X O o o # # , , o o , , o o o o o o o o o o o o o o o o o o o o o o o o o . # X $ r ^ f r o o + o + o o o o o o o o o o o o o o o o o o o o o o o o o o o o o o o o o o o o o o o o o o o o o o o o o o o o o o o o o o o o o o o o o o o o o o o o o o o o o o o o o o o o o o + + o o o o o o o o ; , , , ; ; , # o o o o o o o o o + o o o o o o o o o o o o o o o o o o o o o o o o o o o o o o # # o o , X < p E p R R p p i i E a E p < X o o ; ; ; ; o o o o o o o o o o o o o o o o o o o o o o o o o o o o o o o o o o o o o o o o o o o o o o o o o o o o o o o o o o o o o o o o o o o o o o o o o o o o o o o o o o o o o o o o ",
"o o o o o o o o o o o o o o o o # # o o o o o o # , 5 # . X # o o o 3 , ; o ; o ; ; ; ; ; > o o o o o o o o o o o o o o o o o o ; ; o o o o o o o o o o o o # # o # # # # # # # # o o o o o o o o o o + o o o 3 o o o o o o o o o 3 o , o 3 o 3 o o o o o o o o o o + 3 # # # o # + > ; o o o + o o o o o o # # # # # # o o o o # o o o ; ; ; , o < < # ; ; ; 3 o , , o 3 # O 3 o o # # + + o o # # # # # r f p # r , O # 3 o > + + o o # # # + o o o o o o # # # o o # 3 ; ; # , X o # o , 3 o o o o o o o o o o o o o o o o o o o o o o o o o o o , o X , 1 , o o o o o o o o ; ; ; , ; o ; , - 9 p ^ ^ E +.E W +.Q W ! ! ! E E u u R ! ~ Y R i X < R ^ ^ E E R E W Y R ~ Y Y Q Q R u i E ! W ~ W W W W ! ! ! Q W W W W W ~ Y u W 8.3.Q +.^ 2 < ^ / ! ! Q ! Q E 2 2 2 , 6 , o 3 o o < < 1 1 < 5 , < , ; , o ; + + # # o o o # + + 3 3 o # + o + + o o 3 # # ^ ^ / +.E | +.! ! ! ! E ^ / ^ p , # o , , , , # # , , o o o o o o o o o o o o o o o o o o o o o o o # # % # X X # , r , O o 3 + o o o o o o o o o o o o o o o o o o o o o o o o o o o o o o o o o o o o o o o o o o o o o o o o o o o o o o o o o o o o o o o o o o o o o o o o o o o o o o o o o o o o o o o + + o o o o o o o o o o o o o o o ; ; o o o o ; ; o o o o o o o o o o o o o o o o o o o o o o o o o o o o o o o o o o , o + 3 X < p E E R R R R p p u p p p < X o # ; ; ; ; o o o o o o o o o o o o o o o o o o o o o o o o o o o o o o o o o o o o o o o o o o o o o o o o o o o o o o o o o o o o o o o o o o o o o o o o o o o o o o o o o o o o o o o o ",
"o o o o o o o o o o o o o o o o o o ; ; > ; o o # # X # # o o # o X O o X 6 + o o , ; : , ; ; ; o o o o o o o o o o o o o o o o , , , ; o ; + o o o o o o o # # # # # # # # # # # # # # o o o o o o + + + + o o o o o o o o o o o o o o o o o o o o o o o o o o ; ; + + o o o o ; ; ; , # # + + o o o o o o # # 3 o o # , , o # # # 3 o o , , , X X X . X . . . # X , , X , # o o o o o o + + + # o # # # p f f X # # o ; ; ; ; o o o o o o o o o o o o o o o # # # # # o o o o # # # # # # # # o o o o o o o o o o o o o o o o o o o o o o o o o o o # # # # # o o o o + + + o o , ; ; o o o , , , 5 9 i 8 R | ! ! ! ! ! +.E / ^ T 7 Y ! ! R R i : - ^ +.E ! ! E W W W W R Y Y ! / ^ u i ^ / Q W W W W ! ! ! ! Q ! W ! ! ! / R T W 9.3.{ 9.! - X ^ s.! ! Q Q ! E 2 2 < X X o o o + o o ; , ; ; ; ; ; ; ; ; ; + + + + o o o o o > ; + o o o o o o o # o X O X f / / / +.! ! { | | +.E o.^ @.( O o o o o o o o o o o o o o o o o o o o o o o o o o o o o o o o o o o o o # # # # # # # # o o + + o o o o o o o o o o o o o o o o o o o o o o o o o o o o o o o o o o o o o o o o o o o o o o o o o o o o o o o o o o o o o o o o o o o o o o o o o o o o o o o o o o o o + + + + o o o o 3 , o , o o o o o o # # , o o ; , , ; , , # # # # # o o # o o # > > o o o o o o o o o o o o o o o o o o o # o + 3 X < p E ^ R R R p R p R R p p 5 o o o ; ; ; ; o o o o o o o o o o o o o o o o o o o o o o o o o o o o o o o o o o o o o o o o o o o o o o o o o o o o o o o o o o o o o o o o o o o o o o o o o o o o o o o o o o o o o o o o ",
"o o o o o o o o o o o o o o o o o o ; ; > ; o o # # # # o o o o X 5 p 9 X o o + + # ; ; , , ; , o o o o o o o o # # # # o o # # o o o o o ; + o o o o o o o # # # # o # # # # # # # # # o o o o o o + + + + o o o o o o o o o o o o o o + o o o o o o o o o o o ; ; o o o o o o ; ; , , # # + + o o o o o o # # # o o # , X X # # o o # 3 3 , , X r p r r r r r r o o # o o o o o o o o o + + + # o # o o 6 r 5 # # o o ; ; ; ; o o o o o o o o o o o o o o o o o o o o o o o # # # # # # # # # o o o o o o o o o o o o o o o o o o o o o o o o o o + o # # # # # o o o o o o o o # , , o o o # , o ; , < X u +.| | +./ u p i i i 7 2 i E E T i 9 , , ^ / ! ! ! ! W W W R R R Y / / R 7 7 i Y W Q ! ! W ! ! ! ! ! W ! / R u u i 7 R +.{ | { +.R R ! ! E Q Q ! ! ^ 2 - , o , , + o + o o o ; ; ; ; ; ; ; o o + + + + o o o o o o ; ; o # # # o o o o o o 5 r p ^ ^ ! E ! ! ! { ! ! | E ^ u p p o o o o o o o o o o o o o o o o o o o o o o o o o o o o o o o o o o o o o o o # # # # # # o o + + o o o o o o o o o o o o o o o o o o o o o o o o o o o o o o o o o o o o o o o o o o o o o o o o o o o o o o o o o o o o o o o o o o o o o o o o o o o o o o o o o o o o o o o o o # o # 3 ; ; , # # o o o o # o o , , , ; ; ; , # # # # # # o o o o o o > > o o o o o o o o o o o o o o o o o o # # o o , o < d ^ p p p p p p p 5 9 5 5 , o o # ; ; ; ; o # # # o o o o o o o o o o o o o o o o o o o o o o o o o o o o o o o o o o o o o o o o o o o o o o o o o o o o o o o o o o o o o o o o o o o o o o o o o o o o o o o o o o o o ",
"o o o o o o o o o o o o o o o o o o ; ; ; ; o o o , # o o , ; X : ^ / ^ - X > 6 + o ; , , ; # # # # # # o o o o o o o o o o o X , o o ; ; o ; ; o o o o o o o # o o o o o o o o o o o o o o o o o o o + o o o o o o o o o o o o o o o o + + o o + + o o o o o o ; ; o o o o o o ; ; ; ; o o o o o o # # o o # # o o # # o o o # # o . o o # # # # f o.f f H H H d # X # o o X 3 o o o o o o + + ; o # + o o 3 o o o o + o o ; ; ; ; o o o o o o o o o o o o o o o o o o o o o o o o o o o o o o o o o o o o o o o o o o o o o o o o o o # # o o o o o o + o o # # , # # o o o o . o o o o X X o # o + + ; O p $.+.| +./ O O X X , X X 7 R R 7 < < - , R ! W ! ! W R ~ ~ ~ R Y Y ! / T - 2 7 2 Y Q Q ! ! ! ! ! ! W ! ! / i - X 2 X i +.} | } } +.9.E Y ~ Q Q ! / / 1 - ; o , , o + + o o o ; + + o o o o o o o o o o o o o o o o o o o # # # o # o # o X p ^ ^ / +.+./ +.! | { ! ! +.+.^ - X o X o o o o o o o o o o o o o o o o o o o o o o o o o o o o o o o o # # # # o o o # # # # # # o o o o o o o o o o o o o o o o o o o o o o o o o o o o o o o o o o o o o o o o o o o o o o o o o o o o o o o o o o o o o o o o o o o o o o o o o o o o o o o o o o o o o o o o o o o o # o ; , - X ; , , , o X o o o X o ; o X X o ; o o o o o o o o o o o o # # o o o o o o o o o o o o o o o o o o # # o o # o 4 d ^ 9 X X - X X - - , , , o o o # ; ; ; o o # # # o o o o o o o o o o o o o o o o o o o o o o o o o o o o o o o o o o o o o o o o o o o o o o o o o o o o o o o o o o o o o o o o o o o o o o o o o o o o o o o o o o o o ",
"o o o o o o o o o o o o o o o o o o ; ; ; ; o o # o o o , < , , - E / R - - o O 3 o ; < , o # # # # o o o o o o , 3 3 3 > > > ; < , , , , o o , o o o o o o o o o o o o o o o o o o o o o o o o o o o o o o o o o o o o o o o o o o o o + + o o + + o o o o o o ; ; o o o o o o ; ; ; ; o + o o o o # # o o # # o + 3 3 3 3 + # # # o o # # # . # p f f a a a a d # o o # o X 3 o o o o o o + o # o + 3 o o o o o o + + o o o ; ; ; o o o o o o o o o o o o o o o + o o o o o o o o o o o o o o o o o o o o o o o o o o o o o o o o o o # # o o o o + + + + o o o , , # o o # # # # + # + + + # # # + 6 > X p +.+.+.@.@.X o # # , ; ; 9 ^ R 7 < 5 , < R ! ! Q Q W W W W W W R Y ! / T - 2 u 8 Y Q Q ! ! ! ! ! ! ! ! ! / p X X , O p +.} } 2.} 8.9.~ Y ! ! ! / / ^ < ; ; o , o o + + + o o o + + o o o o o o o o o o o o o o o o o o o # # # # o + , o X i / / ! +.! +.+.! ! ! ! +.+.^ ^ 1 X o + o o o o o o o o o o o o o o o o o o o o o o o o o o o o o o o o # # # # o o o o # # # # # # o o o o o o o o o o o o o o o o o o o o o o o o o o o o o o o o o o o o o o o o o o o o o o o o o o o o o o o o o o o o o o o o o o o o o o o o o o o o o o o o o o o o o o o o o o # o o , < < , < - - - 2 - - - - , - , , , ; ; , ; + + + + + + + o o o o # # # o o o o o o o o o o o o o o o o o # # o o # o < p ( p - X - 2 < X ; o o o o o o o ; ; ; ; # # # # o o o o o o o o o o o o o o o o o o o o o o o o o o o o o o o o o o o o o o o o o o o o o o o o o o o o o o o o o o o o o o o o o o o o o o o o o o o o o o o o o o o o ",
"o o o o o o o o o o o o o o o o o o o o o o o o # o o # # , 5 R R { +.! R ^ 0 X , X X ; ; o + + o o o o o o ; ; o o ; ; ; ; ; ; X , X o , ; X ; o o o o o o o o o o o o o o o + o o o o o o o o o o o o o o o o o o o o o o o o o o o o o o o o o o + o o o o # o # o o o o o o o o ; ; o o o o o o # # o o + + + + o o + + o o X # o 3 p d r . . # # $ $ $ $ $ 6 o o o o , o # o o o o o o o o , o o 3 + o o # o o o o o o o o ; ; o o o o o o o o o o o o o o o o + + + o o o o o + + + + o o o o o o o o o o o o o o o o o o o o o o o o # # o o + o + o + + o > 3 o o o o X o o o o o o o # X # o 3 + o 4 r 1 1 5 5 O + o + 3 , < p R R 0 7 5 , 2 E ! E ! ! ! ! W ! ! W R Y W / T - : i R W Q ! ! ! ! ! ! ! ! E u 7 1 ; , , X E +.| { } { +.+.E ~ E W E R < 9 - o o o , ; , o o o o ; ; > + o o o o o o o o o o o o o o + + + + o o o o o o + + o X 1 ^ +.! | E E ! ! ] +.! +.p 2 i < , > + o o o o o o o o o o o o o o o o o o o o o o o o o o o o o o o o # # # # # # # # # # # # # # # # o o o o o o o o o o o o o o o o o o o o o o o o o o o o o o o o o o o o o o o o o o o o o o o o o o o o o o o o o o o o o o o o o o o o o o o o o o o o o o o o o o o o o o o o # o o < p p p T R W ! / / ^ ^ ( R i 9 p p 9 < - ; ; ; ; o o X X ; o o o o # # o o o o o o o o o o o o o o o o o o + + + o o , 5 < p p R E ^ ^ X , o o # # # # # o o ; ; # # # # o o o o o o o o o o o o o o o o o o o o o o o o o o o o o o o o o o o o o o o o o o o o o o o o o o o o o o o o o o o o o o o o o o o o o o o o o o o o o o o o o o o o ",
"o o o o o o o o o o o o o o o o o o o o o o o o o o , , X X p @.! +.Q +./ / p O X ; - - : ; o + o o o o o o ; , X X X X X X - X X , X X , , o o o o o o o o o o o o o o o o o + o o o o o o o o o o o o o o o o o o o o o o o o o o o o o o o o o o + + o o # # o o o o o o o o o o ; ; o o o o o o # # o o # # o o . O . O X . O X . 5 ( ( d   # o . . # $ . . o o , o o 3 o o o o o o o o + o # # o + o o o o o o o o o o # # o ; o o o o o o o o o o o o o o o o + + o o o o o o + + + o o o o o o o o o o o o o o o o o o o o o o o o o # # o o o o + + o o + + o X X ; - X X X X X X X X X - , X o X o o X X X O o o 6 o + , , , 1 i i 0 9 < X 2 E / ! ! ! / / ! ! ! W R i E / R - : R ^ ! / / / / / / / / / E 2 - X o > o O p +.+.+.+.+.+.+.! E R E ^ i O , X o + o o o o o o o o ; ; o + o o o o o o o o o o o o o o + + + + o o o o o + + o # X e ^ +.| +.^ ^ / +.+.+.o.@.p O X X > o o o o o o o o o o o o o o o o o o o o o o o o o o o o o o o o o o o o # # # # # # # # # # # # # # o o o o o o o o o o o o o o o o o o o o o o o o o o o o o o o o o o o o o o o o o o o o o o o o o o o o o o o o o o o o o o o o o o o o o o o o o o o o o o o o o + o o o o o o # o , 5 ^ ^ ^ ^ / / / +.+.+./ / / R R ^ ^ i 2 - - - - - - X X X , ; o o o # # o o o o o o o o o o o o o o o o o o + + + o o o ; O p ^ / / @.^ X o o o o # # # # o o ; ; # # # # o o o o o o o o o o o o o o o o o o o o o o o o o o o o o o o o o o o o o o o o o o o o o o o o o o o o o o o o o o o o o o o o o o o o o o o o o o o o o o o o o o o o ",
"o o o o o o o o o o o o o o o o # # # # # # # o o o , , X X 5 d p R T E R ( 9 X , i 7 7 i 9 , o o o o o , , , , p p p u p p p p r r 1 X o , o ; ; ; o o o o o o ; , ; ; ; o o o o o o o o o o o o o o o o o o o o o o o o o o o o # # # # # o o o + + + o o # # o o # # o o o o o o o o o o o o o o o o # # # # . # 5 5 1 1 e e e 2   # r r r . # # o o 3 + + + o o , o o 3 o o o o o o o o o o o # o o o o o o o o o o o o # # # , o o o o o o o o o o o o o o o # o o o o o o o o o o o o o o o o o o o o o o o o o o o o o o o o o o o o o o o o o o o o o o + # X X 2 u i u u u i i i i u u u u 2 5 ; , # o 3 # o # o 3 O o 3 4 < 5 i i 0 9 4 , , p R R ( R R R R R R T p 9 R p p , 3 p R R E E R R ( ( ^ R ^ ^ 1 : , ; 3 3 X p ^ ^ ^ ^ ^ ^ E p p i p ( 0 o , o + + o o X o o o o o ; , o o o o o o o o o o o o o o o o + + o o o # # o o + + + # X e o.+.E i E / o.E p p p ^ p X , o 3 # o o o o o o o o o o o o o o o o o o o o o o o o o o o o o o o o o o o o o # # # # o o o o o o o o o o o o o o o o o o o o o o o o o o o o o o o o o o o o o o o o o o o o o o o o o o o o o o o o o o o o o o o o o o o o o o o o o o o o o o o o o o o o o o o o + + + + o o o o # # , < i i i T p R R R ^ ^ ^ R R p u 9 0 9 9 7 7 7 7 7 u u u 9 , , ; o ; ; ; ; o o o o o o o o o o o o o o o o o + + o o o ; ; ; 9 p p p p d ; o o o o o # # # # # , , # # # # o o o o o o o o o o o o o o o o o o o o o o o o o o o o o o o o o o o o o o o o o o o o o o o o o o o o o o o o o o o o o o o o o o o o o o o o o o o o o o o o o o o o ",
"o o o o o o o o o o o o o o o o # # # # # # # o # o o o , , X X X X O X O - X X 9 ^ / ^ / ^ < ; ; o o # , , , - / / / / +.+.+.+./ o.p - X , , , ; o o o o o o o o # o o ; o o o o o o o o o o o + o o o o o o o o o o o o o o o o # # # # # o o o + + + + o # # o o o # o o o o o o o o o o o o o o o o # # # # . r f ^ f f f f ^ p . . . . # # O o # o 3 + o + 3 o # o o , o , o o o o o o o o o # # o o # o o o o o o o o # # o ; o o o o o o o o o o o o o o o # # # o o o o o o o o o o o o o o o o o o o o o o o o o o o o o o o o o o o o o o o o + o o o # # X X e E / / / +.+.@.@.+.+.+./ ^ p ^ < , o # o o o 3 o 3 X # , 3 , < 7 7 1 5 , o O X O O - X X X X - - - X X X X o X O X - X - - X X - - - - X : X ; , X o + , o X O O O X O X X X X X O O ; o X + o o 3 o + o o o o , , o o o o o o o o o o o o o o o o + + o o o # o o o + + + # O 1 o.E u X i ^ ^ 1 O X X O o X 6 o o o # o o o o o o o o o o o o o o o o o o o o o o o o o o o o o o o o o o o o # # # # o o o o o o o o o o o o o o o o o o o o o o o o o o o o o o o o o o o o o o o o o o o o o o o o o o o o o o o o o o o o o o o o o o o o o o o o o o o o o o o o o o o o o o o o + + + + + + o o o # o - : - X - X X X X O X O X - 2 : X - 9 ( ^ E E E ^ / / / / 2 2 ; ; o ; + o o o o o o o o o o o o o o o o o + + # o o + 3 ; ; X X X O X , X o o # # # X X , , , , o o o # # o o o o o o o o o o o o o o o o o o o o o o o o o o o o o o o o o o o o o o o o o o o o o o o o o o o o o o o o o o o o o o o o o o o o o o o o o o o o o o o o o o o o ",
"o o o o o o o o o o o o o o o o o o o o o o o o o o o o o o ; ; ; ; , , # # , , 5 ^ ( ( ^ ^ < - ; o , # X - - O ^ ! ! ! ! ! Q Q ! ! u - X - o 3 o o + + + o o o o # o o o o o + ; ; o X o # # o X + 3 > ; o o o o o o o o o o o o o o o o o o o o o o o o o o o o o o o o o o o o o o o o o o o o o o o # # # # X r f f f f f f ( r # o # # o o # # # # # + + # o o o o o o o o o o o o o o o o o o o o o o o o o o o o o o o o o o o o o o o o o o o o o o o o o o o o o o o o o o o o o o o o o o o o o o o o o o o o o o o o o o o o o o o o o o o o o o o o o # # , i ^ ^ ^ E / +.@.@.+.+./ ^ ^ ^ p 5 , o o # # # # # # # # , , , < 9 9 1 1 < , # o o o ; , ; , ; ; ; ; ; ; , , o o o ; ; ; , , , , , , , , , , , , # # # # + o o o o ; ; ; , < , o , o X , . o + + + + o o o o # # # o o , o o o # # # # # o o o o o o o o o o o o o o o o o + o X r ^ ^ p O p ( ( p X X 4 ; o o o o o o o o o o o o o o o o o o o o o o o o o o o o o o o o o o o o o o o o o o o o o o o o o o o o o o o o o o o o o o o o o o o o o o o 3 o o o # # # , , o , X 3 X o # 3 o ; o 3 3 o o o o o , 3 # o + o o o o o o o o o o o o o o o o o o o o o o o o o o o o o o o o o o o o o o o o o o o o o # , , ; o ; ; ; ; ; ; ; , , , , 6 d ( ^ E ^ ^ ^ / / / 1 2 - - , o + + o o o o o o o o o o o o o o o o o o o o o o o o ; ; ; , ; ; ; ; X : X X - - - - - X X , + o # , , 3 ; X 3 3 X 3 o o o o o o o o o o o o o o o o o o o o o o o o o o o o o o o o o o o o o o o o o o o o o o o o o o o o o o o o o o o o o o o o o o o o o o o o o o o o ",
"o o o o o o o o o o o o o o o o o o o o o o o o o o o o o o o o o o o o o o o , ; 5 5 5 9 5 - X , o # o , e E E ^ ! ! ! ! Q Q Q { +./ E p 1 X # o o + o + + ; o o o o o o o o o ; ; ; o o o # # , o o o , , # 3 o o o o o o o o o o o o o o o o o o o o o o o o o o o o o o o o o o o o o o o o o o o o o # # # . # , 3 # # 1 3 6 % o o + # # # # # # # # # # # o o o o o o o o o o o o o o o o o o o o o o o o o o o o o o o o o o o o o o o o o o o o o o o o o o o o o o o o o o o o o o o o o o o o o o o o o o o o o o o o o o o o o o o o o o o o o o o o o o X X < 5 i 1 8 7 u u p p u 7 i i 5 1 , o , , # # # # + + + # # , , , < < 1 5 < , # o o o + o o o o o o o o o o o o o o o o o o # # # # , , , # o , , # # # o o + + + o o o o o o o o > ; ; 3 # o . o 3 3 o # # # o o + o o ; o o o o # # # # o o o o o o o o o o + + o o o o o , o X < p p < X 3 6 6 6 o o , o o o o o o o o o o o o o o o o o o o o o o o o o o o o o o o o o o o o o o o o o o o o o o o o o o o o o o o o o o o o o o o o o o o o o o o o o o o # # o o o o X , o 6 # , X 4 o # # o 3 ; 3 o o ; ; # o o + o o o o o o o o o o o o o o o o o o o o o o o o o o o o o o o o o o o o o o o o o o o o o o o o o o o o o o ; ; ; ; ; ; o 3 5 0 7 7 7 7 7 9 u u i R i 2 X , + o o o o o o o o o o o o o o o o o o o o o o o o o o o o o o o o ; X 9 ^ R R E E ^ ^ 5 X o o o o X X o 3 X # 3 o # o o o o o o o o o o o o o o o o o o o o o o o o o o o o o o o o o o o o o o o o o o o o o o o o o o o o o o o o o o o o o o o o o o o o o o o o o o o o ",
"o o o o o o o o ; ; o o + + o o o o o o o o o o o o o o o o o o o o o o o # # # X , ; X X , X o # o , X , p @.@./ ^ ^ +.+.+.+.+.E / / @.^ 5 X # # # o o o o o o o o o o o o ; ; ; > ; ; o o o o o X X X X X o o # # o o o o o o o o o o o o o o o o o o o o o o o o o o o o o o o o o o o o o o o o o o o o o # # o X . . . . . o o o # # o o o # # # # # # # # o o o o o o o o o o o o o o o o o o o o o o o o o o o o o o o o o o o o o o o o o o o o o o o o o o o o o o o o o o o o o o o o o o o o o o o o o o o o o o o o o o o o o o o o o o o o o o o o o + # o o # , X X X X X X X o o - - - o X o # # o o o o o o o o o , , , < < 1 1 , , # o + + o + o o o o o o o o o o o o o o o o o o # # # # # , # # o o # # # o o o o o o o ; ; 3 o o + o o o X # . . . X o o o # # o o o + ; o o o o o # # # # o o o o o o o o # # o o o o o o o + # X X , , X ; o X X o # o o o o o o o o o o o o o o o o o o o o o o o o o o + o o o o o o o o o o o o o o o o o o o o o o o o o o o o o o o o o o o o o o o o o o o o o o o o ; 3 + + + o o , o 3 X 3 o # . X . . O o o X , ; , 3 ; o ; > + o o o o o o o o o o o o o o o o o o o o o o o o o o o o o o o o o o o o o o o o o o o o o o o o o o o o o o o o ; ; ; ; o o o ; - - X X X X X - / / R - O , , o o o o o o o o o o o o o o o o o o o o o o o o o o o o o o o o , O p / +./ +.+.@.@.p X X ; ; - X o X 3 ; o 3 o o o o o o o o o o o o o o o o o o o o o o o o o o o o o o o o o o o o o o o o o o o o o o o o o o o o o o o o o o o o o o o o o o o o o o o o o o o o o o ",
"o o o o o o o o ; ; o o + + + o o o o o o o o o o o o o o o o o o o o o o o o # # , # X # # # # # o , o X 1 p ^ f f E E E E E E ^ ^ ^ ( d 4 X # # o o # o o o o o o o o o o ; ; > o ; 3 > + o o # 1 r 5 # o # o # # o o o o o o o o o o o o o o o o o o o o o o o o o o o o o o o o o o o o o o o o o o o o o o # # o # # # # o # o # # # o o # # # # # # # # # o o o o o o o o o o o o o o o o o o o o o o o o o o o o o o o o o o o o o o o o o o o o o o o o o o o o o o o o o o o o o o o o o o o o o o o o o o o o o o o o o o o o o o o o o o o o o o o o o + + + o # # o # # # o o + + 3 ; ; o o o o o o o o o o o o o o o # ; 1 p i 1 < , , # o + + + + o o o o o o o o o o o o o o o o o o o o # # # # o o o o # # o o o o , # # # ; o > O o + o o 3 # # r r 3 o o + # o o o o o + ; X o o o o o # # # o o o o o # o o # # o o o + o o o # , o X X o o 3 o o o o o o o o o o o o o o o o o o o o o o o o o o o o o o o + o o o o o o o o o o o o o o o o o o o o o o o o o o o o o o o o o o o o o o o o o o o o o o o o + + o + + + o # o 3 X o O 5 1 5 3 6 6 r 6 # , o ; 3 > o ; 3 o o o o o o o o o o o o o o o o o o o o o o o o o o o o o o o o o o o o o o o o o o o o o o o o o o o o o o o o o ; ; ; ; ; ; o X , , o o o o - - p R p 7 1 < , o o o o o o o o o o o o o o o o o o o o o o o o o o o o o o o o , , p ^ E E E E ^ d 4 X ; ; , 1 5 6 X ; , o o # o o o o o o o o o o o o o o o o o o o o o o o o o o o o o o o o o o o o o o o o o o o o o o o o o o o o o o o o o o o o o o o o o o o o o o o o o o o o o ",
"o o o o o o o o ; ; o o o o + o o o o o o o o o o o o o o o o o o o o o o o o # # # # # # # o o # ; , , X o , , X X X X X X X X X X X X X o o + o o o o o # # # # o o o , , ; ; 3 3 o o + + o # X r ^ p , # , o o # # # o o o o o o o o o o o o o o o o o o o o o o o o o o o o o o o o o o o o o o o o o o o o o o o # o o o o # o o + + + # + # # # # # # # # o o o o o o o o o o o o o o o o o o o o o o o o o o o o o o o o o o o o o o o o o o o o o o o o o o o o o o o o o o o o o o o o o o o o o o o o o o o o o o o o o o o o o o o o o o o o o o o o o o + o o # # + + + + + + + % + 6 3 , # # + o o o o # # o o o # # o - 5 ^ d 5 - , # o o + + + o o o o o o o o o o o o o o o o o o o o o # # # # , , # # # # # # ; ; ; , , , o + 3 + o o o o # o . f @.d O . # o o o + + o o ; o ; ; ; o o o o o o o o o # # # # # # # # # o o o o o o + > ; ; , # 3 3 3 # o o # o o o o o o o o o o o o o o o o o o o o o o o o o o o o o o o o o o o o o o o o o o o o o o o o o o o o o o o o o o o o o o o o o o o o o o o o # # o o o o o o O X , o o X a f f a f f f a $ X X o # 3 o > > o o o o o o o o o o o o o o o o o o o o o o o o o o o o o o o o o o o o o o o o o o o o o o o o o o o o o o o o o ; ; ; ; , , ; o 3 + + # + # # , - - 1 ^ ( p X # o o o o o o o o o o o o o o o o o o o o o o o o o o o o o o o o X X X X , - X X , o o 3 o , p ( d o o 3 o o # , o o o o o o o o o o o o o o o o o o o o o o o o o o o o o o o o o o o o o o o o o o o o o o o o o o o o o o o o o o o o o o o o o o o o o o o o o o o o ",
"o o o o o o o o ; ; o o o + o o o o o o o o o o o o o o o o o o o o o o o o o o o # o o # # # # # ; ; , , , X X # # # # # # # # # # o o # 3 + o o o o o # # # # o o o o , , , o O O O O O . . . $ r ^ p X X o X o o # # o o o o o o o o o o o o o o o o o o o o o o o o o o o o o o o o o o o o o # o o o o o o o + o o o X o + # # # # 3 + # o # # # # # # # # o o o o o o o o o o o o o o o o o o o o o o o o o o o o o o o o o o o o o o o o o o o o o o o o o o o o o o o o o o o o o o o o o o o o o o o o o o o o o o o o o o o o o o o o o o o o o o o o # # + o o o o + o o + + + + @ o + + o o o o o o o o # # o o # # # X X 5 ( d 1 X , o o o + + + o o o o o o o o o o o o o o o o o o o o o o o # # , , # # # # , # ; ; ; , , o o o O o X . . .     . p @.d O O # # # o o + o o , o ; ; ; ; o o o o o o o o o # # # # # # # # # o o o o o o > > o o o # o o o o o # o o o o o o o o o o o o o o o o o o o o o o o o o o o o o o o o o o o o o o o o o o o o o o o o o o o o o o o o o o o o o o o o o o o o o o o o # o o # o o X X X . o # o . a o.a a D a H y $ X # X o 3 o > > o o o o o o o o o o o o o o o o o o o o o o o o o o o o o o o o o o o o o o o o o o o o o o o o o o o o o o o o o , ; ; ; ; ; ; o o o + + + o o o X O 1 ( @.p X # # o o o o o o o o o o o o o o o o o o o o o o o o o o o o o o o + # o # , X X o o o % > O - d @.( ; X , o o o 3 o o o o o o o o o o o o o o o o o o o o o o o o o o o o o o o o o o o o o o o o o o o o o o o o o o o o o o o o o o o o o o o o o o o o o o o o o o o o ",
"o o o o o o o o o o o o o o o o o o o o o o o o o o o o o o o o ; ; ; o o o o o # o o o o o + + # ; o ; 3 , o o # # # # # # # # o o o # + + + o o o o # # # # o o o ; ; # # o # # r f f r y a a r a ^ p # . # o o o # # # # o o o o o o o o o o o o o o o o o o o o o o o o o o o o o o o o o o # # # # # # # o , 3 , # o o ; 3 # + + # # # o o # # # # # # # # o o o o o o o o o o o o o o o o o o o o o o o o o o o o o o o o o o o o o o o o o o o o o o o o o o o o o o o o o o o o o o o o o o o o o o o o o o o o o o o o o o o o o o o o o o o o o o o o 3 # # # # # o o # # # + + # # # o ; ; o o o o o o o o o o o o o o o X < 0 5 < X , o o o o + o o o o o o o o o o o o o o o o o o o o o o o o o # # # # # # # , # ; ; ; ; ; o + o O r r r a a a a p r r r X . r d r # o # o o 3 ; > > ; ; o o o o o o o o o # # # # # # # # # # # o o o o ; ; o X # o o o o # , o o o o o o o o o o o o o o o o o o o o o o o o o o o o o o o o o o o o o o o o o o o o o o o o o o o o o o o o o o o o o o o o o o o o o o o o o # o o # # $ 2 r r $ . # o   a H y D D D D a r p e X X + + o + o o o o o o o o o o o o o o o o o o o o o o o o o o o o o o o o o o o o o o o o o o o o o o o o o o o o o o o o o # # ; ; o o o o o o o o + + o # 6 , < p p , X # # o o o o o o o o o o o o o o o o o o o o o o o o o o o o o o o o + + o o o X # + + % + . o 5 d 9 o o ; o o o # o o o o o o o o o o o o o o o o o o o o o o o o o o o o o o o o o o o o o o o o o o o o o o o o o o o o o o o o o o o o o o o o o o o o o o o o o o o o ",
"o o o o o o o o o o o o o o o o o o o o o o o o o o o o o o o o ; ; > > o o o o # o o # o o o o # ; o o o o o 3 o o # # o o o + # o o + o o o + o o # # # # # o + > ; # # # # X   r o.o.H H H D H H f p # X # # o o # # # # o o o o o o o o o o o o o o o o o o o o o o o o o o o o o o o o o o # # # # # # # # o o o o # # o o # # # o o o # + # # # # # # # # o o o o o o o o o o o o o o o o o o o o o o o o o o o o o o o o o o o o o o o o o o o o o o o o o o o o o o o o o o o o o o o o o o o o o o o o o o o o o o o o o o o o o o o o o o o o o o o o o o o # # # o o # # # # # # # # , 3 3 3 o o o o o o o o o o o o o o X X ; ; X , o o o o + + o o o o o o o o o o o o o o o o o o o o o o o o o , , , , # # # # # ; ; ; o o o o o   r a y ^ o.f f o.#   . O # p o.f # . # o # 3 ; > ; ; ; o o o o o o o o o o # # # # # # o # # # # # , # ; , ; o , , , # # o o o o o o o o o o o o o o o o o o o o o o o o o o o o o o o o o o o o o o o o o o o o o o o o o o o o o o o o o o o o o o o o o o o o o o o o o o o # o o # . $ r ^ ^ 1 O o # O a o.D H D D H H a o.r # X + o o # # o o o o o o o o o o o o o o o o o o o o o o o o o o o o o o o o o o o o o o o o o o o o o o o o o o o o o o o o o o ; ; ; o o o o o + + + + + + o 3 o O O o o # o o o o o o o o o o o o o o o o o o o o o o o o o o o o o o o o o + + X o # o X o o + + + o X O o X ; o o , o o o o o o o o o o o o o o o o o o o o o o o o o o o o o o o o o o o o o o o o o o o o o o o o o o o o o o o o o o o o o o o o o o o o o o o o o o o o o o ",
"o o # o o + o o o o o + o o o o o o o o o o o o o o o o o o o o ; ; ; ; o o o o ; ; ; o o o o o o o o o o o o o + + + + o o + o o o o o o o + + o o o # o o o o + + o o # $ $ $ $ e a D D D D D H a f r # o # o o o # # # # # # o o o o o o o o o o o o o o o o o o o o o o o o o o o o o o o o o o o o # # # # # # # # # # o # o o o o o o o o o o o o o o o o o o o o o o o o o o o o o o o o o o o o o o o o o o o o o o o o o o o o o o o o o o o o o o o o o o o o o o o o o o o o o o o o o o o o o o o o o o o o o o o o o o o o o o o o o o o o o o o o ; ; ; o o o + o o o # # # # # # , o o ; , ; o o o X o o o o X o o 3 X , 3 o , o o o o o o o o o o o o o o o o o o o o o o o o o o o o o o o o o o o o o o o o o 3 o o # # # o $ # r a y a o.a a f r X # # X r a e $ X # o X o > ; , , , # # # o o + + o # o o o o o # # + o # + o o o o o o ; ; o o o o o o o o o o o o o o o o o o o o o o o o o o o o o o o o X o # o o o # 3 o o + + o o o o o o o o o o o o o o o o o o o o o o o o o o o o o o o o o o o o % # # # # $ 1 f ^ , # O # . r f f f f a f f p f 3 , # o o # # # # o o o o o o o o o o o o o o o o o o o o o o o o o o o o o o o o o o o o o o o o o o o o o o o o o o o o o o o o o o o o o ; ; o o o o o o o o + o o # o o o o o o o o o o o o o o o o o o o o o o o o o o o o o o o o o o o o o # X X < , X - X o o o o o ; , o o o ; o o o o o o o o o o o o o o o o o o o o o o o o o o o o o o o o o o o o o o o o o o o o o o o o o o o o o o o o o o o o o o o o o o o o o o o o o o o o o o o o ",
"o o # # + 3 3 3 + + + 3 # o , , o o o o o o o o o o o o o o o o , , ; # # # # # ; ; ; ; o o o o o o o o o o o o o o + o o + o o o o + o o o + + o o o o o o o o % % o # r f f f a a H D D D D D D e $ $ X o 3 o o o # # # # # # o o o o o o o o o o o o o o o o o o o o o o o o o o o o o o o o o o o o o # # # # # # # # # # # o o o o o o o o o o o o o o o o o o o o o o o o o o o o o o o o o o o o o o o o o o o o o o o o o o o o o o o o o o o o o o o o o o o o o o o o o o o o o o o o o o o o o o o o o o o o o o o o o o o o o o o o o o o o o o o o ; ; ; o o o + + o o o # o o ; ; ; o ; ; o ; o , o o o o o o o o o > o ; , o 3 o o o o o o o o o o o o o o o o o o o o o o o o o o o o o o o o o o o o o o o o o o o # # # . # p r a a y y a $ . # # o , # X r f p p r 5 , # ; , o o o o o o o o + + + + , , # # o o o o o o o o o o o o o o , , o o o o o o o o o o o o o o o o o o o o o o o o o o o o o o o o 3 3 , # # # # # o o + + o o o o o o o o o o o o o o o o o o o o o o o o o o o o o o o o o o o o + # o # # $ r o.d . . o # . $ . . . $ . X $ X # 3 # o o o # # o # o o o o o o o o o o o o o o o o o o o o o o o o o o o o o o o o o o o o o o o o o o o o o o o o o o o o o o o o o o o o o ; o o # o o o o o o + + o o o o o o o o o o o o o o o o o o o o o o o o o o o o o o o o o o o o o o # # X 2 p E p p p 1 X o 3 o o o o ; o o o o o o o o o o o o o o o o o o o o o o o o o o o o o o o o o o o o o o o o o o o o o o o o o o o o o o o o o o o o o o o o o o o o o o o o o o o o o o o o o o ",
"o o o o o o o + + o o o o o o o o o o o o o o o o o o o o o o o # # # # # # # # o o ; ; o o o o o o o o o o o o o o o o o o o o o # o o o o o o o o o o o o + o # # . . e H H a H H H H H H H H o.r $ # # # o o o o # # # # # # o o o o o o o o o o o o o o o o o o o o o o o o o o o o o o o o o o o o o o o o o o o o # # # # o o o o o o o o o o o o o o o o o o o o o o o o o o o o o o o o o o o o o o o o o o o o o o o o o o o o o o o o o o o o o o o o o o o o o o o o o o o o o o o o o o o o o o o o o o o o o o o o o o o o o o o o o o o o o o o o o o o o o + + + + + o o ; ; ; ; o # # o o o # # o o o o o o + + + > o o o o 3 o o o o o o o o o o o o o o o o o o o o o o o o o o o o o o o o o o o o o o o o o # # # # X   $ f a a a a f f 3   . o # # X X r a $ r r $ O o ; X ; , , , o o o o o o o o ; ; ; , o ; > + 3 3 3 3 + + + o o o # # o o o o o o o o o o o o o o o o o o o o o o o o o o o o o o o o o o o o o o # # o o o o o o # # o o o o o o o o o o o o o o o o o o o o o o o o o o o o o o o # o . . . . . r f o.r X .     .   . O X . O # # o 3 + o o o # o o o o o o o o o o o o o o o o o o o o o o o o o o o o o o o o o o o o o o o o o o o o o o o o o o o o o o o o o o o o o o o o o o o # # # o o o o o o o o o o o o o o o o o o o o o o o o o o o o o o o o o o o o o o o o o o o o o o X < ^ / ^ ^ ^ 1 X o 3 ; o X ; ; ; ; o o o o o o o o o o o o o o o o o o o o o o o o o o o o o o o o o o o o o o o o o o o o o o o o o o o o o o o o o o o o o o o o o o o o o o o o o o o o o o o o ",
"o o o + # # + 3 o + # o 3 3 o o o o o o o o o o o o o o o o o o o # # # o o o o o o ; ; o o o o o o o o o o + o o o o o o o o o # # o o o o o o o o o o o o + o o # r e y H D e e e r r r r r r r , X # o o o o o o # # # # # # o o o o o o o o o o o o o o o o o o o o o o o o o o o o o o o o o o o o o o o o o o o o # # # # o o o o o o o o o o o o o o o o o o o o o o o o o o o o o o o o o o o o o o o o o o o o o o o o o o o o o o o o o o o o o o o o o o o o o o o o o o o o o o o o o o o o o o o o o o o o o o o o o o o o o o o o o o o o o o o o o o o o o o + o + + o o o ; ; o o # # o o # o o o 3 , # # # 3 # o o o o o o + o o o o o o o o o o o o o o o o o o o o o o o o o o o o o o o o o o o o o o o o o # # . X 5 2 e f f r e r p r % o # # o o o # , 1 r o.o.r X # 3 X , , , , # # # # 3 o 3 3 , , , , , o o X o o o o + + o + o o o o o o o o o o o o o o o o o o o o o o o o o o o o o o o o o o o o + o # , # , 3 # o o o o o o # , o o o o o o o o o o o o o o o o o o o o o o o o o o o o o o o # # r p r r r p r r $ . # r r r p r o # , o , , o ; o o o o + + o o o o o o o o o o o o o o o o o o o o o o o o o o o o o o o o o o o o o o o o o o o o o o o o o o o o o o o o o o o o o o o o o o # # # o o o o o o + o o o o o o o o o o o o o o o o o o o o o o o o o o o o o o o o o o o o o o o X , 9 p u u 1 , X o ; o o ; ; ; ; ; o o o o o o o o o o o o o o o o o o o o o o o o o o o o o o o o o o o o o o o o o o o o o o o o o o o o o o o o o o o o o o o o o o o o o o o o o o o o o o o o ",
"+ o o o o o . . . # # o # + o o o o o o o o o o o o o o o o o o o o o o o o o + o o o o o o # o o o o o o o o o o o o o o o o o # # # # o o o o o o o o o + + o . # f o.H o.H $ . . $ . . O O O . o # o o o # o o o o o o o o o o o o o o o o o o o o o o o o o o o o o o o o o o o o o o o o o o o o o o o o o o o o o o o o o o o o o o o o o o o o o o o o o o o o o o o o o o o o o o o o o o o o o o o o o o o o o o o o o o o o o o o o o o o o o o o o o o o o o o o o o o o o o o o o o o o o o o o o o o o o o o o o o o o o o o o o o o o o o o o o o o o o o o o o o o o o o o o o o o o o o o # o X X , X X X X , X ; X o o o o o o o o o o o o o o o o o o o o o o o o o o o o o o o o o o o o o o o o o o o o o o X # . # p f f o.%.r . . . . . X X X o # # # X . 1 f o.r O o 3 ; o o o o o o o o o o ; ; X X , X , , - , , 3 3 3 + + o + o # o o o o o o o o o o o o o o o o o o o o o o o o o o o o o o o o o o 3 o o o X X o X , o o o # o o , o o o o o o o o o o o o o o o o o o o o o o o o o o o o o o o #   p o.^ f ^ p   X . . r o.%.f o.d o X , o , o o o o o ; + + o o o o o o o o o o o o o o o o o o o o o o o o o o o o o o o o o o o o o o o o o o o o o o o o o o o o o o o o o o o o o o o o o o o o o o o o o o o o o o o o ; o o o o o o o o o o o o o o o o o o o o o o o o o o o o o o o o o o + o X : X X X X o o o o o o o ; ; ; ; o o o o o o o o o o o o o o o o o o o o o o o o o o o o o o o o o o o o o o o o o o o o o o o o o o o o o o o o o o o o o o o o o o o o o o o o o o o o o o o o ",
"+ + o . X # # X # , X . # + o o + o o o o o o o o o o o o o o o , , ; # + + + + o o o o o o # # o o o o o o o o o o o o o o o o # # # # o o o o o o o o o + + o # , f ^ f o.f 2 $ # # o X o o + + 3 3 # o , # X o o o o o o o o o o o o o o o o o o o o o o o o o o o o o o o o o o o o o o o o o o o o o o o o o o o o o o o o o o o o o o o o o o o o o o o o o o o o o o o o o o o o o o o o o o o o o o o o o o o o o o o o o o o o o o o o o o o o o o o o o o o o o o o o o o o o o o o o o o o o o o o o o o o o o o o o o o o o o o o o o o o o o o o o o o o o o o o o # # o o o o o o + o o o o o , 1 < < X , 2 - 1 1 5 X o # o o o # o o o o o o o o o o o o o o o o o o o o o o o o o o o o o o o o o o o o o o o o X , o o r p a f o.r . o o O , 5 < o , o o # # . r f ^ r X o , o # # # # # # # # o o o X O , 1 2 2 - - < , X X o o o o o o o o o o o o o o o o o o o o o o o o o o o o o o o o o o o o o o o o o o X o o O X 5 , , # X o # o o # o o o o o o o o o o o o o o o o o o o o o o o o o o o o o o o # . d f f f ^ d   . $ X 2 a f f o.d o X , , , , , o o o o o o o o o o o o o o o o o o o o o o o o # # # # # # # # o o o o o o o o o o o o o o o o o o o o o o o o o o o o o o o o o o o o o o o o o o o o o o o o o o o o o o o o o o o o o o o o o o o o o o o o o o o o o o o o o o o o o o o o o o o o ; o ; X o # + o o 3 , o ; ; ; ; o o o o o o o o o o o o o o o o o o o o o o o o o o o o o o o o o o o o o o o o o o o o o o o o o o o o o o o o o o o o o o o o o o o o o o o o o o o o o o o o ",
"o o o X 5 f ^ f a a e X # # + 3 o o o o o o o o o o o o o o o o ; ; ; ; ; + > ; ; ; ; ; o o # # o o o o o o # # # # o o o o o o # # o o o o o o o o o o o + + + . O . . O # # O o + + + + 3 3 3 o + o o o ; o o o o o o o + o o o o o o o o o o o o o o o o o o o o o o o o o o o o o o o o o o o o o o o o o o o o o o o o o o o o o o o o o o o o o o o o o o o o o o o o o o o o o o o o o o o o o o o o o o o o o o o o o o o o o o o o o o o o o o o o o o o o o o o o o o o o o o o o o o o o o o o o o o o o o o o o o o o o o o o o o o o o o o o o o o o o o o o o o o o o o o o o o o + o # # X X 5 ^ ( R 7 i i i ^ ^ ( , X # # # o # o o o o ; ; o o o o o o o o o o o o o o o o o o o o o o o o o o o o o o o o o o ; , o o # # # , 1 # X 3 3 , r p p 4 , o o # o # . # 5 # X # , o o o o o o o o o o # , X , p ^ ^ o.^ ^ / ^ 1 X o o o o o o o # # o o o o o o o o o o o o o o o o o o o o o o o o o o o o o o o o 3 o 3 , # 5 d ^ 1 X X # # o o o o o o o o o o o o o o o o o o o o o o o o o o o o o o o o o o o . # # $ X # # . $ a ^ p X X $ # 3 O O o o o X o o # # # o o o o o o o o o o o o o o o o o o o o o o o o o o o o o o o o o o o o o o o o o o o o o o o o o o o o o o o o o o o o o o o o o o o o o o o o o o # # o o + + + o o o o o o o o o o o o o o o o o o o o o o o o o o o o o o o o o o o o o o # # , , , o + + o o o o o ; ; ; ; o o o o o o o o o o o o o o o o o o o o o o o o o o o o o o o o o o o o o o o o o o o o o o o o o o o o o o o o o o o o o o o o o o o o o o o o o o o o o o o o ",
"o + o O 1 f o.^ o.^ e     . O o o # o o o o o o o o o o o o o o o o X X X o o o o ; ; ; o o # # o o o o o o # # # # o o o o o o o # o o o o o o o o o o o + + + + 6 3 o o o o + o + + + ; ; ; X 3 + o 3 3 ; o , o o o o o o o o o o o o o o o o o o o o o o o o o o o o o o o o o o o o o o o o o o o o o o o o o o o o o o o o o o o o o o o o o o o o o o o o o o o o o o o o o o o o o o o o o o o o o o o o o o o o o o o o o o o o o o o o o o o o o o o o o o o o o o o o o o o o o o o o o o o o o o o o o o o o o o o o o o o o o o o o o o o o o o o o o o o o o o o o o o o o o o o o o + 3 , X X p / ^ ^ 1 p R p +.@.@.< O X # 3 o # o o o o ; ; o o o o o o o o o o o o o o o o o o o o o o o o o o o o o o o o o o , o o 3 , X X # o , o > X , p p p < , o # 3 o X . . . . X X X O X X X X X X X X O X X X - ( @.@.+.o.@.@.( 5 X ; o o o o o o # # o o o o o o o o o o o o o o o o o o o o o o o o o o o o o o o o 3 X o o X 5 ^ ( 1 # X # # o o o o o o o o o o o o o o o o o o o o o o o o o o o o o o o o o o o + O . # . . . # $ f o.p   X # . o o 3 # o + o # # # # # o o o + o o o o o o o o o o o o o o o o o o X X X - X o o o o o o o o o o o o o o o o o o o o o o o o o o o o o o o o o o o o o o o o o o o o o o o # # o o o + + o o o o o o o o o o o o o o o o o o o o o o o o # o o o o o o o o o o o # , o O O O O O O o + o O X ; ; ; ; ; o o o o o # o o o o o o o o o o o o o o o o o o o o o o o o o o o o o o o o o o o o o o o o o o o o o o o o o o o o o o o o o o o o o o o o o o o o o o o o o o ",
"> X o # , p f f f r p p e r p $ # o # O . 3 3 + o o o ; o # # # # , . X r r 2 . # o ; > o o # # o o o o o o o o o o o o o o o o o o o o o o o o o o o o o o o o o o o o o o o o o o o o o o o o , > # , # # # # o o o o o o o o o o o o o o o o o o o o o o o o o o o o o o o o o o o o o o o o o o o o o o o o o o o o o o o o o o o o o o o o o o o o o o o o o o o o o o o o o o o o o o o o o o o o o o o o o o o o o o o o o o o o o o o o o o o o o o o o o o o o o o o o o o o o o o o o o o o o o o o o o o o o o o o o o o o o o o o o o o o o o o o o o o o o o o o o o o o o o o o o o , 3 ; o # 5 p p p 5 1 5 p d ( p 5 o o # , o o o o o o o o o o o o o o o o o o o o o o o o o o o o o o o o o o o o o o o o o o o o o o o o o o , o o o o 4 5 p 5 4 3 ; o o o # # X # # X < p p u u u u u u i p u ^ u X - p d d ( f d d d 6 # o # # o o o o o o o o o o o o o o o o o o o o o o o o o o o o o o o o o o o o o o # o X o # 6 p d o o o o o o o o o o o o o o o o o o o o o o o o o o o o o o o o o o o o o o o o # # # # # # # # . f o.r . o + X o o o o o o o o o o o o o o o o o o o o o o o o o o o o o o o o ; : 9 i 7 p p , o o o o # # # # o o o o o o o o o o o o o o o o o o o o o # # # o o o o o o o o o o o o o o o o o o o o o o o o o o o o o o o o o o o o o o o o o o o o # # # # o o o o o o o o o # X , R ^ T R E 9 - - , ; o o 3 o o o 3 3 # # # # o o + o o > o o o o o o o o o o o o o o o o # # + o o o o o o # # # o . o + o + 3 o o o o o 3 3 o # ; , ; o o o o o o o o o o o o o o o o o o o o o ",
"3 ; o o . . .   O . r f a a f r O O # # o + o X o o o o o # # # O X X r ^ f r # # o o o o o # # o o o o o o o o o o o o o o o o o o o o o o o o o o o o o o o o o o o o o o o o o o o o o o o o # # # , # , # # o o o o o o o o o o o o o o o o o o o o o o o o o o o o o o o o o o o o o o o o o o o o o o o o o o o o o o o o o o o o o o o o o o o o o o o o o o o o o o o o o o o o o o o o o o o o o o o o o o o o o o o o o o o o o o o o o o o o o o o o o o o o o o o o o o o o o o o o o o o o o o o o o o o o o o o o o o o o o o o o o o o o o o o o o o o o o o o o o o o o o o o o o , , , o X X o X X X X O O X X # X X o , # o o o o o o o o o o o o o o o o o o o o o o o o o o o o o o o o o o o o o o o o o o o o o o o o o o o o o o o o o o , , , o o o o o , o o , , 5 E ^ ^ E E E / / +.+./ +.R X O X O O O O O O X X X o # o o o o o o o o o o o o o o o o o o o o o o o o o o o o o o o o o o o o o o o # o o o X X X X o o o o o o o o o o o o o o o o o o o o o o o o o o o o o o o o o o o o o o o # # # # # o o # # $ f o.r . X > > ; o o o o o o o o o o o o o o o o o o o o o o o o o o o o o o ; : < R / ^ / ( p o o o # # # # # o o o o o o o o o o o o o o o o o o o o o o o o o o o o o o o o o o o o o o o o o o o o o o o o o o o o o o o o o o o o o o o o o o o o # # # # o o o o o o o o o # X 1 / @.+.@.+.E 9 < , o o o o o o o o o X o # # o o o o o o o o o o o o o o o o o o o o o o o o o o o o o o # # # # o o % o o X o # , # o o X o # , o o o ; o o o o o o o o o o o o o o o o o o o o ",
"o X o o X # , # O # p f a a f r X o ; ; , o O 3 X X X X $ $ $ . # . . r ^ f 5 . # # # # o o o o o o o o o o o o o o o o o o o o o o o o o o o o o o o o o o o o o o o o o o o o o o o o o o o o o o o o o o o o o o o o o o o o o o o o o o o o o o o o o o o o o o o o o o o o o o o o o o o o o o o o o o o o o o o o o o o o o o o o o o o o o o o o o o o o o o o o o o o o o o o o o o o o o o o o o o o o o o o o o o o o o o o o o o o o o o o o o o o o o o o o o o o o o o o o o o o o o o o o o o o o o o o o o o o o o o o o o o o o o o o o o o o o o o o o o o o o o o o o o o o o o o o # # # o X o # # , # # o X X o o 3 , o o # o o o o o o o o o o o o o o o o o o o o o o o o o o o o o o o o o o o o o o o o o o o o o o o o o o 3 3 # o o o o o o o o o o o 3 o o o X 1 p p p R R R E E E ^ ^ ^ p < , 3 o o 3 # o # o # 3 6 # # o o o o o o o o o o o o o o o o o o o o o o o o o o o o o o o o o o o o o o o o # , + o o o o o o o o o o o o o o o o o o o o o o o o o o o o o o o o o o o o o o o o o o o # # # + + o o # X p f r X X > 3 ; o o o o o o o o o o o o o o o o o o o o o o o o o o o o o o o ; < p ^ E ^ ^ 5 o o o # # # # # o o o o o o o o o o o o o o o o o o o o o o o o o o o o o o o o o o o o o o o o o o o o o o o o o o o o o o o o o o o o o o o o o o o o # # # # o o o o o o o o # # X 2 ^ / / / ^ p 1 , o X o + o + + + o o o # o # # o o # # # # o o o o o o o o o o o o o o o # # # # # # # # o o o # o # + # # X X . . . X # o X X # # o o o o o o o o o o o o o o o o o o o o o o o ",
"; ; ; ; ; , , 4 3 # , 1 2 1 6 o > > ; X , o # f f f f a f f a f d , . X 5 3 X X # # # # o o o o o o o o o o o o o o o o o o o o o o o o o o o o o o o o o o o o o o o o o o o o o o o o o o o o o o o o o o o o o o o o o o o o o o o o o o o o o o o o o o o o o o o o o o o o o o o o o o o o o o o o o o o o o o o o o o o o o o o o o o o o o o o o o o o o o o o o o o o o o o o o o o o o o o o o o o o o o o o o o o o o o o o o o o o o o o o o o o o o o o o o o o o o o o o o o o o o o o o o o o o o o o o o o o o o o o o o o o o o o o o o o o o o o o o o o o o o o o o o o o o o # o o o , 3 3 , o o o # # , , , + 3 3 3 o o o , o o o o o o o o o o o o o o o o o o o o o o o o o o o o o o o o o o o o o o o o o o o o o o o o o o # # # , 3 3 o o # # + + + + # o o o X X , < , , , 2 2 2 2 2 - , , X X o o o o o o o o o X X # # o o o o o o o o o o o o o o o o o o o o o o o o o o o o o o o o o o o o o o # # o o o o o o o o o o o o o o o o o o o o o o o o o o o o o o o o o o o o o o o o o o o o o o # o + + + + o # $ % e # o o > + ; o o o o o o o o o o o o o o o o o o o o o o o o o o o o o o o X X < 1 2 < < X o o # # # # # # o o o o o o o o o o o o o o o o o o o o o o o o o o o o o o o o o o o o o o o o o o o o o o o o o o o o o o o o o o o o o o o o o o o o # # # # o o o o o o o o # # O X 1 1 1 2 1 < - o o o o o o > o o X X ; o o # # # o # , # # o o o o o o o o o o o o o o o # # # # # o o o # . # # o # # X . r ^ f a f f d ( r . . # # + + o o o o o o o o o o o o o o o o o o o o ",
"O X o o o X O X o X X X X # # o X X X . X . $ f D D D D a D a a o.r . O X O X # # # # o o o o o o o o o o o o o o o o o o o o o o o o o o o o o o o o o o o o o o o o o o o o o o o o o o o o o o o o o o o o o o o o o o o o o o o o o o o o o o o o o o o o o o o o o o o o o o o o o o o o o o o o o o o o o o o o o o o o o o o o o o o o o o o o o o o o o o o o o o o o o o o o o o o o o o o o o o o o o o o o o o o o o o o o o o o o o o o o o o o o o o o o o o o o o o o o o o o o o o o o o o o o o o o o o o o o o o o o o o o o o o o o o o o o o o o o o o o o o o o o o o o o o # # o o o o o # o o o o o o o o o o o o o o , , o o o o o o o o o o o o o o o o o o o o o o o o o o o o o o o o o o o o o o o o o o o o o o o o # # o o o o o , # # # + + + + + o o # # o o # o ; ; o o ; X - - # , # # # + o + X o o # , 3 , # # # o o o o o o o o o o o o o o o o o o o o o o o o o o o o o o o o o o o o o o , # o o X X X X o o o o o o o o o o o o o o o o o o o o o o o o o o o o o o o o o o o o o o o o o o o o + o o # o . . . # # > o ; o o o o o o o o o o o o o o o o o o o o o o o o o o o o o o o o X X X X X , o o o # # # # # o o o o o o o o o o o o o o o o o o o o o o o o o o o o o o o o o o o o o o o o o o o o o o o o o o o o o o o o o o o o o o o o o o o o o o o o o o o + + o o o o o o o X o X X X , - o ; o o o o o o X X - X - X ; o o o X o # o o o o o o o o o o o o o o o o o o o o o o o o o 3 o 3 # o # X X   e f o.f ^ @.^ @.r . . . o . o o o o o o o o o o o o o o o o o o o o o ",
"1 r , X + 3 ; 3 > 3 3 , # # + + O # r r e e e a D D D D D y y a f 1 . # # o o 3 # # # o o o + o o o o o o o o o o o o o o o o o o o o o o o o o o o o o o o o o o o o o o o o o o o o o o o o o o o o o o o o o o o o o o o o o o o o o o o o o o o o o o o o o o o o o o o o o o o o o o o o o o o o o o o o o o o o o o o o o o o o o o o o o o o o o o o o o o o o o o o o o o o o o o o o o o o o o o o o o o o o o o o o o o o o o o o o o o o o o o o o o o o o o o o o o o o o o o o o o o o o o o o o o o o o o o o o o o o o o o o o o o o o o o o o o o o o o o o o o o o o o o o o o o o # # o o o o # # + 3 + + # # o o o o o , # o o o o o o o o o o o o o o o o o o o o o o o o o o o o o o o o o o o o o o o o o o o o o o o o o o o # o o o o o o # # # + o o o o o o o o # , , o + # # # , , , X o o o o o o o # , # o o o o o # # o o o o o o o o o o o o o o o o o o o o o o o o o o o o o o o o o o o o o o o o o 3 3 3 3 3 o o o o o o o o o o o o o o o o o o o o o o o o o o o o o o o o o o o o o o o o o o o o + o + o # o o o # # o o o o o o o o o o o o o o o o o o o o o o o o o o o o o o o o o o + o o # o # o + o o # # # # o o o o o o o o o o o o o o o o o o o o o o o o o o o o o o o o o o o o o o o o o o o o o o o o o o o o o o o o o o o o o o o o o o ; ; o o o o o o o o o o o o o o ; , 6 3 o o # , , , , ; o o o o o o X 1 p 7 p 9 < - ; ; X o 3 o o o o o o o o o o o o o o o o o o o o o + , 3 3 o X 3 o # # X r a r a f r r p p r e 2 r r 6 + . o o o o o o o o o o o o o o o o o o o o ",
"o.o.p X o # o 3 o o o o o o o # $ e f H H H D H D D D D D D a a f # . % 3 > , o # # # o + o o o o o o o o o o o o o o o o o o o o o o o o o o o o o o o o o o o o o o o o o o o o o o o o o o o o o o o o o o o o o o o o o o o o o o o o o o o o o o o o o o o o o o o o o o o o o o o o o o o o o o o o o o o o o o o o o o o o o o o o o o o o o o o o o o o o o o o o o o o o o o o o o o o o o o o o o o o o o o o o o o o o o o o o o o o o o o o o o o o o o o o o o o o o o o o o o o o o o o o o o o o o o o o o o o o o o o o o o o o o o o o o o o o o o o o o o o o o o o o o o o o o o # # # + # # . . o o o o o o # 3 3 # # , o o o o o o o o o o o o o o o o o o o o o o o o o o o o o o o o o o o o o o o o o o o o o o o o o o o o , , , # # # o o o o o o o o # # o o o o o # o o o o o o o o o o # # o o # # # , # o o o , o # # o o o o o o o o o o o o o o o o o o o o o o o o o o o o o o o o o o o o o o o o o # o o o X o o o o o o o o o o o o o o o o o o o o o o o o o o o o o o o o o o o o o o o o o o o o o o o + # # # # # o o ; o o o o o o o o o o o o o o o o o o o o o o o o o o o o o o o o + + # # # o o o o o # # # # o o o o o o o o o o o o o o o o o o o o o o o o o o o o o o o o o o o o o o o o o o o o o o o o o o o o o o o o o o o o o o o o o o ; ; o o o o + + o + o o o o , - , < 4 4 ; o # # # o o o o o o # , , X p @.^ / ^ 9 - - , ; o > + o o o o o o o o o o o o o o o o + + + # # # # # . X o O # # X ^ o.a f o.r       . r f o.o.( d o o o o o o o o o o o o o o o o o o o o o ",
"D o.r   . X O X # > o o 4 < o .   = a H f H H H D D D D f f f f o.5 X # + > 3 o o # o + + o o o o o o o o o o o o o o o o o o o o o o o o o o o o o o o o o o o o o o o o o o o o o o o o o o o o o o o o o o o o o o o o o o o o o o o o o o o o o o o o o o o o o o o o o o o o o o o o o o o o o o o o o o o o o o o o o o o o o o o o o o o o o o o o o o o o o o o o o o o o o o o o o o o o o o o o o o o o o o o o o o o o o o o o o o o o o o o o o o o o o o o o o o o o o o o o o o o o o o o o o o o o o o o o o o o o o o o o o o o o o o o o o o o o o o o o o o o o o o o o o o o # # o o o o o o + + o o o o o + o # # o o o # o o o o o o o o o o o o o o o o o o o o o o o o o o o o o o o o o o o o o o o o o o o o o o o o o , , # o o o o o + + o o # o # # o # # o + + o + + + + + + + o o # o o o o o # # o # # o o , , o # # o o o o o o o o o o o o o o o o o o o o o o o o o o o o o o o o o o o o o o o o o o o o o o o o o o o o o o o o o o o o o o o o o o o o o o o o o o o o o o o o o o o o o o o o o o o o + + o o o o # o o o o o o o o o o o o o o o o o o o o o o o o o o o o o o o o o o o o + o X o o o + o o # # # o o o o o o o o o o o o o o o o o o o o o o o o # # # o o o o o o o o o o o o o o o o o o o o o o o o o o o o o o o o o o o o o o o o o o o o o o + + o o o , o , , , - - , 4 o o # # o o o o o o o X , - X ^ @./ / R 7 - O - X X o o o o o o o o o o o o o o o o o o + o o o O O O O # # + O o X X @.o.f o.o.r . # # . p o.a f f r   o o o o o o o o o o o o o o o o o o o o ",
"D D a f a f ^ r O 3 + > , , O d a y D H e $ $ e e e e e 1 1 3 3 # # # o o ; ; ; o # o + + o o o # # # # # # , , o o o o o o o o o o o o o o o o o o o o o o o o o o o o o o o o o o o o o o o o o o o o o o o o o o o o o o o o o o o o o o o o o o o o o o o o o o o o o o o o o o o o o o o o o o o o o o o o o o o o o o o o o o o o o o o o o o o o o o o o o o o o o o o o o o o o o o o o o o o o o o o o o o o o o o o o o o o o o o o o o o o o o o o o o o o o o o o o o o o o o o o o o o o o o o o o o o o o o o o o o o o o o o o o o o o o o o o o o o o o o o o o o o o o o o o o o o o o o o o o o o o o o o o o o o o o o o o o o o o o o o o o o o o o o o o o o o o o o o o o o o o o o o o o o o o o o o o o o o o o o o o o o o o o o o o o o o o o o o o o o o o o o o o o o # o o o o o o o o o o # # # # o o o o o o o o o o o o o o o o o o o o o o o o o o o o o o o o o o o o o o o o o o o o o o o o o o o o o o o o o o o o o o o o o o o o o o o o o o o o o o o o o o o o o o o o o o o o o o o o o o o o o o o o o o + o o o o o o o o o o o o o o o o o o o o o o o o o o o o o o o o o o o o o o o o o o o o o o o # # o o o o o o o o o o o o o o o o o o o o o o o o o o o o # # # # # # # # o o o o o o o o o o o o o o o o o o o o o o o o o o o o o o o o + o o o o o + + , 3 X X p ( R p R R / ^ , O # # # # o o o , o o o ; X 5 9 9 p - i ^ E R ^ p X o o o o o o o o o o o o o o o o o # # # O , o.o.r . # # o # # o 3 r 5 5 5 3 # # #   r o.a 2 1 5 o o o o o o o o o o o o o o o o o o o o o ",
"D D D D a H ^ p . + o 3 ; X X ^ o.D H f e .   . . . . . O O O O # # # o o ; ; , o o o + + o o o o o o o o o o o o o o o o o o o o o o o o o o o o o o o o o o o o o o o o o o o o o o o o o o o o o o o o o o o o o o o o o o o o o o o o o o o o o o o o o o o o o o o o o o o o o o o o o o o o o o o o o o o o o o o o o o o o o o o o o o o o o o o o o o o o o o o o o o o o o o o o o o o o o o o o o o o o o o o o o o o o o o o o o o o o o o o o o o o o o o o o o o o o o o o o o o o o o o o o o o o o o o o o o o o o o o o o o o o o o o o o o o o o o o o o o o o o o o o o o o o o o o o o o o o o o o o o o o o o o o o o o o o o o o o o o o o o o o o o o o o o o o o o o o o o o o o o o o o o o o o o o o o o o o o o o o o o o o o o o o o o o o o o o o o o o o o o o o o # # # # o o o o o o o o o # o o o o o o o o o o o o o o o o o o o o o o o o o o o o o o o o o o o o o o o o o o o o o o o o o o o o o o o o o o o o o o o o o o o o o o o o o o o o o o o o o o o o o o o o o o o o o o o o o o o o o o o o o o + + + + o o o o o o o o o o o o o o o o o o o o o o o o o o o o o o o o o o o o o o o o o o o o o o # # o o o o o o o o o o o o o o o o o o o o o o o o o o o o o o o o o o o o o o o o o o o o o o o o o o o o o o o o o o o o o o o o o o o o + + o o o o + + X ; o , ^ ^ / / +./ @./ 1 X # X o o 3 3 o o o o o o X ; X O X O E / / / @.d , > o o o o o o o o o o o o o o o o o # , X r @.@.p   X # . X X X # . . O o X o o X . p o.a $ . # O o o o o o o o o o o o o o o o o o o o o ",
"G D D D D D H p . + + 3 , # X d f a f f r # + + o o o o o o o o o o o o ; ; ; , o o o + o o o # o o o o o o o o o o o o o o o o o o o o o o o o o o o o o o o o o o o o o o o o o o o o o o o o o o o o o o o o o o o o o o o o o o o o o o o o o o o o o o o o o o o o o o o o o o o o o o o o o o o o o o o o o o o o o o o o o o o o o o o o o o o o o o o o o o o o o o o o o o o o o o o o o o o o o o o o o o o o o o o o o o o o o o o o o o o o o o o o o o o o o o o o o o o o o o o o o o o o o o o o o o o o o o o o o o o o o o o o o o o o o o o o o o o o o o o o o o o o o o o o o o o o o o o o o o o o o o o o o o o o o o o o o o o o o o o o o o o o o o o o o o o o o o o o o o o o o o o o o o o o o o o o o o o o o o o o o o o o o o o o o o o o o o ; ; ; ; o o o o o o # # # # o o o o o o o o o o ; o o o o o o o o o o o o o o o o o o o o o o o o o o o o o o o o o o o o o o o o o o o o o o o o o o o o o o o o o o o o o o o o o o o o o o o o o o o o o o o o o o o o o o o o o o o o o o o o o o o o o o o o o o o o o o o o o o o o o o o o o o o o o o o o o o o o o o o o o o o o o o o o o ; , ; ; o o o o o # # # o o o o o o o o o o o o o o o o o o o o o o o o o o o o o o o o o o o o o o o o o o o o o o o o o o o o o o o o o o o o o o o o o o o o + + + + o o o + o , o , 9 p p R R T E p < X , o o o + + o o , 3 3 > o 3 ; o , - p p p p ^ p o o o o o o o o o o o o o o o o o o o # # X , f a r $ # 2 , # , # . X o o o o o + # X r f p X X , # o o o o o o o o o o o o o o o o o o o o ",
"D D D D D D H r   o + . X , o # . . $ # o . o + + > 3 3 3 # o # o o o o ; ; , # o o o o o o o o o o o o o o o o o o o o o o o o o o o o o o o o o o o o o o o o o o o o o o o o o o o o o o o o o o o o o o o o o o o o o o o o o o o o o o o o o o o o o o o o o o o o o o o o o o o o o o o o o o o o o o o o o o o o o o o o o o o o o o o o o o o o o o o o o o o o o o o o o o o o o o o o o o o o o o o o o o o o o o o o o o o o o o o o o o o o o o o o o o o o o o o o o o o o o o o o o o o o o o o o o o o o o o o o o o o o o o o o o o o o o o o o o o o o o o o o o o o o o o o o o o o o o o o o o o o o o o o o o o o o o o o o o o o o o o o o o o o o o o o o o o o o o o o o o o o o o o o o o o o o o o o o o o o o o o o o o o o o o o o o o o o o o o o ; ; ; o o o o o # # # # # o o o o o o o o ; ; ; ; o o o o o o o o o o o o o o o o o o o o o o o o o o o o o o o o o o o o o o o o o o o o o o o o o o o o o o o o o o o o o o o o o o o o o o o o o o o o o o o o o o o o o o o o o o o o o o o o o o o o o o o o o o o o o o o o o o o o o o o o o o o o o o o o o o o o o o o o o o o o o o o o ; ; ; ; o o o o o o # # o o o o o o o o o o o o o o o o o o o o o o o o o o o o o o o o o o o o o o o o o o o o o o o o o o o o o o o o o o o o o o o o o o o o + + + + o o o + , 3 ; X , 2 - - - - 2 , X o , o + + o o + o o X , ; X o + + o X X , X X < , X o o o o o o o o o o o o o o o o o # o o o # $ $ r ^ f f f f ^ f , # # # o ; o o o X # , # X o , o o o o o o o o o o o o o o o o o o o o o ",
"f H a a a D H r   . # o X X , o # o $ # % + + + o o o o o o o o o ; ; ; , # o o o o o o o o o o o o o o o o o o o o o o o o o o o o o o o o o o o o o o o o o o o o o o o o o o o o o o o o o o o o o o o o o o o o o o o o o o o o o o o o o o o o o o o o o o o o o o o o o o o o o o o o o o o o o o o o o o o o o o o o o o o o o o o o o o o o o o o o o o o o o o o o o o o o o o o o o o o o o o o o o o o o o o o o o o o o o o o o o o o o o o o o o o o o o o o o o o o o o o o o o o o o o o o o o o o o o o o o o o o o o o o o o o o o o o o o o o o o o o o o o o o o o o o o o o o o o o o o o o o o o o o o o o o o o o o o o o o o o o o o o o o o o o o o o o o o o o o o o o o o o o o o o o o o o o o o o o o o o o o o o o o o o o o o o o o o o o o o ; ; o o o o o o o o o o o o o o o o o o o o o o o o o o o o o o o o o o o o o o o o o o o o o o o o o o o o o o o o o o o o o o o o o o o o o o o o o o o o o o o o o o o o o o o o o o o o o o o o o o o o o o o o o o o o o o o o o o o o o o o o o # o o o o o o o o o o o o o o o o o o o o o o o o o o o o o o o o o o o o o o o o o o o o o o ; ; o o o o o o o o o o o o o o o o o o o o o o o o o o o o o o o o o o o o o o o o o o o o o o o o o o o o o o o o o o o o o o o o o o o o o o o o o o o o o o o o o + o o o o + , ; o ; , , , ; X ; ; o ; 3 o o + o + 3 X X X X O X X X + 3 , # # X X # o o 3 o o o o o o o o o o o o o o o o o o o # # . $ f ^ f f f f ^ f , o o o o o o ; o # X X X o # o o o o o o o o o o o o o o o o o o o o o o ",
"$ e e e e a H r   . r d p X ; o + % o o o o o X o o o o o o o o ; > , , # # o o o o o o o o o o o o o o o o o o o o o o o o o o o o o o o o o o o o o o o o o o o o o o o o o o o o o o o o o o o o o o o o o o o o o o o o o o o o o o o o o o o o o o o o o o o o o o o o o o o o o o o o o o o o o o o o o o o o o o o o o o o o o o o o o o o o o o o o o o o o o o o o o o o o o o o o o o o o o o o o o o o o o o o o o o o o o o o o o o o o o o o o o o o o o o o o o o o o o o o o o o o o o o o o o o o o o o o o o o o o o o o o o o o o o o o o o o o o o o o o o o o o o o o o o o o o o o o o o o o o o o o o o o o o o o o o o o o o o o o o o o o o o o o o o o o o o o o o o o o o o o o o o o o o o o o o o o o o o o o o o o o o o o o o o o o o o o o o ; ; o o o o o o o o o o o o o o o o o o o o o o o o o o o o o o o o o o o o o o o o o o o o o o o o o o o o o o o o o o o o o o o o o o o o o o o o o o o o o o o o o o o o o o o o o o o o o o o o o o o o o o o o o o o o o o o o o o o o o o o o o # o o o o o o o o o o o o o o o o o o o o o o o o o o o o o o o o o o o o o o o o o o o o o o ; o o o o o o o o o o o o o o # o o o o o o o o o o o o o o o o o o o o o o o o o o o o o o o o o o o o o o o o o o o o o o o o o o o o o o o o o o o o o o o o o o o o o o o o o o o o o # , , 3 3 3 3 3 3 ; o X + o 3 o X p p E E ^ 5 X O X o 3 % , # # # o # o o o o o o o o o o o o o o o o o + + o + # # 3 r r r r r r r # ; ; ; ; , , , ; 3 3 # # # # o # o o o o o o o o o o o o o o o o o o o o ",
"O o . . $ a ^ r   $ f @.f X ; o o o o o o o o o o o o o o o o ; ; ; ; , o o o o o o o o o o o o o o o o o o o o o o o o o o o o o o o o o o o o o o o o o o o o o o o o o o o o o o o o o o o o o o o o o o o o o o o o o o o o o o o o o o o o o o o o o o o o o o o o o o o o o o o o o o o o o o o o o o o o o o o o o o o o o o o o o o o o o o o o o o o o o o o o o o o o o o o o o o o o o o o o o o o o o o o o o o o o o o o o o o o o o o o o o o o o o o o o o o o o o o o o o o o o o o o o o o o o o o o o o o o o o o o o o o o o o o o o o o o o o o o o o o o o o o o o o o o o o o o o o o o o o o o o o o o o o o o o o o o o o o o o o o o o o o o o o o o o o o o o o o o o o o o o o o o o o o o o o o o o o o o o o o o o o o o o o o o o o o o o o o o ; o o o o o o o o o o o o o o o o o o o o o o o o o o o o o o o o o o o o o o o o o o o o o o o o o o o o o o o o o o o o o o o o o o o o o o o o o o o o o o o o o o o o o o o o o o o o o o o o o o o o o o o o o o o o o o o o o o o o o o o o ; ; o o o o o o o o o o o o o o o o o o o o o o o o o o o o o o o o o o o o o o o o o o o o o o o o o o o o # o o ; ; ; ; o # # o o o o o o o o o o o o o o o o o o o o o o o o o o o o o o o o o o o o o o o o o o o o o o o o o o o o o o o o o o o o o o o o o o o o o o o o + + + o o o o o o o o o , , , , o 3 X o X - ^ @./ / / p X X o o o o o # o o X X # o o o o o o o o o o o o o o o o # , . o # . O . . X X X X o X ; ; o o ; X o X X o # # o o o o o o o o o o o o o o o o o o o o o o o o ",
"@ > + . , f o.p   . p f p X 4 3 o + # o o # o o # # # o + > > > ; ; o o o o o o o o o o o o o o o o o o o o o o o o o o o o o o o o o o o o o o o o o o o o o o o o o o o o o o o o o o o o o o o o o o o o o o o o o o o o o o o o o o o o o o o o o o o o o o o o o o o o o o o o o o o o o o o o o o o o o o o o o o o o o o o o o o o o o o o o o o o o o o o o o o o o o o o o o o o o o o o o o o o o o o o o o o o o o o o o o o o o o o o o o o o o o o o ; ; ; ; ; ; ; o o o o o o o o o o o ; ; ; ; o o o o o o o o o o # # # # # o o o o o o o o o o o o o o o o o o o o o o o o o o o o o o o o o o o o o o o o o o o o o o o o o o o o o o o o o o o o o o o o o o o o o o o o o o o o o o o o o o o o o o o o o o o o o o o o o o o o o o o o o o o o o o o o o ; o o o o o o o o o o o o o o o o o o o o o o o o o o o o o o o o o o o o o o o o o o o o o o o o o o o o o o o o o o o o o o o o o o o o o o o o o o o o o o o o o o o o o o o o o o o o o o o o o o o o o o o o o o o o o o o o o o o o o o o o ; ; o o o o o o ; o o o o o o o o o o o o o o o o o o o o o o o o o o o o o o o o o o o o o o o o o o o o o o o o ; ; ; ; o # # o o o o o o o o o o o o o o o o o o o o o o o o o o o o o o o o o o o o o o o o o o o o o o o o o o o o o o o o o o o o o o o o o o o o o o o o + o + + o o o o o + # o , , o , o 3 X , ; X p ^ E / / 9 X , o . + o + 3 ; , , # # o o o o o o o o o o o o o o o # X # o o # # # # # o # # # , ; > > , , , , , , o # # # # # o o o o o o o o o o o o o o o o o o o o o o ",
"+ + o # # # # # o o o o o o o o o o o o o o o o o o o o o o o o o o o o o o o o o o o o o o o o o o o o o o o o o o o o o o o o # # # , # # # # o o o o o o o o o o o o o o o o o o o o o o o o o o o o o o o o o o o o o o o o o o o o o o o o o o o o o o o o , # o o , ; ; 3 o o # X 3 o o o o o o o o o o o o o o o o o o o o o o o o o o o o o o o o o o o o o o o o o o o o o o o o o o o o o o o o o o o o o o o o o o o o o o o o o o o o o o o o o o o 3 > o ; ; ; ; ; , 3 3 3 3 > o ; o o o ; > 3 , , o # # # o . + + #   5 f ( 5 O # ; ; + + o o o o o o o o o o o o o o o o o o o o o o o o o o o o o o o o o o o o o o o o o o o o o o o o o o o o o o o o o o o o o o o o o o o o o o o o o o o o o o o o o o o o o o o o o o o o o o o o o o o o o o o o o o o o o o o o o o o o o o o o o o o o o o o o o o o o o o o o o o o o o o o o o o o o o o o o o o o o o o o o o o o o o o o o o o o o o o o o o o o o o o o o o o o o o o o o o o o o o o o o o o o o o o o o o o o o o o o o o o o o o o o o o o o o o o o o o o o o o o o o o o o o o o o o o o o o o o o o o o o o o o o o o o o o o o o o o o o o o # # , , # o o o o o o o o o # o o o o o o o o o o o o o o o o o o o o o o o o o o o o o o o o o o o o o o o o o o o o o o o o o o o o o o o o o o o o o o o o o o o o o o o o o o o o o o o o o o o o o o o o o o o o o o o ; X X X X o o o o o o o o o o o o # # # # # # # # o o o o o o o o o o o o o o o # o # o o o o o o o o o o o o o o o o o o o o o o o o o o o o o o o o o o o o o o o o o o ",
"o o o # o o o o o o o o o o o o o o o o o o o o o o o o o o o o o o o o o o o o o o o o o o o o o o o o o o o o o o o o o o o o o o o o o o o o o o o o o o o o o o o o o o o o o o o o o o o o o o o o o o o o o o o o o o o o o o o o o o o o o o o o o o o o X o o o o o o X o o o O # O o o + o o o o o o o o o o o o o o o o o o o o o o o o o o o o o o o o o o o o o o o o o o o o o o o o o o o o o o o o o o o o o o o o o o o o o o o o o o o o o o o o X X X X X O O . . O . O O . O O X ; > ; ; , , # o O X .   O   . . r p ^ r X , ; ; o + o o o o o o o o o o o o o o o o o o o o o o o o o o o o o o o o o o o o o o o o o o o o o o o o o o o o o o o o o o o o o o o o o o o o o o o o o o o o o o o o o o o o o o o o o o o o o o o o o o o o o o o o o o o o o o o o o o o o o o o o o o o o o o o o o o o o o o o o o o o o o o o o o o o o o o o o o o o o o o o o o o o o o o o o o o o o o o o o o o o o o o o o o o o o o o o o o o o o o o o o o o o o o o o o o o o o o o o o o o o o o o o o o o o o o o o o o o o o o o o o o o o o o o o o o o o o o o o o o o o o o o o o o o o o o o o o o o o o o o o o o o + + 3 3 o , % + o o o o o o o o o o o o o o o o o o o o o o o o o o o o o o o o o o o o o o o o o o o o o o o o o o o o o o o o o o o o o o o o o o o o o o o o o o o o o o o o o o o o o o o o o o o o o o o o o o o o o o o o o o o o o o o o o o o o o o o o o o o o o o o o o o o o o o o o o o o o o o o o o o o o o o o o o o o o o o o o o o o o o o o o o o o o o o o o o o o o o o ",
"o o o o o o o o o o o o o o o o o o o o o o o o o o o o o o o o o o o o o o o o o o o o o o o o o o o o o o o o o o o o o o o o o o o o o o o o o o o o o o o o o o o o o o o o o o o o o o o o o o o o o o o o o o o o o o o o o o o o o o o o o o o o o o o o 3 # # # # # , # # X 5 r r # # # # o o o o o o o o o o o o o o o o o o o o o o o o o o o o o o o o o o o o o o o o o o o o o o o o o o o o o o o o o o o o o o o o o o o o o o o o o o o o o o # $ e r p r r r r y y y y y y y a r o X , ; ; 3 X # # # r f a a a r r p e r 2 X o ; ; o o o o o o o o o o o o o o o o o o o o o o o o o o o o o o o o o o o o o o o o o o o o o o o o o o o o o o o o o o o o o o o o o o o o o o o o o o o o o o o o o o o o o o o o o o o o o o o o o o o o o o o o o o o o o o o o o o o o o o o o o o o o o o o o o o o o o o o o o o o o o o o o o o o o o o o o o o o o o o o o o o o o o o o o o o o o o o o o o o o o o o o o o o o o o o o o o o o o o o o o o o o o o o o o o o o o o o o o o o o o o o o o o o o o o o o o o o o o o o o o o o o o o o o o o o o o o o o o o o o o o o o o o o o o o o o o o o o o o o + + # # o + o o o o o o X . X o o o o o o o o o o o o o o o o o o o o o o o o o o o o o o o o o o o o o o o o o o o o o o o o o o o o o o o o o o o o o o o o o o o o o o o o o # # # # , , # # o o o o o o o o o o o o o o o o o o o o o o o o o o o o o o o o o o o o o o o o o o o o o o o o o o o o o o o o o o o o o o o o o o o o o o o o o o o o o o o o o o o o o o o o o o o o o o o o o o o o ",
"o o # o o o o o # # # # # # # # o o o o o o o o o o o o o o o o o o o o o o o o o o o o o o o o o o o o o o o o o o o o o o o o o o o o o o o o o o o o o o o o o o o o o o o o o o o o o o o o o o o o o o o o o o o o o o o o o o o o o o o o o o o o o o o o 3 o o # # . O . X . p ( ^ , o o o o o o o o o o o o o o o o o o o o o o o o o o o o o o o o o o o o o o o o o o o o o o o o o o o o o o o o o o o o o o o o o o o o o o o o o o o o o o o o o # . r H o.f f H o.H H H D D H H o.f # O o O o + O # $ $ a o.f H H o.o.f X X X o o ; ; o o o o o o o o o o o o o o o o o o o o o o o o o o o o o o o o o o o o o o o o o o o o o o o o o o o o o o o o o o o o o o o o o o o o o o o o o o o o o o o o o o o o o o o o o o o o o o o o o o o o o o o o o o o o o o o o o o o o o o o o o o o o o o o o o o o o o o o o o o o o o o o o o o o o o o o o o o o o o o o o o o o o o o o o o o o o o o o o o o o o o o o o o o o o o o o o o o o o o o o o o o o o o o o o o o o o o o o o o o o o o o o o o o o o o o o o o o o o o o o o o o o o o o o o o o o o o o o o o o o o o o o o o o o o o o o o o o o o o o o o + + + o X X o o o o X . + 3 o o o o o o o o o o o o o o o o o o o o o o o o o o o o o o o o o o o o o o o o o o o o o o o o o o o o o o o o o o o o o o o o o o o o o o o o # # # # , , # # o o o o o o o o o o o o o o o o o o o o o o o o o o o o o o o o o o o o o o o o o o o o o o o o o o o o o o o o o o o o o o o o o o o o o o o o o o o o o o o o o o o o o o o o o o o o o o o o o o o o ",
"o o o o o o o o # # # # # # , , o o o o o o o o o o o o o o o o o o o o o o o o o o o o o o o o o o o o o o o o o o o o o o o o o o o o o o o o o o o o o o o o o o o o o o o o o o o o o o o o o o o o o o o o o o o o o o o o o o o o o o o o o o o o o o o o + o # # # # # $ $ X r d d # o o o o o o o o o o o o o o o o o o o o o o o o o o o o o o o o o o o o o o o o o o o o o o o o o o o o o o o o o o o o o o o o o o o o o o o o o o o o o o o o o o o r f f a a a a a a a a a a f f p # o 3 o o 3 # . $ $ y H a D D a f a . . # 3 o ; ; o o o o o o o o o o o o o o o o o o o o o o o o o o o o o o o o o o o o o o o o o o o o o o o o o o o o o o o o o o o o o o o o o o o o o o o o o o o o o o o o o o o o o o o o o o o o o o o o o o o o o o o o o o o o o o o o o o o o o o o o o o o o o o o o o o o o o o o o o o o o o o o o o o o o o o o o o o o o o o o o o o o o o o o o o o o o o o o o o o o o o o o o o o o o o o o o o o o o o o o o o o o o o o o o o o o o o o o o o o o o o o o o o o o o o o o o o o o o o o o o o o o o o o o o o o o o o o o o o o o o o o o o o o o o o o o o o o o o ; o o + + # ; , ; ; X X o , # o o X o o o o o o o o o o o o o o o o o o o o o o o o o o o o o o o o o o o o o o o o o o o o o o o o o o o o o o o o o o o o o o o o o o o o o o o o # # # # # # # # o o o o o o o o o o o o o o o o o o o o o o o o o o o o o o o o o o o o o o o o o o o o o o o o o o o o o o o o o o o o o o o o o o o o o o o o o o o o o o o o o o o o o o o o o o o o o o o o o o o o ",
"o o o o o o o o o o o o o o o o o o o o o o o o o o o o o o o o o o o o o o o o o o o o o o o o o o o o o o o o o o o o o o o o o o o o o o o o o o o o o o o o o o o o o o o o o o o o o o o o o o o o o o o o o o o o o o o o o o o o o o o o o o o o o o o o o + + . $ r f f f f r . . O # o o o o o o o o o o o o o o o o o o o o o o o o o o o o o o o o o o o o o o o o o o o o o o o o o o o o o o o o o o o o o o o o o o o o o o o o o o o o o o o o o X o # X X X X O X . . . . . . X # . o + o o #   r f f H o.D D D a o.f X o + 3 o ; ; o o o o o o o o o o o o o o o o o o o o o o o o o o o o o o o o o o o o o o o o o o o o o o o o o o o o o o o o o o o o o o o o o o o o o o o o o o o o o o o o o o o o o o o o o o o o o o o o o o o o o o o o o o o o o o o o o o o o o o o o o o o o o o o o o o o o o o o o o o o o o o o o o o o o o o o o o o o o o o o o o o o o o o o o o o o o o o o o o o o o o o o o o o o o o o o o o o o o o o o o o o o o o o o o o o o o o o o o o o o o o o o o o o o o o o o o o o o o o o o o o o o o o o o o o o o o o o o o o o o o o o o o o o o o o o o o o o o o ; ; 3 , o o X X X X X 4 d d 5 # , , o o o o o o o o o o o o o o o o o o o o o o o o o o o o o o o o o o o o o o o o o o o o o o o o o o o o o o o o o o o o o o o o o o o o o o o o o o o o o o o o o o o o o o o o o o o o o o o o o o o o o o o o o o o o o o o o o o o o o o o o o o o o o o o o o o o o o o o o o o o o o o o o o o o o o o o o o o o o o o o o o o o o o o o o o o o o o o o o o o o o ",
"o o o o o o o o o o o o o o o o o o o o o o o o o o o o o o o o o o o o o o o o o o o o o o o o o o o o o o o o o o o o o o o o o o o o o o o o o o o o o o o o o o o o o o o o o o o o o o o o o o o o o o o o o o o o o o o o o o o o o o o o o o o o o o o o o o o . X p o.f o.o.p   O X # + o o o o o o o o o o o o o o o o o o o o o o o o o o o o o o o o o o o o o o o o o o o o o o o o o o o o o o o o o o o o o o o o o o o o o o o o o o o o o o o o 3 ; o X ; , ; o X . O . . . O O . . . O O . .   r f f a f a H H o.o.f X o o o X o o o o o o o o o o o o o o o o o o o o o o o o o o o o o o o o o o o o o o o o o o o o o o o o o o o o o o o o o o o o o o o o o o o o o o o o o o o o o o o o o o o o o o o o o o o o o o o o o o o o o o o o o o o o o o o o o o o o o o o o o o o o o o o o o o o o o o o o o o o o o o o o o o o o o o o o o o o o o o o o o o o o o o o o o o o o o o o o o o o o o o o o o o o o o o o o o o o o o o o o o o o o o o o o o o o o o o o o o o o o o o o o o o o o o o o o o o o o o o o o o o o o o o o o o o o o o o o o o o o o o o o o o o o o ; ; o o o o o o ; o ; # o o X X X X X X X 2 p p 2 O X X o o o o o o o o o o o o o o o o o o o o o o o o o o o o o o o o o o o o o o o o o o o o o o o o o o o o o o o o o o o o o o o o o o o o o o o o o o o o o o o o o o o o o o o o o o o o o o o o o o o o o o o o o o o o o o o o o o o o o o o o o o o o o o o o o o o o o o o o o o o o o o o o o o o o o o o o o o o o o o o o o o o o o o o o o o o o o o o o o o o o ",
"o o o o o o o o o o o o o o o o o o o o o o o o o o o o o o o o o o o o o o o o o o o o o o o o o o o o o o o o o o o o o o o o o o o o o o o o o o o o o o o o o o o o o o o o o o o o o o o o o o o o o o o o o o o o o o o o o o o o o o o o o o o o o o o o # . 3 r r p f d f f 6 O 6 + X o o o o o o o o o o o o o o o o o o o o o o o o o o o o o o o o o o o o o o o o o o o o o o o o o o o o o o o o o o o o o o o o o o o o o o o o o o o o o o o o o o o ; ; ; o o , # 3 r r r r % o # r r # . # r r r o.H a p y y r p a r . o + o # o o o o o o # # o o o o o o o o o o o o o o o o o o o o o o o o o o o o o o o o o o o o o o o o o o o o o o o o o o o o o o o o o o o o o o o o o o o o o o o o o o o o o o o o o o o o o o o o o o o o o o o o o o o o o o o o o o o o o o o o o o o o o o o o o o o o o o o o o o o o o o o o o o o o o o o o o o o o o o o o o o o o o o o o o o o o o o o o o o o o o o o o o o o o o o o o o o o o o o o o o o o o o o o o o o o o o o o o o o o o o o o o o o o o o o o o o o o o o o o o o o o o o o o o o o o o o o o o o o o o o o o o o o o o ; ; o o o o o o ; # , , , < 5 r p p i i p u E ^ p r r < ; o o o o o o o o o o o o o o o o o o o o o o o o o o o o o o o o o o o o o o o o o o o o o o o o o o o o o o o o o o o o o o o o o o o o o o o o o o o o o o o o o o o o o o o o o o o o o o o o o o o o o o o o o o o o o o o o o o o o o o o o o o o o o o o o o o o o o o o o o o o o o o o o o o o o o o o o o o o o o o o o o o o o o o o o o o o o o o o o o o o ",
"o o o o o o o o o o o o o o o o o o o o o o o o o o o o o o o o o o o o o o o o o o o o o o o o o o o o o o o o o o o o o o o o o o o o o o o o o o o o o o o o o o o o o o o o o o o o o o o o o o o o o o o o o o o o o o o o o o o o o o o o o o o o o o o # #   r o.@.#     . . O o o o o X o o o o o o o o o o o o o o o o o o o o o o o o o o o o o o o o o o o o o o o o o o o o o o o o o o o o o o o o o o o o o o o o o o o o o o o o o o o o o o o o # # # # o o # # . f o.a f o.r   $ o.%.r   $ f o.a a f $         . . . o o o o o o o o o o o o o o o o o o o o o o o o o o o o o o o o o o o o o o o o o o o o o o o o o o o o o o o o o o o o o o o o o o o o o o o o o o o o o o o o o o o o o o o o o o o o o o o o o o o o o o o o o o o o o o o o o o o o o o o o o o o o o o o o o o o o o o o o o o o o o o o o o o o o o o o o o o o o o o o o o o o o o o o o o o o o o o o o o o o o o o o o o o o o o o o o o o o o o o o o o o o o o o o o o o o o o o o o o o o o o o o o o o o o o o o o o o o o o o o o o o o o o o o o o o o o o o o o o o o o o o o o o o o o o o o o o o o o o X X o 3 X < X , - 2 ^ o.^ ^ ^ ^ / ^ o.o.^ o.^ 1 , o o o o o o o o o o o o o o o o o o o o o o o o o o o o o o o o o o o o o o o o o o o o o o o o o o o o o o o o o o o o o o o o o o o o o , , o o o o o o o o o o o o o o o o o o o o o o o o o o o o o o o o o o o o o o o o o o o o o o o o o o o o o o o o o o o o o o o o o o o o o o o o o o o o o o o o o o o o o o o o o o o o o o o o o o o o o o o o o o o o ",
"o o o o o o o o o o o o o o o o o o o o o o o o o o o o o o o o o o o o o o o o o o o o o o o o o o o o o o o o o o o o o o o o o o o o o o o o o o o o o o o o o o o o o o o o o o o o o o o o o o o o o o o o o o o o o o o o o o o o o o o o o o o o o o o # . $ p ^ o.r . . . o o o ; o o o o o o o o o o o o o o o o o o o o o o o o o o o o o o o o o o o o o o o o o o o o o o o o o o o o o o o o o o o o o o o o o o o o o o o o o o o o o o o o o o o # # # # o o # # $ f f f ^ o.r . 1 f ( r . $ f f f f ^ , o + % + X X o o + + # o o o o o o o o # o o o o o o o o o o o o o o o o o o o o o o o o o o o o o o o o o o o o o o o o o o o o o o o o o o o o o o o o o o o o o o o o o o o o o o o o o o o o o o o o o o o o o o o o o o o o o o o o o o o o o o o o o o o o o o o o o o o o o o o o o o o o o o o o o o o o o o o o o o o o o o o o o o o o o o o o o o o o o o o o o o o o o o o o o o o o o o o o o o o o o o o o o o o o o o o o o o o o o o o o o o o o o o o o o o o o o o o o o o o o o o o o o o o o o o o o o o o o o o o o o o o o o o o o o o o o o o o o o o o o o o o o 3 o o o X < - 2 X - E E E / E o.E ! E ^ E ^ ^ 2 , o o o o o o o o o o o o o o o o o o o o o o o o o o o o o o o o o o o o o o o o o o o o o o o o o o o o o o o o o o o o o o o o o o o o o , , o o o o o o o o o o o o o o o o o o o o o o o o o o o o o o o o o o o o o o o o o o o o o o o o o o o o o o o o o o o o o o o o o o o o o o o o o o o o o o o o o o o o o o o o o o o o o o o o o o o o o o o o o o o o ",
"o o o o o o o o o o o o o o o o o o o o o o o o o o o o o o o o o o o o o o o o o o o o o o o o o o o o o o o o o o o o o o o o o o o o o o o o o o o o o o o o o o o o o o o o o o o o o o o o o o o o o o o o o o o o o o o o o o o o o o o o o o o o o o o # p a p X , # X # # # o , ; ; ; o o o o o o o o o o o o o o o o o o o o o o o o o o o o o o o o o o o o o o o o o o o o o o o o o o o o o o o o o o o o o o o o o o o o o o o o o o o o o o o o o o o o o ; ; o o . 3 5 1 r 5 , . $ r r # . $ f f p 1 r o o o + o # # # + + # o o o o o o o o o # o o o o o o o o o o o o o o o o o o o o o o o o o o o o o o o o o o o o o o o o o o o o o o o o o o o o o o o o o o o o o o o o o o o o o o o o o o o o o o o o o o o o o o o o o o o o o o o o o o o o o o o o o o o o o o o o o o o o o o o o o o o o o o o o o o o o o o o o o o o o o o o o o o o o o o o o o o o o o o o o o o o o o o o o o o o o o o o o o o o o o o o o o o o o o o o o o o o o o o o o o o o o o o o o o o o o o o o o o o o o o o o o o o o o o o o o o o o o o o o o o o o o o o o o o o o o o o o o o o o o o o o o + + o # , d ^ E E R / / E / E ! ! ! E E E ^ E 2 , o o o o o o o o o o o o o o o o o o o o o o o o o o o o o o o o o o o o o o o o o o o o o o o o o o o o o o o o o o o o o o o o o o o o o # # o o o o o o o o o o o o o o o o o o o o o o o o o o o o o o o o o o o o o o o o o o o o o o o o o o o o o o o o o o o o o o o o o o o o o o o o o o o o o o o o o o o o o o o o o o o o o o o o o o o o o o o o o o o o ",
"o o o o o o o o o o o o o o o o o o o o o o o o o o o o o o o o o o o o o o o o o o o o o o o o o o o o o o o o o o o o o o o o o o o o o o o o o o o o o o o o o o o o o o o o o o o o o o o o o o o o o o o o o o o o o o o o o o o o o o o o o o o o o o o # a ^ p   . o X o o # o o ; o o o o o o o o o o o o o o o o o o o o o o o o o o o o o o o o o o o o o o o o o o o o o o o o o o o o o o o o o o o o o o o o o o o o o o o o o o o o o o o o o o o ; ; ; ; ; ; ; ; o # X O X X X o O X . . . $ f ^ r . , X o o o o o + + o o o o o o o o o o o o o o o o o o o o o o o o o o o o o o o o o o o o o o o o o o o o o o o o o o o o o o o o o o o o o o o o o o o o o o o o o o o o o o o o o o o o o o o o o o o o o o o o o o o o o o o o o o o o o o o o o o o o o o o o o o o o o o o o o o o o o o o o o o o o o o o o o o o o o o o o o o o o o o o o o o o o o o o o o o o o o o o o o o o o o o o o o o o o o o o o o o o o o o o o o o o o o o o o o o o o o o o o o o o o o o o o o o o o o o o o o o o o o o o o o o o o o o o o o o o o o o o o o o o o o o o o o o o o o o o o o o o o o o o o X , ^ / ^ / E +./ E ! E E / ! E E a E E , , o o o o o o o o o o o o o o o o o o o o o o o o o o o o o o o o o o o o o o o o o o o o o o o o o o o o o o o o o o o o o o o o o o o o o # # o o o o o o o o o o o o o o o o o o o o o o o o o o o o o o o o o o o o o o o o o o o o o o o o o o o o o o o o o o o o o o o o o o o o o o o o o o o o o o o o o o o o o o o o o o o o o o o o o o o o o o o o o o o o ",
"o o o o o o o o o o o o o o o o o o o o o o o o o o o o o o o o o o o o o o o o o o o o o o o o o o o o o o o o o o o o o o o o o o o o o o o o o o o o o o o o o o o o o o o o o o o o o o o o o o o o o o o o o o o o o o o o o o o o o o o o o o o o o o o # p f p . # 3 o o o o ; o o o o o o o o o o o o o o o o o o o o o o o o o o o o o o o o o o o o o o o o o o o o o o o o o o o o o o o o o o o o o o o o o o o o o o o o o o o o o o o o o o o o o o # o o ; + + + o # o o ; > > > o # . o O # f o.p . , ; 3 o o # o o o o o o o o o o o o o o o o o o o o o o o o o o o o o o o o o o o o o o o o o o o o o o o o o o o o o o o o o o o o o o o o o o o o o o o o o o o o o o o o o o o o o o o o o o o o o o o o o o o o o o o o o o o o o o o o o o o o o o o o o o o o o o o o o o o o o o o o o o o o o o o o o o o o o o o o o o o o o o o o o o o o o o o o o o o o o o o o o o o o o o o o o o o o o o o o o o o o o o o o o o o o o o o o o o o o o o o o o o o o o o o o o o o o o o o o o o o o o o o o o o o o o o o o o o o o o o o o o o o o o o o o o o o o o o o o o o o o o o o o + o o X X ^ / E / E ! ! E ! E E E E i u u p p - , o o o o o o o o o o o o o o o o o o o o o o o o o o o o o o o o o o o o o o o o o o o o o o o o o o o o o o o o o o o o o o o o o o o o o # # o o o o o o o o o o o o o o o o o o o o o o o o o o o o o o o o o o o o o o o o o o o o o o o o o o o o o o o o o o o o o o o o o o o o o o o o o o o o o o o o o o o o o o o o o o o o o o o o o o o o o o o o o o o o "
};
